/* XPM */
static const char *e[] = {
/* columns rows colors chars-per-pixel */
"6 6 31 1 ",
"  c #443F39",
". c #453F39",
"X c #45403A",
"o c #46403A",
"O c #47413A",
"+ c #47413B",
"@ c #4B433C",
"# c #4C443D",
"$ c #4D463F",
"% c #4E463F",
"& c #4F463F",
"* c #52473F",
"= c #4C4741",
"- c #524841",
"; c #544A43",
": c #514B45",
"> c #524B44",
", c #534B44",
"< c #554D45",
"1 c #554D46",
"2 c #574E46",
"3 c #574E47",
"4 c #574F47",
"5 c #584B43",
"6 c #584D45",
"7 c #5A4D45",
"8 c #584E46",
"9 c #564F48",
"0 c #585049",
"q c #5A524A",
"w c #5D564E",
/* pixels */
"94q+.9",
"wq4-@4",
"::=*5%",
"++:466",
";+%q44",
"6%%++."
};
