/* XPM */
static const char *n[] = {
/* columns rows colors chars-per-pixel */
"6 6 36 1 ",
"  c #3E3650",
". c #2F2F63",
"X c #342F66",
"o c #33326E",
"O c #263373",
"+ c #2A3875",
"@ c #2F307C",
"# c #363B73",
"$ c #442D4B",
"% c #43334E",
"& c #523142",
"* c #48315E",
"= c #4A355C",
"- c #413562",
"; c #463766",
": c #3C4476",
"> c #32467C",
", c #3F4079",
"< c #3C477E",
"1 c #434071",
"2 c #3D4F84",
"3 c #384D95",
"4 c #325097",
"5 c #355195",
"6 c #3D5896",
"7 c #3B5499",
"8 c #3F58A1",
"9 c #3859A4",
"0 c #495C90",
"q c #41569C",
"w c #405B9F",
"e c #4665AE",
"r c #526DA0",
"t c #5673AA",
"y c #4F71B5",
"u c #5070B4",
/* pixels */
";%5uqe",
"@O4,=3",
"*<9o&#",
"87y2 0",
"1-w6>r",
"X$+.:t"
};
