/* XPM */
static const char *s[] = {
/* columns rows colors chars-per-pixel */
"8 8 58 1 ",
"  c #29271D",
". c #29271E",
"X c #2E2B22",
"o c #2F2C22",
"O c #2F2C23",
"+ c #322F23",
"@ c #302E24",
"# c #312E24",
"$ c #333024",
"% c #333126",
"& c #343126",
"* c #353227",
"= c #363326",
"- c #373427",
"; c #353228",
": c #353329",
"> c #363329",
", c #36342A",
"< c #37342A",
"1 c #383528",
"2 c #3A3729",
"3 c #38352A",
"4 c #38352B",
"5 c #39362A",
"6 c #3B382A",
"7 c #3B382D",
"8 c #3C392C",
"9 c #3C392D",
"0 c #3C392E",
"q c #3D3A2F",
"w c #3F3C2E",
"e c #3E3B31",
"r c #403D2E",
"t c #413E2F",
"y c #403D30",
"u c #403D31",
"i c #413E30",
"p c #413E31",
"a c #403D33",
"s c #423F33",
"d c #413F34",
"f c #444031",
"g c #454232",
"h c #434034",
"j c #434035",
"k c #444135",
"l c #454236",
"z c #454337",
"x c #494535",
"c c #4E4A38",
"v c #4E4B3D",
"b c #504D3D",
"n c #4F4C40",
"m c #504D40",
"M c #535042",
"N c #565346",
"B c #585445",
"V c #615D4F",
/* pixels */
"::aqja<z",
"&+aMjazb",
"xct-ggt4",
"6aw&4$4q",
"&7va&X4q",
"<<j7:4oo",
"Nbq@za@o",
"VB<.en.."
};
