/* XPM */
static const char *w[] = {
/* columns rows colors chars-per-pixel */
"6 5 24 1 ",
"  c #293A53",
". c #2A3B54",
"X c #2A3C54",
"o c #2C3E57",
"O c #2D3E57",
"+ c #2E3F58",
"@ c #2E3F59",
"# c #2F4059",
"$ c #2F415A",
"% c #31425B",
"& c #32435C",
"* c #32445D",
"= c #33445D",
"- c #33455E",
"; c #34455F",
": c #384962",
"> c #384963",
", c #384A63",
"< c #394A63",
"1 c #394A64",
"2 c #3A4B64",
"3 c #3A4B65",
"4 c #3B4C66",
"5 c #3D4E67",
/* pixels */
"224o :",
"52;=#=",
"@@=;:;",
"%.&4::",
":#@ooX"
};
