/* XPM */
static const char *s[] = {
/* columns rows colors chars-per-pixel */
"512 512 228 2 ",
"   c #040301",
".  c #090601",
"X  c #070802",
"o  c #0C0B03",
"O  c #0D0D09",
"+  c #080708",
"@  c #110E03",
"#  c #110E0A",
"$  c #0F1004",
"%  c #0F100A",
"&  c #141205",
"*  c #191505",
"=  c #1C1906",
"-  c #14130B",
";  c #19160C",
":  c #17180B",
">  c #1C1A0D",
",  c #120F10",
"<  c #161511",
"1  c #191611",
"2  c #171812",
"3  c #1C1B13",
"4  c #1E1D19",
"5  c #1A1619",
"6  c #0E0E10",
"7  c #211C06",
"8  c #211D0D",
"9  c #211E13",
"0  c #211E19",
"q  c #281F18",
"w  c #1F2013",
"e  c #1F201A",
"r  c #1F200E",
"t  c #24210E",
"y  c #29240E",
"u  c #2B270D",
"i  c #242214",
"p  c #2A2515",
"a  c #2D2916",
"s  c #25231B",
"d  c #29261B",
"f  c #27281B",
"g  c #2D2A1C",
"h  c #272914",
"j  c #312C16",
"k  c #322D1C",
"l  c #353116",
"z  c #35311D",
"x  c #39341E",
"c  c #3D391E",
"v  c #393417",
"b  c #302E15",
"n  c #221F20",
"m  c #262521",
"M  c #292621",
"N  c #272822",
"B  c #2D2B23",
"V  c #2E2D29",
"C  c #2A2728",
"Z  c #312E23",
"A  c #312E29",
"S  c #382F28",
"D  c #2F3023",
"F  c #2F302A",
"G  c #353224",
"H  c #3A3524",
"J  c #3D3925",
"K  c #34332B",
"L  c #39362B",
"P  c #37382A",
"I  c #3D3A2C",
"U  c #363531",
"Y  c #393631",
"T  c #373832",
"R  c #3D3B33",
"E  c #3E3D39",
"W  c #3A3738",
"Q  c #322F31",
"!  c #413B1E",
"~  c #413C25",
"^  c #423D2C",
"/  c #413E33",
"(  c #413E39",
")  c #3F4032",
"_  c #3F4039",
"`  c #454126",
"'  c #494426",
"]  c #45412D",
"[  c #49442D",
"{  c #4D492E",
"}  c #514C2E",
"|  c #454234",
" . c #4A4534",
".. c #4D4935",
"X. c #45433B",
"o. c #49463B",
"O. c #4D4A3C",
"+. c #474838",
"@. c #514C35",
"#. c #524D3C",
"$. c #514738",
"%. c #555135",
"&. c #595436",
"*. c #55513D",
"=. c #5A543D",
"-. c #5D593D",
";. c #5D5836",
":. c #545034",
">. c #615C3E",
",. c #61573C",
"<. c #413F40",
"1. c #464541",
"2. c #494641",
"3. c #4D4B43",
"4. c #4E4D49",
"5. c #474842",
"6. c #514E44",
"7. c #514E49",
"8. c #4F5043",
"9. c #555244",
"0. c #5A5543",
"q. c #5D5945",
"w. c #55534B",
"e. c #59564C",
"r. c #5D5A4C",
"t. c #57584A",
"y. c #565551",
"u. c #595651",
"i. c #5D5B53",
"p. c #5E5D59",
"a. c #575851",
"s. c #625D45",
"d. c #625D4B",
"f. c #615E53",
"g. c #625F59",
"h. c #5F6057",
"j. c #656145",
"k. c #696346",
"l. c #65614D",
"z. c #6A644D",
"x. c #6D694D",
"c. c #6D6946",
"v. c #716B4E",
"b. c #656254",
"n. c #6A6553",
"m. c #6D6955",
"M. c #65635A",
"N. c #69665C",
"B. c #6D6A5C",
"V. c #67685A",
"C. c #726C55",
"Z. c #726D5B",
"A. c #757155",
"S. c #797356",
"D. c #75715C",
"F. c #7A745D",
"G. c #7D795D",
"H. c #75714B",
"J. c #666561",
"K. c #6A6661",
"L. c #6D6B62",
"P. c #6C6A66",
"I. c #716E63",
"U. c #726F68",
"Y. c #757264",
"T. c #7A7563",
"R. c #7D7965",
"E. c #75736A",
"W. c #79766B",
"Q. c #7D7A6C",
"!. c #77786B",
"~. c #7A7770",
"^. c #7D7B72",
"/. c #797873",
"(. c #6F7062",
"). c #817C5E",
"_. c #827C65",
"`. c #827D6B",
"'. c #807768",
"]. c #817E72",
"[. c #827F78",
"{. c #7F8072",
"}. c #86825E",
"|. c #858165",
" X c #898365",
".X c #86816D",
"XX c #89846D",
"oX c #8C886E",
"OX c #858274",
"+X c #8A8573",
"@X c #8D8975",
"#X c #868379",
"$X c #89867A",
"%X c #8C8A7C",
"&X c #87887A",
"*X c #918C75",
"=X c #928D7B",
"-X c #908776",
";X c #95917E",
":X c #99937E",
">X c #908A6C",
",X c #8E8C82",
"<X c #8A8780",
"1X c #918E82",
"2X c #928F88",
"3X c #959284",
"4X c #9A9584",
"5X c #9D9986",
"6X c #969489",
"7X c #99968A",
"8X c #9C998C",
"9X c #97988A",
"0X c #9E9B91",
"qX c #8F9082",
"wX c #A29D8C",
"eX c #A09B87",
"rX c #A19E92",
"tX c #A7A28E",
"yX c #A4A195",
"uX c #A9A493",
"iX c #A9A69A",
"pX c #ABAA9D",
"aX c #A7A698",
"sX c #B1AC9A",
"dX c #AEADA1",
"fX c #B1AEA3",
"gX c #B2B1A4",
"hX c #AFB0A2",
/* pixels */
"G > # 3 s s m C m C V V L L g i I L g Z R ( 5.X.2.4.2.e.O.H J 0.6.g d g 9 8 ^ s.Z.R.`._.`.`.`.T.s.C.D.*.L g 3 s s V R 6.n.m.s.$.9 * - 9 m C K R | X.3.9.r.f.g.b.f.f.i.e.w.6.3.3.3.X.( R B - - s k k k k k k j k k z H ^ ]  ...#.%... .] H z G G ^ ^ L k d d d a k H J L G d < o X o - 3 s M B Z Y R X.X.o.o.2.3.3.7.w.w.3.X.X.3.3.3.2.o.2.o.L i o . 9 G B g 9   1 0 K ( E Y A M 4 1 < O o X O # 1 ; ; ; 1 3 s B K Y ( X.X.X.5.2.1.1.1.1.1.5.5.5.X.o.2.2.5.5.5.5.1.1.1.1.1.X.E Y B > o > K X.8.#.9.O.I a ; o @ 3 d Z C s m M m m m 4 m m m C s 1   ; L O.o.O.O.| B o s R E X.E 2.2.O.o.9 | | s 5.4.X.7.w.O.o.O.i I r.L d E X.2.2.5.5.1.1.1.1.X.X.X.X.X.X.E ( X.( E X._ R K G L R O.o.I o.Z.OXOX%X$X%X%X=X6X6X3X3X$X$XOX`.W.Y.m.n.b.q.9.o./ L A M 3 . o ; d I ..@.9.9.9.6.6.| I J G I I L d ; o                   X O 1 4 3 3 3 3 > 3 s g V B M M s 3 - o     o w a a a d g B B d 1 # X   . 1 d B U U U U U U U U K K K K V V V V G G G G A K V K V V V K K K D V K K V A K U L L L L L L L L K V g g g d M M M M M M M M M 0 3 M M 3 0 s m M s s s 3 < o     o s ",
"Z ; o 1 s s m m m C C V A g d d I G i Z R R ( ( X.X.3.o.| k | q.o.d 9 9 * p ..m.Z.T._.R.R.`.T.Z.s.C.l.~ i 9 1 3 ; 3 d / q.m.l.=.g ; - 9 s C K L E | O.9.e.r.i.i.i.r.e.w.6.3.o.o.X.( R L M - # 9 k z z z x z z x H H ~ ]  ...#.#.#... .^ H z z G ^ ^ I G k k Z G J J ^ I Z i - o o O < 3 s s B B K L R ( ( X.X.o.3.3.3.3.X.( | X.o.5.o.o.3.3.( K 9 o o i g d 3 @ . - m K Y R K s 4 4 3 < - - < 3 0 4 4 9 s s B K Y R X.X.X.o.5.3.3.3.3.2.3.5.1.1.X.o.5.2.5.5.o.5.1.1.1.1.1.X.E T V s - & > g ) 8.O.#.O.| G 9 @   - 9 C C m m m s m s m m m m 4 ; o > I o.| O.| L i - V E E X.X.X.X.o.G G O.g R 3.4.4.3.2.O.o.a H r.L s L X.2.2.X.X.X.X.X.X.X.X.X.E X.X.X.( X.X.E X.X.X.X.5.X.| R O.e.9./ / b.#XOX$X%X%X=X6X6X3X3X$X$XOXQ.R.Y.m.n.b.r.9.| / L A M 3 X . ; g ^ O.#.9.9.9.#.#.| J H H I I G i - X                 X O - 3 3 3 3 3 3 3 i d B Z V M s 4 1 - o     & s i a a d d d s 3 # .   . - 0 B K L U Y R T R U U K K K A V V V V V B V V V V V V V V V V V V K K V A A K K U R R R L G g d s i 4 > - - - 1 4 s m M B M M C 0 0 B M 3 0 M m m s s s 3 < o     % m ",
"g & o 1 s s s s m m m B M 3 9 G I g 3 B Y K Y R E X.X.| Z k O.r.I 9 ; ; ; H q.Z.D.T.R.R.R.R.D.n.q.n.#.p ; 3 4 1 # O ; g | d.m.s.J > - 9 s M K K R R X.O.9.w.e.e.r.r.w.9.3.o.X.X.R E L A M - o 3 k z H H H H H H J J ^  ...#.$..... .] J z k z G I ^ / I G G L I ^ ] / I B 3 O X O % < 2 4 s s s B A K Y R R ( X.X.X.X.X.| ( ( X.X.o.5.5.3.9.3.X.L 3 X @ d B d 9 . . - s K Y K M 4 4 4 4 3 3 4 s s s s s M V K Y R ( 1.5.o.o.5.5.3.3.2.2.3.3.5.1.X.5.5.5.2.5.o.5.X.1.1.X.1.X.E R R F s ; o & i G | O.O.o.| I N - o o 4 B s s m s m s m m m s 3 ; @ 3 I  .| | L g & i L E E X.X.X.X.X.i | | i 5.5.1.w.2.X.| L a r.| i R 2.E X.X.X.R R Y Y Y R R R R E E R R ( ( X.X._ X.X.2.2.X.| R G R O.o.O.M.OX#X%X%X%X3X6X3X%X$X$XOXQ.E.I.m.m.b.r.9.X./ L Z s 1   . 3 Z | O.*.#.9.6.O.../ H H J I H g > o X               + o - < 3 4 4 1 1 3 9 i B Z Z B M s 4 < O .   X ; d i i i i i 9 ; # .     - 0 B G L U U R T T Y L K K K A V V V B B B B C V B C V V V V A A V V V K V V V K L L K F s d i 3 3 4 4 4 d i 9 3 3 1 3 0 M B B B B 0 0 A B 9 s M M m s s s 4 2 O     O m ",
"d & @ 1 4 4 4 4 4 4 4 m 0 ; i I L i 3 B K A K Y R ( R I p J *.0.H ; @ * a ..d.C.D.T.R.R.R.R.Z.d.q.d.J > > 4 s 3 < O - 3 Z #.n.d.| 9 - 0 m B K K R R | O.6.9.w.w.w.w.9.6.3.X.X.( Y R K B M - . 3 p k H H H H x J H J ^ ]  ..... . .] J H k g k G H I | ^ I L ^ |  . .| L g ; o   O O - < 1 3 0 0 M B A K L L R E R ( X.X.| ( X.o.5.3.3.3.6.w.w.6.( B @ X ; B Z i ; . . 1 B K A B s s s s 4 4 s M B B B V A K Y R ( X.5.5.o.o.o.o.1.1.1.1.5.5.1.1.5.5.5.5.2.5.5.5.X.X.X.X.X.X.E E E R K g 4 - - & d Z I / | o.E Z 9 o o 3 m s s s s s m m m 4 < 1 - 9 I o.| | G i o B L R E E X._ ( L B O.g L X.X.1.3.5.O.L g #.e.g Z o.X.E 1.L L L K B d M N B A A K K K Y R ( X.X.X.1.1.1.2.4.9.6.O.| O.9.| 6.E.OX$X$X$X3X3X=X%X$X#X`.W.E.I.B.B.b.r.9.o./ L V s ;   o i G | O.#.#.#.#.O.o.I H H J H G i - o               + O O - < 3 3 3 1 1 3 9 d B Z Z B M s 4 1 O X   X ; d i i i i 9 ; o X     o 3 M A K L U U Y Y U K K V K A A V V V B B B B C V B B V V V V A K K K D V A V V K K N 4 - - 1 s G L L K V Z G K K B 9 3 0 M B B B B s 0 Z B 0 d B C N s m m 4 3 O X   o s ",
"d - # 1 3 1 2 2 2 3 3 4 3 ; d R B 9 9 B B V A K R L R g d H q.#.H * @ 8 J 0.l.n.Z.D.Y.T.T.Y.n.q.s.#.p & 3 4 s 3 3 - - - 9 I s.d.#.g ; 0 M A U L R R ) X.3.9.w.w.9.9.9.3.O.X.| ( L R Z d m - . ; i k z z G G G H H H I ^ ] ] ] ] I J G z g a k G G I / | / ^ |  . .| ^ G d - X   O O O % < < 3 4 0 s B A A K K L L R X.o.X.X.X.O.4.6.4.4.6.w.w.6.o.L 9 o . 9 B i d & . o 1 B A M s m m m s s M V K K K L Y R E E X.o.5.5.o.o.o.o.2.2.5.5.5.1.X.X.5.5.5.5.5.5.o.o.X.X.X.X.X.( E E R R R R L N 4 - @ & > i d K R X.R s o o 4 m s m m s m m m 4 - 1 - i R O.| I g > ; K K R X.E X._ R g I | i 3.X.3.3.X.o.X.Z R e.g G ( X.( X.E D N s 9 3 ; ; ; 1 3 3 9 s M B A K L T ( 1.2.5.5.2.4.6.r.9.| I L L 3.W.#X$X$X%X1X,X%X#X#X^.W.E.Y.L.B.n.d.9.o./ L V s -   @ d L | ..#...O.O. .| I G H H G g i - o               O O < < 3 3 1 - - < 4 9 d B Z V B N s 4 1 O X   o ; s i i 9 3 ; o X     O 1 s N K L K U U L K K K K K K K V V V V B B C C C C C V V V V V V V K K K V B B s 1 - ; s L R L B 9 ; 3 i s > 3 s B Z N s s M V B B B s s B B 9 d B B C m C m s 4 - o X o s ",
"d ; @ ; < - - < < 3 3 1 ; ; s L d 3 s B B A K K L K K g i I 0.@.H 8 8 k  .q.l.Z.Z.Z.D.D.D.Z.f.9.d.I ; & 1 4 4 4 2 - - - ; k *.b.0.H 3 9 B K U E E E | | O.3.7.6.6.6.6.O.o.X.( ( Y Y V d s - . @ i a k z G G G G G H J J J J H H G z k a a a a k G J /  . . .o.O.O.| I Z i @ X   X + X O O O < 2 4 s M B V Z K K R ( o.3.2.X.o.O.4.6.4.6.6.w.9.6.6.R B ;   o i d d 9 &   . 0 M 0 4 0 m m s s C K K L Y R E ( X.( X.5.5.3.5.o.o.o.2.2.2.5.1.1.5.5.5.5.o.5.5.5.o.o.X.X.X.X.( E E E E R R R R L K V 9 > - & @ - s K R ( s o - s m m M m m m m 3 # 4 > i / O.| L d ; s L L T X.E X._ | d X.L L o.3.3.4.3.3.R d w.| d L X.5.X.L N N 3 - & & - - - - @ ; - - ; ; 3 0 M A U R X.X.1.5.2.4.3.e.r.3.| | R b.Q.$X$X%X,X%X%X#X#X^.Q.E.Y.L.B.n.d.9.X.( L V s # . ; g L  ..... . . .| / J G H G k d 9 - X             + O - < 3 3 < O o o - 4 9 d B Z A A B M 4 1 O X   o ; 3 9 9 3 - @ .     . 1 s M B K L K L K K K K K K K V V V V V B B C N N C C C C V V V A K K K B d e 3 1 3 M L L N 3 3 3 9 3 3 3 3 3 3 > ; 9 B Z M 9 M Z Z Z A M s B B 9 d B V V C C C s 4 < - o O s ",
"B > @ - - - - - < 2 < 1 ; ; 9 K s ; s V B K K K K L B Z 8 I *.*.] x H ] *.d.l.Z.Z.Z.Z.Z.Z.m.s.6.9.d @ - 3 4 3 4 2 < < - - i | d.d.| i 3 N K Y X.X.| | X.O.3.6.6.3.3.3.O.o.| ( / L L Z N s ; o . > i d a Z G G G G z Z z G z k g a a p p p p a k H J ^ O.#.#.O.O.O.| I G i - X X         + + O O 3 0 s M M B A K R ( o.3.3.o.X.o.3.3.4.4.4.6.6.9.w.o.L d @   & d d a i & X # 2 2 2 5 0 s s s C K K L R R ( X.X.X.X.5.5.3.2.5.5.2.1.5.2.1.X.( X.5.5.5.X.X.o.o.X.X.X.X.X.( E E R T E R T R R T T R L G B M 9 - o o s L K 4 - 1 s s N m m s m < O 4 3 i / | L Z i ; V L R E X.X.E E ( B O.Z o.X.4.3.4.6.2.L g w.G K R ( R L B s 0 o ; > 9 p g k g d g d 9 > ; ; 1 9 M B K R ( X.3.4.w.w.e.w.9.w.3.L O.B.OX$X$X%X%X%X$X#X].Q.W.Y.L.N.n.r.6.| ( L B s o . 9 Z L  ... .|  ./ / / I H H G g i > o X             O O < < < - O X   X O < 3 s B A K K A M 0 3 # X X o - ; 3 1 - o .     . - 4 M B Z K K K K K K K V V V V V V V V B C C C C C C C C B V V V K K V N s 4 3 0 B L L V s 9 s s d B Z Z Z Z Z Z g i 9 d Z B s d A K K K B d Z Z s d B V F V V B m s 3 < - % e ",
"G > @ & ; < < - < < < 3 1 - 3 G s - s A V K A A K K K d i k #.0.#. ...*.d.n.z.n.Z.Z.Z.Z.C.n.q.O.X.; @ ; 3 4 5 4 3 3 1 ; - > G 9.b.@.d > g K U X.X.X.X.X.O.3.4.3.3.6.6.3.O.| ( ( R L A V d 1 o   * 8 i i g G Z Z g d d d g g d i p i i i i p a g H H ^ O.9.9.6.#.O.| L G i - o o           + + O < 1 4 0 s M A K E ( X.3.3.5.X.X.o.3.4.3.2.3.6.w.6.6.( B 3 . . i Z G G d o   . < < 3 4 s s s N K K Y R ( X.5.5.X.X.o.5.5.5.5.2.2.5.3.5.X.R R ( X.5.1.X.X.X.X.X.X.X.X.X.( E T T T Y Y Y T R E T U R K Z A Z d 3 ; X 3 K N - - s N m m s s s < O 4 3 i I | G g i > G R ( E E E E R L B o.d o.3.4.7.4.2.R L / O.Z Z ( ( K N s 1 - > a k H ~  ...O.../ ^ J G d 9 ; ; # 3 M K Y R X.5.3.w.6.w.b.e.| | G t.W.#X$X%X%X%X$X#XOXQ.W.Y.B.B.b.r.6.| ( L B s . o 9 Z L  ... .] ] ^ ^ / ^ H H G g i ; o             + O - - - O o X     X o O ; 9 B A K L A s s 4 - . X o O O 1 - o .     . # 3 0 M K K K K K K K K K V C N m V V B B C C C C C C C C B V V V V V N s > 1 d B ( K s 3 3 s V K L L L K K G K G B Z g s s Z K K s Z L L K B d G K d d Z K K V K A C m 4 1 - % 4 ",
"Z g ; & 1 4 < 3 3 < 3 4 3 - 3 B s 1 s K K K T U K L K g 9 a o.d.*.=.=.q.l.n.n.C.C.Z.m.m.m.s.O.9.Z - o 1 2 3 0 4 4 3 4 4 ; - g | d.q.G ; d L U X.2.2.O.X.3.9.w.3.6.6.6.3.O.X.| / R L K B d 9 - . o * > 3 i d g g g i > > 9 i i 9 > 9 i i t i a k H I ^ ..9.9.6.O.| ] J G d i - o X       X     + # ; 3 4 0 M A K E X.3.3.2.5.5.5.o.o.3.3.O.o.3.3.3.X.R K s - o o p a g g 9 .   # 2 s m s s s N K A K Y ( X.5.5.5.X.X.5.5.3.3.3.3.2.X.X.K M s M Y E X.X.X.X.X.X.X._ E E E E R R R T T T T U U U U Y L K K V C f s 1 X - K B @ > Z M s s m 0 1 - ; 9 i I ^ G Z > d L R R T T E L E g | L G 3.4.3.3.6.o.X.Z | o.B G E L A s 1 ; 9 g ^ ..#.=.0.d.d.d.q.9.#...| H d > ; 3 3 0 A K R X.X.7.7.9.w.g.i.L L L b.#X$X$X%X1X$X#X].Q.W.Y.B.N.M.r.9.| R L B 3   @ i Z I ^  . .] ] ^ / ^ J J J Z a 9 - o           X O - - - O o X o o X   X X - 9 B K L L A B s 4 ; o X   . O # o       X O 3 s M A L K K V K A U K C C s 4 4 C C C V V B C C C C C C V V V V N 4 - - d L R K ; 3 s Z L Y L L L L L K K K K K A K Z M d B Z Z B Z K L L Z Z Z L G B B K L K K V B C s 4 2 - - ",
"d G 9 o s s 4 s 4 3 4 s 0 1 3 s s 3 s K U K U U K L K B i i I 0.d.d.s.s.l.l.b.m.m.m.n.m.n.0...9.d # o < 1 3 4 5 4 3 4 4 1 - s L 0.l.| 9 i B K ( 2.4.4.3.6.w.w.6.6.6.3.O.o.| ( R R L K V M s ; o o o & - ; 3 9 i 3 ; - & - ; ; > > 8 i i i p k z J I ^  .#.9.6.O.| ] I G z d > & o o X X         o - 1 4 s M A Y ( X.3.3.5.o.X.o.o.O.o.o.X.| X.X.X.R L K M 1 o . & i g B d -     - 4 m m s m V V A K Y R X.X.X.X.( X.5.5.o.5.2.3.3.Y N 1 - - - d R X.X.X.X.X.X.X.E E E E R T T T U U U U U U U U K K A V V B N g s 4 @ d K - 3 s s s m m s 3 ; ; i i L I G Z 3 d L R T T E E L _ g X.L L O.3.3.3.3.| | Z / | B G L A M 0 9 i Z ^ %.q.l.z.z.m.m.m.C.n.l.d.q.#.] J B s - # 3 s A R ( 5.2.6.w.g.M.e.| | | Y.#X$X1X$X$X#X].W.E.I.N.M.M.r.9.| R L B 1   & d G I ]  . .] ] ^ ^ ^ J H H g p 3 & o           X % - - O o o o - ; o o X X # 3 B K L L K V M s 1 o       O o X     X O < 4 m B K K K V K K V K V N s - - s C C B B C N C N m C C N V K V s ; ; s L R B s 4 M B A K L L K K K K K K A A A A A K Z B d B Z K Z B Z L L K Z Z L L B B L K V K B C M s e 4 1 < ",
"> G i ; 2 N s m s 0 0 m s 0 3 1 s 1 4 V Y Y U T Y U K Z d > d O.q.d.d.d.d.d.f.n.n.n.n.n.n.*...O.9 O O - < 3 4 1 3 3 4 s 3 ; 1 d ..l.9.a 3 d K E X.4.w.w.w.e.e.9.9.9.6.O.o.| / R R L K Z B s 3 - X X X o o & - - - o o o o o - - ; > 9 i p a k z J I ]  .O.6.O.o.| ] ^ J H k p > ; & o X X         o ; 3 s M K R ( 5.3.3.X.X.( ( X.X.( R Y L Y R R R L K Z s - o   & i g B 3 o   o 1 C V s M V C A K K Y ( X.( ( R ( X.X.X.o.X.( L s > ; > ; - ; L X.X.X._ E X._ E E E R T T R Y U U U U U U U U U K K V V C C M N N ; - K d > s s s m m s 4 < - s i G I Z Z 3 B K R T E E E L | d o.G R 3.3.3.4.3.| | Z / | Z G A B s 9 i G  .=.j.x.A.A.D.D.F.D.D.Z.m.n.z.s.=.#.| L i > > 3 s Z Y X.X.3.9.w.M.L.O.L Z 9.W.#X%X$X#XOXQ.W.E.I.B.b.f.e.6.X.R L d - X - d G I ^ ] ] | ] ^ ^ ^ J H H a i > @ X         + O < ; - o o o ; s s ; - o . o 1 B Y R Y K Z N s 3 o       o       . O < 4 s C A K K A V V V V V m 3 # o - s C B V B N N M N C m m B V s 1 - 1 B L L s > 4 N L L L L K K A A A A A V V V A A A A A V N M Z L K Z Z L R L A Z L I G g G L V F V C m s e 4 3 2 ",
"i 9 B 3 1 1 V 4 s s 0 s s s 3 - 1 1 1 s U E T Y U U A B s - ; L #.0.s.s.d.d.d.n.n.b.n.n.d.#...| - o O # - < 3 2 3 3 s m s 3 3 9 J q.q.G i d K R X.4.w.w.r.i.i.e.e.w.9.O.o.| / R L L K Z B d 0 3 o X X X X o . X o X X X . o o - - > i p d a k z J ^ |  .O.6.6... . .] ^ J G g i 8 > & o o X X X   . - 3 0 M K R X.5.2.X.R L L L L L K G Z A K L ( R L K K A s 1 . X o i B d ; & X o s K N N K V A Z A K R R R Y R R R ( X.X.Y Z 3 ; > g L K s - V E X.X._ R E E E E R T T R Y U U U U U U U U U U K K V V C M m s s s o s K - B N N m m m s < O s i G L g G 9 Z K R T E T E L | d O.Z | O.2.4.7.3.| o.G / | G d Z d 9 9 g ^ =.l.z.C.D.F.F.F.F.F.F.D.Z.C.C.n.l.d.O.| L Z i ; ; 9 B R X.3.6.3.e.N.e.G L L b.].$X$XOX].Q.W.Y.B.b.b.r.9.3.X.R K d - X ; g G I ^ ] ] | ] ^ I I L G Z d i ; o X       + o - < - o o - : i B g 9 > - o . 1 B R E R L K V N 4 O     X X   X o - < 3 s M V K L K K V V C V m < o X o < 4 N C V B N N M N C C C m 3 - ; i L K d - - d V K K K K K A A V B B B B M M M M M B B B A V B Z L R L L L R R K Z G | R B g K K N V C C m s s e 4 ",
"d i s Z ; 4 s s m m s s s s 0 1 - 1 1 4 A R T K K K C s 0 # @ 9 ] #.q.q.s.s.d.f.f.d.f.f.s.....H o o o o # - 1 1 3 4 0 M s 0 3 3 a %.d.| d s K U _ 2.w.r.i.p.p.i.r.t.9.3.o.| / R L L K Z B d s 9 - o X X X               X X o O ; 3 i d d a k z J ^ |  .O.9.9.#.O.....] ^ J H z a i > * o o o X   . # 1 s B Y ( X.X.( Y B d d N B B B B B Z K Y ( ( ( R R R K B ; .   & d g g i o X - B V A L K K Z Z K K Y L K Y L Y R R K s 3 ; > p G I | G - s L _ X._ E E E E R T T T T U U U K K K K K K K F V V V V B C M s M N 1 - A 1 s N B N N m s 1 o 3 9 g L g L 9 Z K R T E E E L | d O.G | o.5.3.3...| ..L I o.L 3 g d i p H ..s.z.m.A.F.F.R.T.T.F.F.F.D.D.Z.C.m.n.d.=...I k i 3 3 9 Z E X.3.6.w.g.N.X.| L o.Y.#X#X].^.Q.E.Y.N.b.r.e.6.o.( I K s & . > g G I ^ ] ^ ] ^ I J L G Z k p 9 - o X X     o - < - @ @ ; i d g G g i i > @ . 1 V R ( ( R L V N 4 # . X     . O < 3 4 s N V K K L K K K V V s ; . X o - 1 0 M N C B C N N N s B M ; - 4 V L f 3 : s V V V V V V V V V B C M M m m m 0 0 4 0 M m M A K A Z K R ( R L R ( R K G L | I N B L V K V V V V V V V ",
"B d d 9 N ; 3 s m M M m M M m 0 - ; ; 1 m U T L V V m 4 3 # # ; H ..0.0.q.r.q.r.q.q.f.d.0. . .p o o # o # - < < 2 4 0 s s 0 3 ; t ` d.*.B s V U E X.9.r.i.g.M.M.i.r.e.9.O.| / R L L G B N d s 0 3 ; O o o X             X X o O ; 3 i d p a k z J ^ |  .6.e.e.9.#.#.#...[ ` ~ J x k p 8 ; & o X   . o 1 m A Y ( E R K N 0 1 3 9 s d d B B A L R ( X.X.X.( ( R K s - . . - g G g > o o 3 B L T K K K Z A K K K A K K K K d 3 ; - 9 a z H L | I > 1 K E X._ R E T T T T Y U U U U U K V A K K L K F F F F F V C N s V s N ; s B ; N V V N M m 3 - ; 3 d G d L s B U T T E E E L | d O.L I X.X.5.2.o.| o.L I o.R 3 i i i g ^ *.l.x.D.D.T.R.R.F.T.F.D.D.D.Z.C.m.m.n.n.s.%...] L g > 3 s L E o.6.6.r.N.i.L R G r.].^.^.^.Q.E.I.N.f.e.w.O.X.( L Z 9 o o 3 Z G J ^ ] ^ ^ I I H H G Z g i > & o X X + + O - < - & > d z G z G g a a i ; . 1 B R X.( R L K N 3 - o X     O - 4 0 s m V K U U K K K K K V ; . o ; - o 1 M m M N C C N M m s 4 ; ; s K V s - 3 g V V N N B V V B B C N s s 0 4 4 3 2 2 2 2 0 0 M A K L L L L ( ( L Y ( ( R L G R X.L V L R U U U U U U U U ",
"L L d d s s ; 4 0 s m C B B M M 1 - - ; 1 N L K V M s 4 1 # # ; k ] #.9.0.r.q.e.w.0.d.q.#./  .; @ - # - 1 1 < ; 1 3 0 0 0 0 3 ; * j *.0.L d V U E X.3.w.i.g.M.M.b.f.r.9.3.o.| / L L G B B d s s 4 5 < < O +             X + O O ; > 9 i p a k G I ]  .O.9.r.f.r.9.9.*.#...[ ' ~ ~ x k p i > - o . . o 2 M A K Y V M s 4 1 1 3 9 d d B Z K L R ( X.X.X.X.X.( R Y B 0 - . o 9 G G z > o o 4 V U U L K K Z A A A V A A B s ; - 3 d k G G H G I | d - V R E E T E T T T U U U U U K K A V V A K K K K K F F V V B C M V s Z s 3 Y ; N V V C C M 4 - - > d B i I d Z U T R E ( E L | g O.I L | X.X.X.o./ | J L | X.g > > i k  .q.x.C.F.T.T.T.T.T.T.F.F.F.D.D.Z.m.n.n.j.q.=.#. .| G 9 3 3 V Y ( 3.3.w.f.N.L L Z R N.Y.Q.W.E.Y.B.b.e.9.o.( R L L B 3 . o 9 Z G H I ^ ~ J J H G G G Z d 9 > @ . X + O O < < ; - > g G G G z k g k z a 9 . 1 B R X.X.( R L N 3 ; O . . o < 3 s s N V K K U U K K K K C 4 O O 3 4 - o 3 C m m m M N M m s s - - N L N > & s g f s 4 m C s C C m m m s 4 3 < < - # O O 6 , < 4 s B K L R R L R ( E R R ( X.R L L | X.L K E ( X.X.E R T T T ",
"X.R K d s s s - 1 3 s M V V B M N ; - ; o 1 m C N 0 4 4 - o # ; k  .#.9.0.q.e.0.9.0.d.0.#./  .@ ; - - ; 9 9 1 ; - 3 0 0 0 0 4 ; & = ^ 9./ B Z L R X.O.9.e.p.M.M.M.M.f.t.9.O.X.| R L K B B g d s s 4 5 3 < O + X           + o O ; 3 9 i d a G H ^  .O.O.9.f.M.f.q.q.q.=.@.@.{ ' ~ ~ x k a i > & o . o 1 M B B B 0 3 2 2 2 3 0 M B Z K L R ( X.5.o.X.X.X.( R R Y T B 0 # X & k I I G > o o s K R L L K V Z B B B V M 0 ; - ; d L I I G g d G | G - B L T T T E T U U U U U K K K K V N N N V V V V N N N V V V V V N Z Z d ; L 3 s V V C C C s ; - > i g i R d Z U R Y E E E L | g O./ G R | X.( O.^ | ^ L | O.L * > i z ..s.C.C.T.T.T.T.T.T.T.T.D.D.D.Z.m.n.n.l.j.j.j.=. . ./ Z > & s K R o.o.6.g.N.9.G L d O.L.Y.I.L.N.M.r.6.o.R L K L K g ;   o 9 Z G G H I J H G G k Z Z g i 9 ; @ o X o O O < ; - - d I I z z g a k z G k i o 1 B R X.X.X.E L s 3 < - o O 3 s s s N V L L L U U U U L A 4 O O 4 N 4 o # s s m s s m M d s s o ; N K N ; ; s m s s s s 3 4 s s s 0 4 4 3 < - O O o o . O O O O 2 0 m V Y R E R ( X.X.( Y E o.O.O.I L O.E V L X.1.1.1.X.X.X.X.",
"X.E R L N s 4 s ; ; ; 4 N A K V Z B 9 ; - - - 3 0 4 3 3 # . O 1 g ^ O.9.9.9.6.9.9.e.t.9.#. .H p p i p g G G g d > ; 4 s 4 4 4 2 ; * p #.O.g g L R o.3.3.w.p.M.N.N.N.N.b.r.9.O.X./ R L K B g d d s s 0 4 3 < O X           X X o - 1 3 9 d g G J ] ..$.#.0.f.M.M.d.d.s.q.=.%.{ ' ' ~ J x H z j p ; @ . ; s 0 3 < # - 2 4 m m C K T R ( ( X.5.5.5.5.5.5.X.( ( R R W W C 4 o X i L ^ ] G ; . ; C K L L G D V K V V C s - # > g G L R G d & o 9 X.L - 9 L R K Y U T K K A A K K V N s s 9 3 3 3 > > 3 3 9 3 3 3 s B B s B K d s 9 K 3 K N N V V 0 0 @ # d s 3 R Z B L R T E X.R K R Z | O.d L / Y ( ( / R X.I a #.| k t a ~ @.s.m.C.D.D.T.T.T.T.F.D.F.Z.D.C.z.k.d.z.z.z.l.s.*. .~ H g > ; d I ( X.3.e.b.b.| L g I w.B.B.N.f.9.O.| L B B i B K 9 - X o i g Z L G G z g k k a g g d i : - o X o o O < 3 ; & d L L L p g p 8 a G G G d o @ N R X.4.X.X.U m 4 1 - - 3 0 d g Z K Y R R Y R R L K K s - @ d g g 9 o - s m m m m s s s > o & g G 3 O 2 m e n 4 5 5 2 < 3 4 4 3 2 < - - O o X X o o o O O % O < 2 5 m V Y E X.E E | X.X.| / | #.6.| | X.( G K ( 3.3.5.X.1.1.",
"X.X.X.X.R V s 3 1 o o o 4 V K V K K d 3 - # - 3 < < < - # O # - g I O.#.9.9.9.e.9.e.t.0.#...^ G J J ~  ... .| | 3 - 1 s s 4 3 3 3 > 3 R 6.G i G I | O.3.w.u.p.M.N.B.B.B.M.i.w.6.X.| R L Z B g d M s s 0 4 3 - O X         X X X o - 2 3 d g G I ] ..#.9.e.b.N.M.b.l.d.s.q.=.@.} { ' ` ~ ` ` ^ ~ G 9 @ . @ - O O O < m C Q U E X.1.5.5.5.5.3.3.5.5.5.o.( ( ( E T E W V s - . > G | | ^ Z > o 1 D D G G K K K V m 4 ; - ; g L I L B s ; @ o & L L 9 3 V L L R U U K K K A B s s 3 - > 9 9 3 9 i d d d i i i 9 3 - s Z L s B d 3 R - K M A B M B 9 - # 3 d i Z G d L T T T E L A L L G 6.a L I ( ( ( / A o.| a J ..~ J ~ ..=.l.m.C.D.D.T.T.T.D.D.D.F.C.C.l.l.d.z.m.Z.Z.C.n.d.*.| I k 9 ; 9 Z I / o.w.r.M.9.g G d / t.r.r.9.o.R G B 3 3 - 9 d 9 &   @ s d Z G Z k g a a a d g g d > : - o o o # < 3 ; & 9 G / / Z i 9 > ; i k H H a & @ s L X.2.X.X.K m 4 4 1 3 s N B G K L R R R R Y Y Y L B ; @ > d g g > o - s N m m m s 0 ; * - g g i ; ; 4 4 5 5 < 6 O O - - < - % O o X X X   X X o o O % % % O O < 2 4 N A K E X.| E R R X.O.| o.O.3.O.o.X.( L R ( X.3.4.3.X.",
"5.X.X.X.X.E K s s 4 - o o 1 C L K L K d 3 # # 3 - # - - o   . - a J |  .#.9.9.9.9.e.e.0.9.O. .|  . ... .^ L L R G i 1 e m 0 3 s s 3 ; g 6.| i d L / o.3.w.w.u.M.N.B.L.L.B.N.f.r.9.3.X.R L K B B N M s s s 0 3 < o X             X o - ; i d k H ^ ..#.9.r.b.N.m.n.n.l.l.s.q.=.%.@.@.@.$.%.=.9.=.#.I g > ; ; o X - s U E E 1.5.3.3.4.3.3.2.3.5.5.5.5.o.( ( E R T E W U V 9 o o a | | | | Z @ o e B K L K K K N e - ; 3 g L / H g 4 ; - ; - o d | d ; s L U Y U L L K V N s 1 > > i i i g Z G g d g g g Z K G B s ; ; N A K B 0 V s B B A V M K 0 1 # - N g s L d L T Y L Y L A B | Z O.H S I o.( X.X.A O.6.G t ~ ..=.-.=.s.z.m.Z.D.T.T.T.D.D.D.D.F.m.l.9.=.d.l.n.n.m.n.n.n.d.#.I H p ; ; s A R X.3.w.g.g.B G 9 d | o.O.| L g i > & o o - 1 s @   @ s d g Z g d d i i d d d d 3 - - o o o o ; 4 4 ; * G / / L 9 ; & & * ; p I I k > @ 9 K E 2.X.E U C m m s s B K L L R E ( E R R R Y R K 4 o - d g d g ; o ; 0 M m m m s ; o - g V 4 - - 3 3 < O O O X X o o o o o .         X X   X o o o O O O O # - ; < 1 s s G L X.X.X.| X.o.3.O.3.9.w.3.X.( X.( L Y ( 2.6.6.",
"4.3.5.X.X.X.X.L s s s 1 o X - 4 d K L K M 1 - 1 s 3 - o . . . . i z ^  .O.O.O.6.9.9.0.e.9.#.#.#.#.#.O.I a > w d R G 4 1 s s 4 0 d i > 9 | 3.g 8 G I X.6.w.w.y.M.N.N.B.B.B.N.M.b.i.w.3.o.X.R K Z B B N M M s s 4 < O X X           X X o ; i d G I ] @.9.r.b.N.B.m.n.n.l.d.s.-.=.%.=.q.s.d.z.l.d.q.#.#.| I G & o 0 K 1.3.5.3.3.1.3.4.3.3.3.3.5.5.3.2.o.( ( E R T T U U V d - . 9 L | | | I i o o s V K V N s 4 ; - 9 B L I L d > ; ; 3 s i @ i o.K ; 3 G L U Y L L V s 1 > 1 i d g G L L B d d d d i 3 ; ; 9 B K Y 1 M V B L 9 s R 1 A M K B A N s 1 # s Z 9 G G V U U K K L K B X.L I | g / X.o.X.3.( o.9. .i a ` q.z.j.z.m.C.D.T.T.R.T.D.Z.D.D.Z.n.*.@...s.=.*.O.O...#.r.l.0...I k > - 3 B Y / X.w.e.g.X.d g i g G L G d 3 - & - & ; o - 1 o   @ i s d g d i i 9 i i i i i - o o o o o - 3 s 3 9 d | O.I g > > 9 > > * 9 I I G d & 3 K ( X.X.E T K V B N C K L R R ( X.( ( R R R Y K d - & i g d i g - o 1 3 s m m s 1 @ @ i K 4 - O ; < O o X . X o o o o o o o +   X + . O O . o o o o O O o & > 3 3 > ; > 3 d B L X.3.6.O.o.O.o.X.X.3.w.w.3.o.o.X.R I R X.O.",
"2.2.3.5.X.1.1.( X.K s 1 1 ; # . 1 s B A B 4 - ; 3 M d -   X o . > k ^  .O.O.O.O.6.9.9.0.9.9.9.9.9.#...H i & & > B K N 1 4 s 0 4 s i s 3 G O.L > g L | 3.w.w.w.p.N.N.B.N.N.N.N.M.M.i.e.w.3.o.R L K A V B B C m s s 3 - o o X X X       X o - i k G I ..9.r.l.m.Z.B.m.n.n.l.j.s.q.q.s.z.m.m.m.n.z.z.s.z.r.9.| > ; N E 4.4.3.3.3.5.3.3.3.3.3.3.3.2.2.5.o.X.( ( E R U U K C M 3 . & d / | | O.I > o o 2 s s 4 ; - & > B / / L d > ; 3 s s B d ; 3 X.| 9 - s K L L K B i ; > 9 d Z G G g s i d d s 3 9 s g d s 3 ; ; s ( 4 s K M L ; ( 3 B B A A A A N 0 ; 3 Z s g R V K U K K L K B R o.g O.Z / X.3.o.2.3.( 9.0.^ a k @.l.n.Z.D.D.F.T.W.W.T.D.Z.D.T.n.s.#.[  .*.[ H Z B g G I O.9.q. .G 9 @ - s K Y ( 3.6.r.w.g d d > i d 9 ; - - - 1 2 s - o - o   o 4 9 i d i i 9 9 i i 9 > - o o o o % ; 4 s s 3 d I O. .k i g Z G g g ; > G I L Z > > G ( X.2.E R L K K V A L R ( ( X.X.X.( R R ( Y B 1 & i B i i d B & o 1 3 0 s s < o - 9 g s - # # - o . . o o & ; > ; - & @ o + + . + + o o O o o o o o $ & = t p a p i i i p d d Z I o.6.w.6.3.X.E | 3.w.w.9.6.O.| L G L / ",
"Y R X.3.3.3.3.X.X.5.X.K 4 - ; 0 # - 1 3 9 1 - # . - s B 9 o . o * a I |  . . .O.O.6.9.0.9.9.9.9.#.@. .J i @ o o ; B L N s s s s s s M i i / | 9 d Z I o.9.w.w.u.M.N.B.N.N.N.N.N.M.M.g.i.e.6.o.( R Y K K K V V C C s 3 < - % % % o o     . o & 8 d G | #.q.l.m.Y.I.B.m.n.n.b.l.l.z.m.C.C.C.C.m.n.C.z.C.m.r.^ > ; V E 4.4.2.3.3.5.3.3.3.3.3.3.3.5.5.5.X.X.X.X.( R U U V m d 0 @ . 9 K | O.#...z i . o # # @ & > i Z R o./ g > ; > s V B B g 9 ; L 6.Z @ - s V V d 3 ; > i B G Z B 9 9 9 3 3 0 B K R L L L K Z B B 1 ; R 9 Z K V N d Z s L N K Y A V M 4 - d g d R K V K K K K K Z L O.G I / R X.6.7.5.6.X.6.0.0.J a ~ =.z.D.F.F.T.W.W.W.T.D.Z.D.T.n.*.*.^ #. .H > - 3 d g Z L  .*.O.| g ; @ 1 C K R ( 3.w.w.( 3 i > > > & & ; 3 4 3 3 s 1 o o o   o 4 9 9 d i i i 9 i i 3 - @ o o o % ; 4 C m 0 9 I O. .I p i / | | / L i > a H I L d 3 B R X.2.X.T U U U K U E ( X.X.5.5.X.( R R R K 0 - 3 Z g ; 3 d g & o ; 1 4 4 3 O o 0 Z d o o . . . . o & ; 9 i g g d i > ; # O o . X   X o o o o o o o & & * = t a G J H G a a p 8 9 k ^ O.e.w.w.9.o./ ( O.w.9.9.6.O.| I I ",
"L K Y X.5.3.7.4.3.5.o.X.( K s ; - # o # ; ; # @ o   . d L g ; & > a J ^  . .| | o.O.6.6.6.9.9.9.9.#.O.^ g ; o o & s K L N 4 4 s 0 4 s s 3 G | G i B L / 2.w.w.w.b.M.N.N.N.N.N.N.N.M.M.b.i.e.6.2.X.( R R U K K K V C m s 4 3 < 2 2 < # o o X . @ 9 g I O.0.d.m.I.I.B.B.B.m.m.m.m.m.C.Z.C.n.n.z.z.C.C.C.n.9.H ; @ d L o.3.5.2.2.5.2.3.3.5.5.3.5.5.1.1.X.X.X.X.( R L L N s s 0 ; . - d R O.*.#. .I s 1 - - > i Z I  .O.| G 9 ; 3 s A L K K Z d ; B 3.| i & - 3 9 3 ; > i G L Z d i 9 4 3 4 m A K Y K K L R R R L K L 3 K B s B K Y 9 L s K B K Y K A B s 1 3 Z Z Z R V B L Y L Y L L o.| G | / ( 3.w.6.w.6.o.9.r...H G ^ 0.n.D.T.T.W.W.W.T.Y.Z.Z.Z.d.9.#.^ O.^ a @ o - s B D g z G ..+.L d - - s V L L 5.7.3.6.i 3 3 3 ; & - 3 s s 1 2 4 e O X o   o 4 4 4 i i i i i i 9 > - @ o & o 1 4 s K B s B O.#. .z d I 6.6.6.6.o.I d i G I / L i g I | 2.2.R R T R R R X.X.X.5.5.5.X.( R R K d 1 3 B g 3 o ; g g - o - ; < < # - 0 Z Z >   . . . o ; i a k G H J H G a i > - O . . . o # ; 1 1 3 3 i d d d p y a z J ^ ^ ^ J J H k a p k G / | O.9.9.O.o.O.o.o.6.r.f.9.o.I ",
"5.Y Z K R X.4.w.w.7.6.3.o.X.L K 0 1 # # 1 3 ; - @ o o - s K L G p z J ^  . .| | | O.O.o.O.6.9.6.6.#...^ g > & & ; ; s L C 3 ; ; < < < 1 ; d | I i g G L X.9.w.w.r.b.N.N.M.M.M.N.N.N.M.M.g.i.w.7.5.o.X.( T Y U L K A V C m s 4 4 4 4 3 1 ; o o @ > s L o.9.r.n.Z.Y.I.I.B.Z.Z.D.D.D.D.C.z.d.d.d.l.m.C.z.q. .d & . 3 N R X.5.5.3.3.3.3.3.2.5.3.3.5.5.5.5.X.X.X.R L K G s N s 0 3 . . 3 G | O.=.*. .o.G d Z I ^ | O.#...I d ; 1 d A K L L R L Z - 9 ( 6.L > o o - ; > i B L G d 3 > 1 0 M C M M V K Y L L K K K K K Z L - V s K L K g G B s L K K Y K A d 0 ; K L i X.B g L R R E R R X.3.G / | L o.3.e.e.e.| 6.r.9.O.z k ] q.m.F.T.W.W.W.T.Y.Z.C.m.d.0. .O.^ ^ 8 @ - O ; d B g d d | | | G > % 3 m A L X.3.2.7.L > 9 3 ; - ; 3 9 4 1 ; 2 s - X o   o 4 4 4 i i i i i i > ; - & - ; ; s N V R Z d R 9.O.| a G 0.f.r.9.r.9.O.G i G / o.| d d L R X.2.E R E E R E X.X.X.5.5.5.X.R Y L B 4 - d L d o . & B g - o @ - O o o 1 A K i @ . o @ ; i g H J ~ ] ] ^ J G g i 3 # o X . o # 3 d K L L / X.O.O.O.] ] ] ^ ~ J ^ ^ ....$...] J x k k G L I O.0.e.6.O.| | o.6.9.e.e.",
"e.e.w.o.L B N B X.2.7.7.O.X.| X.5.Y 0 - # - 3 9 3 3 9 9 d K L L G H I ]  . .| | | | o.O.O.6.6.6.#.#.#./ Z 3 & o - ; < m R ; o o O - - o @ 3 L 6.L 3 g L L O.w.9.r.b.M.M.M.M.N.L.N.M.M.M.g.i.u.w.6.3.5.X.X.E T T L L K K V V C C m m s 0 4 3 - o o i g I #.0.d.Y.I.Y.B.Z.Y.D.T.T.D.D.n.s.=.%.=.q.z.d.q. .a ; o . o 4 A R ( 5.3.3.5.3.3.2.3.3.3.3.5.3.2.5.X.( R K K B M s s s 3 #   @ i I O.*.*.%.O...| ^ ]  .O.#.O.^ a 3 3 0 B A K L R R R L d ; L o.3.L 8 ; > > s G L I s 9 - ; s s s m m m C A K K A A A A V V U V L s U s V K K s L Z V K K R Y Y K s s s L B G R s R K X.E R ( L r.X.g / / o.3.i.r.9.O.o.0.0.O.] H J ..l.Z.D.W.R.R.T.m.n.Z.n.t.e.O.| O.L > & o - O ; g G d i i | O.L d ; - 4 B B R 5.X.3.X.s > ; 3 9 ; ; 1 - - o o 3 4 o     o e e 4 i i i i i i 9 ; o > 4 4 s s K ( R B G O.r.O.a k O.r.N.N.f.M.f.e.| d d | ..#.I 9 g K X.2.E E ( E ( X.X.X.5.4.2.( ( R K L s ; g R g & o o ; Z d @ o o X X X ; B L B & o @ ; i k G J ^ [ ' ' [ ^ H Z g 9 & o . o ; s B L | O.O.#.O.O. .O.9.9.9.q.d.0.#.#.*.%.%.%.=.q.=.@.[ ~ J G G G H  .9.e.e.9.o.( | o.O.",
"R O.e.e.w.5.Y d M K ( o.o.o.o.X.2.X.Y B 9 ; o . - ; > 9 s s g g Z H I ^ |  . .| | | o.o.O.O.O.O.#.#.O.| K i - o o - - s B s o - - - ; - o - B O.O.g 3 i B | 3.4.w.r.M.M.M.M.M.N.M.M.M.M.g.i.u.w.w.4.3.5.X.X.E E R R U L K K F V V V C C m s 4 2 # - 9 Z ^ O.d.C.Z.Y.Z.Z.Y.D.T.T.D.m.s.#.@.@.%.q.9...I a ; @ o .   # 0 V T X.2.3.3.3.3.5.5.5.5.5.3.3.3.5.X.X.R L A B s s s s 4 - o   @ g | O.%.9.=.*.@.....%... .J k i > 3 M V A A K L L L L N 3 d X.9.| G k k Z I / / Z 9 - - ; 1 1 3 0 n m m C V V V V V V A A V K C B M V V L L N K R M K R Y Y Y K s d s K R g L D g X.X.L o.( R 6.w.L | X.X.X.3.e.i.6.| O.r.9.O.I I  .*.n.D.T.R.T.T.Z.m.m.b.9.9.O.|  .H > & o # - ; s g g i > g R | B > - < s B Y ( X.2.X.K > - ; ; - - - o o X X ; 4 - X   o e e 3 i i i i i i 9 ; @ s s s V K L | / Z | 0.0.^ G  .t.n.I.N.N.N.n.f.6.Z g ^ @.#.I > i g X.X.R E E R E X.X.X.3.5.5.X.R Y L B 3 s K K i & o o 9 G B ; o o X X - i G G i o @ 9 a G J ^ [ ..@...[ ^ H k Z d ; o . & 3 g I | X.| O.| J z g g g g I I / ..@.#.0.d.l.l.d.s.s.s.s.l.q.0.#. .^ H k a | O.e.f.i.9.o.( ",
"O.| / o.6.6.6.9.Y Z s 9 d L X.X.X.( R B 0 1 ; - o . . o o . o - d G / | | | | / / | |  .o.O.O.O.#.@...| L i & o - < 3 4 s B ; 4 3 2 3 4 ; o 3 L 9.L - o > g R O.2.9.i.g.g.g.g.M.M.M.g.g.g.p.u.w.w.6.3.3.2.X.X.X.E T T R T U U K K K K V V V M s < o & i g | q.b.B.Y.Z.D.T.T.F.D.m.d.@.' ` ..%.%.^ k 9 > & @ o .   X - 4 V E 1.2.3.3.3.3.5.5.5.2.2.3.3.3.5.( R L Z d s s 4 0 4 < - o . @ g  .9.*.0.=.%.@.@...` J i 8 > > s C V A V V V V L L V s - R 9.9.O.| | ..O.| ^ 9 - . @ # o o # - < 2 4 m C C C C M M M C N K M K 4 K V K K G Z L A Z R Y R R Y B B s M ( L g L B R ( X.( X./ | r.O./ o.( o.X.6.r.9.| / O.9.#.^ ]  .O.l.Z.T.R.T.R.D.m.m.d.9.0.6.O.o.L i > - O O - > s B g 3 ; B X.R i ; - 0 M A Y ( X.X.( s ; @ @ o o o o $ $ o o 4 1 o   o s s i d i d i i d 9 - ; Z V K K ( X.o./ G q.s.9.G | d.n.Y.W.B.I.B.B.B.r./ G J #.#.I i > i R X.R T R R R X.o.o.3.X.o.X.Y Y K 9 3 K R B ; - - o 3 Z Z 9 - @ o - s B Z d ; & 9 Z J ^  .........[ ` J z Z d 3 @ . ; p L | O.O.I d d d d g G J L L | ( I I I R | | O.0.d.z.l.l.z.m.l.l.d.q.0.0.@./ Z k G / #.6.r.f.",
"d.9.O.| G g L 3.i.w.X.K d s s d L R Y B s 3 ; # - @ o o .     . & d I / | | | I I ^ | | o.o.o. .O.O. ./ G 4 - - 3 s m m s N 3 s C s s N N 4 3 d | | > X $ - s R ( X.3.w.r.i.i.g.M.M.g.g.g.p.u.w.w.6.4.3.2.X.X.X.E E R T T T T U U U U K K K V C s 1 - ; i H #.r.n.D.D.D.T.D.Z.n.s.%.` ~ ` { { ] k i i d s 3 # .     + < 0 A ( 1.3.3.3.3.5.5.3.3.3.3.3.5.X.( R K V d s s 4 4 3 < < 1 - . @ d | O.*.%.%.@. .J g i ; ; > 4 s B V V C V B B K K V N - g | 9.9.#.#.9.#.| G > @ . o o o o . . X o # < 0 s m m s s 0 s s m C V m V V V Z L L s X.V K R R Y R K Z d s K O.f G _ B R o.( O.| | O.r./ 3.o.3.| o.O.3.3.R I 9.9. . . ...l.m.F.R.R.R.Y.m.n.l.0.e.9.O.O./ G B s ; o o - 3 N g g - 3 L | V 3 & 1 s M Z R ( ( X.L s - o o @ - - 3 e - o 1 s -   & d d d d p d d d g i & > L L R L o.3.O.I  .d.d.O.H 9.m.B.W.W.B.I.I.I.Z.b.6.I k  ...^ a ; 3 L R K Y R R ( X.o.o.5.1.X.( R L B 1 g R L 9 - 3 1 @ ; d Z i 3 ; 3 s G Z d > ; 9 Z I ] [  . .[ ] ` ^ H H H Z 9 @ @ 3 G ^ o.| G g i > d G / X.O.9.9.9.w.w.6.o.X.X.| ^ z H ^ ]  .$.0.s.C.Z.Z.m.z.d.d.s.9.O.^ J J ^ | #.",
"z [ 0.q.r.t.O.I B M K X.6.X.K B s s s 3 1 3 3 1 # - - # o o     . ; B L I / | ^ J I ^ |  .o. . ...../ L g > - 1 s C V V N 4 i 4 K V V L L G g i G | s - 1 - 1 N K G L X.3.w.e.i.g.M.g.g.g.g.i.e.w.6.3.3.2.X.X.X.( E E E E R T T R R R Y T T U K B M 1 - i k ^ 9.l.C.C.Z.D.C.z.q.@.` J ~ ` { ' x 9 p S / Y B 3 O +     o < s U X.5.3.3.3.5.5.3.3.3.3.3.3.X.( Y A N s s s 4 4 1 ; ; 1 9 3 o . > I ^  .O...I d > - ; 1 e s m N C C C C V N C V V N > - Z O.6.#.9.#.O.^ a 8 & * ; ; ; - - o X X X o - 2 4 0 0 4 3 2 3 < s N V C K K G L R d X.K A Y R K R R K K B B O.I d L R R R O.o.O.O.| M.O.6.w.O.X.O.X.X.O.I L o.9.#. .^ | r.n.Z.T.T.R.D.m.n.n.9.9.9.6.3.o./ I L d 3 - o - s g Z 9 - s R L 9 & - 0 s B R R L ( | G 3 - - ; 3 i s g 3 o > s 9 o @ d g d g d a a d g i @ > / ( X.| 3.e.6.^ r.d.d.^ | b.Y.Y.Q.Y.I.B.I.I.Z.m.d. .a J ] ^ k > ; B L A Y R R ( o.o.X.5.3.( R E K 9 9 R R g - ; s 3 # > d Z g i i d Z L Z i > 9 a H ^ | |  . .] ^ J J x H G a > & 9 L R | I g > > g L R O.9.w.w.r.r.r.u.p.i.t.e.r.r.e.9.9.O.| ^ L H G J ] 0.l.m.n.n.m.l.d.0...^ H k a ",
"j a h a ^ 9.r.e.o.L M B L I I R X.R A d 0 4 3 1 # - - # o # o   o - 9 d Z L I I H H I ]  . .| | | | I g 9 ; 1 s m V K K F 1 s 4 F K R R R R L Z d L g i s s 3 3 B s d K ( o.3.w.u.i.p.i.i.i.i.u.w.w.6.3.2.X.X.X.X.X.X.( _ E R R R R T T T T W U V V 0 ; 9 i k  .=.z.m.m.m.z.s.@.` x x ~ ' @.' j i Z ( O.X.L C 4 O +     o < C T X.2.4.3.3.3.3.7.7.7.7.3.5.( Y A d s s s s 4 1 ; ; 1 s s 9 - # ; > p k G d 3 - - 3 4 s N M M N N C C V N m m s s 3 o 3 ^ ..@.#...] ^ a p 8 a a g g g d i : & o X . O # < < < - # - - < s M C V K L G R L K L L A R L R R K R L B G 9.I g ( X.( R ( O.O.| r.r.9.e.e.6.3.o.O.O.L Z G | 9.O.] ] #.d.n.D.T.T.Y.m.n.m.#.#.6.9.9.6.O.| | L Z s - o 1 s B N ; - G R g & # 1 9 M L R L R / L g 9 i s d B B G g - ; d d - & d g g k g g g g g d & ; X.X.3.O.9.e.O.^ n.s.9.I 0.Y.W.Q.].Y.B.B.B.Z.Z.B.m.#.a k ~ J H 8 ; i B B L R ( X.o.o.X.X.3.( L R B 9 B X.Z 3 ; 9 s 3 # ; i Z Z g g G L Z g d i i k H I ^ I I I I J H H H G a i 8 p H | L g 9 i g G | 3.X.2.7.w.i.g.g.p.p.M.M.p.i.h.b.b.g.g.g.g.g.r.9.O.#.| I I ^ ^ O.9.d.n.C.m.l.q.$.^ ",
"=.@.[ ` z a Z I X.3.w.6.( K Z Z B N M B M 4 - # 4 3 2 1 < < 1 1 # @ @ ; i g G H H H I ^ | | ] ^ J I Z 9 ; > s C V K L K V s d s V U E E R R L L d g g d V U C s B s s Z L L E X.3.w.w.w.w.w.e.e.w.w.4.3.2.X.X.X.X.X.X.X.X.X.E E R E E R R E W U V V s 1 ; ; 8 k [ -.s.s.s.-.@.~ x j x ' } %.' y d L O.9.3.X.T V 4 - X     o 4 V R X.3.3.3.3.7.w.w.w.w.7.5.( K V M 0 0 s s 4 > - - 4 s s B Z 0 # @ & - ; - # - 3 0 m m m m s f N N C C M s s e 4 3 & @ i I ^ ^ ^ J H z z x J I ^ I I L G D d 3 - + + + o O O o . o O o < 0 N C V R G L ( V K ( A T R Y R L T L G g O.9.B L X.3.L ( | | | 3.e.r.9.M.g.w.6.6.O.X.L g G O.O. . . .9.d.Z.Z.T.T.m.b.n.*.O.O.6.9.9.9.O.o.X./ K s ; - 3 M V s & 9 L G > o ; 3 s Z L L I I / L B Z Z Z K L L L i ; i g > - g Z Z G G G H G G k * - o.O.6.6.w.e.| #.n.s. . .M.W.Q.Q.`.Q.N.N.N.B.Y.Y.D.0.z t x H ~ k 9 ; 9 B Y ( ( X.o.O.o.X.5.( R L d d R ( s 1 s s s 3 - & 9 g G Z G G G d p p d k G H H G G G G G G G H H G a i g J I H d e i G | O.2.2.2.4.w.i.M.M.p.i.M.M.M.M.N.K.K.P.P.K.M.M.J.J.K.K.f.d.0.6.../ J H H ^ ..=.s.j.j.s.",
"q.-.=.%. .J a 8 8 d Z G / O.o./ Z d s d s 3 ; 1 - # - - # O O # # .   @ 3 d Z G H H J ^ ] ] ^ I G G d > ; 4 s V K V L K s V s s V U _ X.E R R L N d B s K X.T A Z d d Z G B Z R ( 5.6.3.3.6.w.w.w.7.3.3.2.2.1.2.X.X.X.X.X.X.E E E E E E E E T W K M s 9 - @ ; > x ..%.%.#...` z u u x { @.%.~ 7 a R 9.u.w.w.5.T V 4 O X   X - s A R X.5.3.3.7.w.y.u.w.7.o.( K B M 0 0 s 4 3 < - - 1 s B B B Z B s 1 # o o # 3 m m m m s s s s s N N M m s e 3 1 1 ; . @ k H k H k x ~ J [ ] .. . . . .] ^ L G d - o X   X X X X   X o X 4 m V V L R K L L A o.K Z E K R E R L L G L 9.| / R X.6.X.L | | o.O.M.O.i.B.M.r.3.3.e.9.I g I |  . .^ *.s.m.C.F.T.m.b.b.9.O.o.O.O.9.9.6.O.O.| / L s - - s V M @ @ Z L 3 o - 3 9 d K L L I X.| L L L L R R I R B > i Z i ; B Z G H H I ^ L G G ; & o.6.6.9.r.r. .d.m.l.I e.B.W.].Q.Q.Q.b.N.M.B.W.W.Y.0.G = z J  .I d & - B Y ( ( ( o.O.o.X.( ( E G s B X.L 9 9 B N s 3 - - 9 B G Z G G d d i i g H J H G G Z Z G G G L I G z a a H [ J i > f R X.X.X.2.w.w.w.y.p.p.p.p.M.M.M.M.N.K.K.K.K.L.L.P.L.P.P.K.K.K.I.I.N.f.f.d.0.9.] z a a z ` @.",
"H ^ ..#.*.@.[ ` ~ x a t 8 t k H L I L B i 9 9 1 ; - - - 1 < - # # # @ o o & i Z H I ^ ^ ^ I I H Z d > - ; s V Z K T A N K V s s V U X.E E R E R L s s C m E ( X.Y R B L Z A Z Z K R ( X.o.o.3.4.4.4.4.4.2.2.X.X.1.5.1.X.X.X.X.( X.( ( ( ( E Y K V B M s 4 1 ; & > J  .] ^ J k p = 8 x ..@.&.v t d X.w.u.p.w.w.2.U C 3 O     . - s B K R X.3.7.y.u.u.w.6.o.R G B d s 0 0 4 2 < O # 3 m g s B G G B M s 3 < 1 0 m M M s s s s s s m m m s 0 3 < - - o . o ; i d a a z J ^  .@.#.#.#.#.@.O.O. .^ H d > o X       X X o X X o 3 N K V R R E R L L E R L R R R L E R L B O.6.R | O.o.6.O.| R L R O.e.e.f.B.N.e.6.O.o.o./ J ^ O. .] #.*.l.m.Z.D.Z.b.b.6.| O.o.| 3.4.3.O. .| L G K s o < V s s o > I g ; o 2 3 B A K R ( ( / / R / / / | E | L i ; G d i a G G H ^  ... .I ^ i ; O.6.9.0.r.9.#.m.b.#.o.M.I.Y.W.`.`.Y.n.n.Z.Y.Y.Q.Y.9.H > p ^  . .G @ - N K E ( X.X.X.| X.X.( L B d / | s 4 s V C s 4 < o ; d B Z B d i 3 i a g z G G G G G Z Z H J J H k k k G ^ I p & V R X.X.X.2.9.w.w.w.w.u.p.M.M.M.N.N.B.L.I.I.Y.Y.Y.I.I.I.I.I.L.L.L.L.N.N.B.B.B.B.N.N.M.r.O.I k d ",
"/ J k a k x ` { ..[ ^ J J z t * p i 9 9 9 > > 3 ; - # # # # @ o o o . . . @ i k H I I I I H G g d 9 ; ; 0 B A K K U V V U K C C C K E E X.Y T Y T C 0 M 4 T E X.R E L X.E R K Z K K Y R ( X.X.o.X.X.2.2.2.2.2.X.1.5.1.1.X.X.X.X.X.( ( ( ( R L K B N M s M s s 9 - r d g d i 8 * * = x ..@.@.v y k O.w.p.p.u.y.4.X.U m 3 o     o # 1 0 m A Y ( 1.7.w.e.w.O.I g i 9 0 0 0 0 3 2 < O - e B D G G G Z A B M s 0 s s M s s s s s s s M m m s 3 < # o o . . . @ > i i a z J ^  ...........O.@.@.O. .I z i * o X         X o o o % 4 V R R E K E G L R 8.B | L L E U E R Y K O.o.I 6.3.O.6.9.3.| L L L X.9.M.I.M.e.O.( L G H  .q.0... .#.d.n.C.D.Z.b.b.6.| | | ( X.X.X. .| I G B g s 4 - i V s o $ B K 3 # 2 3 M A L R ( ( | | | | | | X.X.X.R g 3 Z Z i a G G L ^  .O.O. .^ a i O.9.0.0.r.*.*.Z.d.O.9.K.U.W.W.Q.Q.Z.l.m.Z.Y.W.E.B.w.| g p ^ #...^ 8 @ 0 A E ( X.X.X.| ( ( ( R d Z X.I i d V V C s 4 < o - 4 s d d i 3 > i d g k G G G G G G G H J J H k a k I I d 9 d R ( X.2.2.4.w.w.w.w.w.r.p.M.M.M.L.L.I.Y.Y.E.E.E.E.Y.I.L.L.L.B.B.L.N.N.K.L.I.Y.Y.Y.Y.I.L.M.g.i.e.",
"N.M.r.| g t i k H ` [ ^ J J I H p i i i i > & @ & & @ o . . . . o o @ @ & > d G I L H G G Z g d > ; - 3 B K K K L K V K Y U V N s V E X.X.Y U K E L 4 N 1 K E X.E ( R 5.3.o.( L K K A K L R E ( E _ X.1.3.3.2.5.5.5.1.1.X.1.X.X.X.X.X.X.( Y K B B M M B A K A B - o o ; - @ @ @ o @ k ..@.@.j y L 3.u.p.M.p.i.w.4.X.U m 2 o   X   . o O - 2 0 M A Y R L K Z g d 9 9 9 9 3 1 # O O < s N g g D G A K K A B m s s s s s s s s s s s s s 4 < # o . . o o @ & > i p k z H ~ ^  . . .]  . ....... .^ I g > & o X         o % o X - m U R K E R _ G L O.R R L R L R E E R L E O.X.| 9.3.3.3.3.3.o.R K Z L O.f.M.r.6.o.L Z p G 9.n.l.d.0.d.n.m.Z.Z.b.d.0.| | | R | | | | ^ L G g 3 4 N - - K g - X 3 L s - 1 3 s B K L R ( X.X.o.o.o.o.X.X.X.E K 9 g G g g G L I ^  .#.#.#.^ G L O.9.0.q.d.#.q.Y.9.O.g.L.Y.W.W.W.D.m.l.m.Z.E.W.B.M.r.6.I i I #... .a @ - M T E ( X.X.| R ( Y K 9 L X.Z 3 N K B N m 4 1 o o - 1 s i > - > i d g k G G G H H H H H J H z g k G I Z > i R X.1.2.2.4.w.w.w.w.w.r.i.M.N.K.L.L.I.Y.Y.E.E.W.W.E.Y.I.L.L.B.B.N.N.N.N.M.N.L.I.E.E.E.E.E.Y.Y.Y.E.",
"^.W.I.B.b.9.] G i p p a G L L G H H G Z G L L G g g s 9 9 > 3 9 9 i s d g Z G G G G k g g d i 9 - - 3 g K L L L R V V U T R K M s C E X.X.R K K E T s N 4 V R X.( E R X.6.w.4.o.R Y A B B Z K K L R R X.1.3.3.3.2.3.5.1.X.1.X.X.X.X.X.X.R Y A B N N B K Y R Y K d o o & @ o - & o o p  .#...a a I 9.p.M.M.h.M.p.y.4.X.Y C 3 - # o o . . . . o o # - 1 3 d Z g i ; & & ; 9 9 1 @ . # 4 M N N G K Z A K K A B s s s s s s s s s s s s 0 3 - o . . o - > 8 i p k G H J J ~ ^ ^ ^ ^ ^ ] ]  . . .| ~ H a > - o X + + o     o O o O 2 B A T R X.R R L L O._ L | L E R E ( X.R o.3.I o.e.e.9.9.6.6.X.R L G I 6.r.e.6.o./ Z > * k 0.m.Z.n.n.n.n.C.Z.n.b.r.| / | I / | | I I L L B - o 4 4 - s N 4 o & Z A 1 1 0 s M A K I ( X.O.O.O.O.O.o.5.X.X.R s d L G g Z H I ^ | O.#.#.^ H | O.O.9.q.q.#.n.Z.O.6.N.B.I.Y.Y.Z.m.n.n.m.Z.Y.Y.M.M.V.i.o.g L O. . .G > - 0 V T ( ( R R R R Z s s ( R 9 3 N N s s s 3 3 o o o - 3 3 ; & > i d g z G G G H H H J H H z k a H I g 9 9 Z X.X.2.2.2.4.w.w.w.r.u.p.M.N.K.P.P.I.Y.Y.Y.Y.Y.Y.Y.Y.Y.I.I.I.L.L.B.N.N.M.M.M.N.L.L.E.E.E.E.W.W.W.W.",
"^.E.E.E.E.Y.M.r.9.| Z i i i i i G G G G G L L G ^ I L G G Z Z Z B B B B g d d i i i i d i 3 - @ > i Z L R I L L L B K R E E U C s m E ( X.R K A E T C m s s T E ( T R ( 4.u.u.w.2.X.Y A M M N B V V K R E X.3.3.3.4.3.5.1.1.1.X.5.5.5.X.R L A B N B K Y R ( E R L 9 3 9 1 3 s s ; o 8 / @. .p a R w.g.M.M.b.M.i.p.u.w.5.( K V B s s 4 3 3 3 1 < - o . o 9 L | | I k 8 & @ * - & o - 3 0 M A K A A K K K Z B M d s s s s s 0 s s s s 4 1 o X . o - 3 d g k G H J ^ ^ ^ ^ ^ ^ ^ ^ ] ] ]  . . .] ~ G d > @ o . + + O +   + O O O O 0 B R L R R X.| L E 3.L ( X.R R R 5.X.o.O.X.3.X.O.e.b.g.e.w.4.3.L d g / 6.e.9.O.O./ g 8 a  .b.C.Z.m.n.n.m.B.m.b.r. .| | I ^ / | H L L L Z ; o o s < - N s o o i Y 0 1 s s s B A L ( o.O.O.3.O.O.3.3.2.3.X.Z s L L g g G R / | o.#. ./ H | o.I | *.#.*.D.n.O.r.N.B.B.Z.Z.m.n.z.n.C.Z.I.N.i.B.(.b.6.L Z I |  .I k > ; 9 A Y Y L L L K i @ B R B & 3 s 4 1 0 4 < 1 O X X o & - - - 3 i a g k G G G H H L J J G k g k I G 3 3 B R X.X.2.3.3.3.4.w.e.b.M.N.L.L.L.L.L.I.I.Y.Y.Y.Y.Y.Y.Y.Y.Y.Y.Y.Y.I.I.I.B.N.M.M.B.N.N.L.I.Y.W.Q.^.^.^.",
"^.^.^.W.P.N.N.N.b.i.r.w.o.G s i > ; i Z L L I  .^ I L H G G G G Z B g d d i i 9 i 3 > ; & & & - d G | o.X./ R L B B L R R E R V s m E ( X.T V A X.E K s s 0 L E E Y R R 3.u.i.u.w.4.X.Y A M s s m N V K Y ( 2.4.4.4.4.3.3.3.3.5.3.5.5.X.R K A B B K R ( X.X.X.5.( K A Z V K L K g & ; L ../ i d | e.g.M.M.b.M.p.M.M.p.u.7.2.1.X.X.( ( ( X.X.X.( R L d 3 > g X.t.d.r.9.^ k 8 @ X o & 3 s s B K K K K K A V B M d s s s s s 9 9 s s s s 1 o X o - i g G L J I ^ ] ] ^ ^ ^ ^ ^ ^ ] ] ]  . . . .] ^ G a > @ o o O O O O O . o O O O # m A ( K X.( ( X.L | X.( ( O.R ( E X.3.o.X.3.6.( 3.i.b.M.g.p.i.3.I L R O.e.f.f.6.O.| L G | r.n.n.l.l.n.m.Z.Z.b.d.O... .|  .| | L L G G B 9 o X ; 1 - N g ; o - Y B 1 0 0 s B K L ( O.3.6.6.6.6.3.3.3.4.o.L d G L g d B L / | o.O.| | I o./ a H |  .q.T.r.#.M.N.B.B.m.n.l.l.n.n.Z.I.B.f.r.B.Y.M.e.( Z k ^  .| I d ; - 0 A A A K B s - o Z Z ; o ; ; ; 4 s s 4 4 1 - o X . o & - 9 i d g k z G G H H H J H G k g G G s ; 0 K ( ( 5.3.4.4.3.4.w.i.M.N.N.L.L.L.L.L.Y.Y.Y.Y.E.E.E.E.E.E.E.W.W.E.E.Y.Y.I.B.N.N.N.N.N.N.B.I.E.W.Q.^.^.",
"/.E.E.E./.!.Y.N.L.M.r.r.u.w.1.E G d > > > > d G L L I I I I I I L G B g g g g g i 3 & o o @ 3 B L | O.O.o.X.R G g K R R E E R K s s E ( X.T B V X.E U s 4 0 C T E U R Y 2.y.u.u.i.w.3.X.R K M s 4 s m C A Y X.2.4.4.4.4.4.4.3.3.3.5.X.( R K A Z K Y ( o.3.3.6.7.3.o.X.X.X.o.o.X.R 9 & Z / I 9 a o.i.M.M.M.M.M.g.M.M.M.g.u.w.w.w.w.w.e.u.i.g.M.M.g.g.i.3.Z 9 i g ^ O.d.N.b.9.J i o o > B K A K K K K K K Z B M d s s s s 0 9 0 0 s s s 1 o X & i Z L I ^ ^  . ... . .] ] ] ] ] [ ] ] [  .....] ^ H a 8 & o # # # O - - O . o O O O # B K X.R X.R X.X.L X.o.L 6.( 5.R o.X.5.4.X.7.4.3.6.u.M.M.M.g.b.9.| I L | O.3.o.| / G d k  .9.0.9.r.b.n.Z.Z.n.b.9.9.#.O.#.#.O.| I G Z g s ; o o ; 1 4 s i o o N K 0 4 9 s B K L ( O.6.6.9.9.9.3.4.4.9.O.X.Z Z R B s d G I | o.o.| | | O.I G z J ..m.T.0.9.M.M.n.m.n.d.s.l.n.m.Z.Z.M.e.g.L.L.M.i.3.I Z G ^  .| J i - ; s B Z B s > - 3 L B & - 1 1 3 4 s s s 4 3 ; o o o - > > i d a a k z G G G G H H H z k k L g 3 3 N Y ( X.5.3.6.6.3.6.r.b.M.N.N.L.Y.Y.E.E.E.W.Q.Q.Q.Q.Q.Q.Q.Q.Q.Q.Q.Q.Q.Q.W.E.Y.Y.I.I.L.L.L.L.I.Y.W.Q.Q.^.",
"^./.~.E.E.E.L.N.L.N.M.i.u.t.w.4.X.( K g i 3 > > i d g B Z G G L L G B g g g d i 3 ; & @ o - s K / o.O.O.O.o.R B B R X.X.| X.E L s s E ( X.T C V X.E Y C 3 s s U E K T K X.w.u.i.g.i.w.4.5.R B s 3 4 s s m V U E 3.4.4.4.4.4.4.3.3.5.X.( L K K A R ( o.4.w.w.w.e.w.w.7.w.u.e.6.6.o.i - d I L 8 a 3.b.M.N.M.M.M.M.i.g.M.g.i.u.w.w.e.u.i.g.M.N.K.P.I.K.M.i.3.K > @ & > d I 0.m.m.b. .i @ 9 B A A A K K L L A B B M s s s s 0 9 0 0 s s s 1 o . ; g L I ^ ]  ...#.#... . . .] ] ] [ ]  . .......[ ^ H k 8 & @ & - ; - - - # o . + + # o ; K Y X.X.( L 3.X.L O.| R 6.2.w.X.X.3.5.X.( 3.2.3.w.g.M.M.M.N.b.r.9.O.O.9.9.o.I G g > 8 G | O...9.r.d.m.Z.n.d.9.0.*.#.0.0.9.9.| L G g s 1 o o - 4 o s N o o 1 Y M 0 9 M B Z L R o.3.6.9.9.9.4.4.w.w.3.9.L Z ( K d d B L ( o.|  .^ o.9.I I z G =.D.D.=.0.d.b.d.b.l.0.=.l.m.C.C.m.r.w.b.L.N.M.p.e.3.R g G ......G > & 3 B A M d > 3 L R K ; s s s s 4 - < 2 - # - - - 1 d g g i d a g k G G H G G H H G k k Z G g 3 9 A T ( X.2.3.6.6.6.9.r.M.B.N.B.L.Y.E.E.W.Q.^.^.^.^.^.^.Q.].^.Q.Q.Q.].OXOXOX].].^.Q.Q.W.E.L.B.N.B.I.Y.W.Q.",
"E.E./.E.E.E.(.K.K.N.M.i.u.u.t.w.7.2.( R Y K N 9 - & @ & ; 3 9 i 9 9 9 9 3 3 ; - X o . . ; s s G | 3.O.X.o./ L G L | X.X.X.X.E L s s E X.E E 0 V ( E U C 4 3 m L R K Z Y X.3.w.i.u.i.i.w.3.X.L B 0 1 1 s s s A T X.3.4.3.7.w.6.3.o.X.( R K K K L ( o.6.w.e.u.i.i.i.i.g.i.i.r.r.r.O.G & i G k i d 9.M.L.L.B.N.M.M.N.M.M.p.u.e.u.u.i.p.M.M.N.K.L.L.L.L.N.g.6.K 9 3 3 ; & & > Z 9.I.Y.N.L & 9 g B Z L Z G L K Z V N M s 0 0 4 3 3 0 e s s ; . o i G I ^ |  ...#.*.0.0.*.@....... . . . .....@...[ ~ x x k t > > > > 3 9 > & o o o . # - - 3 V R ( R X.( 3.o./ o.X./ w.w.w.6.2.5.2.3.R o.X.X.e.g.i.N.M.L.f.3.O.O.O.9.6.| L Z p i Z / O.#.O.#.0.b.b.n.b.d.r.0.*.0.*...| | R Z d s 1 o o o - ; 1 N ; o # V A 9 9 N A K L ( o.3.w.w.e.e.w.w.w.w.w.w.X.Z R R B i d B K | | | | #.0.^  .~ [ z.T.Z.#.q.r.b.r.d.0.=.=.j.D.C.m.f.O.f.N.N.M.M.g.i.r.O.G g ] O.O.| H d 9 d K A d d L 3.O.R s A V C m 0 2 - O o X X X - 3 g L / L g i g G G G J G J J H G z g Z G > 3 V K U ( ( 5.7.6.7.6.w.M.M.N.B.Y.Y.E.W.Q.Q.].].].OXOX].^.^.Q.Q.Q.].OX#X#X#X$X$X#X#X#XOXQ.W.Y.L.N.M.N.N.L.Y.",
"K.P.E.E.E.E.Y.L.N.N.N.M.p.u.w.4.7.3.X.X.X.E K B d 9 - @ @ @ o o @ o o . . . . . o o o - 4 9 d L X.o.o.X.| L G L _ X.X.X.X.X.E K 4 s E X.T T M A ( R L C 4 1 s V R K B Z R o.7.w.i.p.p.u.w.3.( K M 3 1 3 4 s M B R 2.7.3.4.6.6.6.5.X.( R Y L R ( X.4.w.u.u.i.i.i.f.f.b.b.b.b.b.b.9.L * i G d > g w.N.Y.Y.I.L.N.N.N.N.M.M.i.u.i.p.i.g.M.M.N.N.L.L.I.I.N.g.6.L 9 1 0 0 9 ; @ o > g b.B.Y.6.8 > g g g Z R L L G s M d s 0 9 4 3 3 4 4 e s 1 o o i G I ]  .O.#.=.q.d.s.q.0.*.#.#.#.$...@.@.#.#.@...` ~ c k a p a k Z G z G g 9 @ . o o - - - 9 A ( X.X.X.R 6.3.| 3.| ( 2.w.e.w.w.w.6.X.( ( R E w.M.g.g.N.M.f.9.| R o.6.o.I G d 9 d I O.#.#.O.9.q.r.d.d.r.r.r.q.0.#.] L L / I B s 1 o o o O 4 - N 9 @ - 3 K s 0 d L L R ( X.3.6.w.e.e.w.w.w.w.w.e.O.K R R G d d g Z R |  .#.6.q.^ ..^ ..m.T.C.#.q.q.s.0.0.*.@.%.s.C.m.n.r.6.f.M.N.M.M.N.M.g.w.R Z I O.9.#.O.I d d A A g L 6.w.3.R Z K A V m 0 < O o .   X o - 3 s Z L R | L d a H J z H J J J G a Z L g > 9 A K U ( ( 5.7.7.w.9.r.N.B.L.Y.E.W.W.Q.Q.^.].].OXOXOXOXOXOX#X#X#XOX#X#X#X#X#X#X$X$X$X#X#XOXW.Y.B.M.b.f.f.M.",
"p.b.M.N.(.Y.Y.L.N.N.N.M.h.i.w.7.3.3.5.5.5.X.( Y V s 1 - @ @ # @ o o o o o o o o - - ; 3 4 s V ( | R / | L Z K ( o.X.X._ X.X.T K s s R E U V C m K V m 3 o o - 4 M B Z Z L o.6.3.w.e.e.e.e.w.o.R A s 3 1 ; 3 0 s V ( 3.3.3.O.O.3.o.X.( R R R X.O.9.e.g.g.b.b.M.M.M.N.M.N.B.B.B.B.r.| > ; G i & Z e.B.E.E.Y.Y.I.B.L.N.N.M.g.i.i.g.M.N.M.N.N.L.L.I.L.Y.L.g.o.B 3 ; 0 0 3 3 1 - @ o i / r.B.f.a & Z L L L R L Z B d d s 9 9 4 3 3 3 3 4 s 3 @ o 9 I ]  ...*.0.q.d.l.l.l.d.q.0.*.%.%.@.#.%.%.%.@...' ` c l z H I ]  .#. . . .^ g > @ o & > > ; 3 Z X.3.L X.X.O.9.o.3.R X.6.w.w.e.u.u.7.o.X.R Z K X.6.u.p.M.N.i.X.L R X.X.R L B 3 9 G o.9.9.6.*.9.9.0.r.q.r.d.s.q.@.I g a L / B 9 1 o o o o 3 - s N - - # Z V 9 d Y R ( X.X.3.6.w.e.r.u.u.u.w.e.u.6.R R X.R G Z g g L  .@.0.q.q./ .. .0.Z.R.m.$.q.0.0.9.#... .%.j.A.m.l.6.9.f.M.M.M.N.L.K.M.g.3.L L O.r.r.r.9.R K K K L o.i.r.6.K K K K V m 4 < O o X   X o ; 3 9 d B L | | L k a z H J J J H z a Z L i > s K L Y E E 5.7.w.w.w.g.I.L.Y.W.W.Q.Q.Q.Q.Q.].OXOXOXOXOX#X#X#X#X#X#X#X#X#X#X#X$X$X$X$X#XOXOXQ.Q.Y.L.M.i.r.i.",
"r.u.i.b.N.L.L.L.N.N.M.b.i.u.t.w.4.3.5.X.X.1.X.X.R K d 4 ; ; ; ; - - - - # # # # - 1 3 3 1 d L R | L I / G B L X.2.X.X.X.X.X.T K m s K V m 3 0 - 1 3 3 - X   X O 3 Z L K Z K X.6.6.9.w.w.w.w.3.X.L A s 3 - - 3 d d Z L | X.| / | ( R R R R | 3.9.i.g.M.N.N.N.L.L.L.L.I.I.Z.Z.I.Y.M.O.i @ g > & Z t.B.W.W.W.E.Y.L.L.L.K.M.g.i.g.M.K.K.N.N.N.L.I.Y.Y.E.I.M.3.B 3 4 s 0 2 1 1 1 # . . @ i / f.b.^ & g / L / ( K L d d s 9 9 4 3 1 1 4 4 0 9 - o > I  .O.*.0.q.s.d.l.n.n.n.l.d.q.=.=.%.%.%.%.@.@.{ ' ` c x ~ [ #.*.9.0.0.9.*.*.#.^ g & @ * i i > 9 Z X.O.| | X.3.9.X.O.O.O.3.6.w.e.u.i.i.6.o.o.L K o.4.w.e.i.r.O.L G L R R L G i 9 d R O.9.9.9.*.O.O.9.9.0.r.r.q.O.I p i g L Z 3 - # O o O O 1 ; B > # - 9 R s B L ( o.o.o.3.9.e.r.i.p.u.u.u.u.i.w.X.( o.X.R L Z Z L ..*.r.d.q./ ....s.D.F.l...0.*.@.O. .` [ %.z.D.m.q. .r.f.g.g.M.N.L.L.N.N.i.X.I o.f.d.d.r.6.| R I o.#.9.e.o.B K L K B s 3 - O o X X o ; 1 3 9 i d g B L  .| z a G J H G z z Z G G 9 3 d K Y Y E E X.7.w.w.w.b.Y.Y.E.W.Q.Q.Q.Q.Q.Q.OXOX#X#X#X#X#X#X#X#X#X#X#X#X#X#X$X$X$X$X#X#X#XOX#XOX].Q.Y.N.M.f.",
"i.r.w.e.i.M.N.K.K.K.M.p.u.e.w.w.4.3.5.X.X.X.X.X.( R K N s 1 1 1 3 1 - O o O # - - - < 1 4 N L L R L R L B Z ( o.2.X.X.X.X.T L V V s s 3 < - 3 o O - 3 4 s 4 1 ; ; g | X.L Z L / o.O.6.9.w.9.3.o.R K B d 0 @ - g B g g G I L L L L L L R ( o.6.r.g.M.N.N.K.L.L.I.Y.Y.E.E.Y.Y.Y.E.B.9.g o i > - g e.I.Q.Q.W.W.Y.I.I.L.B.N.M.M.N.L.L.K.N.L.B.I.Y.Y.W.Y.L.M.6.B 1 4 m m s < # - # o . - - & g 9.0.^ * R o./ | R K Z B d s 9 0 3 3 1 3 3 3 9 ; . ; L  .#.0.q.q.d.l.z.m.m.m.m.z.d.s.q.=.=.=.%.%.%.{ ' ~ ! ~ { =.q.q.q.*.0.q.0.0.q.0.6.H t & ; i i 9 9 G o.O.o.| O.6.o.3.O.X.O.9.e.w.w.w.p.9.X.6.6.| I O.w.i.i.i.r.O.G g L L L K B 9 3 G | 9.9.9.6.O.O.O.O.6.0.q.0.#.^ i 9 > i B 9 O - O - - o 4 - d 9 o 3 - L V M K X.3.3.3.6.w.e.i.i.p.i.i.u.u.i.w.O.| 3.3.X.| I I | #.0.d.d.0.|  ...s.C.D.q.[ #...^ ] I H ~ %.z.D.n.*.| r.f.f.f.V.L.B.L.N.N.M.w.X.| f.d.d.d.r.9.O.o.9.9.6.9.R Z L L A C 4 < - O o X o o ; 4 9 9 i d i d g H ] | H a G H J G z G L B 3 i B K L L E E X.7.w.e.e.f.I.I.E.W.Q.Q.Q.Q.`.`.OX#X#X$X$X#X$X$X#X#X#X#X#X#X#X$X$X$X#X$X$X,X$X$X$X$X#XOX^.E.L.M.",
"M.r.9.3.4.w.u.g.N.N.N.M.i.e.7.3.3.4.3.5.1.1.1.X.T T U V N s 4 4 3 3 1 < - O O O # O - 4 s g B L R I L Z B K ( X.2.X.X.X.T K V V U m 3 - - < s 3 s 4 4 m K Y K C 9 3 d L | / L G L I | 3.9.9.3.o.( K B K G 3 - d L Z d d Z G G G L L R ( X.3.e.g.M.N.L.L.L.P.I.I.Y.E.W.E.Y.Y.Y.E.I.i.I @ - 3 - 9 6.B.Q.Q.Q.Q.W.Y.I.I.L.L.N.N.L.I.I.P.L.L.I.Y.Y.Y.Y.E.E.N.3.s - 9 B V s < - < < - o . 3 g > 9 | r.G i O.9.| o.L L A B s 0 0 3 3 1 2 2 3 0 3 o & G ..9.q.d.d.z.n.m.m.m.Z.C.m.z.d.s.q.q.=.=.=.%...' ! ~ ' &.d.l.d.q.%.....$.#.#.0.d.0...z 8 8 i d i 9 Z 6.O.O.6.| 9.3.o.| o.6.w.e.u.w.w.w.3.| / R G R 3.p.M.N.N.r.| Z G L G Z B s - d L O.6.9.9.#.6.o. .#.0.r.0.#.^ d 9 & > d 9 # - - 3 - - 1 1 > s @ 1 - M R d K X.6.6.w.w.e.e.i.i.p.p.p.p.u.i.e.3.X.9.9.O.6.O.o.#.0.s.n.d.9. . .#.s.x.C.=.`  .] J G G k I %.z.C.d. .| e.i.i.b.N.L.B.L.L.N.J.p.3.( 9.d.b.l.d.t.0.e.6.t.9.O.Z L R K A M 4 < # o . X o - < 1 9 i i i i g g g G I I H k H ] J G H L g > i V K L T E X.o.3.7.e.e.i.B.I.E.W.Q.Q.Q.`.].OX#X#X$X$X$X$X$X$X$X$X$X#X#X#X#X$X$X$X#X$X$X,X$X$X$X$X#X#X#X].W.I.",
"I.N.i.w.6.3.3.w.w.i.g.g.p.u.w.3.2.2.2.1.2.2.1.X.X.X.E R K N s 4 < 3 3 < - O O O - < 1 0 s d d G L L G g V L R X.X.X.E Y V m M C K m 3 3 3 s s N B N s s m A L L L > o & i G I / G G G I o.O.o.| R K d Z L d 3 g L L Z i d G H L I R ( o.3.w.i.M.N.L.L.L.L.I.I.I.E.E.E.E.E.E.E.E.E.M.O.3 o 1 - ; o.N.Q.Q.Q.Q.W.W.Y.I.I.I.L.L.K.K.L.K.M.g.f.b.b.b.M.B.L.g.o.M 3 9 K G N 2 - < 2 # O 2 3 N L Z i B O.> G 9.6.3.X.( L Z d s 0 3 3 1 2 3 3 s s & & k O.9.d.d.l.m.C.Z.Z.Z.Z.Z.Z.n.l.d.s.s.q.=.=.%...' ~ ' @.q.d.d.q.%.[ J z x J ^  .O.=.q.9.| k p g G 9 B g o.9.o.6.9.9.O.o.X.X.O.w.u.g.u.i.g.3.I I R K L X.w.i.b.b.9.| L Z Z B N s ; > z | O.9.9.6.6.o.o.6.e.q.e.#.| G 9 & ; 1 3 3 ; < < < < - ; - 9 - # ; 9 R A K X.6.w.e.i.i.i.i.g.M.p.p.p.i.i.e.6.X.w.e.9.e.0.9.r.d.l.n.s.#. . .#.q.l.x.=.` ^ J G p d a ^ =.z.n.=.^ ..9.r.r.b.N.L.B.B.N.K.J.g.w.X.o.t.d.d.d.d.r.f.9.9.w.| Z R R A V m 3 - O o o X - ; ; 1 9 s i i d g G G G k H ^ k G ` I G L L g > g G K L L R X.5.3.6.i.r.r.N.I.W.W.Q.Q.Q.`..XOX#X$X%X%X%X$X#X#X#X#XOXOX].].OXOX#X#X#X$X$X$X$X#X#X#X#XOX#X#X].^.",
"^.W.I.M.u.4.o.X.X.3.w.u.u.u.w.4.2.X.X.X.X.2.2.1.2.X.X.X.X.R V s s 4 1 - o o - < < s s 1 i i i B K K g d A L R X.( T U V m 4 s B m 0 4 s 4 s 3 m s M M 0 < 1 s N Z d > @ o & d R / L Z G I | R L K B s d Z d 9 Z g I L i i L I L R ( X.3.9.e.g.M.N.N.L.L.L.I.I.I.E.E.E.E.W.Q.W.E.Q.N.9.d X ; - - ( g.W.Q.Q.Q.Q.W.Y.I.I.I.L.N.M.g.i.e.6.o.X.X.X.X.o.O.X./ R K 3 @ B P L i - 1 0 s 2 < M L L ( | i i G > L g.6.X.X.R K N s 0 4 3 1 3 4 0 M M - @ d O.9.d.l.z.m.Z.Z.T.T.F.F.D.C.n.l.l.s.q.-.-.=.@.' ' @.-.s.d.d.0...z G k i t d Z H I  .q.d.O.G k H I d 9 g o.9.o.O.9.9.6.O.| R X.6.w.i.e.e.M.e.o.o.E N V X.w.r.f.f.6.L Z Z d s d 3 & p L o.9.9.O.O.O.O.#.0.e.0.6. .I > - - o 1 s < < O 4 - - - ; 3 ; o 1 9 K E K X.6.w.i.g.g.g.g.M.M.M.M.M.i.i.i.w.X.w.r.t.r.r.r.b.b.b.n.r.O.|  .#.0.s.z.%.^ H k a > 9 p I =.l.d...H O.O.r.i.M.N.L.L.V.N.K.N.M.i.3.| 9.q.r.b.M.d.r.b.O.9.R L R R K C s < O O O o . 1 1 ; 1 3 s d i d g G L I I G G G k G I L ^ L i 9 B L L L R R X.5.2.7.i.i.e.N.Y.W.W.Q.Q.Q.`.`.OX$X$X%X%X$X#XOX].Q.Q.Q.W.W.W.Q.Q.W.^.#X$X<X$X$X$X#X#X#X].].].].^.",
"^.^.^.E.L.i.3.( R R ( o.6.w.w.7.3.5.5.X.X.X.X.X.X.X.X.X.| R K B 0 3 ; - - ; 3 9 s 0 9 9 9 9 9 3 9 s d Z Z Z L R X.K Z s s B s M 0 1 4 m # 0 1 0 3 4 4 3 - % % - 1 1 4 1 - o o ; B X.K i B G Z B d s 3 4 s B d 3 d G | g i L R X.X.3.3.6.e.g.g.g.M.M.N.L.P.I.P.P.E.W.W.E.E.E.E.W.Q.L.e.L o @ - o G e.I.].Q.Y.Q.W.I.Z.B.B.M.e.6.6.O.( ( R K K R L X.G R g ; G 0.G > d g d ; - 0 0 9 s B A ( 3.O.6.Z - - 4 2.w.4.2.E L B s s 4 1 1 3 1 s M B 9 @ 9 O.d.l.n.C.C.Z.D.T.T.T.T.F.D.C.z.s.s.s.-.-.;.@.' @.&.q.d.d.0. .I G B d d g d s 9 Z G I O.q.9.] a H J k i G | 6.e.9.6.e.9.| / o.o.3.9.w.9.w.u.7.o.I | G g O.f.b.M.M.X.K ( / B d 3 ; ; B | O.O.#.6.#.9.0.0.0.9.O. .I 9 & @ o o 4 C ; O < - O - # 3 9 @ - 3 g ( K o.6.e.g.M.N.M.M.N.N.M.M.M.M.g.i.e.o.w.i.r.r.f.b.b.b.M.d.9.O.|  .#.9.#.0.9.^ k p * ; @ d I 9.d.d.I Z | 6.e.g.N.L.L.B.L.L.N.N.g.e.9.| O.e.b.b.r.r.f.r.0.O.I L E R A C 4 - O O O O O 1 ; ; ; 9 d d s d Z K L I | ] I k a d G I / L d i Z L L R R E X.X.5.7.w.i.i.i.Y.E.E.W.R.Q.Q.OX$X$X%X3X,X$XQ.Y.I.N.M.M.M.N.B.B.B.I.E.^.].#X$X#X].#X#XOX^.^.^.^.{.",
"].].^.^.W.I.M.e.X.E Y R ( X.5.3.3.3.5.X.X.X.X.o.X.X.o.o.X.X.R K B d 9 ; - - > 3 i s s s i 3 ; - - 3 d B d s B L R A d d d d M M 2 # 5 2 0 # # # - - - - o X X o # o o O - O o - 3 0 L d > d d B s s 3 1 3 s i 3 3 9 L Z d R 5.3.3.w.w.w.i.p.g.M.M.M.N.K.L.L.I.I.E.E.E.E.E.E.W.W.^.I.i.R - @ ; o g 9.B.W.Q.W.W.I.B.n.f.r.9.O.o.O.o.X.( X.o.2.3.3.w.e.O.^ p p j.r. .; > 8 > . > K d M A ( X.6.w.i.w.K o o V w.w.2.X.E K N s 4 1 1 3 1 0 M B s - >  .d.z.m.C.C.D.D.T.R.R.R.R.R.D.C.z.j.s.>.-.&.} ' @.&.s.d.d.9.| L B B K R ( ( E R A d i Z ..q.0.@.J ~ [ x 8 g | | O.O.6.e.e.#. .o.X.O.6.6.7.7.7.4.| | L g d | r.f.i.M.X.Z L R B ; @ & 9 L O.0.t.9.9.9.9.9.9.9.#. .I i & o . o 4 A 1 o - - # O . 1 B - @ 3 s R ( X.9.e.i.M.N.N.N.K.K.J.M.M.M.g.i.e.O.w.i.f.i.f.b.b.b.d.t.6.| ^ |  .O.O.6.O.L d > @ @ o 9 I 9.r.9.G G X.w.u.M.K.L.L.L.I.L.N.N.g.r.9.o.O.6.t.r.r.r.r.t.9.X.R R E Y A s 1 o o O # O O < 1 1 1 9 i d d N Z K L / | | ] G a i g I | R g d G L L R R E X.X.3.w.e.g.i.r.L.Z.Y.T.Q.`.OX#X$X3X%X#XOXQ.B.r.O.O.o.O.#.9.t.r.r.M.N.E.W.^.].#XOX^.OXOXOX^.{.OXOX",
"^.^.^.Q.Q.W.I.M.e.5.R K A K Y ( X.5.5.X.X.5.5.3.2.3.3.3.3.3.o.| R L B s 3 ; ; 3 i s s s 9 3 - @ o ; s d 9 1 s V K B 9 d s 0 B s # # - O 0 X     X X o o X       X     o O O - - # 4 ; g B ; 3 9 s s 0 3 4 s s s - o 9 B s L w.w.w.u.u.i.p.i.i.g.g.g.M.M.K.L.I.I.Y.E.E.E.E.W.W.^.^.Y.g.( 3 o 3 @ > o.N.Y.Q.Y.B.f.d.e.9.6.O.O.6.9.t.b.r.r.M.b.g.N.M.I.M.r. .t J  .L g L g i > & d K A L 3.3.7.i.g.N.w.s X o E u.w.4.X.L B s 4 1 1 3 3 0 s Z B 3 ;  .j.m.C.D.D.F.F.R.`.`.`.`._.R.F.C.c.j.s.-.%.{ { &.-.s.d.q.@.I Z B K X.4.w.w.6.4.3.o.R g i G ..q.=. .`  .^ a Z X.o.6.o.o.w.e.O.o.X.O.9.w.w.w.w.w.6.| L g > 3 L 6.r.i.3.L G I R g ; ; > Z O.0.t.r.9.0.9.#.#.#.O. .^ a & . X . 1 V s O o - # o   ; L s o ; 3 K o.R 9.r.g.M.L.I.L.L.L.K.N.M.M.M.g.i.6.w.r.f.b.b.f.f.f.r.9.O.| I I / O.O.o.| G i * @ o . ; I #.q. .a L O.w.i.M.K.N.L.I.I.P.K.M.g.i.w.6.O.o.3.9.w.r.r.9.O.| L R Y A M 3 ; - - - O o X - - ; ; 3 i d d B Z K R |  .....| G > i G / / g g L L L R E E X.X.3.w.e.i.e.9.M.m.Z.W.`.OX$X$X$X&XOXW.B.r.O.H a k a p a z J ]  .9.r.b.N.L.Y.Q.^.^.OX#XOX#X#X#XOX",
"^.^.^.W.W.W.E.I.L.i.2.( K B B A Y R X.X.X.2.2.o.4.6.6.6.w.w.6.3.X.| L Z d 9 9 9 9 9 9 3 > - - - - - 3 9 9 1 3 4 B d s s 3 3 M 3 o < o - -             X X           X X X o ; 4 9 3 ; 3 B d ; 9 s M B B V A Z g 3 o o 3 3 B 2.e.e.u.u.u.i.i.u.g.p.g.g.M.N.L.L.P.I.Y.E.E.E.E.W.W.W.E.g.X.9 . ; @ @ / M.I.Y.B.f.e.6.6.9.e.r.f.N.B.B.I.N.i.g.g.i.i.f.f.B.d.*.a * > d 9 > I #.O.; d L / ( 6.6.i.g.M.N.K.2.4   4 4.u.4.X.R D N s 4 4 9 9 s d Z G i & ] l.C.D.F.F.R.R._.`.`..X|.|._.R.S.v.z.j.-.@.{ } &.-.s.d.0. .H g K ( 4.u.u.e.e.e.u.u.w.o.I L J J *.q.#.] | I a d I w.9./ | 9.9.O.o.o.3.w.r.r.e.e.r.9./ L Z > 3 R e.r.r.w.R L O.O.K d > a o.9.9.0.9.0.*.O.O.O.O. .^ Z - . . . O 0 V < % o O o . - L L - @ - d X.| 3.i.M.M.L.E.E.E.I.L.K.N.M.M.M.g.w.w.9.r.f.f.i.r.t.9.3.o./ I I ^ O.o.^ G g 9 * & & o & L o.9.L g I O.u.g.N.K.N.L.U.U.I.K.M.g.i.e.9.O.| X.O.3.6.9.O.| L A A B 0 1 ; 1 4 s 3 - o   O O - - > i g g Z G L / o.o.O.O.O./ p > i L R d Z L R R R E X.X.5.3.7.9.9.6.O.r.m.Y.W.`.#X$X$X#XW.Y.n.9.^ z k z H k p 8 > > > 8 k G | 9.f.M.N.L.W.^./.Q.^.].^./.",
"Q.^.^.W.W.W.E.E.E.K.p.w.X.K d s N K R ( X.o.o.X.3.3.4.4.6.6.6.3.2.o.( R K B s s 1 ; ; - - - - ; ; - ; 1 3 1 - - 0 4 M s - 3 3 - X O o 3               X + X         X X X o < s s 0 d > & d g 3 B L R ( ( X.R Z Z 3 o @ 3 9 K 3.e.u.e.e.i.u.e.i.i.p.g.M.N.K.K.L.L.I.I.I.I.I.E.E.E.E.M.3.d . ; & . G e.N.N.f.9.9.6.e.f.N.B.I.I.I.B.M.r.O./ o.6.o.6.o.#. .^ z a z & Z 9 > G B.0.i d | 3.9.e.M.M.N.N.P.M.R - . L w.w.3.( L V N s s 9 s s d V K d & I j.D.F.F.G._._.`.`..X.X|..X_.R.F.C.x.z.s.%.} @.&.-.s.d.*.^ G g L o.u.p.g.g.g.g.i.i.u.i.r.9.| G ] 9.b.0. ... .k g / w.6.X.o.w.6.O.| I | 9.e.0.e.w.f.w.X.| G d g R r.b.r.3.L L X.O.L 9 9 I 9.9.*.9.*.*.O.O.O.O.| ^ G > . . o O 1 C 4 ; - - # o # N X.s o & ; L o.o.i.M.N.L.Y.E.W.E.I.L.N.M.M.M.M.i.6.3.9.e.e.w.w.9.3.O.| / I / | O.| G a p 8 > 9 > & - I | ..g Z / 6.i.M.K.L.L.L.U.U.I.K.M.g.i.e.w.3.o.X.X.X.( / L B d s s 4 ; # - 4 N B s 3 - O O ; 1 3 3 i g G L L I | o.o.O.O.#.O.G > > Z I g G R ( R E X.X.X.3.3.4.3.6.O.O.r.B.Y.Q.].#X$X#XQ.E.b.O.^ J ` @.q.s.q.=.#. .I z k i 8 9 a L | 9.r.f.N.I.E.W.^.^.^.",
"W.^.^.^.W.E.E.E.U.L.N.g.w.X.K d s s B L ( X.o.o.o.o.5.2.3.3.O.o.X.X.( R K B s 0 ; ; - - - - - - ; - ; 1 1 - - ; - - s 4 - 1 # . X . - <                 X           + o O < 3 0 s B s d i i g - L X.3.6.6.4.X.R K d @ o ; 3 s R w.e.e.w.e.u.e.e.i.i.g.M.M.N.N.N.L.L.I.I.L.L.L.I.Y.Y.N.9.B @ ; 9 o 9 | e.e.e.9.e.f.N.I.I.I.N.M.r.w.9.6.L 3 d / o.|  .| I z p ..0.g s B s 9 | m.#.8 L 9.e.f.M.M.L.L.L.U.w.M   9 o.7.3.X.R K B d s 9 s s s B K B & z q.D.F.R.R.`.`.`..X+X+XXXXX|._.G.S.C.x.j.=.%.%.&.-.s.s.#.~ Z k R 3.p.N.M.M.M.M.M.M.M.i.e.w.9.6.L Z I 9.r.O.|  .G d I 9.w.3.6.6.w.o.I I | O.9.9.w.w.e.w.X.L B 9 i L O.w.6.I Z g  .O.I p k  .9.9.*.*.#.O.O.O.o.| ] G > o o # < 3 s 0 4 1 3 1 - o 3 X.Z @ - - d X.X.e.M.L.I.E.W.^.W.E.I.L.N.M.M.M.g.w.3.3.6.6.3.3.O.o.| / R / | O.O.I Z d p p d g i ; ; L | ^ i G o.w.M.N.L.L.L.I.U.U.I.K.M.g.i.e.w.9.3.o.| L G B s 9 4 9 0 3 ; # - 4 f d 1 - - - O 1 s g i 9 d G L L / | o.O.O.O.O.9.| p > d L Z L / | ( X.X.X.X.2.o.o.o.O.O.O.r.Z.W.].OX$X$X].Y.l...G J ..s.x.x.z.l.l.l.d.q.=.*. .J p > 8 i g G L X.e.g.M.K.U.E.",
"L.I.W.W.Q.W.W.E.L.L.K.M.i.w.X.L B s s B K R X.3.o.2.3.3.3.3.3.o.X.X.R R Y K Z M s 9 3 1 ; ; - - ; ; 1 3 1 ; 1 9 - - 3 3 1 - o . X X - X                             + o - 3 4 0 B s B B L L 3 3 B ( w.w.w.6.3.X.L B 9 o @ > 3 d X.7.w.w.w.w.w.w.u.u.i.p.g.M.M.M.N.L.L.L.N.N.L.L.L.L.M.w.Z ; 3 Z 9 & g o.9.r.f.N.I.Y.I.B.M.r.9.6.| O.O.G * o d | | O.O. .H i ] l.o.@ ; i i d e.B.H a #.e.M.N.N.I.I.L.E.L.( o o L 6.6.o.( L G B d s d i d Z L G * a 0.D.G.R._.|.`.|.XXXX+X+XXXXX|._.R.S.C.k.>.=.&.&.>.k.s.#.J Z Z X.6.p.M.K.K.N.M.M.M.g.g.M.M.p.e.w.O.I | d.d.O.O.O.G g / 6.9.6.3.w.w.6.o.| | O.9.w.3.7.e.3.R Z d d i G O.o.R L d g | #.^ k I #.*.#.#.O...O.O. .| ] G i - o - 4 s 0 s 4 s s 0 4 1 ; L L & - ; 3 L ( 3.i.N.Y.E.W.^.Q.Q.Y.I.L.N.N.N.M.i.w.6.3.3.5.5.X.| R I / | O.3.O.I G G k G L I Z > ; G ^ H > L 6.i.N.L.I.I.L.Y.I.U.I.K.M.g.i.u.w.7.5.( L Z N d 9 i s M M s 9 ; - - > - o o o o o - s B g i i d G L | | o.O.#.O.#.9.O.G i i G G I | X.| X.X.X.X.X.( ( | O.O.o.e.Y.Q.#X$X$X$XW.b.| I I O.z.A.C.x.A.C.C.m.z.z.z.m.l.d.0...] H p > 9 i B R o.3.w.i.",
"3.w.g.N.I.E.E.I.I.P.N.g.i.i.w.o.( Z s s B K R X.3.6.7.7.w.w.6.3.4.5.X.X.X.X.( R K B s 3 3 1 ; - - - ; 1 1 1 4 s 0 4 - 3 0 # # O o O O     +                       + + . O - 4 s d V Z Z Z | O.9 ; K 4.w.6.3.3.o.X.K Z - . - - 1 K 5.w.7.7.w.w.w.e.e.e.u.i.g.M.M.M.N.N.N.M.M.N.N.N.N.g.w.B 3 3 L K & i o.r.B.I.Y.Y.Y.B.M.r.e.9.6.9.9.o.I g & ; L O.| #.| ^ k G m.e.;   o & > G m.r.t  .r.B.B.I.I.E.L.E.E.9.i   s 9.9.3.o.( L G B g d 9 d G I I > t =.D.R._._.`._.`.XXXX+X+X+XXX.X_._.F.C.k.>.-.&.;.s.k.l.#.J Z G X.6.u.M.K.L.L.K.N.N.M.g.g.g.g.g.g.i.9.| | 0.b.0.O.9.| k I 6.9.3.X.w.i.e.X.R | 3.6.i.w.6.i.e.( L B G d g L I G d ; a | O.^ ^  . .O.O.O. .|  .| / ^ G g 3 @ 1 s s s s s s s s m s ; d L - ; 3 ; B E o.w.M.E.W.W./.^.Q.W.Y.L.N.N.N.M.g.i.w.4.3.3.3.X./ L L / o.O.6.O.I H L G I | ^ L > * g I G > / w.M.L.I.Y.I.I.Y.I.E.I.L.M.g.i.u.7.5.R Z d s s s d B A K K V s 3 o o o o o O O o o o ; B L g i i G L | |  .#.*.O.9.9.O.^ d > d g R X.o.X.X.X.X.X.R R R | O.O.o.w.Y.^.$X$X$XOXB.0.| ..9.z.C.A.F.G.C.v.C.C.C.C.C.D.C.A.D.C.z.r.#.| d > ; s L X.5.3.",
"w.3.o.3.w.i.M.L.L.L.K.M.i.e.w.e.7.o.R Z s s B L X.6.w.w.w.e.e.w.3.3.5.o.o.X.X.( R K B B d 9 1 ; ; ; ; ; 1 1 3 0 0 0 1 # # - 1 4 X X     X                         + o + X O 2 s d V L R K ( X.R 3 - R 6.7.u.9.3.O.X.L d - @ 1 s 9 ( 3.w.w.3.w.w.w.w.e.u.i.i.g.g.g.g.g.g.g.g.g.b.M.i.e.6.G & G L G a * o.N.W.W.I.I.N.M.f.r.e.e.e.9.9.9.O.g g d i O.6.O.#.| J a b.r.9 .     o * 9.n. .t b.m.Y.~.U.W.W.W.E.N.Z . @ X.e.6.3.R R L G G B g Z L I L 8 8 q.F.F._._._.`.|.XXXXoX+X+XXXXX|.|._.A.z.j.>.-.-.>.k.l.=.J G L O.w.u.i.M.K.K.K.N.L.L.P.J.M.M.M.N.M.g.e.| G | r.q.0.*.] k k o.f.3.X.6.i.w.X.X.o.3.w.u.i.i.i.w.3.Z B B B Z Z g d > & a  .| I ^  . . . .| / ^ / / I H g @ - 4 m M C 1 N 4 C C B A s 1 K 0 0 3 9 i L ( | r.L.Y.Q.Q.Q.Q.Q.E.I.I.L.L.M.g.p.u.w.7.7.2.X.L K R | O.6.6.O.| | | | | O.O./ 9 > G g > p / r.M.I.U.I.I.I.Y.I.I.L.L.K.M.u.w.X.Y N s s s M Z L L R Y K A s - o : : o o o o o o . - f L G d i g L X.O.O.6.9.*.9.9.6.| G i > g / | X.X.X.E R R L L I | O.9.w.e.Y.Q.#X#XOXW.d. .~ q.n.m.F.F.C.x.x.C.v.k.z.C.S.G.F.G.R.F.D.C.l.0...a 9 ; Z o.3.7.",
"g.i.i.w.3.o.o.3.p.M.M.g.u.e.e.e.e.w.6.X.L B d d B R 3.w.e.u.u.w.6.4.3.3.3.3.o.X.( R L K V d 9 4 1 ; ; ; ; - - ; 1 - 1 1 - # # -   O X                               . o X X O 3 d Z L R R L I X.A - s ( 6.w.6.w.6.o.( K 9 - ; s 3 B o.7.6.w.w.4.w.w.w.w.e.u.i.i.g.g.i.i.i.i.i.i.i.e.6.o.B @ Z R L i i O.B.Y.I.B.M.f.f.f.r.r.e.e.0.9.9.O.G i #.; I 6.#.#. .I i r.f.g . .     o I m.*.a 0.N.E.~.E.W.Q.W.E.N.L @ @ K 6.6.3.( ( R L G G g Z K R I p > 0.D.F._._.`.|.|.XXXXXX+XXXXXXX|.`._.S.C.k.>.;.;.s.s.x.%. .z G o.w.u.p.M.N.K.L.K.K.P.J.J.J.J.M.M.M.M.M.r.6. . .s.s.q.q.O.H G | w.3.3.7.e.e.6.( ( 5.w.e.i.i.g.i.3.R d 3 9 d g G p & 8 | #.] ^ ...... .| / ^ I I ^ L B & - 0 m C B 4 N 4 C B A A B 3 Z s M d g d Z R I O.b.I.Q.Q.^.^.^.Q.E.I.I.L.N.M.g.i.w.w.7.5.( L K R X.O.9.9.6.o. .O.O.#.*.#.^ i i G p * g | b.N.I.E.I.I.I.I.Y.I.P.L.N.p.7.o.L Z d s B A L R R L Y K N s ; & - i i - o X X + o o o > g G Z i g L o.O.6.6.9.#.9.0.9.O.L i - i I | ( R E R L T L L / o.9.e.r.r.Y.Q.OXOXQ.m.*.] #.l.Z.Z.C.z.s.s.%.s.s.s.j.x.C.F.G._.G.F.A.C.z.s.=.~ k * i | 7.i.",
"g.L.I.L.g.e.3.X.( 2.w.e.i.i.e.w.w.r.g.i.w.X.K d s M K X.7.w.w.w.6.3.3.3.4.6.3.3.X.X.R Y K B d s 4 3 1 ; - - - ; 1 - 1 3 # o . X X < O                                 X X X o o 3 B K L ( L L | X.4 @ N 5.w.6.w.w.3.X.R B ; - 3 9 1 R 3.4.w.3.4.w.w.w.w.w.w.e.u.i.i.r.e.e.e.w.w.w.6.o.( d @ g R K ; d O.N.B.M.f.r.r.r.r.r.e.9.9.t.O.9.9.I & 0.I d #.9.#.o.I i O.b.G . @ .     i b.l.H ^ b.Y.W.W.E.W.E.L.M.| ; & i | O.o.R L L L G g g B G I I a = *.D.R._._.`.|.|.XXXXXXXXXX+XXX|.|._.F.C.z.s.=.;.;.z.s.s.^ H Z X.w.p.p.g.M.N.L.K.K.N.N.K.P.P.J.L.K.N.M.N.b.e...` =.d.q.q.#.J g | 3.9.3.2.u.u.3.Y ( 3.w.r.i.g.g.i.6.( G d d g G d a Z I  . .| | O.O.O. .| | / ^ / I Z - ; 0 C B V s s 4 V V Y K K 9 s 9 Z K K B B L L I 9.N.Q.Q.^.^.^.Q.E.E.U.L.L.M.g.i.u.u.w.o.R G K ( o.3.9.w.9.O.O.9.0.r.0.*.I i g H t > H 6.N.L.U.E.Y.Y.I.L.Y.I.I.L.b.w.X.L B B B Z K R R R K B V M 0 1 - - i B g ; X       X X X o i G G i g L X.O.6.9.9.#.9.0.9.O.I i - ; L I R L L K K K K L X.3.e.i.i.r.I.Q.`.`.T.q. . .l.m.Z.m.l.#.^ J J ` [ { &.s.k.c.C.A.A.C.v.x.z.s.s.$.J 8 ; Z / e.",
"3.i.L.I.I.L.b.w.X.( ( X.3.w.e.e.e.r.i.i.p.u.4.( K M s B R 5.7.w.3.3.3.3.3.4.6.6.5.X.X.R L A N d s 4 ; ; 1 1 3 3 1 ; 3 3 o . .   - 2 o                   X o o o X       . o o o o 0 Z L R ( L L ( A - ; K 3.w.3.6.O.o.| K 9 - - B 1 s ( 4.4.o.7.4.6.7.w.w.w.e.u.i.i.r.e.w.w.w.6.w.3.o./ d @ 3 G g @ > | r.f.r.e.e.e.e.e.e.9.9.9.t.6.9.e.O.> k O.> O.d.9.o.| k I b.] . ; o o . @ O.m.O.k e.B.I.U.I.Y.Y.L.M.O.3 i > L | R L G B Z g d d B G L I a = #.D.R._._..X.X|.XXXXXXXXXX+X+XXXXX_.G.D.m.s.&.&.,.s.z.=. .G Z | w.p.p.p.g.M.K.K.K.N.N.K.P.P.L.P.P.N.M.M.N.M.f.O.x  .l.l.r.0.I g I 3.w.5.5.7.u.o.X.( X.9.f.g.r.M.g.e.o.K d B L L L I | o.L G | O.O.O. .| | | / ^ L B - ; 0 M C V C s 4 B V T Y Y s 3 3 Z ( R L K L G Z | r.Y.Q.^.^.Q.W.W.E.E.U.L.N.M.g.i.i.w.5.K B Z ( 3.9.w.w.e.9.0.r.r.f.r.9.H i G I 8 i  .r.L.I.E.Y.I.Y.I.L.I.I.L.M.w.X.L Z Z L L L L L K B B d s 0 3 ; @ ; d B d - X           X o 9 G G i d G | O.O.6.6.#.9.9.O.O.I d > - Z L K Z F V V K L ( o.w.i.i.r.r.I.W.Q.R.m.O.] *.l.l.d.0.] a > * = 8 y j ~ @.;.s.j.k.c.k.j.j.j.s.s.&...J 8 ; 8 J ",
"L o.e.M.N.I.L.M.g.7.X.R Y R 5.w.i.i.f.i.i.g.g.i.3.R B M B K E 5.3.3.7.7.7.4.4.7.3.5.X.( R L A N d 4 1 1 3 0 3 3 # # 3 1 o # # X 3 2 X   +             X o o o o o o o   X & - - . @ i Z K R ( L R ( s o 9 ( 6.3.3.3.O.X.R B 3 @ N s ; B o.5.o.3.3.6.w.w.w.w.e.e.i.i.i.r.e.e.w.9.9.3.O.X.Z ; @ d g ; o I 6.q.r.e.e.e.q.q.e.e.e.r.i.M.N.M.M.o.; > & | Z.I.r.e./ p l.%.& 3 - # . . Z N.r.a O.M.L.I.I.I.I.I.M.O.i G > B L G G G Z Z g d d B G L I g = ..Z._._._..X|.XXXXXXXXXXXX+X+X+XXX`._.F.C.j.=.&.-.s.c.-...G Z | 6.u.p.g.g.g.M.N.N.K.K.K.L.P.Y.L.L.L.L.N.N.N.N.b.r.]  .n.m.=.q.] z L 3.9.o.X.3.e.3.R K / w.g.g.g.g.g.e.o.L B d K L G L / Z d L  .O.O. .| | | / I H g & ; s M C V V s 4 C A T T R B 3 3 B X.X.X.( R G g L 3.M.E.^.^./.W.E.E.E.E.L.N.M.g.g.g.u.X.A N Z ( 3.w.r.e.r.r.d.b.b.M.d.*.G 8 H J 8 k 6.f.N.L.E.Y.I.I.I.I.I.L.M.w.| L L L R ( R L Z V B d d d s 4 3 1 @ - d g i o             X o 9 g Z a i B I | o.O.6.6.9.9.o. .R g i ; d g B B V K K R X.o.6.e.i.g.i.r.I.W.R.D.q.[  .s.s.q.*.] a > & & & * * 7 z ' } &.;.>.>.;.;.;.;.-.>.-.&.#.H p * 8 ",
"> B X.w.b.N.L.L.L.N.p.w.X.K A Y 3.w.g.M.M.b.M.M.i.w.5.R B s M A R ( 2.7.w.w.w.w.3.3.5.X.( Y A N 0 3 ; 1 3 1 - O o # 1 1 # # #   3 2 +               X o - - - - & 1 1 $ o o ; 1 ; o - s g G R Y L E V - - N ( 3.O.3.o.X.R L s - 1 Z 3 1 L X.o.X.3.4.w.w.w.w.w.w.e.i.i.r.e.e.w.9.6.6.6.3.R 9 o d K d o Z o.e.f.r.r.e.e.e.e.e.f.M.B.W.Q.^.#XM.L o @ H I.$X`.W.e.i =.0.8 3 1 < + . 9 e.r.p / i.N.I.I.B.I.Y.M.O.d | d d Z g Z Z Z g g d d g B G I k > ..C._._._..X|.XXXXXXXXXXXX+X+X+X+XXX_.G.C.k.-.&.&.k.s.l. .I G / 3.u.u.g.g.i.g.M.N.K.K.K.L.Y.Y.I.L.L.I.L.N.M.N.N.N.f. .^ 9.z.0.0. .z z / 9.9.X.o.9.6.R Z L 6.g.g.g.i.g.g.w.R s 3 B g i d i 9 d | O.O. .| | | ^ I G g @ ; s C B V V s 1 m K Y R R Y 9 1 s X.3.6.3.| L B G | 9.N.W.^./.W.E.E.E.E.P.N.M.M.M.M.u.X.A B K X.6.e.r.r.r.f.M.M.b.b.r.#.G 9 H G 8 H e.M.N.L.U.I.I.I.B.B.B.M.w.o.R I | X.o.| L d s s s s s d s 4 9 3 @ - g g 4 o             X o 3 g Z Z i g L | o.O.6.6.#.6.o.O./ Z g > 3 d d g K L E X.o.3.w.e.i.g.g.r.I.E.W.n.@.[ %.j.s.$.J k d i 9 ; > ; = t z ` { } @.@.} { { { @.%.;.;.&.&.@.^ a * ",
"& - i L 3.w.i.M.N.L.I.L.i.3.R A L ( 3.i.M.M.M.M.M.g.i.w.X.K M s M B K ( 5.7.7.7.7.3.5.X.( R K M 4 1 1 1 1 - # o # - < 1 < O     < 2 +         +   . # ; 3 i 9 9 w d g i - & - 3 d - o - 3 s Z L L Y K 3 @ 1 d X.X.X.X.( R L M 3 # B s ; s R X.X.o.2.3.6.7.7.7.7.6.e.i.e.w.w.w.9.w.w.e.w.X.d o B / G & i | r.f.f.r.r.r.r.r.f.N.Y.].#X#X3X3XW.w.i & d e.#X3X1XY. .` 0.a ; 4 5 , # - K / ; d o.i.N.M.M.N.B.i.O.d O.G 9 g g B Z Z g G k g G G G I k 8  .m._.|._.XX|.|. XXXXX.X.X+X+X+X+XXX|._.A.z.>.&.;.;.c.q.=.J G R 3.w.u.i.i.i.p.p.M.N.K.L.L.Y.Y.Y.Y.I.I.L.L.K.K.J.g.M.f. .I ..q.j.q. .g a | 9.O.I O.9.6.R G R o.g.g.i.e.i.g.w.X.d 9 3 i 9 o o 9 H | O.O.| | | ^ I G d o - s C V V K N 1 m U U ( R ( 0 1 3 ( 3.e.e.3.| L G I | r.Y.E.~.W.E.E.E.U.P.K.N.M.M.M.w.X.K K E 3.9.w.r.f.f.M.b.M.b.n.r.O.G i G a > ^ f.N.N.L.I.I.I.I.B.B.f.9.X.| | O.O.O.X.L s ; ; 3 9 i i d s 3 9 > @ 3 g g 1 o               o > g g d 9 d G / X.o.O.O.o.O.o.O.I B G i > d B Z R E X.2.3.7.w.e.i.g.i.e.I.Y.Y.q.[ @.j.j.%.H p p d s 4 1 1 3 i k [ @.@.&.} { { ' ' ' ' { } } } { @.[ J p ",
"B ; o > G X.w.g.N.L.L.N.N.K.p.6.L Z K X.w.g.M.N.M.g.g.g.i.7.( A 0 0 s B Y X.5.3.7.4.5.X.X.E K M 0 4 3 1 1 1 1 3 - - - 3 2 o     O 2 +     + +   o # ; 4 d d d d g g g G d > > 9 g d & . - 9 s Z K K R s @ - > K R R R R R L B s - s Z 3 1 V Y o.X.X.o.3.3.4.6.7.6.e.i.i.e.e.e.w.e.i.g.e.X.B @ L | L i > | d.r.M.f.f.f.M.N.I.Q.#X,X6X1X6X3X#Xw.g ; ; L B.3X7X$XZ.x q.G ; 0 5 # < . & 9   @ K 3.u.r.r.f.M.w.o.d O.K > d g Z G I L L G G L L L L k 8  .m._.|.|.XX|.|. XXXXX|.|.XXXX|.XXXXXX_.S.c.>.%.%.;.s.k.%.^ a I O.e.u.u.u.i.p.i.M.N.L.P.L.Y.Y.L.Y.Y.U.I.U.P.L.P.K.K.N.M.O.^  .l.j.r.*.J g I 6.o.R / 6.w.O.R G ( 9.p.i.e.i.u.w./ Z 9 3 9 ; o o g I  . .| | ] ^ I G i o - s C V A K V 3 s T K X.R X.s < ; ( 6.i.g.e.6.I L L R 6.N.I.E.E.E.E.E.E.I.L.K.N.M.M.w.( L L X.w.w.w.r.b.M.N.n.n.n.m.l.O.Z i Z i > | M.I.L.L.I.I.I.I.N.b.9.| I | 6.w.6.o.L i & o - 3 9 s s s s 9 9 - o i g g 1 X               X 1 g d > ; i B L / | | | | O. . .L g L g 9 g K L E X.2.4.7.w.u.u.i.g.i.e.I.Y.B.9.` -.m.j.[ z G L g 9 9 s K I | #.s.s.>.>.=.&.@.@.{ ' ! ! ` ` ' ' [ ~ ^ ~ ",
"G g > @ & d | 9.i.N.L.N.N.M.M.M.i.4.R V K X.y.J.M.N.M.M.M.M.e.O.L B 0 9 d K R R o.5.5.X.( R K V 3 V d 1 s s 4 s 4 - < 3 X X     < %   + X     X o 1 i d a g a k G G G Z k d i > i g g @ X ; 0 s A A K K ; 1 . s L K L L L L K d 3 @ K g @ 9 Z L ( | X.X.5.3.6.6.w.w.w.r.i.i.i.i.i.i.g.i.o.B @ I o.O.d ; | r.b.r.b.b.B.L.E.^.$X1X3X3X3X6X3X$XM.G & > i 9.$X8X1XQ.I O.| g s 4 1 - . # .   o 9 L 3.3.w.r.e.9.G g 9.g i d G G L / I ( | ( | | o.| G i J z.F. X|.|. X X X|.|.|.XXXXXXXXXX|.|._.G.x.j.;.@.=.j.k.-. .H G | w.i.u.u.u.u.i.g.M.N.P.I.Y.I.Y.Y.U.U.U.U.E.E.L.K.K.K.K.g.6.| L 9.l.r.O.H a a O.O.( R o.9.o.K B R 7.e.e.u.u.u.X.K s 0 4 3 - o - B / o.| ^ ] ^ L B i @ @ 0 M A K U K 4 3 K R E T E K ; - E 4.u.g.N.i.o.R G K X.w.N.E.E.E.E.U.E.L.L.K.K.K.g.6.X.R X.6.e.e.e.r.f.M.b.b.n.B.Y.b.O.p 9 d i ; o.M.Y.I.Y.I.B.I.Y.N.9.o.| | 6.r.9.X.L B ; .   o ; 4 s s s s 9 3 - @ 9 V g ;   X   X         X < s 4 O ; 3 s G L R R R | | | I Z B G Z g G R ( X.O.6.w.w.u.u.p.p.g.g.w.B.Y.r. .@.j.x.-.J d p d 8 > a J ..#.q.l.z.l.j.j.s.>.;.;.%.} ' ~ ! c ~ J c H H H ",
"g z k i & & i G O.r.M.N.K.K.M.M.h.N.M.w.R V U X.i.M.M.g.i.b.M.b.7.o.L N s s M V K R E E ( ( R K s K B 9 s s 0 s 1 - < . X       O O   o     X o & 3 p a k G z z H J H H z g p t i a Z 3 o o - s M V K K s @ s # 9 L L Z L L B Z i & i G i & 3 L L R X.o.5.3.7.w.w.w.w.r.i.i.i.i.p.g.g.w.| d ; / O...a * | t.b.b.N.I.W.^.OX$X,X6X6X6X3X6X3X$XB./ @ i i g B.,X1XOX9.G f.g X.s 1 - o o o .   o M ( o.O.X.9.| 9 O.9.i i k H L I | o.3.6.6.6.9.9.9.| a z q.D._.)._. X X XXXXXXXXX|._.|.|.|.|._.G.v.k.>.&.&.s.j.-. .H G / 6.u.u.u.i.i.i.g.g.N.L.I.E.E.E.E.E.E.E.E.E.U.P.K.K.K.K.N.p.e.3.L | l.l.*.` g a X.3.R L X.6.o.K N K 3.i.u.w.i.7.R M 0 4 3 < o o s G R | ^ ] ] L B i @ # s B A U W K s 1 V R E T X.K ; - T 4.u.M.L.M.7.X.K B L 3.g.L.I.E.E.U.E.U.L.K.K.N.i.3.R R 5.e.p.i.i.i.i.b.M.N.N.B.Y.b.O.9 9 d 9 > o.N.Y.Y.Y.Y.I.B.M.e.3.o.6.w.e.9.X.L Z 9 - o o - 1 s s M s s 9 > - @ 9 V N - .                 O < O   X % 4 N G K L L L I I G g G L G G L ( X.o.6.w.e.u.p.p.N.M.M.M.w.N.B.*.[ =.z.j.{ a i 9 8 8 k { %.=.s.z.C.C.C.C.C.z.k.s.>.=.%.{ ' ~ ~ c x z z z z ",
"k k k g i * & ; B | w.M.N.M.M.J.K.N.M.M.i.4.T V U X.u.M.N.M.b.b.i.e.4.X.R K B N M B Z A K L K Z M L L B s s s 0 - - O   X   X o o     % X   o $ > i g Z H J J J ~ ~ I H G k a i 9 i G g -   X 3 9 N B Z Z @ N - @ B G B K Z g Z d > @ B L - o d L R ( X.O.6.w.w.w.w.w.r.u.i.i.i.g.M.p.6.R > 9 | #. .a & O.r.M.I.Y.Q.#X%X,X,X3X6X3X6X3X6X3X,XE.O.> 9 d ; o.].,X].o.i X.Z N.3.3 9 - o - 3 o   - N G / o./ H i #.#.; a L ^ / | 6.r.g.M.M.M.M.M.b.6.G a ..x.F.F._. X XXXXXXXXXXX|._._._._._._.G.C.z.>.&.&.-.j.s.#.J k I 3.e.u.u.u.i.p.g.g.M.N.P.E.E.E.E.E.E.E.E.E.E.E.P.K.K.J.J.M.M.w.3.L I r.j...| g Z I o.| L ( 3.w.X.B s A X.w.i.w.( B s 4 4 3 ; o 3 i B I I ^ | L g 9 o # s B A U T L C - s T E E E U < - V 2.p.M.L.K.g.6.L d g ( w.K.L.U.E.E.E.U.K.N.N.M.w.X.R X.6.g.M.g.g.i.i.f.b.B.L.Z.Y.b.O.i > d > 9 o.B.Y.Y.Y.Y.I.M.9.O.O.6.r.g.w.| L B d 3 - # - ; 1 s s B s s 9 3 - & 9 N N O o   X             X X X   X o ; s g B V B G L Z i d G L B L R X.O.3.w.u.i.M.N.K.P.L.B.N.r.f.0.] [ q.z.%.x t p a j x ..q.s.s.z.C.C.C.A.Z.C.C.x.k.s.q.&.@.@.` ~ H z k k a a ",
"d i i d g i > - - d E 4.i.p.p.M.N.N.N.K.P.M.w.X.V V R 7.M.N.M.i.u.e.w.w.w.6.X.R K K B N B B B d s K E K s s m 3 O O   X   X o O     X 2 X   o - i g G G I ^ I J ~ ~ I J G z a i 8 3 g Z 4 o   O 1 s 0 d B 3 - N ; - 9 Z G B B B g i @ > L g - @ Z L ( X.3.w.e.9.w.w.w.r.u.i.i.i.i.g.i.3.L & d o.#.o.k & O.f.N.E.Q.#X,X3X3X,X,XqX3X3X6X6X6X1XW.6.- & G i i r.N.t.| 3 ; G i.N.( s 1 # 0 Y N o o ; B g Z I * O.9.H ; G / | o.6.r.B.I.W.E.W.Y.Y.B.r.^ t H =.z.C.G.). X|._.|.XXXX|._._._._._.).F.C.z.>.;.&.;.s.k.=.] g K X.w.t.t.a.u.g.g.g.M.N.L.E.E.E.E.E.E.E.E.E.E.E.Y.P.P.K.J.M.M.M.i.6.L G ..q.9.| d 9 L O.| K L o.w.3.K s N R ( w.( K M 4 4 3 < & 1 ; 9 Z L ~ ^ L B 9 o @ s V K U T U K - e T E E E T 1 - s 2.i.M.L.L.K.i.R d s A 3.M.L.I.U.E.E.I.N.M.N.g.4.( E 3.e.M.M.g.g.M.b.M.N.L.Y.Y.Y.b.O.d ; i & g 6.I.Y.Q.W.Y.N.e.O.O.9.f.r.9.o.L G B d s ; ; 3 ; - 1 s M s s 0 3 - @ 3 N s o X   X                       X o ; 4 s d d g g i 8 g G B g R | O.3.9.e.g.M.K.P.P.E.Y.I.B.e.9. .J  .s.-.` a p k ^ ..=.q.d.l.m.A.D.D.A.D.D.C.m.z.l.s.s.=.@.@.` ~ x z k k a i ",
"; > 9 9 9 9 9 3 - ; 3 Z 2.u.i.i.g.M.L.L.K.N.M.M.u.( N B ( w.g.M.g.i.e.e.u.e.w.6.3.X.R K A A Z B B Z L Z s V C < - o   O   o - o     O 4 o X - > d Z H H ^ ^ ^ J ~ ~ J J H G a i > > d Z s -   X ; 4 4 s d s o s B - & s Z B B g B B 9 @ s L d o > G | O.3.w.e.9.w.t.i.i.g.g.g.g.p.i.w.O.Z & G 9.9.O.g & o.b.B.Q.#X%X3X3X,X,X,XqX3X3X3X6X3X,XQ.9.L o d i g g X.r.r.6.> - i.I.w.L 0 s K 4.3.s o & 9 9 * o  .9.9.8 i L | o.9.f.B.W.^.].OX#X].Q.E.b.O.8 p ^ =.j.C.C.G.G._._.|. X|._._._._.R.G.D.C.k.s.,.;.-.>.s.=.` g Z R 3.y.t.u.p.g.g.M.M.N.L.I.Y.E.E.E.E.E.E.E.E.E.E.E.P.L.L.L.L.M.i.i.6.I H | *.6. .G i Z o.O.L L X.2.3.R s N L ( L A M 4 3 3 - 4 4 @ - p Z J I L Z i o # d A K U Y U L ; 1 T X.R E T 4 o 1 X.i.M.K.I.U.M.o.B i s R i.L.L.L.P.I.L.N.M.M.e.X.( X.w.g.N.M.b.M.N.N.M.B.B.I.Y.E.b.O.d ; 9 @ g 9.Y.W.].Q.B.r.3.O.e.f.g.9.| L L G Z B s - 1 s ; o ; s d s d s 9 ; @ 1 s 1 o   .   X                       X o > 3 3 3 ; > 9 g G d d L X.O.6.w.r.g.N.K.P.E.E.E.W.Y.B.9.I H ^ *.q. .k p k ^ @.q.l.z.m.m.m.A.D.A.Z.D.Z.m.z.z.d.s.q.=.@...^ J H z k j p 8 ",
"@ ; > ; ; > 9 i s 3 & - B ( 9.i.i.g.M.N.K.L.L.L.K.p.3.R Z A ( 6.i.i.i.i.u.e.u.u.e.7.2.X.X.( R R L K B s s K C # 1 X   X o o 3 X   o < s o . - i g G H I ^ ^ ^ ~ ^ ~ J J H G g i ; ; d V s ;     - ; 9 M d d 9 o B d - @ d Z d B Z B B - @ B G 9 o d / O.O.6.w.e.r.i.h.b.M.M.M.M.N.i.6.I i ; I 0.r.#.p > | b.Y.^.%X,X3X3X,X,X,X,X3X3X3X3X3X1XQ.9.9 3 L d 6.B 9.#X$XM.B & X.I.i.K X.3.w.M.M.R ; - o @ > / 9.n.G & k ^ O.6.f.L.W.].OX$X$X$X$X#X^.N.9.i 8 a ] %.d.k.x.C.F._._.|.|._._._._.R.F.A.x.k.>.,.-.,.>.s.=...G Z L X.w.u.u.p.g.b.M.N.N.L.L.I.W.W.W.W.W.E.E.E.E.E.E.P.L.K.L.U.M.M.i.e.e./ g H | #.O.G i g R o.I G B X.w.X.R B Z B B M s s 0 3 s 1 o & > d J I L g > o - B K K U U R U 4 2 L X.R ( R s o ; X.u.M.K.U.E.L.w.L s 3 V 7.K.L.L.L.L.L.N.N.b.9.( ( 3.i.M.K.K.N.N.B.B.N.B.B.B.Y.E.b.O.3 ; i & Z 9.Y.].].W.N.9.6.e.M.M.9.o.I L L G K K 9 @ 3 M 1 o 1 N Z V K K B 9 - > s ; o   O X +             X o O o X   o & & & & & ; d L B > i / o.3.w.i.b.N.P.I.~./.E./.Q.Y.b. .a z  .*.#.H t a z ..q.s.x.D.D.C.z.m.C.m.m.C.C.m.n.z.d.d.q.=.$.[ ^ J H z z a t = ",
"; & & & ; ; > > d d i 3 9 d L O.9.r.M.N.N.M.M.K.g.K.K.i.5.K V K ( o.7.e.i.i.i.i.u.w.7.4.3.5.o.o.X.R K s s V m O 3 - X X < < 4     < 0 s @ . ; d g H J I ^ ^ ^ ^ ^ ^ I J L G g i - & 9 B N 3 X   o - 4 s s 0 d X 3 Z d @ - s d g B B B s @ ; B g & ; d I o.O.9.r.r.h.h.b.M.M.b.b.b.e.X.g ; p o.9.0. .> a 3.M.Q.OX$X%X1X1X,X,X,X,X1X1X1X3X%XOXM.L g i.6.> g @ | W.#XY.G o B e.X.2.L.L.L.I.K.w.B - & g #.d.d.O.@ i H / 6.f.N.W.#X$X$X,X%X,X%X$XOXB.0.k > = k ^ #.=.s.j.x.C.S.G._._._._._._.G.S.C.k.>.;.;.,.>.j.-.@.H Z G X.w.u.i.M.b.M.M.N.N.N.L.L.E.E.W./.Q.W.W.E.W.W.E.I.L.K.K.L.P.g.g.g.w.6.X.d G H | O.G > i L 6.| d g L | 3.| K Z B g s s m s 4 ; - - @ > L I G d ; o ; K Y K U T T K N ; L X.R X.R B o - E w.M.N.U.E.Y.b.X.B 1 0 ( g.L.L.L.L.L.N.N.i.O.| X.9.M.N.L.L.L.L.L.L.L.B.B.I.Y.E.M.O.> ; 9 ; G r.W.`.W.Z.f.q.f.N.M.r.o.| R I I L K G 9 @ 1 s - o s K R R ( R L d ; 3 4 ; o o - O o           X < 4 4 - o       X . @ i d G Z 3 - g | 3.9.i.M.N.I.E.E./.^./.^.Q.L.9.g 8 k  .] z p 8 a J %.j.z.A.F.D.C.C.C.C.C.C.C.Z.Z.C.n.z.d.q.=.@.{ ` ` ~ J H z a t ",
"i ; & & & o @ ; i k G G k i > i | O.w.M.K.L.K.M.K.M.g.M.M.u.X.K d B Y o.w.i.i.u.i.e.w.6.3.2.2.3.X.o.( N s s 4 O < s X O 3 N 4   X 4 s s o o ; Z g H I ~ ^ ] ^ ^ ^ ^ I J H G g i - o ; g F s o   . ; 1 9 0 3 3 1 o d K 3 . - d s s B d B > o d g i & & g | O.9.r.r.r.i.i.i.i.i.i.9.O.L i & I 0.0.#.^ & I e.B.].#X$X%X,X1X,X,X,X,X,X1X1X,XOXB.| @ G G o I w.> 3 w.OXW.o.; 4 Z 6.E.W.P.L.L.K.M.| & I d.b.b.| * > k I / 9.N.I.^.,X,X1X3X1X1X,X$XOXB.9.Z > o 8 k ~ ..%.=.>.s.k.x.S.)._._._._.).F.C.z.>.&.&.-.>.>.=...H g B ( 7.u.i.M.M.M.M.M.M.N.N.L.I.E.W.^.^.^.W.E.E.W.W.E.U.P.L.L.K.L.M.u.u.r.6.o.g H ^ o.O./ g 3 Z O.O.| V s L | O.| L B s s s 3 3 - - - . & H I L d - o 9 R ( L U T T K V - L X.E X.R K o o R w.g.N.I.W.E.L.6.Z ; < A u.K.K.N.N.L.N.M.e.O.| O.e.L.K.L.L.L.L.L.I.Y.Y.Y.Y.E.E.b.o.9 ; 9 ; I M.W.Q.Y.n.r.f.Z.I.f.6.| | / I R R L B 3 & ; ;   o s K X.X.o.X.R d ; ; 1 1 o - < < o X X       O 4 m m s ; o X   o ; s G G Z 3 o ; G | 6.e.g.N.I.W.^.^./.^.Q.Q.W.M.X.> > z ] k > > > a { =.s.x.F.F.D.F.F.A.C.C.C.m.C.Z.Z.m.z.d.q.&.@.@...[ ` ` ` ~ x j ",
"H k p 8 > = = = a z J ] ..#. .J i g I 3.r.g.M.M.g.M.M.M.M.p.i.i.X.K s M R 3.w.e.e.w.w.7.3.6.6.5.X.X.( K s 4 ; o 3 s O s C C o   < s s 0 o X 9 d Z I ~ H H ^ ] ] ^ ^ ~ I H Z g i & o @ d N N o     - 3 9 s 4 4 3 o @ Z Z s o & s d M d i d > o d L s & & d / 6.9.r.i.h.h.M.M.i.e.X.| i & a O.0.9.#.> > O.N.W.#X$X$X$X,X1X,X,X6XqX,X6X$XQ.M.6.R > o X . B i.R @ L L.Q.O.G 6.K ~.~.E.U.N.N.N.w.G ; #.l.r.J > & p H ^ O.r.B.W.$X1X6X3X3X3X3X,X$XQ.B.6.Z & o @ ; d G ` ' @.%.=.s.z.v.F.G.)._.).F.C.x.s.-.-.>.>.s.-.@.z k g R 3.u.g.g.b.M.M.N.N.L.L.L.L.Y.W.^.^.Q.W.W.E.E.E.E.E.I.L.K.K.K.M.g.i.e.w.9.o.G i k | o.R Z d g R O.R f i G L | X.L s 4 4 4 3 ; - - . @ L R H g o . g X.o.( L R R L G - K X.E X.X.K o - K w.g.N.L.E.E.L.i.R 1 # 0 7.K.K.M.L.M.b.f.e.O.| 6.M.N.N.L.I.I.L.I.Y.Y.Y.Y.E.W.E.b.| 9 9 > @ O.M.W.W.N.f.M.Y.Y.N.r.6.O.o.o.| R L L Z s ; o . o - s K | o.3.o.R B 1 # 3 < ; 3 4 3 - o     o < s V K K N 4 #   . 3 Z L R d - @ @ 9 L o.6.i.N.I.W.^.^.^.^.^.E.E.Y.t.G > i G a > ; ; 9 J @.=.j.A.F.G.R._.F.F.F.F.D.Z.D.F.C.n.l.s.q.=.%.%.@.@.@.@.@.{ ' ~ ",
"] ^ J H H H H H `  .#.*.0.j.q.0. .g > Z | o.6.g.K.N.M.M.M.M.g.p.u.6.X.K B B L X.2.3.w.w.3.3.4.5.X.X.( K s 1 - X 4 1 o s C 3     4 s s 4 .   9 d g I I k G J ^ ^ ~ I I J H Z d i & o o i N N ;   . ; 3 0 s 0 s 9 ; o 3 B B > @ - 3 B d d B i - & G G d & & d / O.t.b.M.b.i.i.w.3.| i & i  .r.0...a > Z r.Y.].$X$X,X%X1X3X,X,X3X,X1X1X].N.e.w.w.o.B   . i f.r.9 ; w.b.G 3 o ( E.U.E.L.N.M.w.L 3 & G a 8 = i z J ]  .9.M.Y.].%X6X7X6X3X3X3X,X$XW.M.O.Z & . . o ; i z x ~ ` { @.=.s.z.v.S.G.G.F.C.x.z.j.j.j.k.j.=...G p G L 7.u.p.M.M.N.N.N.N.N.N.N.L.I.E.W.^.^.^.^.W.W.E.E.E.I.P.L.P.K.J.M.i.u.w.w.o.O.L i d R O.| B ; - G o.| L B Z Z K L N 4 1 3 4 3 ; ; . & L L H g o o Z o.3.X.R E E R K - N X.E X.X.U o o V w.g.N.P.E.W.I.g.( 0 . 2 ( g.N.K.N.b.i.e.6.X.X.w.N.N.L.I.I.I.I.Y.Y.E.Q.E.W.Q.E.b./ ; 9 > @ O.N.Y.B.M.m.W.W.I.M.r.6.O.o.X.( I I R R G 9 @ . o - s K X.3.6.O.R N 1 # - o - s C s < O % < 4 m V L U U V s ; ; s Z Z B > & & & ; d ( 6.e.b.L.E.W.].#XOX^.^./.E.M.o.g i G p > = & & p ^ %.s.C.F.G._.|._.R.R.F.F.D.C.C.Z.C.n.l.j.s.-.=.=.&.%.%.%.%.@.{ { ",
"@.$.$.@.#.%.=.=.=.q.q.q.s.l.z.z.d.| d 9 d G ( o.w.i.M.M.M.M.M.p.i.u.w.6.X.L V N K K R ( ( X.X.X.R L A d 3 ; - o o o X 4 C - X % s s s 1 o . 3 g g L H g k H I ~ J J J J G Z g s @ .   1 s N 1 X o 3 3 0 s s s 0 s o o 9 B B - o - M s s g d s @ @ d K d - - d G X.w.i.r.9.6.o.R d @ > | 6.O.] H > g 6.I.].$X,X%X1X,X3X6X,X,X,X3X3X].B.r.i.N.M.w.B   X - 9.N./ o d L O.L   B M.E.L.M.b.i.| d 3 g > i d G I ^ | O.0.b.I.Q.$X1X7X7X8X6X6X3X,X#XY.f.o.Z - .     o & 8 y a x H J [ ..%.-.j.m.A.A.A.C.C.z.z.c.x.z.q...z G i | 3.u.g.M.N.N.L.N.N.L.L.N.K.L.I.E.Q.^.^.^.Q.W.W.E.E.I.I.L.K.N.N.M.p.y.w.w.6.6.o.L g g L / R R B 3 d R | L I Z d d s s 3 3 3 1 - - o > L G G g @ @ G O.6.o.X.X.E E R - s X.X.( X.T o X N w.g.N.L.E.W.E.M.5.M   - K e.b.N.g.r.e.6.X.X.3.i.L.L.L.I.I.Y.Y.Y.Y.E.Q.W.Q.Q.E.r.L o 9 8 > | b.B.n.m.W.`.W.M.r.e.6.O.o.X.( / | 3.3.( d - . X o 4 N ( X.6.6.R 3 o o o   < V C 4 < ; s C K K L R R R V 9 - 3 d B 9 - o @ ; 3 9 G O.e.g.L.E.W.^.OX#X#X#X#X^.E.e.L d g d * & > * = H ..q.x.D.F.R.|.|._.`.`.R.T.D.C.m.m.C.m.z.l.j.s.-.-.&.&.&.&.%.%.@.@.",
"%.=.q.s.j.z.z.z.j.z.z.z.z.z.z.z.l.b.#.k > i G L R X.w.u.p.M.M.p.i.w.6.6.w.6.X.R Z s 0 s N Z Z d d 3 ; - o % < 4 o - - - 3 X X < 0 s s ; o . ; i g G Z p d G I ^ J J H H G Z d i @     @ 4 N 1   @ 3 3 9 s s s 0 d ; o @ 3 K d & o 9 s s i i d 3 . - d K Z 3 @ - g L X.X.( L d 3   9 I | I I g & G 6.L.Q.#X$X%X,X1X,X1X6X,X,X,X3X$XL.f.f.E.OXN.o.9     ; 3.N.r.i I G M.O.- - w.L.b.i.e.3.G 3 B O.6.O.o.O.6.O.#.t.n.I.Q.#X%X3X7X7X8X6X7X3X%X#XY.f.o.Z ; o X     o & = t p a z H ^ [ ..%.-.s.k.z.x.z.l.k.x.C.x.j.%.^ i Z Z 4.w.i.N.N.L.L.L.L.L.P.L.L.L.L.I.E.Q.^.^.Q.Q.W.W.E.Y.I.L.K.N.M.g.i.y.w.4.3.X.X.3.| g i d | / L d > 3 g L | / G d s s s 3 3 ; # @ @ i H Z Z d o & L 3.6.3.X.X.E E R - 4 X.1.E E E ; X s 2.i.N.L.E.E.E.N.6.B   - d 6.r.i.e.9.6.o./ X.w.M.L.I.I.I.I.Y.E.E.E.W.Q.^.OXOXE.t.Z @ > > 9 / 0.b.Y.`.`.W.B.f.r.e.6.O.o.o.o.O.9.r.e.X.B - . o o 1 d L | O.( d - o . X X 3 C s < 4 m V K U L L R L F 0 ; @ - ; ; - @ ; 9 d d d R w.b.N.E.^.].].#X#X#X#XOXQ.N.O.B 9 g - & & ; 8 k ..q.z.C.F.R._.|.|._..X`.`.R.T.D.C.C.C.m.n.z.l.s.>.-.-.=.&.&.&.%.%.&.",
"s.s.z.x.C.C.C.C.x.z.z.z.z.z.x.m.n.n.d.O.k 8 9 Z L L R X.4.i.h.p.e.w.4.3.3.3.4.6.X.K s 9 3 3 1 # - o o - - 1 s B 4 1 O . -   % m s s 4 % X   o > B Z d 8 i Z L I J H H G G g d 9 o     o 4 N 4   o 1 1 3 0 0 s s s s - . . d B 9 @ @ i d s 0 3 9 3 o o 0 K Z s 3 - - - - - - ; ; B L I I a & = I 0.B.Q.#X$X$X$X%X1X,X1X6X,X,X,X$XY.M.M.L.^.#XM.1.3     ; O.N.O.i L L f.6.o o ( i.9.6.3.R i > L w.Y.L.i.9.9.e.f.M.Y.W.#X$X1X3X6X6X6X6X6X3X$XQ.L.i.o.G 3 @ o X     X o & : 3 i a z J I ] [ ..@.%.*.q.q.s.z.z.z.j.=.^ H ; L ( 7.p.M.M.N.B.L.L.L.L.L.Y.I.L.L.Y.W.Q.Q.Q.Q.W.W.W.E.I.L.L.N.N.M.u.w.4.3.X.X.X.X.O.R G d i Z I / k > * > g L | L V N s 4 4 - # @ ; g H g g d o - L 3.6.3.2.X.E _ E 1 3 E E R E X.1 X 4 X.u.M.L.E.E.E.L.w.A o o 1 o.w.9.6.O.O.| | 2.i.K.L.I.I.I.Y.E.W.Q.Q.Q.OXOX#X#XE.9.g ; i > > L t.m.`.%XQ.Z.n.f.r.e.6.o.o.6.9.r.M.N.g.X.B - o o o ; 3 G | R d 1 0 1 .   X < 4 3 4 V R L L L K L K N 4 ; - ; 1 ; ; 3 s d B Z B G o.M.L.I.W.].].#X#X#X#XOXE.V.9.K s 3 3 ; 9 ; * k ..q.m.A.A.D.R.`.`.`.`.`.`.`.`._.T.D.Z.B.m.n.n.z.j.s.s.>.-.=.=.&.&.;.-.",
"c.v.A.A.S.S.A.C.m.z.j.j.j.j.z.x.m.z.l.l.#.G i i B Z K L R X.4.w.w.w.w.w.7.3.2.3.2.( L V s s s 9 3 1 0 B V K U Y V 3 . o s - < m s s 1 o     X - B g 9 ; 9 k H I J H H G G Z d 9 o     . 4 V s o . ; 1 3 9 9 s s s d 3 -   @ i g > o ; i s s 1 9 s ; o . - s V A V d i i s d A L K L d & & i ] b.B.W.#X%X3X1X%X%X,X,X,X1X,X,X<XOXM.b.L.Q.#X^.u.Y -   . 3 | 9.d i o 3 w.i.; X d 3.| ( | L 9 i | r.I.Q.W.B.M.M.N.I.W.].$X,X3X6X7X6X6X3X3X,X].Y.N.e.X.Z 3 - O o         X o @ > 9 i p a z H J ^ ^ ]  ...#.=.s.s.s.*.^ i d 9 R 5.w.i.b.N.B.L.L.L.L.L.I.I.L.L.L.Y.W.Q.W.W.W.W.W.E.I.L.L.K.N.M.p.w.7.2.2.X.X.E X.O.X.L i g G I I G p * & 3 g G K s 3 < ; o @ - i G G g B d @ > R 6.6.6.4.O.X.X.R 4 3 K V V U E 1 X 1 X.w.g.K.U.E.E.I.i.Y o o & L 3.o.o.X.| | o.w.g.K.L.I.I.Y.Y.W.Q.Q.^.].#X#X$X#XY.3.i ; G g > G d.Q.$XOXI.b.b.r.9.6.6.O.6.e.M.N.Y.L.b.X.d @ o o o % - d g d g V B 3 o   X O < s A R E R L L L K N 4 - 3 0 M V B B V K K K L L ( w.L.Y.W.^.].].#X#X$X#X^.B.4.L s 3 3 1 0 s 3 p $.s.z.C.C.m.C.T.`.R.R.`.`.`.`.`._.R.D.C.m.n.n.n.n.z.l.j.s.-.;.;.;.;.>.s.",
"A.F.G.S.C.C.x.k.x.j.q.q.q.q.s.z.z.m.m.n.b.0./ g i d Z K K F T X.3.3.3.6.w.w.w.w.3.X.( ( R R R E Y L E X.X.X.X.E E N O # s - o O 2 < - X       & d 3 & o > g G L H H G G G Z d 9 o     X 4 V N o . ; ; 1 3 3 s s s s 9 3 o   ; d s - o & 1 1 - 1 1 1 - X   . # 1 s g V K A B s 9 3 & o 9 / 0.l.m.W.].%X3X6X6X3X1X,X,X1X1X,X3X#XY.b.N.E.$X$XI.5.0 .   o d L g g | 3 o L 6.s o ; G L K L G i g O.b.].#X^.E.E.W.W.Q.#X$X,X3X6X7X7X6X3X,X%X#XY.N.r.3.R Z 9 1 - O O + +       o o - - ; > i p a k z H G G J ` ..%.#. .G Z > d B R 2.6.e.i.b.N.B.L.L.L.L.I.I.L.B.L.Y.W.W.W.W.W.E.Y.I.L.L.B.N.M.p.r.w.4.4.X.E _ X.X.X.o./ i & 9 G H G k 9 > ; 1 4 4 1 - - o > i Z L Z g Z d & > / 6.6.6.w.3.X.X.L s < s 4 4 4 C 1 o ; R 3.i.M.P.I.E.I.i.( # 1 3 d ( | | | | X.3.u.M.K.L.I.Y.Y.W.Q.^.^.].].#X#X#X].L.O.> 9 | I 9 I B.OX+XY.b.d.d.e.9.6.6.e.f.B.I.Y.E.L.g.( s o o - - o - 3 > s E X.Z ; .   o O 3 K E R R L K K K s 3 ; 1 d K E X.( R R R ( ( X.o.6.g.I.E.^.].#X#X#X$X#X].L.9.L s 1 1 3 3 3 d Z  .d.n.j.j.s.d.n.D.R.R.R.R.`.`.`.`.R.R.F.Z.m.m.n.n.n.z.z.z.s.-.-.-.s.>.k.v.",
"F.).G.S.C.z.s.q.=.@.@.@.%.%.=.s.l.z.z.l.l.l.q.O.p 9 3 g K K K K K R X.6.w.w.e.u.e.3.o.O.5.3.3.3.6.3.3.3.X.X.1.( Y V O X O o       X o     X   o 3 &     & d G G Z k k k Z B d 9 @       4 B B @ . ; 1 1 1 ; 3 9 s s s 9 -   ; 9 d i o . o . .                   X o o X . @ - & s g X.t.r.b.D.T.Q.OX%X1X1X3X6X1X,X3X6X1X1X6X].M.M.Y.].1X#XM.X.3   o   s Z   / r.G X d | 9 d > g K B Z B 9 d O.M.W.].#X].^.^.].$X%X1X3X6X7X7X7X3X3X$X#XW.B.r.6./ L B s 3 < - O O O +       X o o & - ; ; > 9 i d a d k G ^ ] ^ H Z d s 9 d K R X.O.9.r.b.N.N.B.B.L.Y.E.Y.L.B.Y.E.W.W.W.E.E.Y.Y.I.B.N.N.M.p.u.w.4.5.X.E T R X.X.o.| | G ; & i G H Z Z s & o - 1 - 3 3 g Z L I k a G d & 3 / 3.6.6.w.3.2.X.K s - - - O . 1 3 - - G o.w.g.N.I.Y.I.i.( - g G > G / / | | o.w.p.N.K.L.Y.Y.W.Q.^.^.].].].#X#X#X].B.O.> L  .L i 9.`.+XY.m.d.r.r.e.e.e.e.M.L.W.Q.W.Y.N.i.( i o o ; - - ; - s L X.( A 2 X O 3 3 m E ( K U K K V s 1 % ; s Z ( 3.3.5.o.5.5.3.O.3.w.i.B.W.^.].#X$X$X,X$X].E.r.I d 3 - - 3 4 3 B o.q.s.l.s.=.%.s.x.Z.F.R.R.R.`.`.`._.R.R.T.D.B.m.n.n.n.n.z.z.j.s.>.s.s.k.C.S.",
"G.F.F.C.l.q.%...~ H x J ~ ` @.q.s.l.k.k.s.s.q.q.*.a ; 9 d V A A Z V G L X.4.w.t.w.6.3.6.9.9.w.w.3.6.4.3.3.3.X.R C - X - s 4 - X   o ; - o X   o o   o     > g Z a k k g B B s 1 o       > Z d ;   < - < 3 < 3 1 s s s 0 3 o   3 s s 0 o                         X o - ; 4 d G L | O.9.r.d.l.m.T.R.+X@X=X1X3X3X6X6X1X6X7X7X1XY.f.n.R.=X%XW.g.L     . @ Z o > w.9.R o . Z > G L > B N V i 9 g | n.W.#X#XOX$X$X#X,X6X6X3X6X6X6X3X3X%XOXE.B.i.9.X.L Z M s 4 3 1 < < - O o         X o o o o O - : > 3 9 i k G G G G g d g g Z K L L / X.3.w.r.g.N.L.N.L.L.I.I.I.L.L.E.W.W.E.E.I.L.L.N.N.M.M.M.g.e.w.3.1.X.E R R ( X.o.X.R K s ; 3 g G G k d 8 > 9 d g G k H J G H g G s o 3 R 3.w.3.w.w.6.X.G 1 1 ; 3 - - o @ L 3 d | | f.M.B.I.L.r.I ; L  .i G L | | X.6.e.b.N.K.L.L.E.W.W.Q.OXOXOX#X].$X#X].N.H i O.0.I p n.Q.W.N.b.r.r.r.w.6.e.N.Y.].Q.Q.W.E.(.t.L i o o ; o 4 4 1 s E E E F 3 - - % 3 V T T K K V C s 3 - - 4 V R O.w.w.w.w.w.9.9.e.r.f.N.E.^.OX$X#X#X$X$X#XW.b.R B > - - - - ; d / #.*.#... .[ =.j.C.F.G.R.R.`.`.`.`._.R.R.R.F.Z.m.m.m.m.m.n.l.s.s.s.s.l.z.C.F.",
"R.D.C.z.0.@.` H k a t p p j ~ ..q.s.s.s.s.s.s.s.q. .k 8 ; d A M N s d N L | O.2.4.3.O.6.9.9.9.6.6.6.3.3.3.o.Y N - # < m V C s 4 O - s K N s s d -     . @ s B g k z G G G V s 1         - Z k >   - - < 3 1 3 3 0 0 s 0 0 #   1 s 4 3 < # . . o - - - @ o . . .     X o & > d Z G I  .#.#.9.d.m.D.R..X+X=X=X1X1X1X,X1X1X1X$XI.b.Z..X%X].N.X.9       @ 9 @ B 3.3.R ;   & o J o.& B B V d i g / l.Y.OX#X#X%X,X,X1X6X6X6X6X6X3X=X%X].W.B.r.9.o.R K N s 4 4 3 3 3 3 < - O o X         X + X X o O - - - > i g d d d G L R / R L L L I R | o.3.6.e.i.b.M.N.L.L.L.L.L.I.E.E.E.E.Y.I.L.N.M.M.b.g.i.e.w.4.2.X.( R R R ( X.X.X.X.Y N 3 - i k H k a a k k H J H J J H H g B > o 4 R 3.w.4.7.w.3.( d 3 i s A V B s 9 / L d g O.O.N.L.B.N.r./ = ..*.g g I | o.O.w.i.M.N.L.L.I.E.W.Q.Q.OXOX].].].$X#XW.f.i z 9.9.G I B.W.B.b.b.r.r.t.e.r.N.Y.^.OXQ.Q.Q.E.N.8.R - o o ; 3 3 o - 9 K T T s < X X o 2 V T U A B m m 4 < - > s K X.4.r.i.e.r.u.r.r.f.M.N.I.Q.#X#X#X$X$X$X#X].M./ B i 2 ; ; - ; 9 G I I G H H ^ [ -.z.C.A.G.R._.`.`.`.`._.`._.R.F.D.C.m.m.m.m.n.z.l.z.z.z.m.C.S.G.",
"F.C.l.q.@.] H k y 8 * * * > a H @.%.=.=.=.%.=.-.9.9. .g ; 9 M s N s s s N L R _ X.X.X.o.3.3.3.3.3.4.3.5.X.L s - O 3 C K K M s s - o 2 s s N K N 4 . . - s K L L G G G G B f 1 O     X   o g Z >   - < 3 3 3 4 4 4 9 s 0 0 -   o 4 3 3 4 3 - - ; 3 3 3 > ; ; 1 3 1 - o X X X . . * i G L ^ ..9.r.m.D.W.Q.OX$X$X%X1X%X1X1X%X`.n.f.W.$X`.B.9.g .       ; # - R / ( L 4   . . | 0.& g B G g d g ^ t.B.`.#X#X,X3X1X3X6X3X3X3X3X%X#XQ.Y.N.t.O.| I L G d s 9 4 4 3 3 3 3 < - O o .         X X     X X o @ ; 9 i i i d I o.9.e.9.3.o.X.( ( ( ( ( X.O.3.w.e.i.b.M.N.N.N.N.L.L.I.I.Y.I.L.N.M.b.g.i.i.e.w.7.3.o.X.( R Y Y ( X.o.X.X.( B ; @ ; i d d a a a G I G G G G G g d o o i R 3.6.6.3.w.3.E : 1 i L R T Y L d Z | B 9 L / b.N.g.f.9.L @ O.9.G i | X.3.9.i.M.N.N.L.L.Y.E.W.Q.].OXOX^.].].#X].Y.9.*  .r. .a #.m.Y.b.n.b.f.r.t.f.B.W.].#XOX^.].Q.E.B.8.G o - 4 - 3 - o o 3 V U V - < o   X 2 C K V M s s 4 1 - ; 4 V R 3.w.i.g.i.g.g.b.M.N.N.I.W.#X$X$X$X#X$X#XW.b.o.G d 3 ; > > ; ; 3 i i 8 > > p J @.j.x.m.C.F._._.`.`.`.`.`.`.`.R.D.D.D.m.n.n.n.n.z.m.m.C.C.Z.S.F.R.",
"C.k.q.%.[ J z a 8 > * * & * > i H ` $.%.#.@.$.@.#.#.O.I s ; 3 s s 4 4 4 s V L L L L L R X.X.X.X.X.X.( K d 9 1 1 m V U U V s 3 - O       X ; 4 % @   . o @ 3 4 4 > > > > - o X   X o # o   d Z 9   O < 3 3 4 s s s s s s s 3 o X - 4 s 0 3 4 4 1 3 9 i s s d M B B s 4 1 ; & @ o . o & ; i G | #.d.n.Z.D.R.`.`.OX$X$X%X%X$XE.f.f.W.Q.Y.e.I ;       # s - ; ( G K V 4   & > ..r.8 i B L B g g ^ 6.b.W.#X#X%X3X1X1X3X1X%X%X$X].Y.B.b.t.O.| I L G Z B d s s 4 3 3 3 3 3 < - # o X               X X X o @ - ; 3 d g | 6.b.N.N.b.i.e.6.3.o.X.X.X.X.X.o.3.6.w.e.i.i.g.g.M.M.N.L.L.L.N.N.M.b.g.i.i.e.w.w.3.5.X.X.E R L L ( X.X.X.X.( L 9 & @ > 9 9 i k Z H L G G G G g 1 X & s K 2.4.6.5.w.3.L ; > 3 K U Y T ( B ; G L G i / 9.r.e.w.X.G . | 9.B > O.O.9.r.g.M.N.N.L.I.E.W.W.Q.OX#XOX^.].#X].Q.m.| 8 9.9.z t #.M.m.b.m.b.d.r.b.B.W.OX#X#XOX].].!.Y.V.O.w 3 f g ; 3 ; - X ; s m s - 2 o   X 2 m N s s 0 4 3 - - 2 s L | 6.e.i.g.g.g.M.N.N.N.B.Y.Q.$X$X$X%X#X].E.f.O.| R d e 3 i g B d s ; - @ & * 8 J =.j.z.x.C.F.R._.`.`.`.`._.`._.R.D.D.D.Z.n.l.z.n.n.m.m.C.C.D.F.F.F.",
"c.s.=...J z a t > ; & & - @ @ & 8 a J ]  .[  ...#.....| g & @ 9 4 1 1 1 s f V K K K L R R R R R K Z d 3 ; 3 s A R T U V M 4 - o         X o X X 3 < < o   X X X     X         X < 3 3 ;   9 Z s . O 1 3 3 4 s d d d d d N s ; o X 1 s s 0 s s 9 i i d g g Z Z B B N N N B g d i > & o o @ ; Z o.*.q.l.n.B.D.T.R.Q.`..X.X`.Z.r.n.Y.B.f./ ;       o s s s 3 K d s 4 - . i k #.d.a = g P G B g J ..e.m.W.Q.#X%X%X$X$X#X].Q.W.Z.M.r.*.O.| I L G G Z G B B d d 0 4 4 4 4 1 < - O o X X X     X X X X X X o o & > f L O.r.V.(.Y.L.N.M.M.i.w.9.3.O.X.| / | o.O.3.6.9.w.e.r.r.i.b.M.M.M.M.M.b.f.i.r.e.w.6.3.O.o.X.X.( L K L ( X.X.o.X.| R d ; & & & > d g G L G G G d 3 o   ; s B X.3.6.3.6.3.B 4 ; 4 N C V U R K o - G | i L O.9.O.X.L g o L O.g i 6.w.r.i.M.M.N.N.L.Y.E.W.Q.Q.OXOX].Q.].].Q.Y.d.k k O.^ 8 i O.b.n.n.B.b.d.b.I.Q.OX#X$X#XOX#X].W.Y.r.L 3 G s 1 3 G g @ o o < ; s M 3 X   o < 4 s 4 3 0 3 < - - 4 N L X.9.r.f.f.b.M.N.N.L.B.I.E.].#X#X#X^.Q.I.t.O.#.O.R g g B L | X.( L d 3 & @ * 9 H *.q.l.m.C.F.G.R._.R._.`._.R.R.T.T.D.D.D.m.z.z.n.m.m.m.C.Z.D.D.D.C.",
"s.-.%.{ H k a i > ; @ # # O O o @ * i a z G H J ] | | | L > & 3 e 4 1 ; ; 1 4 4 s s d B B d s s 3 1 ; 3 s Z Y R T R K B s < O X       X o   X 3 4 1 -                       O 3 4 s s 1 . - d 9 . o 3 4 4 s d s d g d g B s 0 - X o 1 s s s s s i i d g B Z B B N N B V G G G Z G d i > @ o > Z | O.9.0.d.b.m.D.T.T.W.R.R.n.0.N.B.6.L 3     .   3 V 1 B - 9 ; @ . o o i H *.d.H @ d G G Z g J | #.r.N.I.W.Q.Q.Q.W.Y.I.B.n.d.0.6. .| ^ I L H G G G G Z Z B d d d s s 4 3 1 ; # o X X     X X X   X . o o - 3 V R 9.i.N.(.Y.Y.Y.L.I.B.M.b.i.e.9.O.| | | X.o.O.O.O.6.9.9.w.r.i.f.i.f.f.i.i.i.r.r.w.6.3.3.o.o.o.X.( L K L ( o.o.X.X.( L Z 9 - @ @ @ ; 9 B g d d ; o X X ; 4 d R 3.6.6.3.3.9 s 1 4 s 4 s B C Z o   & I / d / O.| L K s & d I s g w.f.i.b.M.N.N.B.I.Y.W.W.Q.Q.^.Q.Q.W.Q.W.Y.B.*.8 G | G * a O.b.m.B.n.M.b.Z.`.$X$X$X$X#XOX#X].Q.B.X.d i d o o g L B - . o 1 - N K 1 X   X - 3 4 3 3 3 3 ; - ; s V R X.w.r.f.b.M.M.N.L.Y.I.I.E.Q.].Q.W.Y.b.9.O.O.O.| G L | O.9.9.3.X.R Z 9 @ - i g L  .#.s.z.m.D.F.T.R.R._.`.R.R.T.T.T.D.F.D.Z.n.n.n.C.m.m.C.Z.D.D.C.z.",
";.@.} ' J z a i > ; - O O O O O o @ & > 3 i i i p G G L G s 1 3 s s s 4 1 - o o @ @ - ; ; ; ; ; 3 3 s V Y E R Y U K V m 3 O           + X X < s 3 - o     X                 O 4 s m m 4 o X ; > X o 4 s s N f N g g d g B d d 3 & o o > 0 4 4 s 9 i i i d g B B g g Z G L R I L G Z Z d ; . . @ d G I  .O.9.q.z.m.m.B.Z.B.9.I o.X.s o X     o - m A - R o o .       @ i J 9.s.` o i g G Z Z I / O.O.0.b.M.n.N.n.b.d.r.0.9.#.O. .| ^ I I I L G G G Z Z G Z B g g g g d s s 9 1 ; o o X X X X       X X o - i L X.r.M.(.Y.Y.E.E.E.E.Y.I.L.B.N.M.f.w.9.3.O.O.O.o.o.O.O.3.6.9.e.r.r.i.r.r.r.r.r.e.e.6.6.O.o.X.o.o.X.| L G L / X.X.X.E | E L N s < o % $ 1 - ; - o o X o - 1 d K X.6.3.o.3.3 N 4 1 1 3 4 s s N -   X i / g G R L G Z d 9 3 i ; d w.M.g.M.M.N.N.B.I.Y.W.W.W.Q.Q.W.W.E.W.Y.m.b. .> a ^ J * k 9.n.m.m.B.B.E.].$X%X$X$X$XOXOX#XQ.Y.9.s 3 1 o   - G K B i o 1 4 3 K N ; o X o - 1 1 1 1 3 3 < ; 1 s G R X.9.9.r.i.b.M.M.N.B.N.N.I.Y.Y.I.N.b.O.I  ...] I / 3.e.r.r.9.o.R G d 9 ; 9 Z G K I ..=.d.n.Z.F.F.R.R.R.R.R.T.T.T.T.F.F.D.Z.C.C.C.C.m.m.m.C.C.C.z.j.",
"&.} { ' J z a 9 ; - - O O o o o o o @ - ; > > > > 3 4 i s s 4 s K L T R K N 4 1 - - - ; 3 s d B G K L L R R R Y L V M s < o         + +   < m 5 3 % X                       - e M B B s ;   o - X o s C N V B B Z Z g G B d g i i o   o 1 1 3 3 9 9 i i i s d g g g Z L I R L G G G B d 3 # o . - 3 d G I | O.9.q.r.d.l.r.L ; 9 o X     o   O C V K ; O.o       o   @ p ^ q.s.[ o y d g Z Z I ^  . .O.0.0.9.0.9.9.6.O.o.| | | | ^ I I H H H G G g g Z G G B B B g g g g g d i 1 - - o o . X X X X o o - 1 N | 9.M.L.!.!.E.E.E.E.E.Y.Y.Y.Y.Y.I.B.N.b.r.9.6.3.O.o.o.O.O.O.6.9.r.r.i.r.r.r.e.e.w.w.9.6.O.X.X.o.o.o.o./ L L I | | ( X.E L L L K s s 1 - - X X o X o o - o 1 s g ( 3.X.X.O.3 s 1 - - - - - 0 3 X o X & g I d B L K B L Z 3 o @ 3 6.b.g.M.M.N.N.B.L.I.E.W.W.W.W.E.Y.E.Y.I.N.d.] > i | | > g 0.N.B.B.B.W.#X%X%X$X$X$X#XOX#X#XE.i.G o - o   o - G X.L s # 4 - 3 L s - o o % - ; 1 1 1 3 3 1 1 4 s G I | O.3.9.t.r.i.f.g.b.f.b.M.N.N.M.d.9.| ] | I I #.b.r.i.r.9.6.O.R G g d s d Z Z Z L  .%.s.z.Z.F.F.R.R.R.R.T.T.R.T.F.F.D.Z.C.C.C.C.z.z.z.z.v.C.z.s.-.",
"} { ' ` J z a i ; - o o o o X X o O # - # - - - % - ; ; ; ; 3 s V L X.2.2.2.X.R K K Z B Z K K Z K L K K K Y L A V s 4 1 - X   X X + + O < m m 4 < O     +                 O 3 s B C V V 4 X   o o   < A L L L K G L L G G G g i i - o X o 1 ; - > 3 i i p d d d g Z G L L L L G G Z N s 3 - .     X o 3 B R | o.6.9.9.e.| @ d o o o     X 1 m B C 4 - 3.3     & - ; ; p ~ =.s...@ 8 d G Z g L ^ o. .O.O.#.#.O.O. . . .| | | ^ I ^ I J H G G Z k k g g g g g g g g g g g g g d i 3 ; - o o o o X X o - 3 N E 9.i.L.Y.Q.Q.Q.Q.Q.^.^.Q.E.E.Y.Y.Y.Y.Y.I.L.N.f.e.9.3.O.O.O.3.3.O.9.r.r.i.i.r.r.e.w.9.9.6.O.O.o.X.| X.| X./ G G R | ( X.E R T U K V C m m 4 - o o O O O # - - 9 s B 3.X.L X.3 V K   o o o . O < o   o ; 3 L g g B L L X.o.s . o 3 ( b.f.b.N.N.N.B.L.Y.E.W.W.W.W.E.Y.Y.I.B.N.f.I & z ..I i I r.B.m.m.Q.$X%X=X%X#X#X#X#XQ.OXQ.i.R d > - X   o s L X.L 3 o X . 1 s 9 - - 3 9 o - ; 3 4 4 3 3 4 s B G L R X.o.O.6.9.9.9.9.6.9.e.r.f.f.r.9.o.J ^ | ^ 9.n.r.d.d.r.9.O./ I L G L R R K Z Z K ^ #.q.l.C.D.F._.R.R.F.F.T.T.T.D.C.C.C.C.C.C.z.k.s.j.z.z.z.j.-.&.",
"{ ' ` ! x a t > ; - o o o o X + + + O - # < < - - < 1 3 3 3 4 m V K E X.4.w.4.2.X.X.( R R R L K K K K Z K K Z M 0 4 3 - X     X o o O < m C m 5 - +   X +                 O 4 m V V K K s o X o o X O s A L R L L I I L G Z B g 3 > - X   # ; 3 3 i i a d d g g g Z G L L I L G B B M s 0 1 # o X     X & i G I R R L G i Z X.d o X   X < M B s ; o - w.g o & & ; - ; p H %.0. .& > i g g g J ^  . .O.O.O.O.O.O. . .| | | | ^ ^ I I J H G G Z k a d d d d g g g d d d d d d d d d d 3 > - - o o o - 4 N R 3.b.N.Y.!.Q.^.Q.Q.Q.^.^.Q.Q.W.E.E.Y.Y.Y.Y.Y.L.N.M.f.r.9.9.9.9.6.3.9.e.i.i.i.r.r.r.r.e.9.3.O.o.X.X.| X.o.o.| L G L I ( E E R T Y U K V V V C 4 - O - - - # o - 3 9 d | I B ( 9 s s   X + + X o O X   o 3 s d G i L R o.w.w.K o - - L i.b.M.M.M.M.B.B.Y.T.E.W.W.W.E.Y.Y.Y.B.B.f.I * ] #.I > O.b.Z.Y.W.#X%X%X%X$X$X#X#XOX#XW.M.X.L G s -   o o e L L 9 @ o   . 1 0 ; - 9 g > @ > 3 3 s 4 s 4 9 d B G L I / | | o.O.O.o.O.o.#.9.9.0.r.0.9. .^ I ^  .0.b.b.d.r.0.#.o./ I I | X.O.o.( K V B J ..q.l.m.C.D.F.T.T.F.F.T.D.Z.Z.m.x.x.x.x.z.k.s.s.s.s.s.s.s.-.%.",
"' ` ~ x x g i > - & o o o o o +     + O O < 2 < < < 3 s s s s M N V K E 2.w.w.9.9.6.3.o.o.X./ L L L L Z Z B d 9 1 1 - o     o - o O < m V V s < o X   X + X             X - s N V Z Z Z s ; X   .     O m U R R / R R / I G B g 4 1 - X   o ; i i i p d a g Z Z Z G G H I I L G B B N d s 1 # o           X - ; ; - @ .   R O.g X X o < s N 4 -   X - e.I ; 8 ; > & > i k ..*. .& 8 d Z G G ^ | ....O.O......... . .] ^ ^ ^ ^ I ~ I J H H G G Z g a p d d d d d d d p p d d d g g g d i 3 3 > 1 4 d K | 6.f.B.Y.Q.Q.].^.Q.Q.^.OXOX^.Q.Q.Q.W.E.Y.Y.Y.Y.Y.Y.I.B.N.f.i.r.r.e.9.9.w.i.f.f.r.r.r.r.e.9.3.o.X.X.X.X.o.o.X.| | L B Z L E E E R U T L K V K L V 4 ; - ; - O o o ; ; 3 G L i G 9 1 4 .   X X   X .   X ; s B i L 9 | 6.r.g.i.( o ; @ K r.b.b.b.M.N.B.B.I.Y.T.E.W.E.Y.Y.Y.Y.Y.Z.b.G p 9.0.G > 0.n.I.W.OX%X;X%X$X$X#X#X#XOXW.b.O.| | R s o   X - N L s - 3 #     - ; o ; g L & & > 3 9 d i s 9 9 d g G L L I I ^ | | | | | | O.9.9.9.0.0.#.] | H I *.d.l.n.f.r.9.O.| | | | 9.9.9.9.O.R K g H  .0.d.z.m.C.A.D.D.D.D.Z.m.n.n.z.k.k.j.j.s.q.-.=.%.=.-.s.-.%.{ ",
"H x z k g p 3 ; - o o o o o o +       + + O 2 2 < < 4 s m m M N N N V L | O.3.4.9.9.6.6.3.O.o.| | ( L K Z g s 3 4 1 - o o O - - O 3 C K V m 3 # X X X o o X             o 1 s B Z Z Z Z N 4 o   X o   X ; s N L / R R / / L Z g s 1 - X   o - 9 i i p a a k G G G H L I I I L Z B g g s 4 1 O o X o O % o                 | o.3   o - 1 1 - X   X o ; #.#.t t > > 3 8 y a J #.^ o > d G L L /  .@.O.#.#.O...O.O..... .^ ^ ^ I I I J H H H G G Z k k g a d d g g d d p d a g k Z k Z B g d d g B K ( 3.e.M.I.E.E.Q.^.^.].^.^.OX#XOXOX].^.Q.Q.E.Y.I.I.I.I.Y.I.L.N.N.M.M.b.i.r.r.e.r.i.i.i.r.t.w.9.9.O.X.| X.X.X.X.X.X.X.| L B g B L R E R L L L K K L R L N 1 - ; - O o - - ; ; d L 3 s ; s ; o   + + X + X   o 4 K K B B > O.b.M.M.i.X.@ ; @ d w.f.f.M.M.B.B.B.B.E.T.W.W.E.Y.Y.E.Y.Q.B.q.8 | q.*.a k d.B.Y.].$X=X%X%X$X+X#X#XOX].b.9.O.9.4.K -     X 1 V s 3 s B -     . . . 3 K L & - - 9 s s s s 9 i d B G G H ^ ^ / | | | | | ..*.0.0.0.r.0.O.^ ^ H ^ 0.b.b.n.b.r.9.O.O.O.#.9.r.e.w.9.6.X.Y Z G ] *.q.d.n.C.C.C.C.m.z.l.d.s.q.s.>.-.&.%.%.@.@.{ ' ` [ ....{ ` ",
"p i i i i 9 ; & O o X + o o X X +     + X O < 3 3 3 0 s M B V A V B N D L | X.O.3.6.6.6.6.6.O.X.X.( R K Z B s 0 4 1 ; O O - O o 9 Z Y K N s - . X . o o o               - s B Z L L K K A d -   X O O o X   & N L I / R L L L G N 4 < o   o - 9 i i i p d g G G L I ^ ] / I G k g g d s 4 1 - O o O % - O o X   X   . o o L o.& X o o o       o & > > | r.k 8 t t a 8 p a H ..k o 9 B L / | ..@.#.9.*.*.#.#.#.#.#.#...[ ] ^ ^ ~ I I J J H G G G G G Z k g a g g g g a a g k G G G H H G G G I | O.9.f.B.Y.Q.].`.`.OX].].].].#X#X#XOXOX].^.Q.W.E.Y.I.I.I.I.I.B.B.N.N.b.M.b.f.r.r.e.r.r.r.r.e.9.O.O.X.( R ( ( | X.X.X.X.X./ L B s B K R R L L L K K L R E K s 1 ; < O - - ; > ; i G > s ; V o X     + + + +   O m T R E B o 3.b.M.N.b.o.> & - 3 6.i.b.M.b.N.B.L.Y.W.R.W.W.W.E.E.W.W.Q.m.] * 0.q. .>  .b.W.Q.%X=X=X$X%X$X+X#X#XQ.B.e.9.e.t.X.i X     < s 1 & d L s -         @ g I G > ; @ i i e d i i i g Z G L I ^ ^ ] | | |  ...#.9.0.q.d.d.*.] I H I O.r.N.N.b.b.d.0.9.9.0.r.d.b.f.r.t.w.O.R G g J ..0.q.l.m.x.m.z.s.q.0.*.9.*.%.%...{ ' ' ` ` ` z i t d z z z ",
"@ @ & - ; - O o o o X X . X X X +     X   X - 1 3 3 4 s s d B Z N s s g B G L | o.O.O.O.O.O.| | R R L G B g d s 1 ; - o o O 3 s L R Y Z s 3 #   o o O o X             o 3 B G G L L L L K B 3 o   + O < - X X o 9 Z / | R L L L V s 4 o     o 9 i i i i p d B Z L I ^ ] ^ I G k g g d e 1 < - O o % % % # O O +   o .   X i ..;         X X @ ; i p 8 G d.] t p i z t p k k H * 3 B K R /  .#.*.9.9.9.*.*.*.*.*.*.*.#... . . .^ ^ I J J H H G G G G G k g g g g g g g g g k z G H J I ^ | X.6.w.f.M.L.Y.Q.].].`.OXOX#X].OXOX].#X#XOXOXOX].Q.Q.W.Y.Y.L.L.L.L.B.B.B.M.M.b.f.f.r.t.9.w.e.r.t.w.O.| R L K G K L R ( ( X.X.X.X.( K d s B K L L L L L L Y E ( R Z 0 ; 1 O - ; 3 3 > 9 d i K s K X   X   X X + +   O N R X.4.| o X.b.M.M.b.3.g @ i 3 3.f.b.M.M.M.N.Y.E.E.R.Q.Q.W.W.W.W.Q.W.b.a k d.0.G = q.n.`.$X1X=X=X$X$X$X#X$X#XL.e.9.d.b.9.G - X   o 3 < o 9 L Z s - X   . @ i I | g 9 & @ 9 i 3 s i i i g G G L I ^ ^ ] |  . .O.#.q.q.q.d.l.r...J H G | e.d.N.B.b.f.f.d.r.l.b.n.m.b.b.b.f.i.w.X.L a k | 0.q.d.l.s.j.s.=.%.#.#.@.#.[ ' ] ` ` ^ H x a > o o & - - * ",
"  X X X X X X X . + . . . . X X X   X o . o # ; 1 1 1 3 9 i d g f i 3 3 i d g B L I I R / R I L L G G Z B d s 9 1 - O - < 4 V E E L G d 3 & o o - - # O o X           # i B G J H L L L L A s 1 +   X # 1 1 - X o ; B I / I L L K s 0 -     . ; 3 i i p d d g Z G H I I I I G Z B g d 3 ; - - % $ % - - - O + +   O .     > ..z .   X o ; ; > 9 a p p a *.=.x a p k a p a p 8 @ B L R / / | #.#.#.#.*.*.=.=.=.=.%.%.#....... . ./ ^ I J J J H L G G G G Z Z G G Z Z G G G G H J ^ ] ..*.9.r.M.B.I.Y.W.Q.Q.`.`.`.+XOXOXOXOX#X#X#X#X#XOXOXOX].Q.Q.E.Y.I.B.B.B.B.B.B.N.M.f.i.i.r.e.9.9.9.9.w.9.o.I Z g s 9 i d Z L R ( X.X.X.X.R G s s g K L L L L L L R ( ( L B 9 1 O o ; 3 9 3 9 i g ( Z 4     X   +     X   O m U 2.i.i.3 B f.N.b.b.w.G & d > o.f.f.b.M.N.B.Y.Y.T.R.Q.Q.W.W.W.Q.Q.B. .i O.d.#.p k l.Z.OX$X%X%X%X$X$X#X#XOXY.f.9.f.b.r.R 1 o     < - o 1 Z G i 9 O   . - 9 G o.| k 8 o ; 9 i i i i i d B G H I ] | |  . .O.O.#.9.r.d.l.z.l.0. .J H J O.d.M.N.B.M.n.n.m.m.B.Z.Z.Z.b.b.M.b.b.r.3.| g a J #.*.=.-.%.%.%.%.@.@...O...[ ` ` ^ ` J z a ; o o & > ; & o ",
"1 1 < # o o . . + o o o o o o o O X o O O O - ; 1 ; 1 3 3 3 i d f i 1 > 1 > 3 3 B Z G G L L L G G G Z B g s 4 3 1 ; 1 s K L R E R A B s - . o ; - - - o o X         X ; s g Z H L L I I R K B s 3 O     X ; s 1 o o - g L I L L K s 4 < # .   . ; 3 i d d g g Z G G G G J L G G g d i 1 ; - - ; - - ; < - O O +   X o o o i  .| 3 ; - > i i i i k p a y [ s.` j g k G a a 9 @ 9 ( o.o.o.O.O.*.#.#.#.#.*.=.0.=.=.%.%.#....... .| | ^ ^ I I J L L H H L L L G L L G L L I I ^ |  .*.0.d.b.B.Z.Y.W.W.`.`.`.`.`.].OX].+XOX$X$X$X#X#X#X#X#XOXOX].^.Q.W.E.Y.B.B.B.B.B.N.B.b.f.r.r.t.9.9.9.6.6.9.3.| L d 9 ; # @ ; s B L R ( X.| | / R d i s Z L L K L K L R ( X.| L N 3 o @ - ; 9 9 i d g E Z X       X +         o s K X.M.N.G - f.N.N.M.f.L & i ; I r.r.b.b.B.I.Y.I.Y.E.W.Q.Q.W.W.Q.E.b.a p r.r.| 8 O.n.Q.$X$X$X%X%X$X#X$X#XE.d.e.r.W.N.O.d o     o 3 O - s N d 9 - O   o 9 g I  ./ Z * . i 9 9 s i d d g G L I ]  . ...O.#.#.*.0.r.r.j.z.n.d.#.^ J I  .0.n.m.m.B.m.Z.Z.Z.T.W.T.D.Z.m.m.b.b.r.t.6.| Z i g |  ...@... ...@.#.$.........[ ` ^ ^ J z a > & & 9 M N s 4 ",
"B B d 9 4 1 - - ; - - - - - # o O O O O - < 3 3 4 < - 1 4 4 s s s s 4 1 1 ; ; - 9 i g G L L G G Z V N s s 9 3 3 i d G R E | R R K A s - o o ; > > ; - @ o X   X X   o < s B G L L I L I I L K B s s 1 o     o > s ; o o 1 B L K L V s 3 - o     O ; i d d i d z G H J H H H Z g g d 9 > ; - - - 3 ; < < O o o o   o o > ; 8 | ..d > > i i i a a j a l j z s.j.z k z g a t > @ L 6.e.r.e.e.t.q.9.#.#.*.9.0.q.q.q.0.*.#.@.....| | | ] | ] ^ I I I H J I I ^ / | | |  .O.9.9.0.r.b.B.B.Y.E.W.Q.Q.Q.OXOXOXOXOX`.].].].].#X#X#X#X#X#X#X#X].].`.`.Q.Q.Q.Q.W.Y.B.m.m.B.N.M.b.i.r.t.9.9.3.3.3.3.3.O.R B 3 - o . . . # ; B Z L / | | R R L s 3 d K L L L L L R | X.X.R L d ; o @ ; > > 9 d 3 L 1 s         + X       . - A 5.g.M.O.& 3.b.N.d.r./ & p i G 9.r.f.M.B.I.L.B.I.E.Q.Q.Q.Q.R.T.m...=  .s.q.H p 0.W.$X$X$X%X%X$X$XOX$X].f.9.n.Y.I.6.L o X     o O O 3 N s 4 ; O . . ; p G [ ..] g o @ 0 4 s d d d g Z I ^ | ....@...@.#.0.q.s.d.l.l.n.l.9. .^ ] ^ *.n.C.Z.W.W.R.Q.Q.Q.W.W.R.W.D.B.n.f.r.9.9.O./ g * * g I I ]  . . .....$.$.......{ [ [ .. .^ H 8 ; & 9 B A A Y ",
"R R L Z B d 9 9 i 9 3 3 1 ; - - # - - - < < 2 3 4 < ; < - < 4 0 s s s 4 1 ; - - ; 3 i g Z Z Z B B s s s d d B Z L R | X.| R L K V C 3 o o > i 8 > ; & @ o X X X     O 3 N G L P I I I I / / R L G G B d 1 & o X ; s s - X - s N B B N s 3 - o X X o 3 d i i g G G J J H H G g d d d 9 3 1 < < < 3 1 1 1 # o o . . @ @ 9 9 8 I ..z t t h p y h a z x x j j ' -.-.k j z i > o 9 | e.f.N.N.N.m.n.d.s.s.s.s.d.s.s.s.s.q.9.#.#... .|  . . . . . . . . ...O.O.6.9.9.9.r.d.M.n.B.B.Y.E.W.W.Q.OXOX#X#X#X$X$X$X#XOXOX#X#X#X#X#X#X#X#X#X#X#X#XOX].`.`.Q.Q.W.W.E.Y.Z.Z.m.n.B.V.b.b.r.t.9.9.O.O.X.X.X.X.K s - # . O - - o . - s G L I / R R R B 9 3 d K L L K L R | o.o.X.( A 0 - - ; ; > 3 3 i 1 > R     X   X . . X   X o B o.i.b.w.@ | M.M.d.r.o.> d d g 6.r.f.M.N.B.L.I.Y.Y.Q.Q.Q.R.T.Z.d.k H q.n.O.8 ..m.`.$X$X$X%X$X$X$X$XQ.n.q.s.C.W.i.X.1 o     o o o ; 0 s 3 - o . . @ 8 k J { ..` d o - 0 0 s g g Z H ^ / | ..O.@.@.#.#.=.q.s.d.d.l.n.n.d.*...[ ^ *.n.T.`.`.OX+X`.Q.Q.Q.Q.`.`.Q.W.Z.M.r.0.9.9. .L d o X : a L | ] ]  ...$.@.@.$.$.@.@.@.@.@.$. .] z ; - 9 0 M R ( ",
"X.X./ L L G B g B B g d i 3 3 3 - ; 1 1 1 1 1 3 3 ; - - o @ ; 3 4 4 4 4 1 - - - - - > 9 i d g B B N N V K L R | O.O.O.X.R K V V s 3 @ o ; d d i 8 ; & @ o o X X   + - s V G L I ^ / | ^ / | | | R R R L K s 1 & X o 4 s 1 o o ; g g N N s 4 # X   X o > i f g G L I I L H G g p i i i 3 ; - - ; 1 ; < 1 - - # o # @ - 9 i 8 z #.I a p k g p a k z J x z x c [ j.$.H p & @ @ L 9.b.N.I.I.W.Q.W.Z.Z.C.m.m.m.m.n.z.b.d.d.s.q.q.0.0.9.9.9.0.0.r.r.r.d.d.b.b.n.B.m.m.Y.Y.W.W.Q.Q.`.OXOXOX#X#X$X$X@X$X$X$X$X$X#XOXOXOX#X].].].].].].#X$X#XOXOXOX`.Q.Q.W.W.Y.Y.Y.Z.m.n.N.M.b.f.r.e.9.6.O.O.| | / L g 3 o o - 3 s s > @ X & i Z L I I R R L B 9 9 B L L L L R ( o.O.o.X.R B 9 3 ; ; ; > > i ; 3 X.o       . O @ .   . o 9 ( w.f.f.& Z b.M.f.e.3.i d Z 9 O.e.f.f.M.B.I.Y.W.Y.W.W.Y.W.T.n.^ 8 ..d.d.p k n.Q.$X@X$X%X%X$X$XOXOXB.9.r.Z.Y.I.3.V X       O o O 3 0 < o X     o ; d J [ @.{ J > @ ; 4 s g B G L ^ / | ....O.@.#.*.9.q.s.d.l.l.m.n.n.d.0.*.9.9.C.Q.@X%X%X@X@X$X`.`.Q.Q.Q.`.Q.E.B.b.d.9.| ^ | | R d @ o ; g I ^ ] [ ..@.#.#.=.=.=.-.-.-.-.=.=.*...p & & @ ; B ( ",
"X.O.o.| R L K K Z Z Z B B d s i 3 1 ; - - - - - - # - @ o o @ @ ; ; 1 1 ; ; - - & - > 3 9 d B G L L R | X.o.O.O.O.o.| I K B s d 1 @ o > d a p i i ; & @ o o +     o 1 s V L L R | | | | / | | | | | | | E R K B > o o e B s % o o > s N m 4 < - X     o 3 f g g H I I I L G Z a d d i 3 > - ; > ; - ; 1 1 1 1 ; # @ > 9 i i a #...x a z z j j x x H x x J z x @.q. .* @ @ d O.f.N.B.B.I.W..XOX`.`.`.Q.Q.R.R.T.D.Z.Z.Z.Z.Z.Z.Z.Z.B.m.m.m.Z.Z.D.Y.D.D.Y.E.W.W.Q.Q.Q.Q.Q.`.OXOXOX#XOXOX#X$X$X$X$X#X$X@X%X=X=X%X$X$X#XOXOXOX].#X#X#X#XOXOXOXOX`.Q.Q.W.E.Y.Y.Y.I.B.n.M.f.i.r.t.9.9.O.O.o.| / L Z 9 & o ; i d g B g d @ . o i G L L R R ( R B 9 9 B L L L R ( X.o.o.o.X.L d i 9 > > 3 > - N s X.-     . o - ; o . o & - L 3.i.M.9 i r.M.i.9.O.p i L > | 9.r.f.M.B.I.E.I.I.W.Y.Z.T.Z.0.8 p d.0.I 8 q.Y.OX$X@X@X$X@X$X+XQ.Y.d.e.m.Q.Y.r.L o X   o & O - - 3 < .       o @ 9 G I [ ..` z o - 1 0 d Z G I / / |  .....O.@.*.9.q.d.l.z.n.m.Z.n.n.m.n.s.n.Y.OX%X3X=X=X=X@X+XOXOX`.Q.Q.W.Y.Z.M.9. ./ ^ |  .| L d & . o 8 G ` [ { @.@.%.-.s.j.j.k.z.z.k.k.l.d.0.] 8 & 9 > > G ",
"R O.O.o.| R L L G G K K K Z d s 3 ; - @ @ @ @ @ @ @ & - @ @ o . o o o - - ; ; ; ; 3 i i d Z L / X.O.3.6.6.3.O.O.o.| R L Z d 9 3 @ @ > d G a p p i > & @ o o X   X # 4 N K L R | | | X.| | | X.| ( | X.X.| / R R L d @ o > B B 9 o o @ > s d s 3 ; o     o > d B G L I L H G G g g a d i 3 3 9 i > ; 3 9 0 i 9 3 & & 9 i a a a  .=.` k j x z z H J J J J z x J ^ ..@.i ; d | w.b.L.L.B.I.W.OX@X@X$X$X$X@X%X@X+X.XOXOXOXOX].`.].`.].].`.`.`.`.`.`.Q.Q.`.`.`.`.`.`.OX.X.XOX+X$X$X$X$X$X$X$X$X$X$X$X+X$X$X@X%X%X$X$XOXOXOXOXOXOXOXOXOXOXOXOXOX].Q.Q.W.Y.Y.I.I.I.B.M.b.i.r.e.9.9.6.O.O.X.| I G d - o & > a g g k Z Z i * o & i Z L R R R | / B > 9 B L L R | X.o.o.o.X.I G Z B d d d 3 ; M 9 ( o     o & 9 i > & ; 9 o Z | r.f.Z ; 3.r.e.6.O.a i ^ > I #.r.d.b.m.I.Y.I.Y.W.Y.Y.D.q.H 8 ..z.@.= @.m.+X%X@X$X$X+X+X.X`.T.d.r.B.W.W.M.( 1   X   - ; 1 ; o O X   X   X - ; d k G `  .J i o 1 0 m Z G I ] |  .......@.#.9.0.r.l.n.m.C.Z.D.D.Y.R.`.T.m.Y.OX1X4X5X4X1X=X=X@X#XOX].`.Q.W.I.n.r. .G a a d i ; ; - o . o * a J ` [ @.%.=.>.j.c.x.x.x.x.x.x.z.l.q.%.H k | ^ a a ",
"B I X.X.| / L L L L L L L G d i - & @ @ & ; > > > > 3 9 9 3 ; @ X X o o # ; 3 9 i d g Z G I | o.6.9.9.9.9.3.O.X./ I L K B 9 - o o > d g k k g a i > & @ @ o X   X - s B K L | X.| | o.X.o.O.o.X.| X.O.o.| / ( | R L g - o - s B d > o o - 9 s s 0 1 @     o 3 g Z G I L H G G Z z k a i 9 > 9 9 9 9 d g d d i > & & i a a a p z &.@.~ z x x x H ` ~ ^ ~ H ^ ^ k p k 8 & I 9.b.M.B.B.Z.Y.W..X@X@X%X%X=X1X3X3X=X=X=X=X=X=X=X=X%X%X%X%X$X$X$X$X$X$X$X#XOXOXOXOX.X.XOXOXOX+X$X$X$X$X@X@X%X%X%X$X$X+X.X`.Q.Q.Q.Q.Q.`.OXOXOXOX].OX`.`.OXOXOXOXOXOX`.Q.W.W.Y.I.B.B.N.M.b.r.e.9.9.9.3.O.o.| I L g > @ o ; 8 i d g Z G G Z d > o o 9 G L / I / X.I d > 3 B G I | X.o.O.O.o./ I R I L G G d g ; ; X.    . @ t k G k p i a * d L 9.r.I ; I 9.6.O.O.G i | i G  .e.d.b.B.Z.Y.I.Y.Y.Y.D.d.I 8 ] s...8 ^ b.`.+X@XOXOX.X.X+X.XR.b.9.b.Q.W.M.( 3       O ; - 4 o X     X o o o - ; i g H  .] a @ @ s M V L L ] ] ........@.9.q.r.l.n.Z.D.F.R.`..X+X@X$X`.T.R.+X=X4X8X5X4X4X1X1X=X$X$X#XOXQ.Y.b.t.o.L G G G L ^ / Z d 9 ; ; = 8 a J ` ..%.=.-.s.s.j.j.s.j.l.l.s.-.=.{ `  .%.q.O.k ",
"g L I I R / I L L L L L G g i > & & ; 8 i d g Z g d g g g g d 3 o o o o o - 3 d g Z L I / | o.O.6.9.9.9.3.O.X.| L L L G d - @ @ * i z G z z k a i > - - - o X   o < m K L R | o.o.o.X.X.O.O.O.o.O.O.o.X.| | X.X.| | ( L 9 o o - i d d > o . - s 0 0 3 # .   o ; d Z G G G G G G G z k a p i i i i d d d i i 9 > ; * i g k a a a ' @.{ x x x J ~ [ ~ ^ ^ H z a > @ ; > & G #.f.B.B.B.Z.Z.Y.R.+X@X=X=X=X=X3X4X3X=X=X=X1X3X4X4X4X6X1X1X1X1X1X1X=X=X%X%X%X%X$X$X$X$XOX+X+X+X+X+X+X+X+X$X$X+XOX`.Q.Q.R.T.D.Z.m.m.m.m.Z.Z.Y.T.R.Q.`.`.`.`.`.`.Q.Q.W.W.Y.Y.Y.L.N.N.M.b.i.r.9.9.6.O.o.| / L G d 3 & & ; 9 8 i i i d g B Z Z g ; o @ i G I / | | | L g > i g L / | X.o.O.o.| / | | | / / d d o 1 Y   X . > k J ^ | H k H a * Z  .e./ 9 g O.O.O. .H 8 / k i ^ 0.d.b.m.B.Z.I.Y.Z.m.r.I a z =.=.8 J 9.].`.+XOX`.`..XOX+X`.B.9.q.m.Y.g.R 3     . o 3 - 3 3       X o @ - ; ; ; i a H ^ k > & 9 B K R I ^ ....#.6.9.0.q.d.n.C.F.R.`..X.X+X@X=X3X3X@XQ.R.+X3X5XwXwX8X5X4X3X1X=X%X$X].W.Y.n.0.O.I g d G I |  . .#.#.| L G a t p k z J ` [ ......@.%.%.%.=.=.%.....~ ~  .%.d.0.x ",
"g G g d g G G Z G G L G g i > - * 8 p g Z G G H G Z Z Z g Z Z d ; ; ; - o & 3 g Z G I / | o.O.O.O.O.9.6.O.O.| L B G K B 3 & & > i a z J J z k a i > ; - - o X   O 4 N K L R | | O.O.o.X.O.O.O.o.O.o.o.o.o.X.| R R / ( R L B 3 o o - s d s ; o   3 4 0 4 - o     > i g Z Z G G z G G G G G G G z d d d 9 > > 9 8 9 * 8 z z k k j v @.&.~ v J ~ ^ ^ ^ ^ J p & & ; Z ^ O.| Z / O.f.B.B.Z.Z.Z.T..X=X%X@X@X=X=X3X3X=X=X1X3X4X5X5X5X7X7X7X7X7X7X3X3X3X3X3X=X=X%X%X%X@X+X$X$X+X+X+X+X+X.X.X.X`.Q.W.Y.Z.n.b.l.r.q.9.#.O.O.O.#.0.d.n.B.Z.W.W.W.E.E.Y.I.I.B.Z.B.B.M.b.f.i.r.w.6.3.O.X.| I L g i > & o & 9 d i 9 3 ; & > i g g g g ; X @ d L | X./ | o.L i ; i G R | | X.O.O.| / | | X.X.X.- & o 3 s # o o p J ^ ] #.] z ~ J o d I r./ d i | |  .| H > ^ L ; L 9.d.b.n.m.Z.B.I.m.d. .8 p 0.#.8 ^ 9.`.+X`.$XOX`..X+X+XXXD.0.*.n.Z.r.( 3 .     o < s @ A 1     . @ @ @ ; 3 > 9 p a z g * & d G R ( o.O.O.q.q.s.d.f.n.C.Y.W.`.`.+X@X@X=X=X4X5X3X=X+XOX@X=X8XwXwXwXwXwX5X4X1X%X$X`.Y.m.b.r.#.| > 8 k I L Z G H J O.#.O. .I k g i i p a G H I J ^ ` [ [ ..{ ' ~ ~ ~ ` ..q.d...k ",
"k I I i @ & 9 d g g d i > ; ; 9 9 a G G G H H G Z g g g g d i i ; 4 s 4 3 & - s G L I / | o.O.6.O.O.O.O.O.X.R L g B g ; @ ; i p a z J ~ J H k a a 9 > ; - o .   - s B L R R | O.O.O.O.O.O.O.O.O.O.O.O.o.| | | | | | | / R L G Z 9 & . & d Z s ;   o 1 4 4 1 o     d g G g k k g G H H G G z k g d i i i 8 > 8 i i a k k k z k a x &.-.' ` ` ~ ~ ~ H a * & 9 H o.6.r.M.f.9.| I I 9.r.N.B.B.I.`.@X@X@XOX+X@X=X1X=X1X1X3X4X4X5X5X8X7X7X7X7X7X7X7X7X4X4X3X3X3X3X;X;X=X=X%X$X$X$X#X].`.Q.Q.E.Z.n.b.d.r.9.O. .| ^ J G G z k k z J ^ ^ O.#.9.9.0.0.9.6.9.9.6.3.3.3.3.4.3.3.o.X.( L B d 9 > & @ o & 3 g s 4 - o X X . o s d g Z Z > o o i I | | | X.O.L 9 ; 9 L | | | O.O.| I O.X.X.6.G @ & - 9 o 3   & z ` $.$.%.$.H J ] @ > H O.O.d i G ^ | I | i G | i k  .0.n.n.n.n.I.B.f.^ > p ^ I 8 J d.R.@X=X=X@X$X+X$X+X$XR.0.O.r.n.f.I ; .     o 0 3 - s d - o o o & > > > 3 9 i i a i = & i I X.O.w.e.r.l.m.B.Z.Z.Y.Y.W.`.+X@X=X=X=X;X4X4X;X;X%X@X@X=X4XwXwXwXwXwX5X7X4X3X@X].W.m.r.0.r.9.G 8 i G I H I | | J k H J | .. .I k i & @ & & > i i a k H H H H J ~ J ^ ..%.q.0...J ",
"H  .O.H 8 & & @ 9 9 9 > ; ; > i a z G G Z G G Z d i 9 9 9 > ; ; - ; 1 i s 3 - - d Z I | | o.O.O.O.O.O.O.o./ L G d d 9 - ; i g k z x ~ ~ ~ x z j a p 8 > ; # .   o 4 B L / | X.o.O.O.O.O.#.6.O.O.O.O.O.o.o.| | X.| | | | / R I L G g 9 & o - s K B ; . # 0 0 1 1 o 9 d B Z G G G G H G z k k k k i i i i 8 > 8 i p p a k k k j k z c %.s.@.J ~ ^ a = & i ^ #.e.f.n.M.f.M.M.f.9.O.I | O.t.b.Z.Y.`.OX+X+XOX$X=X=X=X1X1X3X4X4X5X5X5X7X7X7X7X7X7X7X4X4X4X4X4X4X3X;X=X3X=X=X%X$X#XOXQ.W.Y.B.b.b.r.#. .I I H k p i i p 8 = 8 p a p p k G a i 8 9 i d g g g B B V B N N A Z Z B d 3 ; ; o o o & > i d V s 2 O X         . 9 g g G H i @ o i L X.6.o.| o.Z 3 - i L / X.O.O./ I o.| o.O.d ; ; o K   s X d ^ @.=.&.=.@.H H @.8 ; k | | d L d I  ./ ^ d d ^ i i I #.r.d.Z.Z.g.r.^ 8 i ^ H & ] q.T.@X3X3X3X=X@XOX.X$XQ.d.#.9.n.9.L 3 o   X o 3 3 @ - B G 3 & ; ; ; > 3 9 9 i i i i ; ; d I O.w.e.f.N.m.D.T.R.`.`.`.`.+X@X=X3X;X;X;X;X;X=X*X@X@X=X3X5XwXwXwXwX5X7X3X=X$X`.I.N.0.9.t.e.O.Z i k H H G I 6.d.b.d. .H a a G I I G 9 @ X X   . o o & = 8 p k z H ~ ^ [ @.=.q.=. .J ",
"I ..9.O.H i & o @ & * ; > i d Z G G G B g g d d > ; & @ @ o o o o o 1 s s 9 > & - d L / | o.O.O.#.#.O.o.| L G g i > & - i k H H x J ~ ~ ~ x z j a a p 9 > ; o   o i Z G / o.O.O.O.O.3.3.6.6.O.O.O.O.O.O.o.o.o.o.| | / / / / / R L L L g > & o @ d B s o   o ; 3 - - i d Z G G z x H G z a g k z p p i i i i i p k a a k k k z x J J %.d.%.~ a & * a | 9.d.M.N.N.m.N.n.n.m.m.b.b.9.O.| ^ | #.s.n.R.`.`.`.+X=X1X1X3X3X4X4X4X5X4X4X8X8X8X5X4X4X4X4X;X;X3X3X=X%X@X$XQ.Q.W.Y.B.N.b.r.9.6.o.| | I G a a g k a a a G J I I ^  .| ^  .*.0.#. . .^ g ; o o . X o o o O O O - ; - o o o o o - ; 4 d g s s < O +             o > g L ^ G i . @ d I O.O.o.O.| Z > - 9 G / o.| R I X.X.O.X.1 - - - K   G @ k ..&.s.-.s.%.J z O.i * g / / i | i G  .| / G 8 L g ; d | e.d.M.w.9.L > p H > *  .l.D..X@X=X=X@XOX.XOXQ.Q.n.6.9.9.6.G &     X - 3 3 & . ; L L 9 ; * > > 9 i i i 9 i 9 ; * i / 9.r.M.b.B.Z.W.Q..X.X.XOX+X@X=X=X=X3X4X3X3X=X=X=X=X=X=X3XwXwXwXwX4X4X=X@X`.Y.m.d.0.#.9.O.O.o.I i 8 G I L I 9.m.Y.Z.B.r...G p t i g Z d ; o .   X . . . o & 8 a x ~ ] ..*.q.s.q.#.[ J ",
"I ..0.q.O.H p i * ; > i a Z G L L G g i i 3 ; & o o . . . X X X X o - 1 3 i i > & > g L | o.o.O.#.@...| R L g d i - @ ; a H J H J ~ ~ ~ ~ x z j a a p 8 > ; @ X X - i B I | O.3.O.6.O.O.O.O.6.6.O.O.O.O.O.O.o.o.| | / / R R R R R I L L L Z 9 & o - 3 d s ; o   &   & > d g G z G G z k a a k k a a a a p p p a z k a k k z H ~ ~ J ^  .] t = z | 9.d.b.b.n.N.M.M.N.N.n.M.b.b.B.m.b.r.9.O.o...@.s.d.m.C.Y.`.$X%X%X=X=X=X=X=X=X=X@X$X+XOXOX`.Q.Q.Q.R.W.Y.m.l.q.9.9.O.o.| I L Z g 3 i i i d d g B | I H H J I I ^ k G G k a a k z z a k I ] H g i & o                 X o o o o - 4 4 4 3 3 4 : O +               o   o d G H H G ; . 9 Z B o.9.o.o./ G i - > B / R I L ) | X.( ; i o g > i L ; G =.-.s.q.s.%.H a ..a & Z / I i | a p ^  .| I 8 g I 8 ; d / ..o.L ; & p Z i k #.l.D.R..X+X+X].`.`.W.R.Y.B.9.o.O./ 3 @     . - 1 2 o . . i I H i > & > i p d d d i i * & i / 9.r.b.n.m.B.D.T.Q..XOX@X@X=X=X=X=X=X=X=X=X=X=X=X=X=X=X4X4X3X=X%X+XQ.Y.n.n.f.d.q.0.9.6.9.#.O.H d i a / G | 9.m.W.E.m.m.b.d.*.^ p ; ; i d 3 # o . . o @ @ @ * p H ^ ..#.0.q.d.d.9...^ J ",
"| O.r.l.0. .J H k k G H I ^ L G B s ; - @ o o . o . o o @ @ @ @ - o o o - 9 d i > - > Z I | X.o.....o.| I G f i 3 & & > k J J J ~ ~ ~ ~ ~ c x k j k a 9 > > ; @   o * i G I | 6.3.6.6.O.O.O.6.6.O.O.O.O.O.o.o.o.| | | / / / / R / R I I I I L L 9 & o & 9 s i 3 -     . - i a G k z k g a a k k a a a a p i p a k k k k z J ~ ~ H J a = > i J 9.d.r.r.M.n.n.n.m.n.b.b.b.M.n.b.M.b.M.n.n.b.r.e.0.q.s.d.d.d.b.n.m.m.Z.Z.I.Z.Z.Z.Z.Z.m.m.n.b.d.q.9... .| ] I H g p i 9 > & @ o o . o & - - & ; 9 i 8 > * * > 8 > > i a G G z H J J J k a a p > & @ & o X X                 X . o o # - # o o o X         X             @ > p G J G i o 9 Z d G X.O.| | | G 9 & ; d L L L R R X.R 9 L - | . / Z > | s.s.l.s.q.#.x t O.k & g R L d / | t G ]  .^ p 8 I Z 9 o ; ; > 3 i g 8 & a #.r.l.Z.T.R.R.R.W.Y.T.D.n.n.t.( Z 9 ;       o 2 1 % X   . & a / I p 8 t i p d g g d i * & i / w.r.b.n.m.m.D.D.T.Q.OX@X=X=X=X=X@X@X@X@X=X3X4X4X3X=X@X+X.X`.R.T.D.Z.m.d.d.s.s.q.0.#.@.@.| | I a a G H ^ ^ 9.B.Y.W.Y.I.Z.n.l.q.9.| d ; & 9 4 ; - & - > 9 8 i a J | ..*.0.q.s.s.=.$.^ ~ J ",
" .#.r.b.d.#. .| | | |  .O. .I Z s ; o . . o o o # - - 3 9 9 9 9 s > o o o - i d d > - i G I ( X.| | | / L B s 3 - & * i G ~ ~ ~ ~ ` ` ` ~ ~ x z k k a p i i i > & o o @ > 9 B R O.6.9.9.9.6.6.6.6.#.#.O.O.O.o.o.| | | | | | / / I / ( / I L L I I L d o   @ i g s o o   X o > p g k k k k k k k g a g a p p a k j z z z H ~ J H G & ; G L G ^ O.9.r.b.N.n.M.b.n.n.b.f.b.b.n.M.b.M.f.d.b.M.n.m.m.Z.Z.Z.Z.m.m.Z.I.Z.I.Y.T.T.Y.D.Z.D.B.m.b.l.r.9.#.O. . .] | ] I G g i 3 ; - & @ @ & & @ o o o @ & ; ; 8 i a Z H I ^ ^  .9.r.d.n.Z.m.n.l.r.9.^ B i 3 - o X     X X X         X X X X o X X           X o - # o @ - - ; > > 8 d Z Z Z ; * Z / B d | o.X.| | L i * & 3 3 g G L L N ; d s o.. | k 9  .s.s.l.s.q.#.z =  .a & g I L g g #.a a I | L a * 9 Z Z 9 B s i d i ; 9 / 9.#.#.r.l.n.n.m.m.n.n.n.m.s.9.L 9 ;         o < ; o     o & ; a ] ] G p a p p a g d > & o i R 9.f.b.n.B.m.C.D.D.T.`.$X=X=X=X@X@X@X@X=X;X4X3X=X@X].`.Y.Y.m.Z.Z.C.m.m.n.b.s.9.O.^ J G Z Z H Z k G I ^ H I 0.B.E.W.W.W.Y.Z.n.l.r.t.6.L i & 3 d d i i p g G G J ]  .#.*.0.q.q.q.=.@.[ ~ ~ ~ ",
" .#.q.n.n.d.9.#.#.*.*.#.#. .H d 1 O X o O # - 1 1 4 s s N N N N g g i ; o o ; g g i > > d L ^ / / / / I G d 4 > & & > g J ^ ^ ~ ` ` ` ` ~ ~ x k z k a a p p p d i > & o o o & 9 G I O.9.9.9.6.6.9.6.#.O.O.O.O.o.| | | | | | / / / / R I I I / / I L I I g - o o s d > & o o @ * i a g g k k Z G g a a a a a k z z x H H H x k p * i | t.9.O.O.I 9.r.b.r.d.N.B.b.l.b.b.b.l.d.l.l.b.b.f.b.M.M.M.b.m.C.F._.`.+X=X=X3X3X3X=X=X+X.X`.D.m.z.l.d.q.*..... .^ J G k d p i 3 > ; ; ; ; > - - ; > 3 i s d g Z L I ^ | O.9.d.r.r.b.n.n.B.D.D.D.D.D.m.b.r.9.X.R V s ; o o X +         X X X o o o X         X o - 3 i i s d B g d i i 9 9 g G d @ 9 X.I g G I / | O.o.I g > o X $ 1 3 3 1 ; - d Z 9 o.a p | =.=.d.s.0.@.k & | i ; H | R G >  .J i J I G a ; - 9 s 9 d 1 @ o ; G I H I ^ ^ O.9.0.0.q.q.q.0.0.*.@.L 9 @ @ .   + o O # X     o - * > a ^  .] H k a a a i ; @ @ i R w.i.b.B.B.B.m.C.D.D.T.`.+X%X=X=X=X=X@X@X@X=X+X`.T.Z.Z.Z.Z.C.D.D.C.d.q.=.$.] z a i 8 8 p k Z G L | | | ^ | 0.B.W.Q.W.E.Y.B.b.M.h.r.e.6./ d ; ; d a a k z H J ]  .....#.*.=.%.@...[ ` ~ x J ~ ",
" .#.q.n.m.m.b.r.r.r.r.9.O./ k 9 O X X O - < 1 4 s s s N B B B B L G g 9 > @ & i B g i ; 9 G ^ I / / I L Z s 3 - & & > k ^ ] ` ~ ` ` ` ~ ~ J x j z k a a a a a k g Z Z g d 9 ; & o 8 G o.9.9.9.6.9.9.6.#.O.O.O.O.O.o.o.| | | / / / / R R I I L H I I L L I L B 9 o d i g i > - * ; 8 p p p d k Z g p i i a k z z H z H H z p 8 * I 9.r.r.i.9.o.| | #.r.b.b.M.N.B.n.b.b.l.d.d.r.r.e.9.9.9.6.6.0.0.q.d.m.Y.R.`.OX%X%X%X$X.XR.Z.m.b.r.0.#. . .] I G a a i 8 * & & * ; * - > 9 i d g B B L L L R | X.O.6.9.e.r.d.b.N.n.m.Z.B.Z.T.W.D.T.T.D.Z.m.m.n.M.f.r.w.3.E V 4 < o + X           X     X X   X o & * > i a g g k k G G Z k i > 9 g G - @ G O.o.B i G | O.O.O.| L d & o o o ; s L s i @ L 0.> p #.#.%.s.q.*. .p o  .d i I  .| | ; G  .i H H k d 9 @       o @ 1 1 d > i Z i g ^ I | |  . ...o. . .] G > 9 s o     O O +     o - - ; * > a ^ .... .J G k p ; o ; d | 9.r.b.M.B.Z.m.Z.Z.Z.D.T.R.`.+X$X+X+X.XR.D.C.m.Z.C.Z.T.W.`.`.`.C.n.9. .^ H d 8 = = 8 p k J ^ |  .|  .|  .9.r.Z.W.Q.Q.Y.Y.m.M.b.d.t.9.3.O.| g & ; d k k H J J ` [  . .[  .....[ ] ~ J x x x H ~ ",
" ...0.b.Z.Y.B.n.b.f.r.9.| I g - o X o O - < 3 4 s d B B Z Z G G L L G B d 9 ; - i g d i 8 G I | / / ^ L Z d - o o * p J ] [ [ [ .. .[ ^ J x x z z k k a p i d G k G H H H H H J G > & i L O.9.e.9.*.*.9.*.O.O.*.O.O.o. .X.| | / / / I I I I I J I ^ ^ ^ ^ ^ / | L o o ; ; 9 i > 3 > > > p p p d p g a p k g a H G G G a = & k #.s.0.f.b.e.d.r.|  .O.9.d.b.n.n.m.n.l.q.#...| G p p p p a G G G z H J ^ O.r.l.l.l.d.d.d.r.r.6.O.X.I L g d i > ; - @ @ @ o o @ * ; t i k G I |  .O.#.9.q.r.d.b.b.n.B.I.E.W.E.Y.E.W.W.W.E.Y.Y.Y.Z.Z.D.Z.B.m.m.n.b.d.r.t.e.9.9.o.R L M 3 # .     X - - < 1 ; - ; ; = t i d g z G H G J I I J H k p 8 i k i @ > R 6.O.Z i p ^ O. .| O. .G d d Z I O.9.o.; @ 9.O.@ i #.] ..q.0.%. .t . / ; Z I / O.] a a | d ; G ; o o         . o o . . o o o @ 3 g G Z G G L L L L G i o i G :     o .     X o & ; > > > i a G ] O.9. .^ k > & 9 G / 9.r.M.N.B.B.m.m.m.C.Z.D.Y.Z.Z.C.Z.D.m.d.b.n.m.Z.`.+X=X=XOX`.Y.m.e.o.L d > & * 8 p k I  .*.q.r.r.d.d.d.b.m.Y.R.Q.`.R.Y.Z.m.n.d.r.9.9.O.O.| R B ; & i k G G I ] ] ] ] ^ I I I I H H G z z z x H ~ ",
" ...0.l.B.Y.I.B.n.b.r.O.I Z 9 o X X o o # - 1 3 4 i d g Z Z G G H L G Z Z d 3 - 9 g Z d 8 a I | / / I L Z i * o o > k ` ..@.} { ......] ~ ~ ~ H H x k k p i i p g G G G H H H J |  .I i > p L | *.9.*.O.O.9.O. .O...| | O.o.| L ( / R I ^ ^ ^ I I I ^ ^ ^ | | O.*.G i - o o ; g i i i i d d d g p a a k G G k G G L g > 8 H %.q.s.s.d.q.0.q.s.0.@. . .#.s.d.0.#.I g a G g i G #.O... . . .| ] ^ z g d d a a g g G G G Z g i 9 3 @ o X X   X . o o @ - ; 3 i B G ^ [ #.0.r.b.m.Z.T.R.Q.`.`..XOXOXOX#X$X#XOX].`.`.W.W.Y.I.I.Z.B.m.m.m.n.b.l.d.q.9.#.#.O.O.o.| I L K C 0 ; o X X o 4 s Z G G H H H H H J J ~ ^ ^ ^ J J J J J z k p i i d > @ B 3.3.o.G i p I O.#.#. .| | #.#.6.r.b.e.d @ o.I o > O.a #.s.%.%.] & .  .* Z I ^ .. .z & | G & o . @ o . @ - - @ o @ @ @ @ o . . o - ; 9 0 s g B d 3 o o o s e X         X o & - ; > > i t t p k J |  .#.o.G > & 9 I 6.0.r.d.d.d.d.d.d.d.d.q.9.9.9.0.0.0.z.m.C.Z.R.+X=X3X=X=X].I.f.6.| g i > - & ; i Z / O.9.b.m.Y.T.T.T.T.W.W.Q.Q.Q.Q.T.D.Z.m.n.l.q.0.9.O.O.| | I g > o > p g G H I L H G G g a a a d a a g k z z H ~ ",
" ...9.d.m.I.I.B.N.b.0. .G d ; .     X o O O - ; 1 3 i d g Z G G I I L G K Z i > & 9 G Z i p L | | / I K Z s - X & i J  .@.%.%.@.%.%.@...' ` ~ ^ ~ H z k a i > ; ; 8 > * * * * = i G  .O.I p 8 8 z ] O.O.O.O.9.9..... .| | | | | ( / R I ^ ^ ^ ^ I I I I ^ |  .O.O.O.| G s - o > d g d p a a d a a a k z G k G G I d > i J 9.d.d.q.n.s.9.d.r.6.s.9.#. .| J k a a z  .#. . .9.9. .^ ^ ^ I I I J H L H z a > & o o o X X                   X o @ & i p Z H ^ ..9.q.r.b.m.D.R.`.OX$X=X=X=X=X=X=X%X%X%X@X$X#XOX`.Q.Q.W.Y.Z.B.m.n.b.M.b.l.d.r.q.9.#.O.| / I L L L S Z B d 0 1 - o     o ; s B G I ^ ] ]  . . ..... . .J J ~ ~ J H z g i > i 9 @ - K 3.o.O.^ i ; g | o.O. .o.#.9.r.f.r.G 9 > @ >   > H & *.0.O.=.J . & #.@ G L ^  ...J * | L 8 @ * i i 9 i d d i 9 i i 4 3 1 o X X X . X o - ; - o X     & s ;     X   o - ; - - 3 i i 8 i p a a k H I k a i > > p G I ^ / | / ^  . ...^ | O.O.#.9.l.m.T.T.Q.OX%X=X=X$X`.T.m.s.#.J a 8 @ @ & ; i g I O.9.e.d.m.Y.R.R.R.Y.T.E.W.R.Q.W.T.D.Z.m.n.l.d.0.*.#... .| I L g 3 o & - > i i p d i 8 > ; ; ; > > > i p g z H J ~ ",
"[ ..*.r.n.I.I.B.M.r.#.^ k i ; .     X X o o O - ; 3 9 s d g k G L H Z g Z Z g d - ; Z H g i H | | | / L G d - X & i I  .#.=.-.-.s.s.-.@...{ [ ' [ J x k p ; @ o . @ & & ; > 8 i i & * H O.O.^ I t > i z I  .| ..O...|  .O.O.| / ( / / / ^ ^ ^ ^ ^ ^ I I I I ^ | | O.O.| R d & o d g g a g g g a a k z z g k G G p ; t ^ q.q.0.q.0.#.q.s.#.9.d.d.q.I 9 p ^ @.#.@.^ a i k k i 8 a a a g k k k k k k g g a 8 & & & * & & & * * - - ; > 9 i g G I | O.*.t.l.m.D.W.Q..X.X+X@X=X;X;X4X3X3X;X=X=X%X@X$X$X+XOX`.Q.Q.W.W.Y.Y.m.n.b.f.r.r.r.0.9.9.6.O. .| I L G g g d i 9 3 ; - - @ o         o - 3 d z H J ^  ......... .^ ^ ^ ^ ~ J z k i 8 - > 9 o - ( o.| o.#.L ; ; Z / | O.9.r.b.9.I > O.O.@ G i > . @  . .#.*.z   i 9.@ K I |  ...J * I L Z d g g G Z g d d g B g d 4 3 ; o X           X         X   > g > X X X - ; ; - - > i i i p i p g G k p > ; 9 d G I | / I | ..O.O.O.#.#.#.9.q.f.n.m.C.Y.R.T.R.OX$X`.T.C.f.#. .H k i * @ o & > i G / o.9.r.b.b.m.m.Z.Z.D.D.Z.Z.Z.Z.Z.Y.T.Y.Z.m.n.l.d.q.0.#.O. .| | I L Z i * o o o @ & & * & o o o o o & - ; 9 p k z H J ~ ",
"[ ..*.r.b.B.B.N.r.9. .I g i ; o         X . o # ; 1 3 i i d d g g g d i d g g B d > d G Z 9 G |  . .| I L g 1 o o 9 H  .%.-.>.s.j.j.s.&.@.@.@.{  .^ H k i & o o - 9 d Z I / | ..^ | k & * I 9.9.0.O.H i & & i J ^ ^ | | | |  .o.| | / / ^ ^ ^ ^ I I I I L L I I I ^ | | R K i . i g k g k k k k g k z z G H G p @ i | 9.q.0.0.q.q.9.#.9.q.9...~ 8 k  .9.#.I a 8 G | O.#.#.0.0.9.#.#.#.O.O. . . .] ] ^ ^ ]  .#.9.9.9.0.0.0.0.0.9.#.9.r.r.f.b.m.Z.D.T.Q.OX@X=X;X4X4X5X8X8X5X4X4X4X3X3X=X%X%X$X$XOX.X`.Q.R.W.W.T.Y.Z.m.b.d.r.0.9.9.#.O.O.O.o.| / I L K Z g d s 9 3 1 - # o o o           X o > i p k z J ^ [  ....... .[ ] ^ ~ z k i 8 @ & 9 @ o s / | o.O.6.o.Z 9 o ; g L L G g 9 e.f.e.Z ; O.9.& i O.O.9. .i X t 9.- L I  .@.#.I o H | H G H a G Z g d d B Z g s 3 1 - o X     X X         X     o 9 g > o o o 1 - & ; 3 i i i i a k k a i 8 > > G / #.9.9.9.e.r.f.b.b.f.f.n.n.n.n.n.m.C.D.D.C.n.m.n.m.n.9. .I k 8 * @ @ @ * 8 i G I o.9.d.b.N.B.Z.Z.Z.B.m.B.m.B.Z.Z.m.m.m.m.B.m.m.n.d.d.q.q.*.#.O. .| ^ I H G g 9 - o o @ o o o o o X X o o o & > i a g k z H ~ ",
"[ ..9.r.b.B.B.M.0.O.| H g i > o           X o o - ; 3 9 9 i p d a k g d d d d d s ; ; a G d a L  . .| / L Z 4 % . ; z  .=.-.>.>.s.j.>.&.@.@.@... .^ H k > o o - g L / o.O.#.#.9.d.0.9.O.k * > H 9.0.0.0.*. .z > * i k I | | | / | / / / I I I I H J J J L L I J I I / | I G d   > g z k k G G k G z G H J G i * a ^ 9.0.0.0.q.0.9.r.9.@.@.^ k a ..^ k a p k ^ @.#.q.l.b.d.r.r.r.0.0.9.*.#.#.#.O.9.9.9.0.r.n.Y.Q.OX#X$X%X%X%X%X%X=X;X3X=X%X%X%X%X%X=X;X3X4X4X5X8X8X8X8X8X4X4X3X;X1X=X%X$X$XOXOX`.R.W.Y.D.D.Z.B.m.m.b.d.r.0.9.#.O. .| | | / / I L G Z Z g d i 9 3 1 ; & o o X             o & > i a k z J ^ [ ..#.$... . .] ^ x k i > & @ o - - . B L | O.6.6.6.6./ Z d i 9 g O.M.N.M./ ;   > d @ d I L G 9 > ; i O.9 I / #.9.0. .i k I I H G i G k Z G G G Z d i 9 1 - o . X . o . X       X X   @ i B > @ - - ; ; ; > i d p d k a a p > * > z | 9.e.r.d.r.d.b.b.n.n.n.n.n.n.m.m.C.C.C.m.l.q.0.*.^ z a p 8 8 * @ @ @ * p G ^ #.0.r.d.b.N.m.B.B.B.m.B.n.b.b.b.b.n.n.n.n.b.b.b.l.d.l.d.q.0.0.0.*.#...| ] ^ I H G g d > ; ; > ; @ o o X X o o o & - > i a k k z H ~ ",
"[ ..*.0.f.N.B.M.0.O.^ H k p 9 & o X       X X o O - 3 9 i d d a G G G k k k d d 9 ; @ 9 Z Z d G  .....| I K d 1 . & d ] %.=.&.-.>.s.>.%.@.@.@. . .^ G i * o - s Z / o.O.9.9.0.r.9.q.r.0.9.O.G = = a ] #.q.r.r.9.| Z > * i G ^ | / I I I I I I I H H H L L L L J ^ ^ I I G Z d o > g z z k H H H H H H J H i * 8 O.#.#.9.9.0.9.*.@...6. .8 p ^ ~ 8 a I O.9.q.6...O.O.9.q.r.r.0.0.9.9.#.#.*.*.*.9.9.9.0.r.b.m.Y.Q.OX%X3X3X4X4X8X8X8X8XwX8X5X8X8X5X4X4X4X4X4X4X5X4X8X8X8X8X8X4X6X3X3X1X%X%X$X#X].`.Q.R.W.T.D.Z.m.m.n.b.d.q.0.*.O... . .| ] ^ I H G G Z Z g d i 9 > ; - - o o o X           . & 3 p k k H ~ ]  .#.*.*.$. . .[ ^ H z a i 9 &   @ 3 @ o g | | | O.e.r.e.9.e.M.N.N.Z.W.B.3.d . . @ I G X o o o $ g L i L B o.6.0.q.d.#.J * p G G k a k k G H H G g i 3 1 - o X       +   X X     X o - & i Z 9 & > ; ; 9 9 p d d d d a p > * 8 z  .9.q.r.r.r.d.b.b.b.l.n.n.n.n.n.n.n.d.s.q.0...~ z k k ~ J k t = * = p ^ O.q.f.m.I.T.Y.Y.D.Z.B.m.m.n.b.n.b.f.f.f.f.f.f.r.d.d.d.d.d.d.r.s.q.0.0.0.0.*.#...| ^ ^ I H G g d i 9 9 i 9 > - o X X o o o o - ; i d g k k H ~ ",
"] ..#.9.r.N.N.b.0.O.^ H k a i ; # .         X X o - 3 s d g k Z Z G G Z G G Z G g d @ & i Z d G  ...O. ./ L B 9 o @ i J @.%.%.&.>.s.-.@.{ ....[  .I g 9 @ o > B L X.6.9.0.0.0.q.r.r.r.d.l.l.q.*.] k > * i H #.b.b.r...k * & i G I I I I I I I I I L L H H H H H G J L I L Z i o > g z g k H J J I I H J k * > | O.9.9.#.#.9.9.O.@.6.k 9 | | p i ^ #.s.s.s.r.r.q.O.#.#.O.#.9.9.#.9.#.O.O.O.#.O.O.#.*.9.0.r.l.m.T.Q.$X%X=X%X=X4X4X5X8X8X4X4X4X4X4X4X4X4X4X4X4X5X8X5X5X7X7X7X4X3X3X1X=X%X$X#X].Q.Q.Q.R.W.T.Y.Z.m.B.n.b.l.r.0.*.#.O.O... .| ] ^ L H H G Z g d i 9 > ; > > ; - $ o o           o > d k z J [ ....#.=.q.*... . .] ~ H H G a > @ o ; g Z ; @ i I | O.w.6.e.M.N.B.B.N.r.O.G . . @ s I 3 o X   o f o.| o g L 9.f.d.s.b.*.I @ a g p H ^ G J I I I H k i 3 ; O . X X X + .         . o o o - 9 g d ; ; ; > 9 9 p d k k 9 * o > G ..9.0.0.r.q.r.d.d.d.d.d.l.d.d.f.f.d.s.9.#.^ J z H ] .. .^ k k p a J ..0.n.T.`.OX].`.OX+XOX.X`.Q.W.T.Y.Z.m.M.r.e.e.r.e.e.9.9.0.0.0.9.0.0.0.q.q.0.q.q.0.9.#...| ] ^ I L G Z g d d d d d i 3 O o X X X X X o & > i d a k H J ",
"` ..O.9.r.g.B.N.e.O.] ^ G g p 9 - o X         X O - 4 4 i d a a G G G G G G H I I G > . > d Z g ^ #.#.O.o./ Z g - o & G  .{ { %.;.=.%.@.....] ^ J H p & o @ i G | O.9.e.q.r.s.d.d.d.d.d.l.d.d.s.q.#. .I t & d | 6.M.n.r.O.k & & p Z I I I I L H G G G G G G G G H I H H G g i . i G J J J J ~ J ] I I I * & ^ ..*.#.#.#.O.O.#. .^ 8 k @.k 8 ^ #.9.q.0.#.0.d.s.q.9.#.O.O. .]  .O.O.O.O.O.O...O.O.O.#.9.0.0.r.b.n.W.`.@X%X%X=X;X=X6X4X8X8X8X8X7X7X7X7X7X8X8X7X7X8X3X6X6X6X3X3X3X3X3X1X$X$X#X#XQ.W.E.Y.Y.Y.Z.Z.m.m.n.n.b.d.r.q.9.#.#... . .] | ] I J H G k g d 9 > 3 3 > - - - o o o X       o - i k x ^  .@.=.q.q.s.q.*...[ [ ^ J c x z k d a G I | G & & i > B L I O.e.r.r.r.6./ Z ; o o 3 X.I o - X X X | 9.| o ; I M.N.m.Z.Z.*.I o i k H ^ J I ^ ] | ^ H g i ; # o o o o . X X X X   X o O - ; - i Z d > ; > 9 i p d a i * * 8 H  .9.0.0.r.r.r.r.r.r.r.d.d.d.d.d.s.q.#.^ k k H ..#.#...J z z J J ] #.s.m.R.+X@X=X%X@X$XOXOX$X@XOX+X+X`.Q.Q.W.I.n.n.M.f.e.9.9.9.9.9.9.9.0.t.0.9.d.d.d.d.l.l.s.*.*.O. .] / / L Z B g g Z Z Z B d 4 - o X   X o X o - 3 i p g H ^ ",
"` ..O.9.r.g.B.B.r.#. .^ H z a i 3 - .       X + o - 3 3 9 i i i Z Z Z G G H I | | ^ g @ o i G Z H ..9.#.O.| L g 9 @ @ i J ` [ ..%.@.@.{ ..[ ^ I J k > o o > B / O.6.e.r.d.s.d.d.d.d.l.l.l.l.d.d.d.r.r.q.| k 9 ; k o.b.m.l.0.] p & > a I I L H I G G G G G G G G G J H L G g 9 . d I ^ J ^ ~ ^ ^ | ^ I 8 * G  .O.#.#.9.9.9.O.^ I i ^ ^ 8 k ..#.q.9.0.6.9.d.d.q.d.r.r.9.O. . . .^ | | | | |  . ... .O.#.9.0.r.d.n.m.T.`.$X%X;X4X4X7X4X4X6X6X4X8XwXwX8X8X7X4X6X6X4X8X8X4X4X3X3X3X6X3X1X%X$X$X$X#X].W.W.Y.Z.Z.m.n.n.l.l.d.r.q.0.9.#.%..... .| | | ^ I I G G g d i 9 3 3 > > > : - - o X       o > i z J ] ..#.=.q.q.s.s.q.@...[ ` J J c x J | o.O...O.I a & o ; > 9 8 p Z G L L Z g 9   & i O.( @ & - X X 3 O.t.O.o ; 9 r.Y.`.T.m.*.I . 8 I I J J ^ I ^ ] I G p 8 ; @ o . . o . . o . X X o # - - @ @ d G g i i i 9 d p 8 ; * 8 H #.9.*.9.q.r.0.0.r.r.r.r.r.r.q.9.9. .Z p k  .#.#.O.H H H H H ~ ..0.d.l.m.Z.R..X@X@X$X$X+X+X+X$X@X@X@X+XOX.X`.Q.W.W.Y.Y.I.B.N.f.e.9.e.0.0.r.d.d.l.n.b.m.Z.Z.C.m.n.l.q.0.9.O.| / I L Z B Z G G G G B s 4 - o X X X X X o & > i a H ~ ",
"` ..O.9.r.g.m.m.d.*. .] J H z d 9 ; o . X X X X o % < ; > 9 i p k k g a k G I | |  .I d . > B G G ] 9.9.#.O.( G Z ; o & a G I [ ..[ ` ` ^ I H G g > o . ; d I O.6.9.q.s.d.d.d.d.l.l.l.n.n.z.l.l.q.q.r.r.0.O.I i & 9  .d.l.m.l.] a * & i G L H L G G G G G G G G k H G G G d > . G ]  .] ^ ]  .] | ^ a @ i O.O.O.*.O.#.| o.| H * | J 8 H #.#.9.#.q.#.#.0.q.9.9.0...^ k i a G G k G G G G G G G G |  .O.*.9.0.r.d.b.B.T.`.OX@X=X=X3X6X4X4X4X3X3X3X3X3X3X3X4X3X7X7X=X3X3X3X3X3X3X=X3X3X1X%X%X$X#X].].Q.W.E.Y.Z.m.m.b.b.d.d.d.d.r.q.=.*.*.#.....O. . .| / I H G g g d i i w 3 > : ; - O X   X o 3 d H ~ [ @.=.q.d.d.l.l.s.=.$...[ ` J ~ ` #.0.0.#. ...O...h $ o o @ . & i a g i > & o o 9 e.O.g & > o o o L 0.r.9.& > > i e.Q.`.C.l.I @ > I J J ^ ^ J ^ ^ H g i > > @ o o o o o o o o . . o - ; ; - > ; 9 Z G g i d > & @ 8 J O.#. .0.*.#.9.9.9.9.0.0.r.d.0...I G z ^ ..#.@.^ J J ^ J ] ..9.s.d.l.z.n.m.C.Z.D.R.`.`..X.X.X+X@X@X%X@X@XOXOX+XOX`.Q.].OXOX].].W.B.f.e.0.r.r.r.d.n.m.Z.Z.T.T.T.T.T.T.D.m.n.b.r.9.O.| / G G L L L L I L G N 4 - o o X X X X X o ; i Z H ",
"J  ...9.r.g.B.m.l.9... .] J G a i > - @ o o X X X o O - ; i g G G G G k k k G H |  .| G & @ 9 G G I #.q.9.#.O.^ H i @ o & i G L ^ J H H H G d i ; @ . & d H | #.0.0.s.d.d.d.d.l.n.z.z.n.n.n.n.l.d.d.r.0.9.9.O./ i & a *.l.m.D.l.*.G & @ i G H G G G G Z Z Z Z G k Z Z Z Z s & X G  ... .[ [ ..| | G & > ^  .O... .....O.^ L >  .H 8 J #.#.9.#.#.@.#.q.9.@.@.^ 8 k I O.r.r.9.9.r.9.9.*.#. .] I H k G I ^ |  .O.#.q.d.n.Z.T.`.+X@X$X@X%X%X=X=X3X3X3X1X1X3X1X1X%X%X%X%X=X1X3X1X=X=X%X%X%X%X%X$X$X$XOX].Q.W.E.Y.I.Z.m.m.n.l.l.l.d.q.0.9.9.*.O.O.O. .| | / ^ I G Z g g d i i i e 4 3 < - o   X & i k H ` $.%.q.s.d.d.l.l.s.=.@.....{ ~ { =.q.#.] H G I %... .G o o o   . @ & * * ; > g | 9.O.L o > ; o . > O.r.j.q.i o a d i n.Y.Z.s.^ > @ k I ^ ` `  .[ ^ z d i > ; & @ @ - - - # # o o o @ - ; ; ; @ 9 g G G Z 9 @ & i J / |  .#.0.*.0.0.9.9.9.0.9... .I G G J ] ../ ^ J k z ^  ...q.s.d.l.l.n.z.z.z.n.n.m.Z.T.R.`..X+X@X=X=X=X=X=X$X$X$X@X+X`.Q.`.].OX#X$X$X].W.Z.r.0.0.r.d.b.n.m.T.T.T.T.`.`.R.Z.Z.m.b.b.M.d.9.o./ I I I I I I L L G d 4 ; o o o o X   X o ; d Z ",
"x `  .*.t.f.m.Z.b.0.#...[ I G g d p 9 > - o X     o % ; 4 g L I ] | ] I H G G z ^  .O.G i o ; Z G H ..s.r.9.#. .I k > o . @ 3 g G Z g g d i ; & o o @ i H | O.0.d.d.d.l.l.l.n.m.n.n.n.n.n.n.n.z.d.d.d.d.r.9.#.| H 8 > J q.m.Z.D.d...g & @ i Z G Z G G G G Z k Z k k Z Z B 9 @ o G ..#.......$. .I 9 & G O.| .. . ... . .| * O.H > / @.#.@...9.#.0.@.#.^ p a  .9.9.] k a k k a a G G H I ^ ] ] ] ~ J G k k G I ^ ^ ] ..*.s.n.Z.Y.`..X$X@X=X@X$X+X@X$X@X%X=X%X%X%X%X%X$X$X$X$X$X$X$X$X$X$X#XOXOX#X].`.Q.W.Y.Y.Y.Z.B.B.m.m.m.m.m.m.l.d.d.r.9.#.O. .| | / / I I L G L G Z g g f s 4 1 - o   . ; d G ~ [ %.-.s.s.j.j.l.l.s.-.%.....@.@.-.s.=.I i > > G ] G | | - o 3 8 i i i a H  .#.r.9.9.I o i p & o . H 9.l.l.l. .k @ z H 8 0.m.b...Z @ 8 J ^ ^ $.#...^ z a p 9 ; > ; - ; ; - @ o o @ - ; ; ; ; > d 9 i B d & & 9 G I ^ |  .O.O.O.#.#.O.#.0.9.^ a z z G I | ] x p k ^ #.9.0.q.d.l.l.d.s.q.q.q.d.d.d.l.l.n.m.Z.T.R.`..X@X=X@X@X$X+XOX$XOXQ.Y.B.m.B.m.B.Y.W.Q.OX#X$XW.d.9.r.l.d.b.B.Z.Z.D.T.R.R.Z.l.n.n.d.d.n.n.d.0...| |  .^ ~ ~ H L L Z g i > & o o o X   X o 3 g ",
"a H ^ O.e.r.m.Z.n.q.*.#. .^ J k k k a 8 - o X     o - e g G I | O.O.O. .] ] I H G | O.H Z ; - 3 k k ^ q.d.q.*.#.^ H d - .   o - i 9 > > ; @ o o . @ > k | #.q.d.n.z.z.n.n.z.n.C.m.m.n.n.n.n.n.n.d.q.d.l.d.q.0.6.| a & = ^ s.x.C.l.d. .i @ * i k Z G G G G k k k a k Z g B 9 @ & I #.*.$.$.#.#. .k & i I |  . ...O. ...H ; O.L ; /  .#.O.9.6./ 6... .p p 0.n. .G t G |  . .| ] ^ H G z k k k k k ~ | ..@.O. .~ J ] ^ ~ J J J J J ]  .#.0.s.l.l.l.C.m.C.Z.Y.T.Q.`.Q.Q.Q.`.`.`.`.Q.`.`.].OXOXOXOXOX].Q.Q.Q.W.W.Y.Y.Z.Z.m.m.m.m.n.b.b.d.r.e.6.o.| / I L Z B d d s s i d g B Z B g s 3 - o   o > g H ~ { =.s.j.z.z.x.z.z.l.s.=.%.%.=.s.s.0.] d & o o > i i > i - o N | *.d.b.n.B.Z.m.r. .d o Z G i > . & O.q.l.b.n.l.9. .i i | p ..q.0.6.p @ 8 H ] #... .~ H Z k d p d 9 > ; - & # # - - - - - ; > i > > - @ & 3 p d k G I |  . .o.O.9.O. .I a p z ^ H z a p g J ..0.0.q.q.q.0.q.0.9.0.q.d.d.l.l.d.d.d.d.d.l.n.n.C.D.R.`.+X@X@X+XOX`.].OXQ.m.b.b.b.b.b.b.b.b.n.B.W.Q.$XQ.n.q.0.l.n.n.C.m.m.m.m.n.n.n.m.m.m.b.d.d.d.d.9.#.@.@. .[ ^ ~ I L G Z d i ; - - o o X   X - 9 ",
"t k J ..9.e.n.B.m.d.0.%. .] I G z k a 8 - & o X X % 2 s V L / o.O.#.O.O...O...] G I | / L i ; ; i p G ..s.d.q.*. .^ G 9 - o o o - o o o o X X o - i g I #.q.d.n.m.n.n.m.m.n.n.C.C.C.m.n.n.n.n.n.n.l.d.s.q.0.q.e.#.^ 8 & t ..j.m.m.n.0.I i & & 9 g Z G G G k g g a a B g B 9 o & | *.*.#.=.=.@.~ ; > H ^ ^ .. . .^ ..I p | ^ 9 |  .O.@.9.@.@.6./ H i  .n.~ i G I O.*.9.O...O... .| ] ^ I I I I J Z k k k k H ^ | ] ] ]  ...$.#.#.[ ~ x j j k x H z z z H H x G H ^ ^ |  ...O.O.O.0.0.r.d.b.n.n.N.L.L.B.I.I.B.B.m.B.B.n.d.q.9.#.O./ L K Z d d s 9 ; - - @ o . o o . o & > 9 i g B 4 ; .   @ i G J ^ { %.=.q.s.l.z.l.j.l.l.s.=.=.s.s.=. .H 9 @ . .   o o X X o O s ^ *.b.m.Z.Z.b.0.O.a o p H G 8 @ o k 9.l.n.m.z.C.Z.m.r.G I  .y k O.6.| 8 * 8 H ] ^ ^ J J H H Z g g i > ; ; - - - > ; ; ; ; > 9 9 & @ ; g G G g g k k G I / / |  .G d 8 i a a i i z ^ O.*.#.O.*.0.0.9.*.#.*.0.q.q.0.q.q.0.q.s.d.q.q.q.s.d.d.d.l.n.C.Z.T.R.`.`.Q.R.W.Y.B.b.d.b.b.b.n.n.b.b.b.M.N.m.T.`.Q.l.9.r.d.0.d.q.0.0.q.d.n.m.C.Z.Z.m.b.d.s.s.r.9.9.*.#.$...] ^ ~ J G Z g 9 3 ; ; - o     o - ",
"> a G | #.0.b.m.m.d.0.*. .] ` J H z p > ; - - - o - 3 s B L | O.#.#.#.O.*.0.*.O. .H H | G d s d > p a H *.d.s.q.O.| H g s 1 # . o .   X . . o - d G I O.q.n.C.C.Z.C.Z.D.Z.m.m.C.C.m.m.n.n.z.z.l.d.d.d.d.0.0.q.0.#.| H 8 * k #.d.m.n.l.q.L & o & i d Z Z Z Z g g a a g g B 3 . & / *.*.*.q.0. .k o g L | | | O.] #.I G i #.> L I .. .#.#. .@.^ 8 Z d.#.i a ^ O.9.O.O.O.#.#. .| | | / / / / ^ I I / / / ^ ^ ^ ^ ^ ^ J H H H z j a z x H J H x k a a a k x x k a a 8 > * & * 8 i a a a p p i 9 > ; & - ; > 3 3 3 > > 3 8 8 > > > > 3 - @ o . o o . . o - - - - 1 9 9 9 i > & & - 3 4 - .   @ i G I ] ..@.@.@.#.%.=.=.=.q.s.q.=.=.q.=...^ k 9 & o X o o   % ; 1 M ; i ^ r.m.Z.Z.r. .k o p H I H > > @ | q.m.Z.C.n.C.C.n.Y.l.G a *.^ Z Z #...a o 8 J ^ ^ ^ ~ J H k p d i 9 > > ; ; > > > > 9 i 9 & . 3 Z R | I L G G k a g Z Z d i d Z G G a a H | O.#.#.*.*.*.*.*.*.9.#.#.#.*.#.#.#.#.#.#.#.#.*.#... .[  . .] ^ ^ ] ....#.0.q.d.s.q.b.9.O.O.6.6.9.9.r.d.b.b.n.b.b.f.b.B.W.Y.d.O...#.O. . .#.q.n.m.m.n.m.Z.Z.m.n.d.q.r.0.9.9.9.#.#. .] ^ I L G Z g s 3 1 ; O X     X ",
"o 9 G I O.9.r.m.m.b.t.9.#...` J z k a t i 3 > ; ; - ; g G L o.#.#.#.#.#.9.q.s.q.#.O.^ J J Z d Z z * t g | 9.r.r.#.O.I G g i > @ o o @ ; > > i a G ~ ..=.d.n.C.Z.Z.D.D.Z.C.C.m.m.m.m.n.n.z.z.z.z.l.d.d.s.s.d.q.r.9.@./ a * = H 9.b.n.n.d.O.G ; . & i d Z G g B B d g g g d 9 o & I 0.q.0.r.*.J ; * G I | |  . ...| I i #.d k I | ^ O. .O. .I i L r.L > G O.O.O.O.O.O.O.O.| | | | R I I R R R R R / I / | | |  . .......#.*.*.%.*.#.#... . ...#.*.n.n.n.n.z.s.*.#.o.| I H G a i > & & & & ; > > 3 3 3 ; - & @ @ @ o o o o @ @ o o @ @ o @ @ - - & o @ ; 3 > ; - @ * ; 8 i g G d & o @ o   . 9 G L ^  .O... .] ` ' ` ` ' ' ......9.#.^ Z Z ; o .     X ; - 3 s B 3 i a L q.b.b.*.k o j H ] ] k t = * #.q.m.Z.n.D.m.m.m.n.m.z.*.J k #.^ p k ^ a o k I ^ ^ J J H a a d i 9 9 8 > 8 9 d 9 > > & @ 9 L / ^ ^ I I I I I I G 9 ; 9 Z g 9 ; 9 g J | O.#.#.O.@.#.#.#.#.#.@.#.O.........^ J x J ^ J H x H J  .~ H H ]  .^ H x J ^ J k k z J G p t p a g Z G H I / o.6.6.9.e.e.9.r.m.l.] G I H ^ O.#.9.d.z.l.d.l.l.b.m.m.b.d.q.0.9.0.0.9.#.O.O. .| I L G B g s 4 : - - o X   ",
"  ; g L  .%.q.n.m.b.r.0.#...` c x v k a i i 3 ; - o > d Z I  .O.O.....@.*.q.d.s.d.d.0.../ k i g H z t & i ] 9.r.0.9.| I J H G a k Z G J J J ^  .*.0.s.n.C.D.F.F.D.F.F.F.D.Z.C.C.m.m.m.n.z.z.z.z.l.d.d.s.d.d.q.r.9.#.O.^ d > > i L O.r.b.b.r.O.L i & X > d g B i d g g g d 3 . &  .0.0.0.#.^ ; @ Z ^ ^ | |  . .| G p O.9 H / | ..O.] ^ ] 9 G r.g 9 I O.O.| ^ ] I I J L H L L L L G K K L L L L L L L I / / | |  . . . . .......#.*.#.#.#.#.*.0.q.q.d.l.m.C.C.C.C.m.N.b.b.l.r.0.*. .^ H Z d 9 ; - @ o o o o o . . o o o o o . . .   X . . . o o o - > 9 d Z L R R I G d > ; i Z G d - X   X & d I ^ ] ]  . .[ ` ` ` c ` x H H 8 Z G Z Z > >   X X . o - ; d Z L d d p I | ..O.I = & J ~ ^ ~ l j * 8 ..C.z.m.Z.n.n.n.n.Z.D.m.m.n.q.H H  .^ i i &   8 d H I J k a k p 8 i i 8 i a i 8 i & o i I / I H ^ ^ H I ] I a > i g Z i > i G H H L I ^ / ^ I / | | | ^ ^ ^ | J J H H H ^ ..0.d.*...#.q.s.*.[ ] $.*.#.] J ] ....^ H H J J k t k i > > * * > 9 p d g g i 9 9 i i 9 > 8 k H g 8 G g G L | 9.m.D.T.D.B.b.l.l.b.b.l.r.0.9.9.6.O.O... .| I L G G g d i 3 > ; - .   ",
"  o 9 G | O.q.n.m.b.f.r.9...` J x x z k g d 3 - o o ; d Z I  . . . . ...*.q.d.d.n.m.m.s.| k i d J ] k * & k #.r.r.0.O.| | | | I ^ /  .....O.#.9.s.d.z.C.D.F.F.F.D.F.F.F.D.D.Z.C.m.m.m.n.n.n.z.l.l.d.d.s.d.d.q.q.0.#.#.O.I a > & ; p I O.e.f.r.9.| d & o o > B g d a d g d > . ; | #.*.0.| G o 9 L I ^ ^ | | o.^ 8 I | > I | | |  .J ^ k a 9.| 8 I ^ I ^ I G G z a a i 8 8 8 > > > 3 9 i d g Z Z Z G K L I I / | | | | |  . ...........O.O.O.#.*.9.0.q.d.j.l.b.n.b.b.b.b.b.l.d.r.l.d.q.9.9.O.o.o.| | I L B d 3 > ; ; - - - - - * - > i d B G L I X.O.9.t.f.M.N.N.b.f.t.O.G 8 - @ Z Z d > & ; d J [ { ..@.@.{ ` ~ J ~ j j > o ; o o .   & . o   o o ; i 3 9 9 d k g L H | 9.I p o a J  .` J x j j @ a ..n.m.n.n.n.n.n.l.z.Z.m.n.D.D.d.] z z ^ H k = 8 p k a a a a p i i a k t > a ; * d ^ | | | I ^ J I I k 8 > p d 9 > d L I L G I I I L L I ^ | I H G g a k G J #.0.d.r.#.^ H z ^ I H z k z H ^ J H H H H H z k H ^ ] J k z ] *.0...I z a k H J H k d d g a p i i i > > G O...z > * > g J ..l.D.R.R.D.m.l.d.b.m.b.r.0.9.6.O.O.O... .] I L G G B d d s 9 3 ; o o ",
".   - Z ^ ..q.l.B.m.M.r.9.$.] ~ c H x z k a i 3 - & ; d G L ^ ^ ~ ~ ^ | @.0.s.d.d.m.C.n.#.H p 9 z ^ I G & > ^ *.r.r.#.O.O.O.O.]  .@.9.*.9.q.d.d.n.n.m.D.G.R.R.R.F.T.T.F.D.D.C.m.m.m.n.n.m.m.n.z.n.d.d.s.d.d.q.q.0.#.@.@. .^ H g > & * p G ^ o.9.9.3.I 9 o & d d g g g B d ; . >  .0.0.q.| i o d G H | ^ | /  .G i 9.> H L ^ I I ] ^ G * #.#.& G  .| I G z g i * o o @ @ & & * & & @ @ @ & > 9 i d g Z Z G G L I I ^ | | | | |  . . ..... . .....O.#.*.*.9.0.q.r.r.d.d.l.l.l.d.d.0.9.9.9.9.9.9.9.9.9.9.9.9.9.6.6.O.O.3.3.O.3.3.6.O.9.e.r.r.d.M.n.M.b.B.B.B.B.B.B.n.b.B.b.9.| g ; * d L G d i i i ^ { %.q.q.-.=.-.=.' [ ] 8 @ q S k > 8 * & - 3 > - - @ o ; * o o & Z |  .| H p o J  .#. .J H x H ] J y j Z.n.m.m.m.l.n.Z.Z.Z.Z.m.Z..XT.Z.z. .8 k k k k k k G H a a p a a i a a o i I | |  .I G / I G p 8 8 8 > ; i k I ^ I / | o.o.| | | ] H a > a G ] #.0.*. .I a a g k G I |  .|  ..... . . ...*.#.@.#.#.#.#...#.#.#.*.q.l.l.d.m.b.l.l.b.l.0. .| I G d > * ; 9 ; > ; = t z J J * ; i G I ] %.q.l.n.m.m.n.l.d.l.d.r.0.9.#.O. . . .| ] I L G Z g g g d d s 3 ; o ",
"o   o i H  .0.d.Y.Z.b.t.#...[ ^ J H H z G G Z g 3 & & d G L H H H H H I  .@.0.q.d.b.m.n.q.^ a * i ]  . .p = g  .0.q.9.*.*.9.0.#.#.q.d.l.l.n.m.C.F.F.F.R._.|.`._.R.R.R.F.F.D.Z.C.C.C.m.m.m.m.n.n.n.z.z.s.s.d.0.0.9.#.#.#.O. . .^ G i ; ; ; * > d G X.6.| g @ o g g g g Z d ; . > | d.q.9.L & ; g G I | / | | | i I ^ > I / I I ^ I I p g 0.> a | I L H k i * @ @ & = t i p a a a d i > * * & & & > > 9 i d d B Z Z G L L L I I ^ ] ] ] ] ] |  . . . .........O.#.#.*.9.9.0.9.0.0.9.=.*.*.#.#.O.O.#.#.O.O.O.O.#.#.e.r.d.b.b.b.b.b.n.n.n.n.n.n.n.m.B.m.n.n.b.n.m.B.m.m.m.n.b.r.O.G ; @ ; g G i ; & & 8 k ^  .%.s.z.C.x.>.@.x @ * J #.^ I Z G I G ; & i G I ^ J z J * . Z 9.O.| i . ] d.s...] ^ H 8 z k ~ #.t s.d.n.l.m.n.d.l.n.n.m.C.T.R..X`.R.d...p d H H k k z j k G k p i > t H O.^ |  .I I I g 8 i i 9 > 8 a H L G G I / I I I G G G k G I  .#.| I k i t a z H ^ I ^ ^ | | | |  . . .O.#.#.O...O.O.O.O. . . . ...O.#.#.*.0.q.q.b.n.B.D.T.D.b.#. .#.0.0.O.G 8 & > > > > > 8 k ] G L |  .| ]  . ...#.q.d.d.r.r.r.r.r.9.#.O. .| ] | ] ^ I J G G g Z B g d d 9 1 ; ",
"-   X ; k ] 9.d.Y.Z.M.0.#... .` J J H H J I L G g * & i Z Z k G k k Z H ^  .#.*.s.d.n.m.l.#.H > & ] #.O.| a > G O.9.*.#.*.9.q.*.q.d.n.m.C.Z.T.T.R.R.R._.`.|.|.`.`._.R.R.R.R.F.Z.C.C.C.C.m.m.n.n.n.z.k.s.d.d.0.0.0.#.#.#. . ... . ./ G d i > & o & ; g | X.3 X i g k g g d > . > I d.0...k @ d G I | | ^  .o.I > O.d g I  .I  .^ I H > 9.I * ^ ^ ^ G d > & o & p H ^ O.O.O.O.O... .] I z a t = & @ o @ & - ; > 9 i d g Z Z G G L H H H H J I I ^ ^ ^ ^ ^ I I I I ] ]  . . . ..... . . . . . .| | | | | | |  .O.O.O.9.0.r.d.d.d.l.d.r.r.d.d.l.l.l.d.d.r.r.q.q.d.l.r.f.n.n.b.B.M.9.^ i @ & i i ; o   . o * 8 k ^ ..@.{ { &.' { s.k 0.q. .O.O.| ; G O...H p & & * t G d @ L r.| a * @.0.Z.*.$. .= = J #.[ a *.] H ^ q.q.d.n.n.l.n.D.C.D.T._.Z.R.T.d.k k J ^ ^ J J ^ H G G i * G O. . . .^ ^ ^ a ; 8 p > > g L H H I G H H H G G d 9 8 p g a i 8 p g z H ^ ] I J I I I I ^ ^ ^ | o.O.o. . .| |  .O.#.O. .| |  ... . ... . .] ..0.j.b.b.n.Z.D.Z.Z.B.d.d.9.#.0.b.l.9. .| | / ^ ^ ] ] ] O.#.e.r.0.*.O. .| ] ]  .O.#.0.d.d.r.0.#... .| | ^ ^ I I L H G G G Z B g d i 3 3 ",
"1 o . @ i H O.r.m.m.b.0.#... .] ~ ~ ^ ^ |  .| I G 8 - > i i d a Z k Z H ~ | ..#.q.s.n.Z.m.d...k o p  .*.9.^ p t x ]  ...O.*.0.*.d.z.C.D.F.R._.|.|.|.|..XXX+X+X+X|.|._._.R.R.D.m.m.m.C.C.m.n.z.z.z.k.k.s.s.d.0.0.0.*.#... . .O... . . .^ I L G d 9 @ . ; I I > & d k g g s > . ; ^ r.0. .8 @ g L ^ | I ^ | | G i O.i H | | ^ O.I | k i 9.; a H I g k d & o p H | @.0.d.l.n.n.n.l.d.q.0.#. .~ z a > * & @ @ @ @ @ ; > 9 9 i s d d d d a g k G G G Z Z Z G G G G G Z z z z G G H H I I I I I L L L J J J J J I ^ ^ |  .O.#.9.9.9.0.q.0.0.0.0.0.0.0.9.0.0.0.9.*.*.#.0.q.r.0.9.0.r.9.O.G ; o & i 9 & o . .     o = y j ` { c s.S.@.{ #.* J ..G p | #.H p > z  .=.~ 8 @ L g d r.6.L @ I ] d.#. .H @ J q.q.z.l.~ p l.q. .z ..z.q.d.m.d.m.D.m.F.D.Z.m.d.p H ^ ^ ] ] ] ]  .g > a  .#.O. .^ | ^ k > > i > p G I G G I I G L G d ; ; i g g i 9 9 p G I I L I ^ / I L J I ^ I / | | R I I I I I I | | | | I / | | | / |  .O.]  .....O.*.0.q.r.l.Z.T.D.Z.n.d.*.*.9.q.l.l.l.b.n.n.n.n.m.n.q. .6.#.e.b.n.l.r.0.O. .I G H I  .#.r.t.0.#.O. . .] ^ ^ ^ ^ ^ I H H G G Z g g d i i ",
"3 - . . ; a ^ 9.b.n.b.0.#... .^ ` [ ..$.#.*.O. .I d > ; ; > i i Z Z Z J ^  ...#.0.s.m.D.m.l.*.J 8 &  .l.d.=. .a = z ^  .O.9.q.0.d.z.C.D.F.R.`.XX+X+XXXXXXXXXXXXX.X|.`._.R.F.C.z.l.z.m.C.m.n.z.z.z.l.l.s.s.s.q.0.*.#.#.#...O... .O. .| ] ^ L G G d g i X - L g @ d g g d s > . & I 9.*.| & * g / I  .^ | | I k a  .& | | ^  .| | I 8 L O.* d I G G * o & a  .*.l.m.Z.T.T.T.T.D.Z.Z.Z.n.d.q.*. .^ J k p 9 > * @ @ o o @ @ & & ; ; > > 3 9 i i i i d i i s s s 9 9 i i i i i p d d p p d d d d d d p p d a g k G G G J ^ ] |  . .......O.#.O.O.O.O.O.O... . . . ...O. . ... . . .| I i & * i k g a d g g i > 8 k ~ %.%.z.F.A.>.-.z.F. .p H 0.d.k d p I q.Z.m.Z.z.0.H . Z @ | n.O.G @  .J ] H @ k 9.d.m.d.m.m.l.^ a d.R. .t *.z.*.n.q.n.l.C.m.m.d. .* ] q.#.#.*.#...p p J O.O. . . .| g 9 p d 8 i G L H H L L H G k * > d G Z i 9 d g G L I L L L I I L L H L L G G G G G G G G G G G G L L H H L I I I I I ^ ^ ^ ^ | | | | ..#.*.9.l.d.b.Z.Z.Z.m.l.*.*.0.d.n.b.l.d.N.m.B.Z.D.D.n.q.9.o.O.f.n.n.b.n.r.9.| H Z g Z G 9.9.9.9.#.O. .^ ^ ] ] ] ] I J H G G G Z g d d i ",
"i ; o . @ 9 I #.r.l.l.q.*.#.....] ..#.*.9.*.*.#. .I a p i > i d Z H L ^ ..#.#.*.q.d.m.Z.n.z.s...k * y #.q.0...J y y ~ @.0.l.n.s.s.z.C.A.F._.XXXX+XXX+X+XXX+X+XXX+XXXXXXX_.m.=.[ H ..=.m.C.C.z.n.l.l.l.s.s.s.q.=.q.*.#.$... ..... . .| ] ^ I H G G B B i o 3 | * > g g d d 3 @ o G 0.q.I * > G I I ^ I I ^ ^ > / G a ^ ^ ^  .^ / H * O.I & Z G a 8 o = z ..l.m.T.R.Q.`.`.`.`._._.F.Z.D.m.d.d.=.$. .] I G k a i 8 ; ; @ o o o o o o o o o o @ @ @ & & - ; 1 ; - ; > > ; ; ; ; > > > > 3 > > > 3 > > 8 9 i i p d d k g k G H I I I I I ^ ^ ^ ^ ^ ] | | ] ^ ^ ^ ^ ^ ^ ^ ^ ^ ^ I H G k = o ; a G I ^ ] ]  . .#.0.j.z.A.F.F.x.q.*.l.`.=XC.I.Q.T.k > a H ^ 6.9.s.T.s.r.d.I @ G & M.f.| & * 8 > o t *.n.l.d.Z.n.n.q.l...p d.+Xs.a  .q.d.l.s.z.l.l.s.0.H k m.d.d.9.0. .8 p O.O. .O.] | ^ i i Z i p G ^ ^ L I L L G i > 9 G Z i > 8 g G G G G G L L G G G g g d i i 9 > > > > > > > i i d d d g d d d g g g Z G G L H G G L I ^ ] |  .O.#.*.0.d.l.n.n.b.d.#.9.q.d.l.n.l.0.b.b.Z.T.T.m.D.l.O.O.I 6.b.d.Z.m.m.d.9. .G p i d J O.0.0.#.O. .| ] |  . .| ] I J G G G G k g d d ",
"s 3 & o o ; G  .0.d.j.0.*.#.O.O.@.#.*.9.9.*.#.#... .^ J g 8 i g I / / | #.9.0.q.d.d.m.Z.n.n.l.0. .p 7 z  .*.#.^ j 7 z ] C.n.m.l.l.m.C.C.D.R.XXoX@X+XXXXXXXXX+XXX*X+XXXR.z...k = 7 y $.C.C.z.z.m.k.k.l.s.s.s.q.=.0.*.#.$......... . . .| | I H G G Z g d > ; G B & d Z d d 9 @ o k #.q.J & i G L I I ^ ^ ^ I >  .i a | | ^ | I | k ; O.G & G Z a * & a | 0.m.D.R.`.`.`.`.`.`.R.F.D.C.Z.m.l.d.9.*... .] ^ I H G z d i 8 ; & @ @ o @ o o o o o . . o o o o o o o # o o & - - - ; - ; ; ; > > > > > > > 9 9 9 i i i a g k G G H H H H H J I I I I I I I I I I J J H L J H H H G k a i & o & i g H I ]  . . . ...*.0.%.%.....*.d.Y.%X5X5X4Xm./ @ @ > i d ^ / / q.q.f.m.Y.| 8 I i r.e.a &   @ k ..C.m.m.l.C.l.n.n.d.q.x ^ R..X[ = q.=.q.l.d.s.l.d.] p d.n.l.m.l...7 H O. .O.O.] ..G p ^ 8 i k G ^ | g L G Z i ; g L d > i g G G G a i g s s 9 3 ; - ; @ @ @ @ @ o @ @ & * * * & @ @ & & & * ; ; > > > p d g Z g g g g G G H J I ^ |  . .#.9.q.r.d.r.0...*.q.d.b.n.d.9.r.d.m.D.D.m.Z.l.9.| / | 0.d.n.n.m.b.b.0.| g > ; d L o.6.*.O..... . . . .| ^ I H G G G G Z g g d ",
"i 9 ; o . @ d ^ *.q.r.q.0.*.9.9.0.0.0.*.#.#.#.#.#.0.*...G i a L / o...6.q.s.q.q.d.d.n.C.m.m.m.n.q.^ t 7 k ..#...J u 8 J q.D.m.Z.m.C.C.C.D.F.`.XXXX.X|.`.`.XX+X+XXX+XF.d...y 7 ~ x 8 H l.Z.m.m.n.z.z.z.d.s.s.q.q.*.#.#.@... . ... . .| ] ^ I H G G g d Z d - 9 | & d Z g d s & . d  .d.I & d H I I I ^ | ^ H > O.> Z | | / ^ ^ | g > O.g @ G d > o > ^ 0.b.D.T.R.`.`..X`._.`.T.C.C.l.l.l.d.l.d.s.r.0.9.#.#.O.O.O.| ^ I H G k g d i 3 ; - - & o . X X . . . . o o - - ; ; ; ; 1 1 1 3 3 3 3 9 i i s d d g Z Z Z Z G G H I I I I I I I I I I I L H L H H H H H G G G G G G z z k a a t & @ o o o o > t t > = 8 i a z H ` ..q.n.Q.=XrX1XQ.9.H @ o . o > Z I O.d.d.n.m.E.Z.& ] i ^ 0.#.^ ....d.m.Z.R.D.C.n.d.l.n.q.l. .& n.@XR.H p 0.z.s.q.d.*.q.J 8 m.Z.R.n.@.8 H  .O.#.*.O.^ i G a > g H H I I G I i d g g i i d G Z g a i 9 8 8 > o o o o . . o @ ; > 9 9 9 9 i i 9 i p i 8 > > > > ; * * * * & @ @ & ; > 9 9 i d d d g k Z G L I I ]  .O.#.9.#...| #.q.d.l.l.r.*.9.9.b.B.B.m.m.b.r.I / L o.r.d.b.b.n.n.b.9.L 9 ; > 9 Z | #.#.....O... .| | ] I L H G G G G g a d ",
"i 9 1 # . o i L  .*.0.0.q.q.q.d.e.0.*.@. .]  .$.=.d.s.#.G i G | ..#.#.9.r.d.q.s.d.l.m.D.D.Z.D.F.C.d.^ t y x [ %.[ x j a  .n.T.D.D.D.D.D.D.F.R.|.`.R.R.R.R.`.XX|._.C.s.J 7 z q.z.m.~ p =.D.C.C.n.z.z.z.d.s.s.q.q.*.#.#..... . ...O. .| ] ^ I L L G g d Z g 9 * I i k Z g B d - . 8 ^ r.^ @ a H I L I I / I H > O.> G I ^ | | | | G > O.k o Z i @ @ g *.b.Z.T.R.R.`.`.`.`.R.F.C.z.s.s.m.Z.Z.T.Y.Z.B.m.n.b.b.b.n.n.b.b.d.r.9.#.O.o.X./ L G Z d 3 - - & @ o o o o o - - - - ; ; 1 1 3 3 4 9 9 i d g Z G L I / | | o.o.O.#.9.9.0.0.0.0.9.9.9.9.9.#.O.| | | / ^ I I J G G G G z z k k a a a i t 8 > * o . . . . @ = t z ` @.-.z.C.`.=XwX`.m.9.| i & o . > 9 g 6.d.0.f.n.Y.OXO.& #.8  ...0.n.l.Z.T.`.Z.m.n.d.l.z.d.s.d.0. .= x T.+Xl.k J #.d.0.0...= ] Y.T.m.] 8 ^  ...#.^  .G g ^ & I I L H I G G 8 > G L i & 9 g g g d i 9 8 * @ . . o @ ; > 9 d g G I ^ | | | |  . .| | | | ^ I J I G k d i i 8 ; & @ @ & & @ @ & & ; ; > i d d g Z G G J I ] | ^ J ^  .*.*.0.q.0.9.O. .q.b.b.b.l.b.b.^ I G H 0.r.l.l.l.b.b.r. .Z 9 ; ; 9 G | O.O..... .| ] | ] I I L H G G G Z g d ",
"i 9 1 - . o 9 G ^ ..=.0.q.r.r.d.r.0.#. .~ H ~ ..s.z.d...z i H o...#.6.9.r.s.q.s.l.m.D.R._.R.R.`.T.T.q.H y y x @.@.[ [ z k #.D.T._.R.R.F.D.F.T.R.R.T.F.F.D.T.T.Z.z.@.j 8 H s.D.Z.D.s.t @.Z.m.m.C.z.z.z.l.d.d.s.q.0.*.#.@... . .O. . .| ^ ^ I L H G g g g g g > i G G Z g Z B > o & z 0. .@ a G L H I ^ I I I 8 O.> G I I ^ ^ / / G & o.I o i 9 o > I r.m.Z.T.R.R.`.`..X`.D.n.d.l.n.Z.`.R.m.b.q.6.o. .|  .o.O.#.6.f.M.N.N.n.M.n.N.B.b.b.r.w.O.| I G B i > - & @ o o o o @ - - ; ; ; 1 3 3 3 i d d g Z L ^ / o.O.#.9.0.q.s.d.n.n.m.C.m.m.m.C.m.m.n.b.d.s.q.9.#.O...] ] ^ ^ J H z z z H H G k k a i > o . . o & 9 g ^ [ %.-.x.G.oX4XeX$XY.d.O.H a *   o 9 I 0.6.O.0.0.9.9...* ] ] k q...n.T.`.`.T.D.D.d.m.l.d.q.l.l.q.d.q. .p ~ #.`. .^ q.*.0.] * q.`.Z.| > ~ @.@...O.O.p p ^ i H k k I G Z d i > | d ; 9 K K B d > > @ . . o & 8 d g G I |  .O.9.9.9.0.r.r.d.r.r.r.q.0.*.#... . . ...| I J H G k a > ; * & @ @ o o o o o - > 3 i d d g Z G G H G g H ^  .....#.*.#. .I O.r.d.l.q.d.r.| Z Z p  .9.r.l.l.l.b.d.9.I g > - & > G | .. .| | ^ ^ | / I I I L H G G Z B g ",
"i 3 > - o . ; d J ..%.0.s.d.d.f.r.9...^ z z ~ { s.l.q.[ a i G | | O.@.#.q.s.s.d.n.D.R.`.+X.X`..X.X`.m.$.x y j ` =.-.%.[ t ~ 0.T.`.|.`.R.D.F.T.T.F.D.F.D.D.D.m.q.~ 7 a %.d.Z.R.n.C.Z.a ^ C.C.C.C.m.m.n.z.l.l.d.s.q.0.*.#... . .O... . .| | ^ I H G Z G g g L d & | L Z Z Z B 3 o o p O.O.& d L I L I ^ I I I i #.> g L L H H H I k & | o.& @ & o d O.d.m.D.T.Q.R.`.`.`.R.C.d.s.z.D.l.*.H p i > @ & & & & & ; ; > 9 i Z G L I | o.9.0.t.r.r.r.r.r.9.*.O.| L z i > - - o o o o - - ; ; ; > > 9 i i d g Z H I ^ | ..#.#.9.q.s.l.n.m.Z.Z.Z.D.T.T.Y.D.W.T.T.D.C.m.n.n.d.d.s.0.#... .] ^ ^ ^ ^  . . ./ Z 9 # o o . @ * p x [ q.A.R.*XeXeX+XT.l.#.] z > * X d | L 9 9 d G  .m.b.q.@ J * s.d.l.Z.Z.R.`.T.x t d.d.z.n.q.q.l.q.l.n.s.d. .H n.H 0.q. .J a s.Y.s.8 I ..O..... .| a J a a I I / G L Z * a H i @ s G g 9 i 9 @ . o & 9 Z I | O.#.0.r.d.d.l.d.d.b.b.b.b.z.l.j.d.q.0.*.*.*.*.*.*.#.O. . . .| ^ I G g i i 8 > ; & o . . o - - > 9 i d a a g g a i z I |  . ...O... .H ^ 0.q.q.0.q.0.O.g g 8 L #.0.q.q.r.d.f.r.o.L i ; o o 9 G |  .| | / / | / I L I L H H G G g g ",
"i > ; - @ . @ > G ] ..*.s.d.d.d.0.O.^ H k j J [ %.=...z 8 > g I | O.#.9.s.d.l.n.Z._..X.X@X+X.X+X+X.XF.l...z j z =.s.z.#.^ a J s.D._..XR.T.T.T.D.Z.C.Z.Z.m.z.%.J 7 ^ s.C.R.F.z.s.C.F.^ k n.D.F.Z.C.C.m.z.l.l.d.s.q.0.*.#. .| |  ... .| ] ^ I I L G Z G g Z G g > L H G Z Z Z 9 @ o > ^ *.; d I I L I I I I L 8 6.i i G G g G k G Z & G O.d o . @ G 9.b.m.Y.T.`.Q.Q.Q.R.Z.l.q.d.m.l.^ t @ @ ; ; ; & & @ o o o o o . o @ @ @ & - ; 8 i d k G I ^ ] ..#.9.9.*...] J k d > & o o o o - - ; > > > i i p d k G H I /  .@.#.9.q.d.n.m.Z.Z.D.T.T.R.R.R.R.R.R.R.R.R.R.R.T.T.T.F.Z.m.l.d.d.q.0.9.9.#.#.#.#.O.| G i 3 > ; & o = z *.Z.Q.@XwX5XXXR.m.%.` ` I a o * & & > g / 0.b.m.T.m.^ G *.a T.d.n.l.q.q.t *. .d.q.s.d.q.d.q.l.l.d.z.l.0.@.z ..#.9.@.k = m.I.p G ^ #.6.@.| | a H a G ] I I L I G 8 d L a & g Z i > > @ . @ 9 d L O.0.d.b.b.m.m.Z.C.m.m.m.n.n.l.s.s.s.s.s.s.d.s.s.s.d.l.n.n.m.m.m.m.n.l.d.d.q.9.O. .I G g d 9 ; & @ - - ; 3 i d g g g g a p G ^  . . .O.O. . .H G *.0.0.9.*.9.O.L i 8 a  .*.*.0.q.q.r.r.9.o.Z 9 @ . @ 8 G |  .|  . .| | / I I I L L L G g d ",
"9 - - - o . o * a H [ #.q.d.r.q.#.^ H k j k J [ [ ..H i & * g I ..#.0.s.n.m.C.Z.R.+X+XXX@X@X+X+X+X.X_.D.q.` l j [ m.C.C.=.H = ~ l.D.`._.R.R.F.Z.C.C.C.n.d.%.x = [ n._.`._.z.[ ` z.D.=.a l.D.F.Z.Z.C.m.z.l.d.d.q.0.*.#... .^ ^ ^ I H k a p d d a G Z G Z G g Z g i g G Z Z G g ;   & G #.> p L L L H L ^ I G > 9.g 8 a d d G g k Z & p 6./ ; @ 8 H 0.l.B.T.T.Q.Q.`.`.R.m.0.*.q.l.a & @ & ; ; ; 9 > ; ; - @ @ @ @ - - @ @ @ o o o @ o o o @ & * ; > i a k G J ^ ] | R L B s 3 & o o o & * ; > > 9 d g g Z H J / | O.#.9.q.d.l.n.m.C.Z.D.T.T.T.T.T.T.T.R.R.R.R.T.T.R.`._.R.T.D.D.Z.m.n.n.b.d.d.d.d.q.q.#.] I I G p * @ & G r.Y.@X8XeXXXD.m.q.j.m.m.r...k . Z 6.6.n.m.D.R.T.m.0.> l.z ..l.d.*...t n...l.=.n.m.q.z.q.q.d.l.n.d.l.#.0.x d. .#.#.H > q.f.p H  .@. ...| k H a a I | I I I G i ; L g * ; g 9 > ; o o i G | O.e.b.n.m.m.B.Z.Z.Z.m.m.m.n.n.d.q.=.=.q.s.l.l.Z.Z.Z.Z.m.m.m.m.m.Z.Y.Y.I.Z.C.m.Y.D.B.n.f.0.#.O.L g 9 > ; - > 3 i g Z Z Z k k a I  .O.O.O.#.#.O...H g *.0.0.9.#.6.O./ > 8 i ^ #.*.0.0.0.0.0.9.O.R g ; o . o d ^ o.....O...| | ^ I I L L L G g d ",
"4 : - ; - o o o > k ] ..@.9.9.$.[ H k j a k J I H g > & o $ i I ..0.d.l.m.Z.D.T..X.X+X@X=X@X+X@X+X.X`.R.m.%.~ z z s.C.F.C.%.~ = { j.D.F.G.F.D.F.C.C.m.d.#.j 7 ..R.XX`.F.k.' 8 & $.F.z.y q.D.Z.Z.C.C.m.l.s.s.q.0.#.#. .~ Z p > * & & & * & & & & @ > Z G L Z L g * k G G Z Z d i o o > 9.d > L L L L L I G Z *  .| * a i k k a k d a & I 9.L a J #.q.n.D.R.R.Q.`.`.OXT.l.%.*.l.k @ @ @ # ; ; ; > > - ; - ; & & - ; - - - ; ; - & o o o o o o o o o o o & & ; > i Z B G L G Z d > & @ @ @ & ; 3 s d g B G L L ^ / ..#.6.q.s.d.n.m.Z.Z.Y.T.W.T.T.T.R.R.Q.R.R.R.R.R.Q.R.`.`.R.F.D.D.D.D.Z.C.C.C.m.n.d.l.d.9.O. .| ~ H p * 8 / n.].4X4X`.T.Z.T.R.D.q.b.T.| * | e.r.N.C.R.D.T.l.*.a #.d.* 0.#.J k n.J * n. .n.d.0.l.%.^ ..@...#.d.0.*.*.d...9.O.G 8 ..s.p /  .../ ../ d | i k I I ^ I I H 8 8 J g o 3 9 ; @ @ = a ^ #.r.d.n.n.m.C.Z.Z.Z.Y.C.C.n.r.r.#.#.9.0.r.n.B.n.r.#.| I G G B d i 9 d g G G I |  .6.0.f.n.N.n.M.b.r.*.] G p t 8 t 8 a k a k k k G ^ @.*.*.9.q.q.0.#.^ H O.9.r.*.9.9.O.I i > ; k | #.*.0.9.0.q.0.9.O.L d & X X ; K | o.O.o.O.O.| I I I I I I G g i ",
"1 - - ; - o o o & i J [ ..@.@.[ ~ k k a p k G k 9 ; @ o o & i I #.s.n.n.Z.T.R.`..X.X+X@X=X@X+X+X+XXX.X`.D.s. .J a $.C.R.R.m.%.x y @.m.m.C.F.F.C.C.m.=...x y ..Z.XXR.D.d.~ 7 8 a k Z.C.j ` Z.F.C.C.m.n.n.n.d.0.#.^ z t * * 9 k I / / | | | / / / G i . d Z L L G p g Z G k g g 9 ; . . o./ & Z / L G G G Z Z > H #.& i z a k a k Z d * > #.0.*...q.l.C.D.T.R.Q.`.`.+XR.l.$.$.#.p & @ @ @ @ ; ; > > - - - - * : > - > 1 1 1 ; - - - - & & - & % o ; - - - - @ o @ - - > 4 i g B g 9 3 ; @ @ & - - > 1 3 i s s g Z S H J ^ | #.9.q.r.d.m.Z.Y.T.R.Q.`.`.W.W.T.T.W.R.Q.Q.Q.R.R.R.R.R.D.D.Z.Z.Z.Z.C.m.n.l.r.0.9.#.O. .^ J p @ 8  .Z.OX$X`.`..XT.0.....r.J & o Z o.f.f.m.F.D.Z.s. .j a m.J * = k d.= J ^ m.z l.d. .y ` m.d.[ 0.q.$.z q.#.J #.9.q.H & p n.k / ....| | ^ p O.i g H H z z J G 9 i / G @ & > @ o * k  .=.s.b.n.m.Z.Z.Z.D.Z.Z.C.m.m.s.#.#.O.t.b.b.9.L i > > > ; * * - - @ o o o o o @ & ; > > i a G ^  .#.9.l.d.q.*...^ z i > 9 p d a p p G ] ..*.0.q.d.l.l.d.O.H *.r.0.9.9.#.#.^ 9 ; * d I  .#.*.9.q.q.q.0.#.^ g - X   o s R | o.o. .O. .I ^ I I I I G d 9 ",
"; - - ; ; ; - o o * g J ] ] ] ~ H j k k a H H i & @ o o & - d I *.d.n.C.D.T.R.`.+X+X@X=X=X@X@X+X|.`._.T.Z.l.$.J j J l.R.|._.z.@.t j ..l.C.Z.C.m.z.q...z 7 J R.`._.C.#.a * k ..J t z._.[ k s.Z.D.D.C.z.l.l.q.] k 8 * 8 J #.#.*.0.| H p ; & & > i G |  .> p k G L G 8 G G G G G a > &   d O.; g I G G k d a a > 8 r.> i G Z Z G k G G d @ G 0.l.d.z.C.A.D.T.R.W.`.].+XR.l.@.@.J = o o @ @ # @ @ @ & - - & & & & o - > 1 1 1 1 1 1 - - - ; ; ; < ; 1 - - ; 1 ; # o o o o - > g L / / I G d 9 > - o X X o o o o @ & ; ; > 8 i a k Z H ^  .@.#.q.d.n.Z.I.Y.W.`.`.`.`.Q.Q.`.R.R.R.T.Z.C.C.C.m.C.C.m.n.n.d.r.q.q.9.#.#... .J 8 @ k q.Z.W.W.R.D.q.z z ^ t * @ . @ G f.M.C.D.T.n...k a * 9.m.*.*.Z.a ~ q.q.*.a H a  .q.k j @.n.l.#.H q.] *.J J #...~ i = q.8 O./ o.| J J 8  .G > a p p G a a 8 * G | 9 . o @ * a ] =.d.z.m.C.Z.I.I.I.D.D.F.m.l.*. .O.9.d.r.| d & o o & & & & - ; ; ; - - - - - - & & @ o @ @ & & ; 8 p a | O.9.0.0.0...J a i 8 i p 8 p J  .@.*.0.s.d.z.n.n.9.J 9.d.9.9.O.| o.I p 8 & 8 H ]  ...#.0.q.q.q.9.O.L 9 o X   - Z / o.| | O...] ^ ^ ^ ^ I G d 3 ",
"- ; ; ; 3 9 3 & o @ i G ~ ^ ^ J x j k k G ^ L > ; ; ; ; > > d L #.d.n.Z.D.T.R.`.+X+X@X=X=X=X@X@X.X|._.F.D.n.*.^ z k ..C._._.F.l.[ t p ..d.s.=.#...` a = ..F.F.R.d.[ 7 = ~ %.%.=.y s.XXs.a ..z.S.C.C.z.s.@.H p 8 k ..r.q.9.*.I 8 @ * 8 i p i 8 > @ * p o.i G G G G > L G I G G H i 9 @ @ | i i G G g a p g d i & O.G > G H ^ J I L I G 9 ; G ..b.m.D.D.D.T.R.W.Q.`.`.R.n.q.0.z = 9 > ; @ ; > 8 9 > > - o o & - - - - > > 1 1 : ; : ; ; ; ; ; < < 1 - - # # # o X X   X o @ > g Z ( / / I Z s ; @ X o o & & @ @ * ; ; > 8 8 8 8 8 i p a a a k H ~ | ..0.f.C.Y.R.Q.W.Q.Q.W.W.R.T.Z.Z.Z.C.C.C.C.C.n.l.d.s.r.0.9.#.#...~ G p @ * H  .l.N.d.] a a H k = H g o . p 9.m.m.D.C.#.J t 8 8 i #.d.0.z p ....*.k T.~ q.q.a ~ ....0.d.z.d.#.#.9.q. .0.#.#.J & J k ~ J J H k Z > | i 8 a p z p a k a ; d | / Z 9 d H ] #.q.l.n.C.Z.I.I.Y.Y.T.D.Z.l.q. .] *.O.^ > @ . o & - @ o > > > > > ; ; ; ; ; > 3 9 9 > > ; ; ; & & & & & * 8 a G | O.*.#.| H p 9 8 8 a ^  ...#.*.0.q.d.d.l.#.I ..#. .^ J G H G g a ; ; k I ^  ...#.0.q.s.r.9.X.g ; o   o 9 L o.o.| O.O. .| ] | / I G d > ",
"- ; > > 9 d i > & @ ; a H J J H k p a z I | H > i i i 3 > > i G O.s.m.Z.T.R.R.`.XX+X@X=X=X=X@X+XXX|._.D.Z.n.=.] x a z s.F._.XXF.=.k 8 p J  .[ x a = a { C.XXF.k.~ * a q.=.q.z.=.a $.*XC.k x =.n.z.l.s.%.z = y ` z.l.q.] p & & i I ^ | | | | | ^ ^ H 8 i O.8 I ^ I G g L I G G G g i & @ Z I & g g p d p k p g > p  .& G J ..I | | / Z Z ; * k O.l.C.D.D.T.R.W.Q.`.`.R.Z.d.d.J k k S L I | #.#.9.e.w.3.R G d 3 - & & - > 3 9 3 1 1 1 < - # O o o o . .     X     X X o o o o & & 9 3 i B d > - - - > i B Z G G H H J ^ ^ ~ ~ J H J J H z a p p p a a k H ^ ..q.l.Z.W.W.W.T.T.T.Z.Z.Z.C.m.m.m.n.z.q.d.d.0.9.9.#.O. .k p p > * 8 9 H I G > & H ^ & J q...i o o H n.D.T.Z.O.k d 8 p d 8 G * 8 J  .J ^ a R.+XF.= = * 7 J ..@.#.@.#. .^ #.n. .#.#.^ k p #.p H k a k k p p | 8 k H G z H G G d > i / e.6.6.6.0.d.n.C.C.Z.Y.Y.Y.W.R.R.T.Z.-...^ ..9.H * @ @ @ @ @ @ - ; - - ; ; ; - ; ; 3 > ; ; > > > > > > > ; * & & & o o & ; i g I  .9.o.I a ; ; p I |  ...#.9.0.r.d.0. .| I I I G G G G d g H G i i G H ^ ] ..*.q.d.r.r.9.L 9 o   X - Z |  .| |  .|  .| | | I G s > ",
"; > > 3 i d d i ; o @ > d Z G k p t a H | | G 8 k k g i 3 > 9 g | q.m.D.T.R._..X+X+X*X=X=X=X@X+X.X_.F.C.n.d.#.] x a t ..m.F.+X_.C.9.H 7 @ * * @ t ~ =.S. X).z.' * H q.z.n.m.z.s.~ z _.XX%.t j %.-.%.~ t 7 k %.z.q. .a * > a J L I ^  . . ... . .~  .H a k H k J / o.> I I L L G g d * ; ; 6.> > g d g d g d G a & / i 9 |  ...o.O./ G g 9 o > a *.z.D.F.R.Q.`.].`.OX+XT.m.z.*.9.d.n.m.n.d.#.J a 3 s d Z L L L L g d 3 > ; ; ; ; o o o o X X X X   X . o o - 1 1 ; ; 3 3 > ; ; @ o . o ; ; @ o & - > g L / | ..#.6.9.0.r.s.s.d.d.d.d.q.0.#. .^ H k k p 8 8 p k H  .6.f.m.I.Y.Z.Z.m.m.m.n.n.n.z.d.s.d.q.0.q.q.@.~ k a d k k k 9 @ @ @ & @ o I H & ..r.r. .> X & a #.m.d.J p p o p k p * p H k H ^ x k ^ l.0.` #. .j o z H ~ H J  . .$.J k #.9. .H p ~ H d ^ / I I H > / > p | ^  .| I ^ G 9 ; i K 6.q.n.m.C.C.Z.Z.I.Y.Y.Y.W.W.W.R.C.%.[ [ ] H > o o . . o o o o o @ & & - - - - - ; ; > > 9 9 8 8 i 9 3 > ; - & & ; & & - - * 3 d | O.O.I i > p G ]  ...O.*.9.0.0.#.| ..J ] O. .O.| | G Z I O.I d a k H ^  .#.q.d.d.d.t.| g -   X o d / | | |  . . . .| ^ I Z i > ",
"; > 9 i g g g d 3 @ o & > i i i > 8 a ~ ..~ p i H H G d i > 3 d I *.n.D.T.R.R..X+X@X=X=X*X@X+X.X`.R.D.z.d.0.$.] H a 8 x %.m.|.|._.C.q...J z ~ @.s.C.G.XX XA.&.= j @.z.C.A.C.C.C.=.y z.*XG.H 7 z H x y * z q.m.q.^ 8 & a | ^ G G ~ ]  . . . . .]  .@.^ H p ] 8 ^ | G Z k L I I L Z k 9 > @ I | & d g J G G G H H i p S ; ^ / 9.#.O./ I d 9 o @ 8  .q.Z.F.R.`.].#XOXOX%X.XR.D.Z.T.`.Q.I.d.#.J t & @ o . . o - 3 i L L Z d > & o . o o o o o & - ; 3 9 9 i s d g g N d g B a d i 8 ; & o o o o - & o & 3 B L | O.9.r.s.l.n.m.m.Z.Z.D.F.T.T.D.m.l.d.#...~ k p 8 = * & 8 Z | 9.b.m.Z.Z.Z.C.m.m.m.n.n.d.d.q.q.q.*.^ k 8 k H ~ / ^ Z 9 > > * * o G i a d.l.d.d...H i & & . * p @ ; 8 8 Z G Z a a k H x = & * k ..D.D._.n.*.* & @ @ @ ^ ^ d...#...J ^ ~ G p ..p / #. .@. . .& g > J O...#.O. .L g i - . d ^ r.m.C.C.Z.D.T.T.W.W.W.`.Q.R.n.q.=.0.^ 8 & @ & ; ; ; - ; 9 9 i i 9 9 3 > ; - & - ; > 3 i i i i 9 9 3 3 3 3 3 3 > 3 > ; & - > g G | / k d k G I | o.O.#.9.9.O.| I  .] #.q.e.r.9.9.o.^ G  .| H a a g G ^ ..0.d.r.d.r.O.L > X X o 9 G / | |  . .| | / I G g i > ",
"> 8 i g Z Z B g i & o o & ; > * & > p ^ O.H 8 i I I L g i > > i H #.n.D.T.R.R..X+X@X=X*X@X+X.X`.T.Z.z.q.*...] ^ x p 7 t ~ l.F.XXXX XS.z.j.s.s.C.F.XX-XXX X-.t u @.s.C.S.S.F.F.C.q.a q.`.XXz.j * * * i ^ j.Z.d.| & t G I I G G L J ^ ] ^ ^ ] ] ^ ] ^  . .H t #.a  .* e.8 L I L I I a g i > & f.> > g I L I | ^ | H * d 9 > | 6.6.O./ I g > > o i I q.Z.T.Q.`.#X@X@XOX=X%X%X.X@X+X@X+X`.C.q. .k > @ o o @ - @ o o & 9 Z L G i ; @ ; > 3 3 i d g g g B G G G L G Z G B B G Z Z Z p 9 > @ . o - - o o & > g G | @.0.d.d.n.m.C.Z.Z.Z.T.R.`.`.`.`.`.`.R.C.q.$.^ z p 8 ; & @ > a / 9.b.C.Z.C.m.m.m.m.z.d.d.d.d.0. .x a k ^ @.@.#.@.|  .^  .I k @ d & | b.Z.n.Y.D.Z.m.Y.Z.m.k H f.J   i d H Z k p k k y & t J ..s.l.T.Z.R.m.I * o @ * @  ...#. .#./ ^ J ^ J H J p ^ #.#.#. .O.i i * G 9.0.O.| H g 9 & @ * a  .q.m.D.T.F.R.R.W.Q.`.`.`.`.T.m.q.q. .G ^ | | o.O.6.e.f.f.r.r.w.6.O.o.o.X.| L G d 3 ; > 8 i i i i i i 9 3 > 3 9 9 9 3 3 3 3 ; > a H G H L G g L | | O.9.6...H G I | 9.9.9.O.9.9.6. .p a L | Z a i a G  .9.d.r.r.r.9.R i o o . - d L / | | | | ] ^ L Z d 9 > ",
"8 i a Z H H G Z d > & o o o o & o & k I ^ a & a | ^ I Z i > > 9 Z ..n.Y.T.R._.`.XX*X=X=X=X@X.X_.F.C.l.=... .] ^ x a = * a [ z._. X|.|.|.).G.G._._.XX|.F.s.j 7 ~ s.k.C.C.C.C.D.D.C.[ a R.*XXXz.~ H ] 0.m.Y.Z.O.> i k G G B G G G H I ^ | ^ ^ ^ ~ |  .^ ^ | H k ~ H ^ a G G | | I L H Z p > > Z O.; a | | I O.| |  .G @ i * i #.9.O.| L B d - @ > H O.n.D.R.`.OX].$X%X=X@X@X@X=X=X=XXX_.C.z.#.~ a ; . . o . . o o o & ; i d i 9 > 3 > d Z Z k g G z G G H L H G G G G G G G G G Z g > & o o o o o o o - i G | #.q.l.l.m.Z.D.D.T.R.`.`.`.`..X+X+X+X.X`.T.m.q.*.] G 9 @ . o & ; k ..d.m.Z.m.m.C.m.z.l.d.q.#.^ z k H O.0.d.d.s.d.s.0.e.9.#.G @ i o n.T.W.T.R.T.D.R.T.Q.R. .* * d m.; k S H p k d k 8 p #.n.Z.n.z.d.m.m.n.I o * & @ * * *. ...~  . .@.@.#.@.J Z 9 ^ ^ O.O.9.9.k = t 8  ...| G d i > @ ; p ^ q.m.Z.F.R.`.`.].].#X#X+XOXQ.Q.W.m.M.M.m.I.I.Z.Z.m.r.O.I a i > * & - ; 9 d B L | | L d i i i i d i 9 3 3 > 3 > ; ; - - ; > & * > i G O.O.^ G Z G L | O.| H G Z G | O.O.| O.| O.o.| G 9 d G I ^ 8 > G I ..9.0.r.0.9.o.g o o - @ ; Z I L I | ^ ^ I G g 9 > > ",
"9 p Z H L L H G Z i > & o o o o @ & k L J i & k  .| ^ G d > ; > d / d.Y.R.R._.`.XX+X=X=X*X@X+X`.D.z.s.%. .] ^ J H k 8 = = a [ z.S.}.>X>X}.).).|.).S.C.;.j 7 x @.-.s.k.k.z.z.m.C.m.=.y s.XX4X_.C.m.Z.R..XW.r.G @ i p d i 3 3 i i p k J I I I I ~ H H H I | ~ H ^ a  .i #.p I I ^ G a d g i ; i L t i I I | | |  .I 9.G . Z @ d o.O.| G d i - o & a | d.D.Q..XOX`.OX$X%X@X@X@X=X=X+X.XR.Z.m.0.] k 9 o . o o @ ; ; > i d d 9 > 3 i > - i g k G G G G H J I I J H G G G G L L L L G G d ; & o o X X o o & 3 k ^ @.0.l.m.C.Z.Z.T.T.T.R.`.`.`.`.+X+X+X.X`.`.T.C.l.*.^ G 9 @     . ; a | 9.n.n.n.z.z.d.q.*...^ J J ..0.n.m.C.m.n.m.m.m.n.b.B.| o i 8 Z.$X$XOX`.T.R.+X`.@XT.H 9 @ @ @ q.; J G G p 8 k 8 ^ n.R.`.D.n.d.z.Z.@.8 8 9 Z o @ p p #.] q. .G @.#.9.#.6.^ a ; p g O.O.9.n.O.i > & 8 a a d i ; o o 8 H @.l.D.R.R.`.`.#XOX$X@X@X%X%X%X$X#X].#XOX$XOXR.D.n.0...J k 8 * o o o @ & - ; - > g I | L g i > ; ; ; & o o @ o o o o o o o o o & > k O.r.r.| I G g G G Z d k g Z I | ^ I / R | | | Z > > 3 d Z G i 9 H ] #.#.9.#.O.X.g & & > & & i Z G G L I I L G g 9 > 9 ",
"p k J ^ ^ I I L G g i ; & o o o @ @ k G z * = H  . .| I g > - & 9 I s.Y.R.R.`.|.XX+X*X*X@X+X.XR.C.j.=...] ^ J H H k a t = * p ~ k.H.).}. X X_.F.x.j.` 7 7 z ..%.-.s.s.s.s.s.k.z.m.k.k x F.4X*X*X@X*X=X@XD. .8 o @ o o @ @ @ & ; * i k G G G G G H G G H I L G Z  ...H H ^ a H g G k a d i i 9 i I & g I I | O./ O. .o.k @ 9 @ 9 G G Z d 9 ; @ & > G *.m.W.Q.`.Q.`.+X@X$X#X$X@X@X`.`.F.D.m.d. .G 9 @ o & ; 9 g g Z G L G i > > 9 ; - i d g G G H J J J I J J H H G G G G H L L L G g 3 - o X X X o o o > a I O.0.d.n.Z.Z.Z.T.Q.W.`.`.`..X.X+X+X+X+X.X.X.XR.D.z.9.^ G 9 @ . o o @ d H |  . .] [  ...] J J ] #.n.T.T.T.T.D.Z.Y.T.T.Y.Y.Y.^   * g ].$X+X%X=X+XOX`.T.R.`.p p 8 @ @ 8 0...^ k p p k 8 ..D.`.XXR.m.d.l.s.[ ~ d.m.d.f.I 8 p z ] ^ #./ I ~ 9.#.#.O.#.i k ; * G 0.l.b.r.^ i a k a i > & @ o * p J #.m.R.`.`.`.].#XOX@X%X=X$X$X%X%X1X1X=X@X`.R.D.m.d.=...J p > @ o o o o @ @ @ @ & ; p L | G g > & @ & & & @ @ @ @ & & & & & @ @ & 9 L 6.e.6.o.G d d i > ; i 9 i g G G G L G L L L Z > ; ; ; 9 I k > a I |  .O. .| | g - & d i ; ; p k k Z G H G k g i 9 i ",
"k H / | | ] ^ I I G g i > - - ; @ @ Z k a & i ]  . . .^ Z 9 ; @ 8 H 0.C.R._.`.|.+X@X*X+X+XXX`.D.n.q.$.] ^ J J z k k a a j t 7 7 ! ;.H.S.A.S.v.z.{ c 7 * z $.#.$.q.s.s.-.-.s.s.s.l.k.[ t q._.*X:X4X4X=X`.d.z * & * * * & & o . . o * 9 d g k g a g p i d k H I H G ..| p O.p ] H G G k i p k g i i L o g H | |  . .O.9.9.d * ; & ; > 9 i s 3 & X & a ..b.T.Q.].`.`.OXOX].].].].].`.R.D.D.n.d.] k ; & & 9 g G L L / / / I G d 3 - > - 3 i i G J J J J I I J H H G G H L I I I I I L G d > o X X X o X o > d H  .=.d.n.C.C.Z.T.W.T.R.`.`.`..X+X+X+X+X.X.X.X`.R.Z.l.O.R i @ @ 9 g g > > i z J H H H ~ J ^ ..q.n.T.`.R.R.T.R.R.R.R.R.Q.`.Q. .& @ i `.8X1X3X@Xb...z z H p k a ; 9 > I g * n.| k 8 p k ^ Z.R..X`.D.l.l.@.[ Z.H 8 > a ^ s.z 8 k @.a 6...H a  .9.#.6.9.~ d 9 @ @ a 9.n.q...G i G O.O.Z ; o o ; z @.d.Z.R.`.`.`.].OXOXOXOX#X$X$X%X=X%X+X`.`.R.F.D.m.j.%.^ z i & o o o o o o & & & & * 9 d L L g > - 3 d d i d d d d d g d a i 8 > > i G L | | G d d 9 & * ; & & > 9 i d B g B B G B 3 3 ; - ; d L d 8 H H ^ ^ I I L d - o Z G 9 @ 8 a a a k G k a d i i g ",
"I ^  . . .| ] ^ ] L G d i i i 9 & @ g k a = z ....O.../ S i ; @ ; k O.n.T.`.`.|.+X*X*X+X+X.XR.Z.l.%.[ ^ J J H z k j a j H H p 7 = l ' @.=.-.=.{ u & 7 J ` [ @.@.=.-.-.;.=.;.-.-.%.&.@.j z d.+X*X;X;X|.m.%.x a k x H G k p i ; o o o o * 9 d d i > ; ; ; 9 B L ^ J ] #.| t r.* G L G g g G G H I > d g o k k | O.6. .r.O.0.I 9 = 8 i i > & @ o o o 8 ^ r.D.R.Q.`.`.`.`.`.].].].`.R.R.Z.C.d.*.G 9 @ ; i k I ^ | | | | ^ ^ I G i & > - ; ; 8 G J J J I I I I L H H L I ^ ^ ^ ^ I I L G g > % X X X     o : i k ~ ..s.d.l.n.n.n.n.n.C.Z.F.T.R.`.`.`..X_.R.R.T.F.m.d.#.^ i & 9 I 6.6.I 8 * p I ^ ^  . .$.0.z.Z.T.R.R.R.R.R.`.`..X`.`.OX.X.XO.@ & Z $X3X`.n.O...n.l.b.m.0.d 8 8 p H #.f.8 f. .G i p a J Z.R.XX+XR.z.q.[ q.p ] l.s.d...p q.^ a 8 ..k J @.H k J 6.O.q.9.9.O.g > 8 > 8 G G a p i 9 a o.N.e./ d k @.n.F._.`.`.OXOXOX+X+X`.OX#X$X$X$X$XOX`.`.R.F.D.m.k.=.[ H d & o o o & - > 3 i d a a a p d d d d d d g Z L L L L L I I I L G G Z g d d i G G B d B d > 9 > & @ o @ & - > 9 s s B d 3 1 ; ; - ; B Z 9 d G G G G k Z d ; o Z I a & ; i d d d g d d d d a G ",
" .O.#.#.O.O. .|  .] L Z g d d i > & d g i 8 ^ *.*.*.#. .L d > @ @ i ^ s.Y.`..X.XoX*X*X@X+X.XT.m.s.@.^ J H H H z k k a a H ^ H z p t = = a H z t & 7 x [ ..[ ..@.@.&.=.&.&.&.@.@.[ { ..~ * ` C.`._.G.m.-...` ' ....#.#. .] ] H g > * o o @ ; ; ; * & @ @ & > g L I I  .I I ^ O.p G H H G G L I | L > d a & i p L O.0.| d.d.0.@.i > i G I L B i * * i I q.Z.W.Q.Q.`.`.`.Q.].].].`.T.D.m.z.=.^ i * > d G I |  . .O.o.o. .| / L g 9 ; @ @ @ > G I I ^ ^ ^ ^ I I I I L I I / | | | / I L g > o X     X o o - 9 a I  .....@.*.#.#.6.9.0.d.z.m.Z.F.T.D.T.Z.C.n.l.q.#. .H a ; @ > G | o.o.d & a o.0.r.d.d.n.C.D.T.T.T.T.R.Q.`.`..X+X$X$X$XOX@XO.  * G Q.Y.d.n.Q.R.d.a J  .k H p H k ^ Z.Y.^ I q.G i p a k Z.R..X+XR.l... .] x m.l.s.z.d.9.a *.^ ^ * k ..k ..| G p ^ n.d.b.t.t.r.I > * @ i p a p > ; g o.f.B.m.d.q.d.D.`.`.OXOXOXOX+X.X`.`.OXOXOX.X.X`.`.R.F.F.D.m.d.#.^ d 3 & & ; 3 d g G L I I I I ]  .G d i g g i i Z L I / / / | | / L G H I L G g i d g d d g g d g i > @ o o o o @ @ - ; 9 0 ; ; ; ; ; 4 9 d d > g k k g d d i - o d I G ; & 9 i i d d d d d a Z I ",
"#.9.9.9.*.O.O..... .^ H G G G g > - i a 8 p ..0.r.q.0.#./ G 9 @ @ > k ..d.D.`.XXoX*X*X@X+X`.D.n.=.[ ~ H H z z k a a y p z ~ ^ ^ | I a 8 * @ & & = ~ ] ~ ..@.` { } @.%.%.@.@.@.{ ~ ~ J H = y [ l.x.j.;.%.{ @.=.-.z.z.z.s.q.%...] I G 9 & o o o o o o o o @ & i L | O. .O.J g ^ H g I | I L ^ | ^ | | > d g @ * > g  .9.q.s.s.q.9.G i > i L O.9.#.| ] ..d.Y.Q.`.`.`.`.`.`.].].].W.Z.z.s.=.] p ; * a I |  .#.#.#.9.#.#.O. .| / K g 1 o o # 3 G I | |  .| | / / / / I ^ ^ | | | | ^ I L g > o o X X o o o o & > i p k z z z G H J J ^  .#.0.s.d.d.s.q.*.#...] J H k a i ; @ @ ; 9 s 9 & ; G r.Y.T.D.Z.D.T.F.D.D.D.T.T.`.`.`.`.XX+X]..X+X+XO.& i * d.Y.OX].d. .] * k ~ k r.o * @.q.I.OXZ.= d.H a p k p Z.R.`..XT.s.` =.t %.Z.n.Z.m.l.q.d.J J  .^ p 9 ..H k  . .d > G 0.N.b.d.n.Z.l.^ * * > a G G L R o./ L J #.n.F.T.`.`.].OX+XOX.X`.|.XX+X+X+X.X`.R.F.Z.C.n.q...x 8 * * ; i g Z L / | | | X.O.O. .| o.L g d 9 > 9 k G I | | |  .| ] I L L I L L G d g i 9 9 i i d B g 9 ; - - - @ o . o o - 1 - 1 ; ; 1 s 3 9 d > i a a d i 9 9 - o 9 H H 8 & 9 d i d d d d g Z L | ",
"9.t.r.q.*.%.#.*.#...| ^ I I L G > - i d ; a *.r.d.d.q.9.O.I p * @ @ 9 H O.l.T..X+X*X=X@X+X`.Z.d.%.` H x z k k j i 8 8 i z H J ] O. .| ^ z t = = z J ` [ ' ` ~ ' ' { @.@.@...[ ` ~ x k a p @ a ..%.' ' @.%.s.C.A.F.D.D.D.C.l.q.0.#.| G i & o o o o & @ o & o - g I | J | #.I k O.g G /  .| I | O.| | | ; > g o @ & > H O.9.r.n.#.I g i > - d o.t.m.r.*.d.Z.W.Q.Q.`.`.`.`.].].W.T.m.q.%.` z * ; i G  .#.#.0.0.9.0.9.*.#.O.o.| L g 3 # # - i L / |  . . .| | / / / / / I I I G Z g i > - & ; e N V L L L G G G g p p a p 8 = 8 9 8 a z J ]  ... .] ^ H z z k k k k z G I L Z 9 & @ @ o o 9 | b.Y.T.Z.F.T.D.Z.Z.D.T.D.R.`.`.`..X`.R.R.@Xm.G p I & `.%XD.t.O.#.O.o p ^ z ..o @ d.#.`.OXOXo r.~ k 8 k t D._.`..XT.s.~ ^ ^ q.n.C.m.m.l.z.q.#. .k ..#.k ; a  .Z i O.9.k @ d | r.n.l.b.l.| G d i 9 > > 9 @ o @ > k ..l.T.`.`.`.`.`..X.XXX|.|.XX.X|._.F.Z.n.d.q.#.] H p * > 9 a L / | o.O.6.6.6.6.#.O.#.#.| | I d ; ; i a Z I |  . . . .] ] I I L L L L G d 3 > ; ; > s d Z d 9 3 1 ; - o o o   o @ o - - 2 s 3 i 9 9 i > i i i i 9 9 > @ & g G 8 @ 9 g d d a a a Z H ^ O.",
"d.r.d.r.q.0.*.*.#.O. .| ^ ^ ] G - & 3 i & H 0.l.n.d.s.d.0. .k 8 & @ @ > g | r.Z.`.+X@X@X+XQ.m.d...^ z k z z a a 8 ; * 9 k H ~ ` [ ..@...[ ~ x j x ~ ' ' ' ` ` ' ' ' } %.@...] J z a 8 > * @ = z x v ~ { =.k.C.F.D.D.D.Z.m.m.n.z.q.*. .H i & o . o o O O o o - & g I 9.H ^ O.O.a O.i G  . .|  .| | |  .| g > i ; . X . ; B / | / L d 9 ; @ ; / N.d.|  .9.n.T.R.R.R.`.R.Q.R.R.T.C.j.%.] x t & i G O.*.0.q.s.s.q.0.q.0.*.#.O. .I L 4 # o o s I | |  ..... .^ I L G B s ; & @ @ o X . o & > s V K K R E R L L I R I ^ | .. ./ I H G 8 i p a k H H k G k a k H J ` ..q.l.m.b.6.^ d @ . & @ & d O.B.Z.m.D.Z.Z.D.T.T.T.T.`.`.R.R.`.R.T.Q.n.d.8 H k J `.b.d.#.#.#...8 * @.k s.@ @ 9.J ].$XT.=  .k a 8 k a m.F.G._.D...@.p *.d.d.m.C.n.z.m.r.q.r. .a a ^ I d = k  .k 8 H e.| d > d I #.0.| G g i i p i i > 3 @ o @ 9 o.r.l.m.W.`.`.`.`._.|.XXXX_.R.D.m.z.0.#...] G i > * i k ^  .@.#.9.9.r.0.0.0.0.9.*.#.O. .^ Z i 3 i d i L X.o. . .] ] ] ^ I J I I L G G 3 - - & - 4 s L i 3 s 9 3 1 - o o . X X X o - 3 d i g i * p 9 9 d i i 9 i i & o 8 G 9 @ i g d a a g k G I ..0.",
"n.n.l.l.d.q.0.0.*.O. . .| |  .G ; - 3 i ; ^ r.n.n.l.l.l.q.*.^ a 9 ; @ @ & > g I 9.d.Z.Y.T.Z.d.#.] H z k a p i i d > & > k J ^ J ' ' { { { { ` x ! ~ ~ ` ` ~ ~ ` ' ' { @.{ [ I z i > * * * & 8 k ~ ~ ' @.s.z.C.C.Z.C.m.n.z.z.m.m.l.-...H p ; @ o o o O O o o o & & O.I O.I *.O.O.g O.p Z | O.|  .| o.L / O.g - > 9 - o o o @ ; i i i i g L O.6.O.g p H O.r.Z.T.R.Q.R.Y.R._.F.Z.z.=...J a & * z ..0.q.d.d.d.d.d.s.q.q.0.*.#...^ G - o o - g | X.| ..| H a > * & & . . . o @ & - - 3 3 > - - - % O o o o X X o @ @ & > p a k H J I I H k 8 8 8 i a k H ^ @.q.n.Z.Z.F.T.R.T.b.6.H > o @ & ; ; Z f.B.Z.T.D.Z.T.T.T.T.R.`.`.`.`.R.T.D.C.m...* p * J l.d.q.q.d.F.R.J = @Xn.I 8 o  .k I.R.m.k a a p p k a n.Z.S.G.A.H =.a 0.b.l.m.m.m.C.d.n.b.9.9.0.^ > p ^ ~ 8 8 k ^ O.Z i g O.9.I p d i i d i 9 9 i d 9 i 3 d g d i > p ] q.l.z.Z.T.R._._._.R.Z.n.d.0.#. .I k 8 * > a ^  .*.q.q.d.d.d.d.d.d.d.d.q.q.0.#.O. .I Z i 3 3 3 B R | | | | ] ^ I I J L L J G G i - & o o 1 s g 3 3 i 9 9 4 4 - O o X X X o o 3 d g k i > i i > i i d g d p > @ * d 9 & s Z k g k z G I  .9.f.",
"Z.m.n.l.d.d.q.0.9.9.O.O. .....G - - 1 > >  .d.n.n.n.n.n.l.l.9.^ k i ; @ @ @ & > 8 p k z G J J z z k a a g a a p ; & & > p z J ~ ` ' ' { @.@.@.' ~ ~ ~ ~ ~ ~ ~ ` ' ' { { ' ~ H a * & & = y p k ~ { } &.s.s.z.z.m.n.z.l.d.d.l.n.m.z.q.$.J a ; @ o @ - - - o o o o & | #.I | G *.*.O.d ^ d Z |  .| | ^ |  .|  .| p > * & > > & @ @ > d G g i i 3 o o . ; G ..q.d.n.Z.Z.m.T.R.Z.n.s. .J a = & i ..r.b.n.n.n.l.l.l.d.d.d.q.9.9.#.| G ; o o ; B / L G i ; & o o X X o ; 9 s B Z L L I L B d > & o X   X X o X X . o & & ; 8 8 8 8 8 8 8 a G G k p 9 d | q.m.Z.T.`.`.R._.R.R.R.Z.d.| g ; o & 9 & > O.B.Y.T.D.D.R.R.R.R.`..X+X+X.X`.R.T.T.T.9.* k 8 ^ l.n.q.n.@X;XuXH * `.=XO.> > * & d.m.H k i p k p a z m.Z.C.D.l.~ ` ^ q.s.d.m.m.z.z.l.d.d.q.*.@.@.#.k 8 i H H 8 = 8 I | | G g G I I 9.L 8 8 d g d > 9 i 9 i > = > = 8 h z J ..s.C.D.R.R.F.Z.n.s.*...] H p > * = a ] 0.s.n.n.n.n.n.n.n.n.l.l.l.d.s.q.*.*.#. .I Z 9 - ; 9 G | |  . . .| ^ I I I I L H L d ; o o o - s 9 3 9 s 4 4 s 4 4 < O o     X o ; d G G k i i i > d g Z G Z k a = @ > > @ d L H H H J ^  .#.d.m.",
"Z.Z.n.l.l.d.d.q.t.0.9.#.O.#.O.G - ; > - d #.n.n.m.n.m.m.m.m.l.0.O.| L k i > & & o @ @ @ @ & > t a p 8 * & = i i i > & ; p z H J ~ ` ' ' @.@.@.' ` ~ ~ ~ ~ ~ ~ ~ ` ` ` ' ` J k 8 & * 8 k ~ ^ ..=.s.s.k.z.z.z.k.k.d.s.s.s.d.l.l.z.j.q.#.~ p * o o @ - ; - o o & ; ; a | #.H ^ ^ O.9.9.d G k p | |  .| |  .O.o.O.O. .H i > ; * ; * & & - ; ; ; ; & @   o i G J ^ #.9.d.n.D.F.m.d.#.` a * * a  .b.Z.D.D.Z.C.m.n.n.l.d.d.q.9.9.*.] g o o - > i d * o o o & > i i g B Z K L I L L L L B d 3 - o o X X X X X X o o & ; 8 i a k k G H H a k a i > & * 8 ^ q.T.`.`.`.`.R.`.R.R.R.W.Z.r.| g & & i i > L d.Z.D.D.T.R.`.`..X.X+X+X@X@X+X.X`.`.Q...=  .8  .n.n..X@XtXtX3XJ * b.@XI  .@ * . ~  .8 8 k k ~ J k J n.Z.C.m...#.8 *.d.q.d.Z.Z.m.z.n.d.q.*... . .#.s.| a 8 p Z k 8 & * > k  .9.| a p a i i 8 > p g g p 9 > 8 > = * & o = x %.s.z.C.D.Z.m.z.s.%. .J k t * > p H O.d.n.m.Z.Z.Z.C.C.m.C.m.n.n.n.l.d.q.0.=.#.O.| L i & ; ; B X. . .O. .| ] ^ ^ I I I L L Z 3 & & o o 1 3 4 s s 4 4 4 4 s 4 < O X   X X - s G G L G i i > Z L I ^ ~ ~ ^ d & & & @ d | | ] ] ]  .#.0.b.Z.",
"Z.Z.C.m.n.n.l.d.d.d.q.9.*.9.#.G - ; > - G r.Z.Z.Z.n.m.Z.D.Z.C.m.n.b.d.q.6. .^ I H a 8 * & 8 x ..l.Z.C.0.I g > o * & & > p z x x ~ ` ' [ { ..{ ' ~ ~ ~ ~ x x ~ ~ ~ ~ ` ` ^ J a & o > k ] #.=.s.z.C.C.D.C.m.z.l.s.s.q.q.s.s.d.l.l.s.q.@.H 7 o o @ @ & ; & o o o & i & G ..q.I J I O.9.9.a p G > ^ | / |  .| | O.9.t.r.t.#.O. .^ G G i ; > 9 8 > ; ; & ; > 8 8 i H J %.l.m.m.d.*.^ k = & a ..m.Q.`.`.`.`.R.F.Z.C.m.d.d.r.0.9.O.G i @ o @ o o o o * i d B G L L L K G G G G Z g d i 3 > - o X X X X X X X o - > i g L I ] ]  .....@.0.q.q.#.^ a * @ 8 G 9.C.W.`.`.`.`.R.R.R.T.I.n.0.^ 9 @ i G 8 i #.C.Z.D.T._.`..X+X+X+X+X@X@X@X@X@X+XZ.p H ..@ s.Z.+XeXwXeX4XeXp 8 Z O.* T.p > * i p ~ = G O.0.d.| k q.n.m.l.[ ..8 *.s.q.d.m.n.m.m.n.n.d.*.@... .J  .9.9./ a * * a a a p 8 & @ 9 G I I a a k p p i 8 t t t t t = * = t x %.j.j.z.A.m.z.s.q.#.^ k t = = t H #.d.Z.R.R.`.`.R.R.T.F.D.Z.Z.m.m.n.n.l.d.q.0.*.O.O.I g * - & d | O.O.#...| | | ^ ^ I I L L G i > > o o % - 3 0 0 s s s 0 s s 4 < O X X o @ 3 g G | | g i ; Z o.O.O.#.#.#.H ; o o o d 3.#.O.O.O.*.0.d.n.Z.",
"Z.Z.Z.C.m.C.m.n.b.n.l.r.0.q.#.G @ - - - I b.Y.D.D.m.Z.F.T.D.D.D.Y.Y.Y.W.T.T.T.T.D.Z.m.l.*.^ z k ] 0.m.D.D.m.q.| 8 * @ & 8 k x x ~ ` [ [ { @...[ ` ` ~ ~ ~ c ~ ~ ~ ~ ` ` ` H t o & a  .=.l.z.C.F.R._._.G.C.z.k.l.d.s.q.q.s.s.l.l.s.-.[ j * o * i g G R L Z i & o 8 i @ k O.O.] I g o.9.#.^ 8 G * d I | I O.0.6.9.0.r.r.q.d.n.b.0.L Z d i > > 9 9 > 9 i ; * * & = x %.l.n.l.0...k * & i ..m.`.@X@X$X$X+X.X`.R.D.Z.n.l.d.0.O.I d > i ; & @ * i d H G L G g d d d 9 9 3 > 3 > > > ; - - o o X X   X X X o - i g G ^ ^ ]  .#.0.d.m.Z.T.Q.R.D.n.@.k 8 @ * d #.C.R.`.Q.R.R.T.T.Z.Z.m.d.O.G ; 8 H d > I l.Z.T.T._.`..X+X@X@X@X@X=X=X=X@X$X| 8 q.z a Z.@XtXeXeXeXeX@X& p 8 4X* n.0.R.J @ J k p ~ m.`.W.#.> o.q.m.d.=.j ^ q.s.q.d.n.n.m.z.z.l.d.s.*.....@.| 0.9.#.9.| a ; & i k a d g i * > i > > 8 ; > t & = y t t p z J %.0.q.0.=.-.s.l.s.q.%...J a = & 8 a  .d.D.`.@X=X;X;X=X@X+X.X`._.T.D.Z.m.m.m.n.l.r.q.0.9.6.| g - & & i | O.#.#.O. . .| | ] ^ I I L G g i > o X X # 1 4 0 s s 0 s s s s 4 - o o o o ; 9 Z | O.^ a & g 6.r.r.d.d.q.| i o o . i 6.r.0.0.0.q.d.z.m.Z.",
"C.Z.D.Z.Z.Z.Z.m.m.m.n.l.r.r.#.g o $ - - | m.T.T.T.Z.D.T.T.D.T.D.Y.R.`.`.`.`..X+X@X@X@X+XR.n.$.J 8 8 p J =.n.D.R.Z.9.k > 8 j c c ~ ~ ' [ ..@.@.{ ` ' ~ ~ ~ ~ ~ ~ J J ~ ` ` J t . y ~ q.z.C.F._.|.XX+X+X`.F.C.n.l.d.s.q.q.q.s.l.l.s.@.~ a 8 p J ..d.b.m.n.f.9./ Z > H & * p | #.#.z k | 9. .o.i d a * k ^ ~ ..0.9.d.d.q.q.d.m.d.*.| G i > > 9 i 9 9 9 9 ; ; * @ = ] -.j.s.0...J 9 & i | m.`.@X=X@X@X@X+X+X.X`.R.F.Z.n.q.O.L d > : 3 3 d B L L D B g d w 1 ; ; ; - - - - - - - - - o o X X       X o - ; i g G I | ..#.9.q.b.D.T.R.`.+X+X.X`.Z.#.H * @ @ d #.m.Y.R.R.T.T.T.Z.Z.m.n.0.] i > J ^ p a #.n.T.R.`..X+X@X=X;X;X=X=X;X=X.Xl.t J *.t 0.`.eXwXtXeXeX3Xk 8 H * =X& 6.%XC.J $.^ = J s.`.1XW.^ o Z / r.0.q.=  .q.s.r.d.b.n.n.l.q.l.l.q.q.s.*.^ ^ | @.q.d.s.9...z i & & > a k g a G ^  .#.O.| O.O. ...#.0.j.q.r.q.q.0.%.#.%.@...*.#. .H p 7 = 8 J #.m.`.@X3X4X4X5X5X4X;X=X=X@X+X`.R.T.D.Z.m.n.n.d.d.r.q.9.O.G > o & i I O.#.O.O.O.o.| | | ^ ^ I L G Z d - o X X # 1 3 0 s 0 4 s m s s 4 3 - O o # ; > g | 9.0.| ; i 9.m.n.m.n.l.#.g o o . > O.M.d.d.j.l.n.m.C.Z.",
"Z.D.T.D.Z.D.D.Z.m.B.m.b.r.r.#.d o o - - O.Z.R.`.T.T.T.T.D.T.T.D.T.W.`.`.`.`.+X+X@X@X@X.X_.Z.*.J p 8 * = = t I q.W.].Q.q.z 8 a ~ ~ ~ ~ ' ..@.@.[ ~ ~ ~ ~ ~ ~ c x x x ~ ` ` ~ t . a  .l.C.F.G._.XX*X;X;X+X_.F.m.l.d.s.q.q.s.d.d.d.-.@.H k x [ s.C.m.m.n.n.m.D.m.b.^ I ^ 8 & 8 ^ #.#.G i G O.O.O.I 8 9 8 * p J I O.#.*.0.q.d.l.l.d.^ g i i 9 > 9 d 9 ; > > > @ ; H %.-.-.=...I a & > L b.`.%X;X;X+X@X@X@X+XXX.X`.R.T.b.O.G > o o - - > B G B i > 3 - & & - - o o o X X X X X X X X . X         + o - 1 i d g G H L ^  .*.q.n.Z.D.D.R._.R.R.`.R.n.9.k ; o @ k @.n.Z.D.D.D.Z.m.n.l.s.q.| p = J 9.G > J q.D.R.`.@X=X=X=X3X3X=X=X;X+XT.z p 0.] a D.eXtXuXwX4X4X#.~ o  .8 q.= `.Y.d.8 t * a | Q.=X%X`.p   > i | | O.= k ~ @.9.9.#.#.s.s.s.z.n.l.l.l.d.q. .J  .9.0.s.d.0.9.O.] g > & & & a k G I #.0.O.q.*.*.q.0.0.q.9.0.0.=.%.O.......%.$. .~ j 7 = a J q.Z..X=X3XwXwX4X4X4X4X4X3X3X;X=X@X+X`.R.T.Z.m.n.d.j.d.r.9.O.L 9 o & 9 L O... . . .| | I I I I I I G G d & X o o . - 3 0 s 0 4 N m s s s 4 1 - o @ ; ; g / 9.n.9.9 9 #.Z.m.m.m.m.9.B o o o & X.n.n.n.n.m.C.C.Z.Z.",
"Z.D.T.T.Z.Z.D.T.Z.m.m.n.d.d.O.d . - & 3 6.W.`._.R.R.R._.`.T.D.T.T.R.`.`.`.`..X+X*X@X+XXXR.n.*.H a t 8 8 = * > > G e.W.$XR. .t y z ` ~ [ ..@.-.` ` ~ ~ ~ x z z z z H ~ ~ ` ` a o z =.x.F._.|.oXXX=X;X=X+X_.F.C.n.l.s.q.d.d.s.z.s.@.~ J H @.n.z.z.*.] H H H J O.d.D.k | I p * = H O.O.I a a J O.#.#.I 9 > * ; & = p a k k k H H k i > i i i a i i 9 > > > & > L 6.%.' [ [ ^ G > * Z 0.W.@X@X@X@X+X+X+X+X+X.X`.`.T.Z.O.g > & & - o - 3 s i 1 - - o o o X X                         + X     X + O O - 1 3 i i d g z J ^ ..#.0.j.m.Z.D.D.F.T.`.`.Z.d./ p @ @ > Z @.d.n.n.n.l.d.s.q.0.=...G 8 g .. .a a  .D.`._.+X=X;X4X4X4X;X;X=XZ.] = q.#.= n.5XtXwXuXtXwXn.Z.k @ | *  .& n.n.a H ^ ~ ] m.%X3X=Xd.* . o 3 i G > t a a k H H ] #.#.s.l.n.d.d.d.s.l.s.9.^ H | 9.0.9.q.9.0.9.O.O. .H p > & & 8 G  .#.#.O.O.*.9.r.q.0.0.*.#.O...O.O. .] ^ k t = 8 a ^ *.Z.`.=X4X5X5X8X4X4X4X3X3X4X4X;X;X=X@X+X.X`.T.D.Z.l.d.r.q.9.o.G i @ & > g k a i i i 9 9 > > 9 i i d d d > o - o o o O 1 4 4 4 s g N N d s 0 3 - # @ - ; i L 9.d.b.Z * L m.Z.m.m.n.r.L ; . @ & / b.B.m.m.m.Z.Z.Z.Z.",
"Z.D.T.T.T.T.T.T.Y.Z.Z.m.b.d.O.p . - & i 9.R.`.`.`._._.`.`.T.F.T.R.`.`.`.`.`..X+X+X@X+X+XR.n.#.H 8 > 8 p t 8 > * ; 9 I d.R._.q.j u j x { @.%.@.@.' ~ ~ ~ x z z l z x H J ` ] j @ z 0.C.R.|.XX*X*X*X;X;X*X|.T.C.n.z.d.q.s.d.s.l.q.' ~ H =.z.z.s.k 7 = 8 t 8 8 8 p I *.H  .| a t @ k H  . .G 8 p I | .. .| J p 8 8 * * * = 8 t i i d i 8 > 8 i 9 i > 9 ; @ 9 | w.....~ ]  .I p ; i O.m.OX=X=X=X@X@X+XXX.X.X.X`.R.m.O.G > 9 d ; o $ - ; ; - o o o o X X                                         . o o @ - ; ; 9 i d k H ^  .O.=.r.l.m.C.Z.D.T.R.Y.n.#.Z ; @ * 9 G ..q.d.d.q.q.q.q.0.9.=. .a p O.d. .k H s.T..X@X=X3X;X5X4X5X;XC.] 8 *.#.@ *.eX5XsXuXuXuXs.C.I.; o 0.; #.@ #.| = d.C.0.n.`.=X3XOX@.@   X @ > & ^ ^ k a a k k ^ #.0.d.n.m.l.b.d.r.l.l.s...H H ^ #.0.q.q.r.q.9.9.9.*.#.| ^ G i > * 8 i G G H ^  . .| ]  .| I H G k d i * & * 8 a J #.n.D..X=X3X4X4X4X4X4X4X;X;X;X;X;X;X@X@X@X+X.X`.R.D.m.l.q.#.| H g 9 d i * o o @ & & & & @ @ o o o @ @ @ @ & $ 4 - X X o # 1 4 i s d B B M s s 4 1 - # - ; i G O.r.b.I > G b.Z.m.C.m.b./ > o @ @ G d.B.m.m.C.Z.C.Z.Z.",
"Z.T.R.R.R.R.R.R.W.Y.D.B.n.l...i . o o d r.Q.OX+X.X`.`.`.`.R.R.R.R.R.R.`.`..X+X+X@X@X@X@XR.d. .a i 8 > 8 8 > > > & & > p ~ d.D.C.J j ~ { &.%.s.&...` ~ J x z z z z z z x ^ [ z & h 0.S._.XXoX-X*X=X;X;X=X+X_.D.m.z.d.q.s.s.s.s.#.~ ~ ..z.D.=.a 7 x ^ #.*.*.#...] 8 D.q.J | ..J a o > G  .O.| a * p g L / O.| | O. .^ I | o...#.t. .L i i i i i 8 8 & > H #.9.6...] ]  .^ p & > I q.Z.+X@X+X+X+X+XXX|..X`.`.`.Z.0.k > i G s - - o - o X                                                             . o o o & ; > i a G J ^  .#.*.s.l.n.n.C.D.Z.m.q.J 8 ; * * 8 k ^ ..*.*.*.*.=.=.9.0.0.I t H 9.O.k p ^ l.R.+X=XwXeX4X5X+X0.p = ..H @ d.uX3XsXuXuXuX`.Z.wX|   ; 8 p ~ @ H k p R..XF.+X=X3X=Xn.k @ .     @ > r.9. .^ G H J ] 0.z.m.n.d.q.r.s.s.d.f.d.0. .H H ^ @.9.0.9.0.0.0.0.9.0.#.*.*.#.] H p > @ @ @ * ; ; * & & & & & & & & @ > > i k H ^ #.d.Z.`.@X;X3X3X3X;X3X3X;X;X=X=X=X=X@X@X@X@X+X.XR.Z.b.9.| G d 9 > > G g 9 ; ; 9 i i d d s i i 9 > > - & o o ; f 4 ;   X O < 1 3 i d g B B d s 0 9 3 - - > i Z | 9.d.| > p q.C.m.m.m.d.| i o & & Z d.Z.Z.D.D.Z.C.C.Z.",
"D.T.R.R.R.R.`.R.W.T.Y.Z.m.b. .i . o o g d.`.OX@X.X`.`.`.`.`.R.R.`.`.`.`.`.`.`.`.+X+X@X@XR.n.$.k 8 > i p i > * & & ; o . * p ` z.C.@.7 @.l.z.s.s.&...` ~ x z x z z k z x J ` x = = %.S.|.oX+X+X=X=X;X4X;X*X.XR.D.n.l.s.s.s.s.q...^ [ l.m.q.j * ` q.l.m.Z.Z.Z.m.l.9.p 0.m.*.....] H > o 8 I  . . .a 9 > > d d g g d p g I I Z d g i i ; i i 8 i > 8 a ] 9.0.#...| | ] ^ a & & a  .r.Z.OX+X+X+X+X+X|._.`._._.R.q.~ 9 9 B V 1 - - X o X                                                               . o . . o @ & > 8 p k G I | | #.=.q.d.l.n.n.n.q.^ i 8 i i 8 8 i H  .#.*.=.0.0.d.q.l.*.k p ^ *...a 8 J d.T..X+X@X`.l.] t z ..8 a Z.wXsXsXuXwXuX4Xf.@XW.;   9 o.9 8 G a p k D.*X@X=X3X;XQ.| ; & o   . o O.l.r.q.q...O.@.@.d.Z.m.q.| H ^ 6.q.s.s.d.d.0. .H k ^ @.0.9.9.0.0.0.*.#.9.9.0.d.l.d.O.J a p 8 > > > > ; > > 9 9 > 9 9 8 i p a z H J ] $.d.m.R.+X=X;X;X=X;X;X;X;X=X=X@X@X@X@X+X+X.X`.Z.l.O.I p > ; & * ; 3 > i G I I L I I I L L L G G G Z g i 3 i g i 4 ; O X o - > 9 9 g B Z B s s s s ; - ; i G | #.9.o.> > #.m.m.m.n.d.O.d & ; & p r.Z.D.D.D.Z.Z.Z.Z.",
"T.T.T.T.R.R.`.`.R.W.T.D.Z.b.| 9 o o o g f.`.$X=X+X.X.X.X.X`.R.R.Q.`.`.`.`.`..XOX.XOXOXOXW.d.| i ; 8 d k i * & & & & o @ i 8 8 k =.s.' z l.F.n.z.d.%...` H x x x k j k z x ~ x y *  .Z.`.+X@X+X=X=X;X;X;X=X+X`.R.m.l.d.d.d.s.#.[ [ 9.n.l.j = @.n.Z.Z.Z.Z.Z.Z.C.C.m.] t k n.d...*.^ I a @ o 8 H ] | / I Z Z i i i 9 > 3 9 i i d d G G g i > & t p J ..0.*...@.@. .I k i & * p G ] 9.n.R..X.X.X`.`.|.R.R.R.R.D...a ; g i > s 3             X                                                   o o o @ & @ @ @ @ o & & ; i d g G L ] ..#.*.q.s.d.q.#.J p 8 k J H a 8 p H  .=.s.d.d.j.j.l.q.] p k #.q.] j t p z ]  .z t 8 a ] x 8 @.`.8XsXsXgXpXuXuXI.`.6X/ o @ @ ^ ; @ | p 8 k m.;X4X;X;X`.9.p * ; o o X > m.B.d.q.l.9.9.0.*.d.C.s.J 9 * 8 G ..0.d.f.d.r.#.~ d k ] #.*.9.*.*.0.0.9.0.0.q.d.l.l.d.0. .J a i 8 8 i p p p d i i 9 9 > i i p k G G J ^ ..#.d.Z.`.@X=X=X=X=X=X=X=X=X@X@X+X+X.X`.`.D.d...G d 9 9 i > ; ; & - i G L G G G G Z Z G G G G Z G G G g g s - o ; - - o o @ > i d g Z B d s s d 3 - * i J ..9.9.O.i ;  .m.m.m.m.b.0.G - ; & > #.Z.D.D.D.D.Z.Z.Z.",
"T.T.T.T.T.R.`.`.Q.Q.W.W.W.n.] > o o o g M.OX@X=X+X+X+X+X@X+X.X`.`.`.`.Q.W.T.T.T.Q.`.`.`.Y.r.| p > 9 g k i ; ; ; 3 - ; > 9 k H x a ~ s.j ^ D.|.S.m.s.=...~ H x x z k z z x J H a & J n._.+X*X@X=X=X=X;X=X=X@X.X_.C.k.k.l.s.q...` ..l.l.H 8 ` Z.F.T.D.D.D.D.Z.Z.Z.m.b.*.H * J d.q.#. .^ I p o . & d k L I | / / o.I / O.6.w.6.o.| Z d > ; 8 a ^  .9.O.O.9.=...^ H d * @ * i k z J ] *.n.F.R.`.`.R.R.n.n.z.n.l.^ 8 i d i 3 4 %                                                               o o - ; > 9 9 9 > ; * @ o o & > 3 d g H J ]  .@.#.#.#...J p ; d /  .I a p i k  .q.d.d.q.z.l.q.O.k t k ] #...J p t k k k ~ J k 8 H m._.=XwXuXgXpXsXtXwXn.=Xf.@   > g d @ > H 9 a a n.+X3X*X`.d.k > 8 ; -     O.m.D.q.0.q.0.0.r.9.d.d. .; @ o o * k o.d.f.q.q.r.#.H a a J ..*.*.#.*.9.*.*.0.s.l.n.m.n.l.0...J k p p p a p d d d i i i i i i p a k G H H ~ ^ ..9.z.F.`.+X@X@X@X@X+X+X+X+X+X+X.X`.T.n...H p i d g Z d > - & > i d d d d i s s i s d g d d d d g d V s o X   O 2 > - & - > i a Z Z d i s s 9 * @ > J *.r.d.O.p @ / m.m.m.m.n.r.I > ; ; >  .m.Z.Z.Z.Z.D.Z.Z.",
"D.T.T.T.T.R.R.`.Q.Q.Q.R.Q.n.^ ; . o o B N.@X=X=X@X+X+X+X+X.XR.T.W.D.m.d.*... .| |  .O.O. .I G i > 9 k H Z 9 ; @ 9 ; ; > p J ..[ [ z j ` a s.F.`.F.m.s.%.[ ~ H x z k z x x J J x & a d._.+X@X*X=X=X=X;X;X=X*XXX`.F.z.z.d.q.#.' [ =.j...= x m.m.R.R.T.R.R.R.F.T.F.D.m.l.d. .k > J *.*...^ J G p * @ & @ ; i d s d B B B B M d 0 3 3 > i G | #.#.#.O.O.#.O. .~ a * & o - 3 i a a G J ` #.l.F.`.`.R.z... .[ ..$.k 8 a > d f O                                                           X X o @ - ; 9 i d g k k a i > * o o @ & > i d k H J ^ /  ./ | ^ d > 8 H  .O./ G i t k ] =.s.j.z.l.q.O.J i > a H ~  . .[  .H z * 8 J =.n.m.Z.OX5XwXwX8XsX8XW.I.Z.9 . 9 1 3 3 . L Z k i y *.D.R.m.q.~ 9 8 9 ; ; X f Y.B.m.q.0.0.0.0.0.9.q.#.p @ ; 9 ; o ; k O.0.0.q.s.q.@.H t k J ..*.0.*.#.#.0.0.0.q.l.m.m.n.n.d.#. .H k a p a g g p i i 8 > > > 8 i p a k k H J ~ ^  .=.n.Z.`..X+X.XR.D.Z.m.Z.Z.T.R.Z.0.J a 8 d Z G Z d 3 > & ; > > > > > ; ; ; ; > > 3 > ; 9 > > > B s o X X     o i d 9 & i a k k d i 9 i 3 * @ = z #.d.l.9.k @ G n.m.Z.Z.B.b.| i ; 9 > ] m.B.D.Z.Z.Z.Z.Z.",
"Z.T.T.T.T.R.R.`.R.Q.R.Q.Q.n.I ; X o o B N.%X=X=X=X@X+X`.R.D.n.d.O. .J z g a p p a a a p t > 8 * g d d g d i > ; 9 d 9 9 G ^ ..s.d.l.k 8 j p C.XX`.F.n.q...~ ~ x x k z x J ~ J H * y q._..X*X=X*X=X;X;X;X;X=X+X`.R.z.z.s.&.@.~ [ l.0.p t *.Z.R.`._.|.`._._.R.T.F.Z.D.m.l.l.O.^ t > H O.O.| ^ J G d i ; - @ & o & o o . o o @ @ - i d / o.O.#...#...#.#.^ a = & @ & ; 9 > i a a k z x ~ $.z.Z.Z.m.%.z a p k J p > g 3 4 4 o                                         X X X X X X . o o @ & - ; > > i d g G H J H z g i & o o o - > i a k H J ~ ^ ^ ^ ^ Z 9 > a | 9.0...H p t z ..d.z.0.O. .I H g 8 @ * > t = @ * * 8 a z ^ ....6.d.Y.`.=X=X8X3X4X9.M.9   . s 9 #   ; ..9 p p z ^ #.q.] k a 9 8 8 > & - b.T.D.n.z.=.9.q.9.9.6.#.I o ; d ^ g @ o ; H ..0.q.*.q.d.#.H p p k | #.#.@.@.@.*.q.d.b.m.Z.Z.Z.m.l.q.@.~ z g p a a i i 9 > > i t i i i p a k k k x k k J ..q.Z.T.`.`.Z.d.*.@.@.*.l.Z.n...z p > d Z Z d i 9 9 ; # o - - o o - @ @ @ - - - & o & & - - s 1 o           o 3 d d t a k g d i 9 9 > * & * k O.r.r.r.L @ G n.Z.F.D.T.B.*.p ; i > J n.Z.D.D.Z.Z.Z.Z.",
"D.D.T.R.W.W.R.R.R.R.R.`.Q.b.L & X o . B n.%X=X=X+X`.T.m.d.9. .I ^ J G G G z k k G G G z p t p G O.| a ; ; > > * 9 p a k H ..q.l.C.Z.z.^ * 8 ^ .X@XR.Z.m.%.{ ~ x l j l l k x ^ ` t & =.R.|.XX+X*X*X*X*X=X;X;X*XXX_.C.c.s.&.[ ~ =.d.^ *  .d.C.R.`.`.`..X.X`.R.T.F.D.Z.C.m.n.d.0...z 8 * p H ~ I I G S k g d i > ; 9 9 i i i i i d k G L | O.9.#.O./ G d > @ & > > > > > > t i p a a a a k ] q.n.n.] i t = = 8 i ; 9 g > o X   X                             X + X o o o o & & ; ; > > 9 9 9 8 9 i i d z H J J ^ ] H g ; o   . # ; 9 a z z H J ~ J J ^ I k > > Z | ..#.#.J t t J #.#.#.| H k k i & . o X   @ @ @ & & @ & * ; i I 6.l.m.T.`..X$XM.I ;   @ i ; # X o i 9.@ p i k H ] J k a p 9 8 8 8 & @.Z.T.T.Z.l.s.q.q.0.#.9./ ; @ d k G L g @ o * H ..0.q.s.d.s.=.H p 9 g I  .O.O.#.*.9.r.z.m.m.Z.C.C.m.m.j.9. .J k a p i > > > ; 8 i p p p p a a a k k k j k z H [ 0.Z.D.n.0. .H k k J  .#...H = d i i i i 9 i s - o X X X X X X o o o o o X X X X X o ; 1 - X         o & ; 9 a a 8 p G a 9 9 9 t > & * a H o.f.r.I > a n.Y.T.T.D.Z.0.k & i ; H n.D.Z.C.D.C.Z.Z.",
"D.D.F.T.W.W.W.W.T.F.W.Q.W.M.L @ o o . Z n.$X+X`.Z.m.d.0...^ I ^ I  .O.#.9.0.r.d.n.n.b.l.9.^ z a k I G i > & & @ & h x x ~ #.q.C._._.`.m.J = > r.$X+XT.C.q.@.~ x j j j l z H ^ ^ j & ..D.XX+XXXXX-X*X=X=X;X=X*XXX_.C.c.j.%.~ ` s.*.a a 0.m.Z._..X`.`..X.X`._.R.F.T.D.Z.m.m.l.s.0.*.] k 8 * * 8 a a Z Z g d d d d d a a a d d d d p g G I ^ I k i ; & & & & ; 9 9 > ; ; > > t i p i p p p k ^ #.#.| i t a z p p g o - o X                               X o o o o @ & ; > 8 i p p a a a a d p p p p a k H J ` ] [ J Z 3 @ . o # ; 9 a k z H J ~ J ] ] ^ H i ; 9 k  .#.0...z p a I ^ J a 8 & @ @ @ . o @ & * = * = 8 = > > & & s L  .9.r.m.m.b.i &   @ 1 4 1 ; o & i $.& p p J ^ I H k a i 8 8 8 8 H z.`.R.Z.m.z.z.d.d.9.#.O.g o 3 Z a a S G i @ o 9 I 9.s.q.s.d.s.#.L 9 > d L | O.O.9.0.q.d.l.m.m.C.D.D.Z.m.n.r.*.| I Z i > ; ; * > 8 i p a a a k a a k k k j j k k H  .0.d.q.| a d p t p z I x t > g g > > g s - o +   + + X X X o o o o . X X X X X o # O o X       X o ; > i i a a a a g a i i p 8 * > g L | e.f./ ; p n.W.T.T.T.D.d.H > d > G n.D.Z.Z.D.C.C.Z.",
"D.D.F.F.T.T.Y.Y.D.Z.T.R.Y.f.L o o o . Z b.Q.Y.m.d.*..... ...9.l.Z.T.R.Z.n.n.n.M.d.b.d.b.d.O.J i o & & ; d B G G 8 t J ~ @.9.n.T.`.`.=X*Xn.a o g Y.@X`.F.z.=.' v z j j k z H ^ ~ z & ~ C..X+XXXXX+X*X=X=X=X=X+XXX_.C.k.s.{ c @.s. .= ..n.Z.Z.R.`.`.`.`.`.`._.R.R.R.D.Z.Z.m.n.l.d.q.*...] H p > * & & ; ; * ; 8 i p p p i 8 > ; ; > = & & & & & & @ @ ; 9 9 i i 9 ; > > ; > > t i i i i i i a G I H a p I t.O.Z 9 o o o                             X o o O - - ; ; > i d a k G z z z z k k a p i i i p z J ` [ ] I Z > o . o # ; i a k z H ~ ^ ^  . . . .G 8 * > k [ =.0. .a 8 p p = @ & * = > i 9 g Z Z G H H J ] J H z 8 @ - i d I  .9.O.k g o o > 9 X L - ; ; p H * d k ~ ^ H J k a p 8 8 8 a n.R._.Z.Z.m.d.s.q.r.9.O.L - - g i ; ; d L K i @ o 9 ^ 9.q.d.l.q.b.9.L i ; i G | O.#.9.0.q.z.m.m.m.Z.D.D.D.D.Z.m.s.9.| H d 8 ; * ; 8 8 p p a a a a a a a a a p p a a z ^ ..#. .J p p i i a p 8 = > i p i i g 4 o X     + + X X X o o o o X X X X X X o o X X         o ; i d d p p x z a k g p a z g i i G I | 6.r.| * 8 b.Q.R.Q.T.F.b.^ > d > k b.D.D.Z.F.C.C.Z.",
"D.D.T.T.Y.Z.Z.Z.D.Z.T.R.Y.f.G . o $ . d 9.n.d.s.0.*.*.s.n.D.W.`.Y.D.n.0...| I L ^ | I ^ ^ G a = & > ; > i i G | | a j [ 9.d.F.R.`.+X;X;X+Xq.8 & O..X+XR.C.s.@.~ x l j z z x J ~ x * x n.`.XXXXoX+X*X=X=X=X=X+XXX_.C.k.-.~ ~ -.q.z p q.C.Z.m.T.`.`..X.X.X`._._._.R.T.D.D.Z.n.l.l.s.q.*.*.9.#.^ k i 9 > ; * & @ o @ @ & & & * * * > > 8 8 8 8 > * 9 > 9 i i i 9 > ; > > > 3 9 i i i i i i t 8 p k g a a | b.O.d @ B 4 O X                       X o o - - - ; 1 4 i d g Z G H H H J H H z k a i 9 9 9 i a H ` ] ] I g > o   . - > i a z H J ]  . .....@.O.^ a > * 8 ~ %.q.*.H 8 = & @ & 8 k z H J L / / ^ ^  .@.*.q...I G i @ o o ; d d d > ; G o - > . o | 3 ; 9 p 8 = H J ^ ^ J ~ k a k p 8 k #.`.`.R.F.F.Z.l.q.=.=.9.| ; & B 4 o   . 3 B R L d @ o 8 I 6.d.n.s.l.b.t.| p ; > d I o.9.0.q.j.b.n.m.m.Z.D.D.T.T.D.Z.n.q.@.^ G p 8 8 8 8 8 i i p p a a a p p p p a a a k k k x ~ I k k k I | z t i d i > i d 3 & o       + + X X X o o . . X X X X   X o o X X       . - 4 Z H H G k G z k G G G G ^ I k g I | o.6.e.o.* * 9.Q.Q.R.R.T.b.] > d 9 k d.D.D.Z.D.Z.Z.Z.",
"C.D.F.T.Z.C.C.Z.Z.n.Y.T.B.e.g . & - o 9 | 0.q.s.d.n.Z.R.`.Q.D.n.d.0.O.^ z p i p G I G G a i p t 8 k i > i i B I 0...t ] =.C.T._.@X=X3X3X4X`.] o p Z.@X_.Z.l.=.' J v z z j z J ^ H = a z._..XXX+X*X*X=X=X=X=X*XXX_.F.z.&.~ [ d.#.= J l.m.m.Z.R.`..X.X.X.X|.`.`.`._.T.T.T.D.n.d.d.d.q.9.*.9.0.9.@.O. .| ^ J G g p i i i p a g k G G J | .. .^ G a i 8 i i i i i > ; > 3 9 i i i i i 8 8 i p i i p p i 9 G / > ; g 4.V - X                   X o o - - > > > 9 d g Z G L I ~ ^ ~ ~ ~ ~ H z k a i > > > 9 a H ^ ] | I g ; . . @ > i a z H J ^  ...@.#.*.#.@.| G i & 8 ~ %.=.=.[ j t = t k H J J ^  . ..... ...%.q.q.%.] H g > o . . X & o o   L o o o X & @ t.& 9 9 8 8 a ~ ^ ^ ] ~ H k k k p a *.`..X`.R.T.F.m.l.l.q.#.^ d o 3 Z o .     # 9 L ( R B @ . > I 9.b.m.d.b.b.r.| a ; * i H O.9.9.0.d.l.n.m.Z.Z.D.T.T.T.T.Z.m.d.0...~ H j a p p t t y y p p a p p p p a j a a a a k k a G k g I 0.r.#. .L g > * - & o X X     + X X X X X X X X   X X X   X + + + o +     O 3 d K ^ | ]  .^ J k a I | I O...I k I O.O.9.9.#.8 @ | Y.Q.T.R.T.m. .> d i a r.D.D.C.Z.C.Z.Z.",
"m.m.D.D.Z.m.m.m.n.l.B.B.n.#.i @ - 3 o ; H 9.d.m.T.`..X`.T.n.q.O. .] ^ H p * & > d G I H k p a k k | g @ - i s i  .d.J j s.C.R.`.=X=X4X4XwX3Xd.> & *.+X|.D.k.-.{ J x z k j j H ^ ^ = 8 s._.XXoXoX*X*X=X=X=X;X=X+X_.S.k.{ J #.s.~ = 9.n.C.Z.D.R._.`.`.`.`._._._._.R.T.T.F.Z.l.q.q.#.#.#.*.0.q.0.#.9.0.r.r.q.9.9.9.#.O.O.O.....O.O.#.*.9.0.9...^ J d i p p i i 9 ; - ; > 9 9 9 i i 8 > > t p p 9 9 > 9 > 9 > o B 9.w.N # X                 X o - - ; > 9 i i d Z G L I ^ ^ ^ ^ ^ ^ ^ J H k a p 8 > ; ; 9 p G ^ ] ] H i @ . o ; i g G G J ^ ^ ] ..@.#.*.#...| J p & t ~ $.$.#.@.^ x z J ~ ~ ^ ] ....#.#.*.*.=.s.s.q.$.` H a ; o o @   X . o o L X o o o ; i 6.i i 8 @ a ~ ^ ~ ^ ] H H z a a H *.T.=X+X`.R.T.D.m.l.r.9./ 3 @ > s 4 X o     . 1 Z / ( L > . @ p L #.b.m.n.b.b.r. .g ; & > k ] #.0.r.q.d.n.m.m.Z.Z.D.D.D.D.C.n.d.q.*.#. .] J x k a p t 9 p p p 8 8 8 i a p a j a a a p i d p a  .d.r.#.G i & o o o X X               X X X         X X X X     + o +   o - 9 B L ^  .O.0.0.*.J i k  .o.#.#.^ k H o.6.9.6.#.i @ G n.R.T.T.F.n.O.9 d p 8 0.Z.Z.m.C.C.Z.C.",
"m.m.Z.Z.Z.m.n.z.d.s.b.l.r./ ; - i g & > L d.Y.`..X`.T.m.d.*.O...] ] | I g 8 > > p d I J k a t k 9 | G @ . o > d d *.*.i @.l.R.`.*X*X4X4XeX5XW.G & k D.`.D.z.-.{ ^ x z z j k H ~ ~ 8 = 0.R.XX+XXX+X-X*X*X=X=X*X+X_.C.s.~ ~ q.#.a z d.m.C.Z.Z.D.R.`.`.`.`._._._.R.T.F.Z.C.n.d.q.0.*... ...*.q.q.q.q.d.l.l.d.q.q.q.0.0.0.0.0.0.9.*.*.9.r.l.d.0.O.| H k a a i > * @ & ; > > 8 9 8 8 8 > > 8 i 9 9 > ; > > > - ; X.i.3.4 o X               . o - > 3 i i p d g z H I ~ ^ ] ^ ^ ^ ^ ~ ~ H z k p 9 > ; & & > p G I ^ ^ k > o o & 9 d g G H I ^ ] ] ..#.#.*.*.@. .I d * 8 H ..%.@.@.{ ~ ~ J x J ^ ..@.$.=.=.q.s.s.s.s.@.[ ~ G i & o & & - o o o & s o X ; * i > 6.d k ; * | 0.#. . . .^ ] ~ H ^ s.R.+X+X@X|.W.T.Z.b.9.O.L i o & s s o X .       - s K L K d & o i G L  .d.n.n.l.d.0. .z 8 * * i I O.9.9.0.s.l.n.m.C.Z.Z.D.Z.C.n.z.l.d.d.s.q.0.#. .^ H z k j a a p i t t p t p t 8 8 i i > i i i p L I k 9 & & > 9 - o o                 X X         X X O o     + o X   o - 3 g G I ..*.d.z.n.*.G i G  .#.9.] a G  .9.t.9.O.9 & a q.D.T.Z.Z.b.O.> d d > #.m.Z.n.m.m.C.C.",
"Z.C.C.Z.Z.C.n.d.s.q.d.q.9.L o ; g G ; > ^ B.`.$X`.Z.l.q.9.O......... .I G p > * p i I J G G p H p / Z - o     - * L #.J a n.T.XX=X*X4X4X5XwX%X| & * d._.T.m.q...[ H z z k k x H J t = 0.F.`.XXXXXXXX+X+X@X*X@X+X_.m.-.~ ^ s...8 ..d.m.m.C.m.Z.`.`..X.X.X`.`._._.T.F.Z.n.z.l.s.0.*.#.....@.#.0.d.l.l.l.n.n.b.l.r.d.d.d.d.d.q.0.*.0.q.d.b.n.l.r.9. .^ H k p i 8 ; - ; ; > > > 8 8 > > 8 > > ; > > > & - i ; @ ( w.1.1 o X           X o @ - > 9 i d g k G G H I ^ ] ] ] ^ ~ ~ ~ ~ ~ J z a i > ; & @ & ; i G ^ ^ I p ; o @ > i d a G H I ^ ]  ...#.*.9.0.*.O.I i & t H %.q.=.@.' c ` ` ` ` ' ..@.&.s.s.d.k.s.s.s.{ ~ H a > & - > - o O o X > / . > > i p i O.k 9 * a d.m.n.q.#.@.#...@.=.n.`.*X*X+XT.D.Y.B.e.| L B 4 o ; s s 1       . . . - 3 d G L B & o i G G z ^ q.m.l.0.q.0.O.G i ; ; 8 g / 9.9.q.d.n.n.m.Z.Z.Z.Z.C.m.n.z.z.z.n.n.z.z.d.q.#...^ ~ H k k k a a p t t t 8 8 9 > i > > > ; ; ; & & ; d L / Z : .                 X X             O o + o O o X   o o > g G I ..9.l.l.l.n.9.p > H *.0. .g G  .9.r.r.O.9 * i ..b.m.C.m.d. .> g Z i  .l.m.z.m.C.Z.C.",
"D.D.Z.Z.Z.m.l.d.q.q.0.0.| g @ ; B i - B O.Z.Q.T.m.l.0.#.O..... . .]  .^ G i G o a p a ^ I H p z i G G ; o .   o & d  .#.y *.`..X*X=X=X4X4X5X@X0.* o ^ Z.m.z.@...~ J x z k k x H H a & #.G.|.`.|.XXXX+X+X+X@X+XXXR.z.@.x [ q.H 8 q.n.C.C.Z.Z.D.R.`..X.X`._._.R.R.T.T.m.n.l.d.s.*.#... . . ...#.q.d.l.l.l.l.z.l.d.l.d.d.d.q.0.0.0.q.q.l.n.m.n.l.l.0.*...^ J k 8 ; ; > 3 > > 9 8 8 > 9 i 8 9 > > ; - > s ; o o K X.X.1         +   X o @ - 3 i g k G H H J J ^ ^ ] [ ` ^ ^ ^ ~ ~ ~ H z a i 9 ; @ o @ o ; d z I I k > & @ & > i a k G G I I ^  ...#.0.0.q.0.O.J i & t x %.%.[ { ' ` ` ~ ~ ' { @.@.&.>.s.s.s.s.s.&.' x z p = * - - - O o o - L g > 3 i = a g J I * @ O.m.T.`.D.Z.l.m.D.R..X_.@X=X+XZ...#.9.R d 4 - O X - 3 3 # . . . o o & ; > > 3 i g a i o &  .O.J k H #.l.r.0.0.9.#. .a & & * i G ..9.r.d.b.m.m.m.m.m.m.n.z.l.l.l.n.m.m.Z.Z.m.n.l.s.0.#. .^ ~ I J H k a p i 8 9 9 ; > > & & > 3 > @ 3 / 9.9.L i o X                   X X     X o o X o O o X X X @ & - 9 k ^  ...s.l.l.n.r.H > 8 o.t.o.k G | #.l.d.9.8 & 8 | 0.m.n.l.l.O.i d G > | d.z.l.n.C.Z.Z.",
"D.D.D.D.Z.m.n.d.q.0.9.*.^ d o - d 3 - Z  .b.m.d.q.0.#.#.O..... . .]  .] H i G 8 d G a I ^ G a z p z L 9 X o   . o i | 0.k ^ Z..X@X=X=X3X4X4X@Xq.* & p q.0.*.[ ^ J x z j j k z H H a @ ..F.|._.`.|.XX+X+X+X+X+XXXR.k.' x $.9.p k s.n.m.m.Z.Z.D.R.`..X.X`.`._.R.R.T.T.C.m.n.l.d.0.*.#... . . .@.9.d.z.n.z.l.z.l.d.l.d.d.d.d.q.0.0.q.d.l.m.m.m.n.n.l.s.0.#. .~ z a d d g d d p p i d d d a d i > ; 3 s - o o o Z E N o o X X       . @ ; 9 d a G G J I I I ^ ^ ^ ] ] ^ ^ ^ ^ ^ ~ J z k d i > - o o o o ; p Z I H d & @ @ > i p a k Z G H I ] ..#.*.0.q.s.q.*.^ a > 8 a ] [ [ [ ` ~ ` ` ' { @.@.&.-.s.s.s.>.>.=.{ ~ x a > ; > > - @ o o - ; R g 9 i 8 G a 8 ^ J @ k s.C.T.=X+X@X+X=X=X=X5X*X.X+X`.@.k 8 3 ; o o     X % - o     o ; > > 9 d d i > > i k g * o i O.l. .k z ..q.q.*.#.9.9. .G i * @ > d J @.q.d.b.m.m.Z.m.z.d.d.d.l.z.n.n.m.Z.Z.Z.Z.m.m.n.n.d.s.q.#.@... .^ H Z a i > > ; & ; 9 d i 9 - 3 L w.9./ i o o X         X               o O o o O ; o o o o @ & > i d G ^  .*.s.d.l.d. .p > L 9.O.k k ^ #.r.l.0.i * > ^ 9.r.d.s.r. .9 d G = ^ r.z.l.m.C.Z.Z.",
"m.C.Z.Z.C.n.l.d.0.0.*.*.^ d o - > - @ d | 9.q.9.#.@.$.#.O....... . . . .| p k i * G i H  .I G k k p I d . o o   o ; H q.] g q.`.XX@X@X=X;X;X+Xd.* i * ] [ ] ~ x z j a a a a k H J a @  .D.`._._.`.XX+XXXXX+XXX`.S.s.! x q.#.*  .b.n.n.m.Z.Z.Z.T.R..X.X`.|.`.R.R.R.F.Z.Z.m.l.l.d.q.=.#.$... . ...=.d.l.n.n.n.z.l.d.d.d.d.d.q.q.q.s.d.z.m.Z.C.m.C.m.n.l.d.0.$.[ ^ ~ ^ ^ I L H H H I I / / L d 3 ; 1 3 . . . o K B - . - o         @ ; 9 d k G I ^ [ [ ] ] ^ ^ ^ ^ ^ ^ ^ ^ ^ ~ H H k a i 3 - o X   . o > p G J G 9 o @ - 9 p a a k G G H ^  .O.#.#.q.d.l.d.0...G t > 8 z J J ` ~ ~ ` ' { @.@.%.=.q.j.j.s.s.=.@.` x k 8 * > 9 > - @ @ @ > > o.g i p p k a a G g * O.n.n.D.;X=X;X;XwXeX;X4X;X@X`.n.k @ & 9 -           O O X     ; s g g Z G G a 8 = > a a i & o L b.d. .k g ^ #.*.9.#.9.9.#.| a * @ * > p ^ 9.d.b.d.b.l.l.d.d.d.d.d.l.n.m.Z.Z.D.D.D.Z.Z.D.Z.Z.m.n.l.q.q.0.O.| I Z 9 > ; 3 s g d > & @ - i o.3.O.g - o X         X             o O - o o ; 3 & o o @ & ; i d p p H ] ..0.s.d.q.#.G > p  .O.Z g I O.0.d.0.a > ; H O.O.q.s.r. .i g L 8 I q.l.l.z.m.Z.Z.",
"m.m.m.m.m.n.d.s.q.0.*.*.| g o - - & o 3 H  .#.9.*.#.#.#.O.......#.#.*.0.r. .G i o 9 p | q.0...k I > H Z @ o ; . @ & i 9.#.i ..Z._..X`.@X@X+X`.d.= z = x ^ H x k j a a p p a k z H a @  .Z.`._._._.|.`.`.`.|.`._.C.&.~ ~ s.~ = #.n.n.n.n.m.C.C.D.R.`..X`.`._.R.T.T.F.Z.Z.Z.z.z.l.z.d.s.0.*... .] ..*.q.d.z.n.n.l.d.d.d.d.s.q.0.q.q.d.l.m.C.C.m.Z.Z.Z.m.n.d.0.*.#.#.#.#.#.#.#.#.#.O.0.e.O.G i ; ; o @ o . X > K - . . 9 @     . @ > 9 d k G J ]  . . .[ ] ^ ^ ^ ^ ^ ^ ~ ~ ~ H z k a p 3 - o X     X & 9 a H I k > @ & > i d a k z G L I | ..@.*.9.d.n.n.d.q.*.I p = * i k z H J ` ~ ` ' @.@.%.-.s.l.j.s.-.&.{ J z t 8 8 9 3 ; - - @ - i 9 O.a p a z a k z * 8 d 0.m.n.T.4X@X;X4X5X4XwX4X$XOXW.| @ > d G i X       + o O . . @ 9 g L H I I J z p t = t i g 8 . > | b.b.#.G a z ] 9.#.*.9.9.9.O.G i & @ & i z ^ #.d.r.d.d.d.q.q.q.q.d.l.n.m.Z.Z.Z.D.Z.Z.Z.Z.Z.C.m.m.b.b.d.*.| I g 9 > 3 s d i - o X o . @ B / O.L i o X       X X       X X o o - - - ; 9 9 & @ & ; > 9 d g a p k J  .#.0.0.*.#.^ i 8 I I g g I  .9.r.9.k t ; g  .| @.*.9.| i d L 8 G 9.d.d.z.n.C.C.",
"m.m.n.m.m.m.l.d.s.q.9.0. .g o - > ; o * g I O.9.0.9.*.#.....#.*.q.l.n.Z.`.Z.9.G ; * a O.n.R.B. ...t g L - # ; o @ & ; I O.> I d.D.`.R.`..X`.T.r.= H p y H k k j j a a a p a j k z p @  .Z._._._._._.`._._._._.F.z.} ~ @.q.p k q.b.n.n.m.m.m.n.Z.R.`.`.R._.R.T.F.D.D.C.Z.Z.n.n.z.m.m.n.z.s.*...]  ...*.q.d.l.l.d.d.d.d.d.q.0.0.0.s.d.l.n.m.m.m.m.C.Z.C.n.l.q.q.0.q.d.d.d.d.l.l.l.r.b.t.R i - - - o O o o - d >   . & B -   . o ; 9 p k H ^ [  ..... .[ [ ^ ^ ^ ^ J J J H H G k a d 9 ; o X       . ; d G I H p * & ; 9 d d a z G H I | O.@.9.q.d.d.n.n.d.q.9.] g ; @ > p z H J ` ~ ~ ' { @.=.s.l.l.s.q.=.@.^ z j 8 8 i 9 > > ; - & > d i O.p a z H J p = & p g 9.n.m.R.;X.X;X5XwX8X4X4X1X`.6.i ; i ; & @ X   X   - % o . o > a H ^ ^ ] ] ^ J z k 8 > i p i @ @ Z #.l.n.q.^ t t H #.9.q.0.0.0.6.| p > & @ & 8 G  .9.0.r.q.9.9.0.q.d.l.n.m.m.m.C.Z.Z.Z.Z.C.m.m.m.m.m.b.q.O.L d 3 ; ; 3 3 - @ o o o o . o ; G | R s - X       X X       X o O - - & 9 i g i ; ; 8 i i i a G H k k k ~  .#.#.$...^ G p Z a p g J  .#.*.*.k p > i | | ] ..#.| i d I 8 k %.d.d.l.z.m.n.",
"m.m.n.m.C.m.n.l.l.d.r.r.O.Z @ - 3 3 * & a L O.9.0.*.#.#.#.*.q.l.B.Q.+X$X;X@Xm.O.a @ p | b.$X=XD.d.~ t / - ; # # o @ & d Z & d o.n.F.Z.T.R.T.B.*.= ^ k * a p p k a a a a a a k k k p @  .C.R._._._._._._._._.F.A.z.' { s.@.* ^ s.n.n.n.m.C.n.n.C.T._._.R.R.R.F.F.Z.D.C.Z.Z.n.m.n.C.C.C.m.l.q.#. .]  . .#.0.d.l.l.d.d.d.s.q.0.0.q.s.d.l.n.n.n.n.m.C.C.m.n.l.s.s.s.d.z.n.n.n.n.n.b.n.r.| i @ o o o o # o o s s   o @ 9 Z ; o o - 3 i k J ]  . . . ..... .[ ^ ^ ~ J J H H G z k g a i > O X         o 9 Z L I k > & @ ; i d g k G H I | O.#.#.9.s.l.l.n.n.d.q.*.^ a & o ; a H ^ J J ` ` { @.&.-.d.z.j.j.q.%.[ J k p 8 8 9 > 3 9 3 - ; 9 p a ..a k x J a & 8 I | Z I q.z.T.@X`.=X5XwXwX=X3X=Xq.p ; i ; 9 > @ X   X X o o @ & > a J ^ .. . . .] J H k i > i 9 i > o - L 9.B.m.0.^ p > g ] q.d.t.t.e.9.O.L i ; & & ; 8 G I  .#.#.*.9.0.r.d.n.n.n.n.m.m.m.C.C.C.m.m.m.m.b.r.O.I d ; @ & & - @ o o @ @ o o . @ & g L L e - o X       X   X X X O - ; ; ; g g k p 8 t a k G g a G J I z a x J  .....] I ^ G g 8 > p H ] ..O.O.k g i > L | ^  ... .d d ^ i p ..q.s.l.z.n.n.",
"m.m.n.n.m.m.m.n.n.n.l.d.O.B & 3 i d ; & a H O.9.9.*.*.0.q.l.B.T..X%X4X4X4X3XE.0.G & * k #.Y.5X;XZ.q.i L 9 ; # - o & o & ; . & g ..d.d.l.m.n.q.^ 8  .k * p a k j j j k z z z x H H a @ ] m.R.R.R._._._._.R.G.C.z.-.{ &.s.x 8 9.b.n.n.n.m.m.n.n.m.D.R.R.T.T.F.Z.Z.C.D.Z.Z.C.m.C.m.m.Z.Z.Z.n.l.0.#. .] ^ ] ..*.q.d.d.d.d.q.q.0.0.q.s.d.l.n.n.n.n.m.m.m.n.z.d.s.s.s.l.z.n.n.z.z.l.l.l. .i & o o o o o - o 4 s ;   ; i Z Z ; o o 1 s a H ]  .[ ^ ^ ] .. .[ ] ^ ~ J H H G G G k a p i > - o         + - d G I H i & @ & > s g Z G H I | o.#.9.0.q.d.l.n.n.z.d.0.O.H i o o > g I ] ~ ` [ { @.%.q.s.d.z.q.q.=.[ J x k p i 9 9 9 i i 3 - 9 p i k %.z z x a * t  .r.r.| Z  .=.m.XX`.;X5X8X4X3X`.6.9 * * @ a q.e.L 3 o X   X - d G J ` ..#.9.@. .[ [ ~ H k a i 8 9 9 9 -   i / r.b.d.r. .a = i I #.9.0.r.0.9.9.O.I d ; & * * > d G I | o.O.9.0.s.d.l.n.n.n.n.n.n.n.z.l.l.l.r.9.^ a > & & & @ o o # - - @ o . . @ ; d B d - o o o o         X X o - ; ; 3 i Z G k a y j H H I J G G J ^ ~ z a x J ^ ] J H ^ | Z > & 8 G ^ |  . .a k g * Z ^ J ~ I ] d i I i 8  .q.s.l.l.n.n.",
"m.m.m.m.m.m.m.m.z.n.n.d. .d & 9 g B 3 @ p G  .#.=.9.0.d.n.D.`.$X=X;X4X8X8X4XW.e.G 8 @ i ] r.=X3X`.m.k g Z & 1 - o o X   o X . ; G @.#.9.r.0...g 8 O.a = p k k j z x H J ~ ~ ^ ^ ^ k & ] m.R.G.F.F.G._._.G.F.C.j.@.@.s.=.8 H d.n.n.n.l.n.m.n.l.n.Z.T.T.T.T.D.C.m.C.F.D.Z.C.C.Z.m.Z.Z.D.D.Z.m.l.s... .] ^ ^  .#.0.d.s.q.q.0.0.0.q.q.d.l.z.z.z.n.m.m.m.n.l.d.s.s.d.d.z.n.n.n.l.j.r.9.G * o @ o o o o - 4 L > o & 3 G L Z - o o 0 g z ~  . .^ H J ^ ] ^ ^ ^ ^ ~ H z G G G k g p 9 3 - o X       + o > g H I G > o @ > i g Z G H I ] o.O.9.0.s.b.n.m.m.m.n.d.0. .k = o @ i G H ` ] ......@.&.q.s.d.d.=.=...J z z g p p i i d s 9 ; ; p k t z *.H z k & a 9.l.r.r.0.^ a J =.R._.=X3X3XOXB.L ; @ o @ i #.Y.Z.9.R i & X - g | O.#.%.q.s.d.=...[  .] J G k d > > ; 3 0 o @ d O.f.d.r.0.O.z = = G  .0.r.e.9.9.9.*...L p ; & & & * > d L / O.#.9.r.d.d.d.b.l.l.l.d.d.r.d.d.r.*.I i & & & @ @ o o - - @ @ - # o @ i i d - o   X - - .       X   o ; ; ; i Z H G k a a x ^ ^ ] ^ H z J  . .^ a z z G J G k ~ o.G > o ; G ^ ^ | ^ i z G * a I J ~ I | d i ^ d = ^ =.q.d.l.n.n.",
"C.m.m.m.Z.Z.C.m.n.B.m.r.] i o i g B 9 & i G  .O.0.d.m.Z.R..X@X=X4X4X4X4X5X4X`.b.I i & ; G  .B.;XQ.m.| > | > L - & @ o o o     @ i G I | O.] I * z ..= 8 i z j H J ] [ @.#.@.%.#.@.J * z l.C.F.F.F.F.)._.G.F.C.q.$.q.d.~ = #.d.m.n.n.n.n.n.n.n.n.Z.Z.Z.Z.m.m.m.C.C.T.C.D.Z.Z.Z.Z.D.D.D.D.D.Z.Z.m.q...` J H I ]  .#.*.0.0.9.9.0.q.q.q.d.d.d.d.l.z.n.n.n.d.q.0.q.s.l.n.n.l.d.d.r.r. .p o & - & X o - i G L o . 3 L | R g & . - s g k ^  .] H z H ~ ^ ^ ^ ^ J x z z k k g d d d i 3 - X         X - 9 G I G i & o & i g Z G J ^  ...#.9.s.d.n.m.Z.Z.Z.m.n.r.@.^ a & o > d G ~ ] ....@.@.%.q.l.l.d.d.-.%.` J J k a a p p p p 9 > 8 8 p j a z *.H a * H q.n.r.s.r.0.*.[ z H #.d.m.Z.b.9.G ; o X X 3 / Y.Q.Y.m.r.| i X - G 3.e.q.d.s.s.d.=... . .] J z a i > ; ; ; 1 1 . & g O.d.d.0.*.O.| a ; 8 I 6.9.0.0.*.%.*.*...I p 8 & o . o - 9 g G / O.6.9.9.e.r.r.r.t.e.e.0.9.9.O.I g & o - ; - o . o - - # @ & & > i B 3 o X .   # s #   .     o - - ; 9 a G J J Z k G J `  . .^ ^ J x J  .] J a p a g d a L o./ ; @ @ a H I / I d g G > i G  .I H G g > I k * I #.q.d.d.m.n.",
"C.m.m.m.m.m.m.m.m.m.b.9.J > @ d Z Z 9 @ p G O.9.q.m.T.`.+X=X=X;X3X3X4X4X4X3X.Xm.| d & @ > I 9.`.R.l.I 8 ^ a O.B ; & & o X o o o @ i Z g G G d * ^ ^ & t a x k ~  .#.=.s.l.j.z.l.q.^ * a %.s.x.v.S.F.).).G.F.m.q.q.n.s.t k *.l.l.m.m.n.n.m.m.n.n.l.n.n.n.n.n.m.m.Z.R.Z.F.Z.Z.D.Z.Z.D.D.T.T.T.D.Z.b.0...] H H J I J ] O.*.9.9.0.q.q.q.q.q.d.d.l.n.n.n.l.q.9.9.q.s.d.d.d.d.q.0.9.O.L > o 3 3 & o - d L L i   & G | X.I d o . - s B H ^ ] J k k G J ^ ^ ~ J H z k j a a g a d d 3 - o           o - d G L g > @ @ > d Z H ~ ^ ..#.*.0.d.l.n.C.Z.D.D.C.m.b.9.| H 9 @ o ; p G ~ [ ..@.} @.-.s.z.n.l.l.%.@.` c z a a j p a p 8 8 8 i a k t j ^ 0.p & ] l.n.n.d.l.d.q.0.#...#.9.9.r.b.r.O.g & @ o & L M.R..XT.B.l. .d & o d R O.#.=.q.q.q.=.$..... .^ x a t > ; - - ; ; @ o ; L 6.9.9.9.0.*.| k ; * g  .#.*.0.*.0.d.d.0.#.^ g > & o . . o & i B L | o.O.O.6.9.9.6.6.6.O.O.| R Z > @ & 3 3 ; & o @ - - @ & ; > g s 3 . . . . - d 3 o o   o o - > 9 p G J ^ I H k H `  . . .^ ~ J x H ^ ] ^ k i 9 i 9 i G | / ; o & 9 g I I I p g I 8 i k ^ I J H d ; I Z & Z O.r.s.d.n.n.",
"m.m.n.n.n.n.n.n.n.b.r.O.Z & ; d Z G 8 @ p G ..q.l.D.`.@X=X;X=X;X=X3X4X4X4X;XOXm.| i 9 & > g k  ...J i @ 8 a 9.9.d & & & & s 3 X o & i i d 8 * k  .a & p z H H  .*.d.n.D.F.F.T.D.m. .* 8 ^ ..-.s.z.C.F.G._.G.n.s.m.T.#.& ] q.d.l.n.z.l.l.n.n.d.s.0.q.s.d.l.n.m.m.D.T.Z.F.Z.Z.Z.Z.D.T.T.T.T.T.D.Z.Z.z.q.%.] H z k k G J I | O.9.r.r.q.0.0.q.d.l.l.n.l.r.0.*.9.0.r.d.d.d.s.0.9.O.| G * & B B - o i I | Z @ X d | O.o.G > o o ; s g G ^ ~ k p p k H ^ ^ ~ J H z k k a a d i i 3 - o             o 1 g G Z i & o ; d G I | ..@.9.s.d.l.n.C.Z.D.T.T.D.C.n.d.#.~ k 8 o o & i z J ] ......%.s.k.z.d.s.q.%.{ ` J z k k k p a p 8 > 9 a a p k k  .H = ^ s.n.z.l.d.s.q.9.0.9.0.l.Z.T.Q.Y.e.| i & & & d 9.W.`.`.D.z.q. .d - X - g L ^  .@.&.=.9.*.$.....] H a i > ; - - ; ; ; o . > L o.9.9.9.9.e.9.I 9 * > k ] 9.9.9.q.r.d.l.r.6.| G 3 @ . . . o & ; 9 d g G I | | | | | | | | I G i & & i g g 9 o X o - ; 3 d B G s ;   . o & 9 Z B 1 # o o o - > i z J ^ ^ J H H I [ .. .] ^ ^ ~ z z J ] | H i ; > ; > Z ( I ; o > 8 i G L L i a ^ i 8 k H I ^ H d & G G * i  .0.q.d.l.n.",
"n.n.m.m.m.n.n.n.n.l.0.| p o 9 d G L > & d H ..d.D.`.+X=X=X=X=X=X=X=X3X3X4X;X.Xm.9.d 9 o 9 * i a H ] ^ k 8 p o.b.O.> ; > i R L > @ o ; * ; & i O.I * * a z J ] *.l.Z.F.`.|._.`.R.m. .* * k J  ...%.s.m.S._.F.n.z.T.Z.k = H ..#.*.q.0.0.0.q.q.*.#.#.0.s.d.l.m.Z.D.R.D.m.m.m.m.Z.C.D.T.T.T.T.D.Z.Z.D.m.m.l.*.| H a a a a a z I  .#.0.9.9.9.0.r.d.l.d.r.0.9.#.9.0.r.q.0.9.#.O. .I H i & & f i & - B 3.L ; . > L O.O.| g - o @ ; 9 g G ^ J p 8 8 k H ^ ^ ~ J H k k a a a d i 3 - o X     X X   X - 4 g g d ; o @ 9 G I o.6.0.0.d.b.n.n.C.D.F.T.T.D.Z.m.n.r.@.I k 8 @ . & 9 g H ^ ` ' @.=.s.k.l.q.=.%.%.' ~ ~ J J H k a p 8 8 8 a a p j z H a * ~ d.l.n.n.n.d.9.9.0.*.*.0.m.`.1X1XI.| i & o * d 3.E.OX`.R.z.9...G i &   o > g G J ' @.#.q.0.#.....] x g p > ; - $ - - - - o o > L O.O.O.6.9.9.9. .k * * i L  .#.9.0.r.r.r.d.t.O.I k p ; & o o o o & & - > i p d g k Z G G G g i - & > G L G 3 o @ 3 i B H / G d o o o - i g L L s - o o & ; 9 a H ^ ^ ^ J J I I  ...[ ^ ^ ^ ^ x j z ^ ] I i * ; & ; Z / L ; @ 9 d d d G H i p | d > g Z J I L a & g L > > ^ 9.9.d.l.n.",
"n.m.m.m.m.n.n.n.n.d.*.L > o p g I L > ; d J *.m.`.+X=X=X=X=X=X=X;X;X;X;X;X;X.Xm.| 9 ; ; d = J I #.Z.m.O.p 8 H n. .k I o.o.e.6.Z & o o . @ d | | t @ i a k ^ #.q.C.R._.XX+XXX+X`.n.| * & i k H ^ ~ @.q.z.C.m.n.C.R.#.= a k J ^ ]  .................0.d.n.m.D.R.R.`.m.d.d.d.b.n.m.m.Z.T.T.T.D.D.Z.D.D.D.D.b.0. .H g a p i p a G H  . .O.#.9.0.r.d.r.0.9.#.O.#.9.9.6.#...| I G d i * & o & X o ; B | i . @ G X.O.O.L i @ o o & > d G L d ; & 8 g H J J J G k a d a d d d i > @ .     X o o X X - 4 i i > & o - d R o.6.d.f.b.n.m.m.Z.D.F.T.T.T.D.C.m.d.*...J k 8 & . o > p k J ~ ` #.=.s.l.s.q.=.%.@.[ ` ` J H H a p 8 8 t p a a d H k 8 8 a #.d.d.l.d.s.q.9.9.#.@.O.9.b.Y.W.B.X.i o . & g O.Y.%XOXR.F.q. .I a > o   X & i k z ~ @.*.q.q.#.....] G k p 9 > - @ o o o ; ; o o 3 L | | O.#.#.0.r.O.L 9 ; * d I O.0.d.d.r.q.0.9.*...| L Z d 9 ; * & @ o o @ @ & * = > > i 8 > > * @ @ p Z G g 3 ; i Z I | O.L d o o & i G L / / B ; @ o - i d G ^ ] ] ^ J J ^ ^  ...` ^ ^ ^ ^ H a k I ^ ^ d & & & ; g I Z & ; ; g Z d a Z i i | k 8 d k H G I k & i G > * G O.9.d.l.n.",
"m.m.m.m.n.n.n.n.b.9.| d & @ a G I G ; ; p ^ r.T.`.@X=X=X;X=X=X=X=X=X;X;X;X@XY.0.I Z i G d & i i #.Z.Z.@.i @ p O.H O.n.B.M.m.b.| i o @ i G | o.p @ & a a z ..q.n.T.`.XX+X*X*X=XOXb.I & o ; i a z J ` ..#.=.=.q.n.d.a * k z z ^ J H J ^ ^ ] ]  . ...q.n.Z.D.R.`.`.R.0.@...#.9.r.d.n.C.D.T.D.D.D.D.D.D.D.D.Z.n.r.#.I z a t 8 8 t i a k G I ^ | O.O.#.O. .| | | | | ^ I G a i > * * & 8 9 > o o & > > o o i o.9.O./ Z > o . . o ; d Z d &   o > a z G z k g d g g Z G g i ; o X   . o # - O o o - 1 > > & o & > Z / 6.e.M.N.m.C.Z.Z.Z.D.T.T.F.D.Z.C.n.s.*. .J k p * o o & 9 a H ~ [ #.=.q.q.q.=.#.$.....{ ` H z k a p 9 i p a p k H a p 8 ] ^ ] d.d.n.l.b.d.0.| J I k G L | O.L 9 o o o g 9.Y.$X%X`.T.C.#.I G i - o   X # i k H ~ ..=.d.d.=... .` H k a i 8 > & o . o O - - X X > G I | O.9.q.q.9.#.o.Z > ; ; i I #.d.d.j.q.0.=.*.O.#.O.| / I G d i 8 > * * & & & * & = * & * > & @ & ; > > & & i L o.9.O.I 3 & o ; g ^ |  .| G 9 & o ; i g G ^  .] J J J / |  . .I ~ ] ] ^ H a a H ^ ^ a & o o ; g H a & 9 @ d G Z p a i i | G i i k G Z H G * ; B > * d | 9.d.n.n.",
"m.m.n.n.n.n.b.d.9.| g ; @ 9 Z L L d & 9 k O.n.R.`.+X@X@X=X=X=X=X@X=X;X=XXXT.q.L p > & i > t g g G *.m.s.G * p a #.Z.D.C.n.n.m.9.Z & g o.9./ p & @ 8 a k I #.d.D.`.+X+X*X*X*X$XQ.e.Z o   o > 9 i k k H ^ I ^  .#.k 8 t k H z J H H H J ^ ^ ]  ...*.l.D.R.`..X`.T.n.H a k H I  .#.s.n.Z.Z.Z.Z.Z.D.D.D.D.D.Z.Z.m.l.0. .H a i 8 > 8 > > > i i d g k G Z g g d d d d 9 > * * * * > i G | | R d > o @ @ o > G O.O.X.G i & X   X . - i 9 - X   o * t g k g g g g B B B B 9 & .   . o - ; 1 2 - o o o - - - o o & 3 B I o.9.r.d.f.m.C.C.Z.D.D.D.Z.Z.m.m.n.q.*...^ H a 8 & @ @ & 8 a H ] $.#.%.%.%.@...[ ....[ J H z k a p p p a a a k z t y #.q.J  .q.l.d.d.9. .H 8 * > > ; * ; 3 ; o   . 9 #.W.%X%X+X`.C.d. .H g 9 - o   X # 9 Z J ^ $.0.d.d.q.#...] J z a a p i > @ . . X o - o X o > H I | O.#.#.*.9.e.6./ g ; @ > a ^ O.r.d.q.9.*.*.O.O.#.9.9.9.#.O.I H G z k a a a g a a g a k k a p 9 ; & o o > k | 9.O.L > @ @ > G ..O.O.O.L i & o - i d G ^ ] ^ G H J ^  . .^ H ~ [ ] J H a i a L I g &   . > g Z i & 9 > i Z L k a 8 ; L L i > k G k G G > & i i ; ; G #.r.b.n.",
"n.n.m.m.m.n.r.0.| G > @ @ g Z I G 9 @ d I q.D.R.+X@X@X+X=X=X=X=X=X=X@X`.Z.d.| p 8 o o @ > p G a p ~ b.d.~ p  .I Z.`.Z.Z.Z.l.q.^ i - I | / d . @ = p p G  .0.l.R.+X=X*X*X*X+X`.Z.o.s .   . - ; > i t a G z z H J = H  .] ^ ^ J ^ J ~ ^ ^ ]  ...#.0.n.T.`.+X.XT.m.#.> @ * i a H ^ #.r.n.C.Z.D.T.T.D.D.T.D.D.D.D.B.n.q.O.] H a 8 > > * & & & * ; ; & & @ @ @ @ @ @ @ @ @ * 8 a I O.0.r.r.9.G 3 @ ; g - 9 B I I I B ; o   X . o & 9 @ @ . . o & t z z z Z G G B s 3 # .   X o & ; 3 4 9 1 - o X o o o o X X @ > g L I | O.6.0.d.f.n.m.Z.Z.C.m.n.n.n.d.q.*.@.^ H k p 9 - o @ & i k I  ...$.@.@.........{ J k H H k a p p p p k k k p t @.l.s.] ] q.d.d.q.^ d k k k G G g > o X       & / Y.%X=X+XR.I.n.r.^ G a 9 - o   X @ 9 Z I  .@.=.d.l.d.*...] ^ z k g g a i * o X   X o - o o o 8 g I  .....O.O.O.9.0.O.I a > @ = a I O.9.0.9.#.#.#.#.9.t.r.r.r.0.0.0.0.9.#.O.#.#...O.#.O.O.9.9.9...L p ; & * > G | o.g > o ; i I O.*.*.O.L d & o - 9 a z ^ ] ^ k H H ^ | | H G ^  .] J H a i i G L Z ;   . > g g 9 & 9 Z p d G I k > @ k H p > g H G k Z 9 & w f > o i | #.f.b.",
"n.n.n.b.b.r.6.| Z > @ & d G L G > * ; k #.m.R.`.+X+X+X@X@X=X=X=X=X=X.XC.0...] I G i - @ - d G H i i I @.= 8 8 I Z.T.Z.m.d.d.] p * @ & ; & o & 8 8 p k I @.d.T.`.+X=X;X@X+X@XR.b.I ; X X   X - - ; > i p i i I & ..q.d.0.#.#.@...........@.*.q.d.l.D.R.`.+X`.l.*.G * * & o * 8 k ^ ..9.b.Z.Z.Z.T.D.F.T.F.T.T.D.m.m.n.s.0.#. .J k i > ; ; * * * & o o X   X o & & ; 9 d L  .9.r.f.M.f.M.f.| 9 & > 3 & @ & @ - - @ o @ @ .   o ; ; X o o . & d G L L G g i 1 - o o     . o - 3 s d d i 3 o X   X o o X   X o - > 3 i g G L / ..0.s.b.b.b.d.d.b.b.b.d.q.*...] J z a g 3 @ o o * i G J ` ........{ ..@.^ x z z k j a p p a a z k p = 9.n.s.q.] ] *.d. .k > p Z Z Z g d i - X X . . ; L b.=X=X=X`.W.m.s.#.^ k i 9 ; o X X @ 3 k J ..#.0.s.l.s.=...[ ] J H k k g d 8 ; o X X o - - - & X & i H |  ... .O.#.#.9.9.#.^ g * @ @ i H | O.9.#.9.9.9.0.d.d.r.l.b.n.b.d.l.n.n.l.n.m.n.n.n.m.m.m.n.d.#.I i = = t a L i @ @ > Z | *.q.9...L i & & & i d a H ^ H k a J  .^ G z z ~ ] ] J G p > > B L g &   o i g g * 8 a a g a a L L d o 9 G Z ; g H G g d 3 - - d > o - g | e.d.",
"9.e.r.0.6.| G d ; @ @ > g G g i & * d | d.Y.`.OX+X+X@X@X@X=X=X=X@X.XD.d.%.#.#.O.I i - o - d G I a @ a 8 H i @ a l.Z.n.d.q.#.z = * ; ; > > > 8 p a k I | 9.n.Y.OX+X=X=X@X+X+XZ.9.G - . .     o o & & > 8 > i 8 H z.C.C.z.d.d.d.d.s.s.s.d.d.b.m.m.Z.Z.R.+X.XZ.*.k * a G p * @ @ > k ^ #.0.z.C.Z.Z.D.T.T.F.D.D.D.Z.m.n.l.l.d.s.9.#.| L Z g i i i 8 > ; * & ; i g Z G / 6.q.f.b.b.f.b.b.f.O.d @ o & i * o o . o ; 9 9 i 9 > d L G - o o o 3 d g d d 3 ; - @ o X       X @ ; 9 d d g d i 3 o X     X o X X X . o & & & ; 8 i a H ^ | #.9.0.0.0.0.r.r.0.9.*.#...| I J Z d > & @ & 9 d H ^  .....{ { { ` J z z z k a a p G a k k a = ..l.n.n.s.] J  .H p G I H k p p i 9 > > - > > > K f.W.3X=X@X`.T.n.9.O.^ k p i > & X X o 3 Z ~ ..=.s.l.z.l.q.@. .[ J H G k k a i > - o o o - > w i ; & & 8 z I  .O. ...O.#.9.0.*.#.I a ; @ @ ; g I o.#.9.9.r.d.d.r.d.b.n.m.m.m.m.m.Z.D.D.D.D.D.D.D.D.D.Y.m.r. .k 8 & @ * & @ ; i I 9.0.0.#. .I d ; ; & > i a J ^ z p a H / I G z H ^ ] ] J G i > ; d G g & X o i B a * i a g Z a d Z G g & > g Z > 8 g Z d i > & o 3 3 - o & i L o.",
"G G L G B d > &   o ; i d 9 * @ * p ] r.Z.R.`..X+X@X@X@X%X=X=X=X+XT.z.0.*.q.d.r./ i & o & d L | ^ ; H i O.k & i #.b.9.9.O.I p * i G I L Z k H H H ^ ..9.d.m.R.+X@X@X@X@X@X`.d.| d & . o     X X o o & * ; > * r.D.T.F.C.m.Z.Z.Z.C.m.m.m.Z.Z.D.D.D.D.`.+XT.d.H @ *  ...J z p * @ * a J ^ #.s.n.m.D.R.`.R.R.R.T.D.n.l.d.d.b.b.d.s.r.9.O...| | | / H G k G L | O.9.e.r.d.d.b.B.m.m.n.0.I 9 @ & p I | L g 3 @ & 9 B ( L R X.O.| k - o o o % ; - o o X               X o ; s g Z Z Z g s 3 o X       o o o o o o o o @ @ @ & * 8 i d k H ^ | |  .O.O.*.*.#.#.O. .| ^ H Z i > & o & > k H ^ ] [ ' ' ` J x z x z j a a j z H k k = ..z.b.d.q.s.@. .p k a i 8 8 9 p a a g g L / | / / r.].=X3X$XOXR.Z.s.#. .I k p i 3 ; X   . 3 Z ^ $.=.l.z.z.l.q.#. .] ~ H z z k k a i 9 3 > ; > i d g k 9 @ o * p G I ]  ...#.*.0.r.d.r.#.^ g ; @ @ @ d k I o.9.r.l.b.n.n.m.B.Z.B.Z.D.D.Y.T.T.W.R.R.T.R.W.R.Q.D.b.#.z t * i d i ; i | r.r.9...| I g > - @ ; i a I ^ k i d G J H k k H ^ ] ^ H k i ; ; 9 g s - . & d Z p > i g Z G Z d d g Z > ; i Z 9 > g B d i 1 - o 3 s s - X o ; d ",
"o o o o o o o o ; 9 i 9 * @ @ * k | r.Z.Q.Q.`.`.+X+X@X@X=X=X=X@XR.n.q.0.q.n.n.r.L > o . @ d G I H > k k | G & * L 9. .^ I k 8 = d  .d.q...^ ^ ^  .@.q.d.m.Z.`.+X@X+X+X+X`.C.#.G 3 @ o o X       . o o o ; & I Z.D.T.F.Z.Z.D.D.D.D.Z.Z.Z.Z.D.D.Z.Z.R.`.R.n.~ 8 8 x q.*. ...^ k = @ & = p H ^ #.q.d.m.D.T.T.T.D.m.n.l.d.s.d.d.d.d.d.q.r.r.r.d.r.q.6.O.O.6.0.e.r.b.M.M.b.f.n.B.m.d. .a @ o 8 H 6.M.r.O.I g ; @ - ; ; 1 s B d ; * ; 3 1 o     X X                 X o ; 4 d Z G G k a i > o X     + o O - - - - - - * & & & & * * * ; 8 i a k G L I |  ...O... . . .^ L g i - o @ * d k H I ^ ^ ~ ~ H x H x k a a a k k H k * ~ n.z.n.q.d.d.J = ^ k k a k H ^ ^ | ..o.O.r.B.I.N.M.W.%X1X=X+X`.W.m.0.#. .~ z d i 3 - X   X ; Z ^ $.=.d.l.l.d.q.%...] ^ J H z k k k k g g a a g g G G G G i o X & i d G J  .O.#.*.0.0.l.l.r.9...J 9 @ o o & i G | 9.d.b.n.m.B.Z.Z.Y.Y.D.T.W.R.R.Q.R.R.`.W.R.R.D.Z.d.] a p z I G 9 d | #.*.*.#.o.I g > o - ; > d I ^ k i k G H H k a H J ^ I G g 9 ; - 3 s 9 - o * g Z 8 > i g Z H G k d d g 9 & 9 g i - i d 3 1 > - $ X ; s i 3 - o . ",
"> ; - - ; 3 3 3 i 9 ; @ o @ i G  .0.B.Q..XOXOXOX.X+X$X$X@X=X$X`.m.q.0.d.m.D.n.O.g - . . @ i g G * & & i Z L * o > ^ L G g p > 8 k #.C.Z.d.#.#.#.9.q.z.C.F.R.`.XX`..X.X`.Z.0.I d ; & o O o       X o X o @ i n.D.T.T.T.F.D.D.F.T.D.D.Z.Z.Z.Z.Z.Z.D.T.T.D.#.8 * ^ @.s.=.#.#. .[ H t = @ & > d J  ...*.q.d.n.Z.Z.m.l.d.d.d.d.d.f.b.d.q.r.d.d.d.d.0.9.#.#.0.r.r.r.b.b.B.Z.Z.m.d. .z = & = k #.d.f.f.9./ Z i - . X   . o - & o ; d Z i 3 %     X                   X ; 4 d B G G k k p i ; o X     + o O - < ; > 3 9 9 9 8 > > > ; ; ; ; ; ; > 9 i i a k H I | | ..O.| I G g i - & & 9 d k G J ~ ~ c H x x k k a j k H k z 8 z n.d.z.s.r.s.@.p H k 9 p ~ @.O. .O...^ @.9.m.Q.$XOX`.OX=X3X%XOXQ.T.n.0.#...^ G d d 3 - o   X > Z ^ $.=.s.j.l.l.s.=.$. .^ ^ H z k k z z H H I I I J H H H L G 9 o X o - 9 i G ] ..*.9.0.d.d.d.d.d.d.6./ 9 = @ @ @ 8 k I | 0.b.n.C.T.R.W.T.R.`.`.`.`.`.`.`.T.R.T.n.d.#.H h > > d g 9 > i g H ]  . .I d > o # @ @ i I ^ k 9 k H H L G k J J I J G g i ; ; ; 9 9 - o ; Z g > 8 d g k G L G Z i i 9 & 9 g 9 & ; 1 > ; 2 2 - X X O 3 s s 9 3 ",
"s i 9 9 9 9 3 ; @ o o & 8 k ] #.r.m.Q.+X@X@X$X+X`..X+X+X@X@X].Y.b.9.q.m.D.T.l./ i @ . o - 3 i i - d & ; g G * & @ d k g p p ; 8 I 9.Z.T.Z.n.l.l.n.m.Z.T.`.`.`.`.`.`.`.Z.q.] a 8 - - - # o X   X X     o o O.W.T.R.R.T.D.Z.C.Z.T.T.D.D.Z.Z.Z.Z.Z.D.D.D.q.a = H $.q.=.=.0.%.#.*...] H p * @ 9 H ~ ] ] ] [ ..0.d.d.q.s.d.d.n.f.d.d.d.r.r.r.r.r.q.9.#.O.#.0.d.l.b.n.M.M.r.#.I a 8 * 8 H #.d.m.m.r.O.I g 3 & o . . X @ o . & 3 g G g > o     X +                 X $ 3 d D G G H z k a 9 - o X       + O O - - - 3 > i i i p d d i i 9 > & & & & & & * > i p g G J I I H G Z d > @ o & > i a z H x x z z k j a a k z J z t k z.l.l.d.r.0.@.= H H 8 a  .#.#.@....... ...6.m.`.%X=X@X@X3X3X@XOXW.Y.b.0.#...^ G a d i ; o   . > Z ^ $.q.j.j.l.l.s.=.#. .[ ^ ~ x k k z H ^ ]  .[ ] ^ ^ ^ ^ J L G 3 o X o * - 3 a L | #.0.r.r.d.d.d.b.d.q.#.| H a 8 * & * 8 a J ^ ..0.d.b.m.Z.D.T.T.F.T.T.Z.m.n.q. .~ z t = * * i Z d > o @ * i g Z g 9 - . o X o 9 G k ; ; d Z H L H H I J I I G Z i ; - - 1 3 ; o > Z d ; i d g k Z H G G d 9 > @ i g 9 - & - - % % % o % X   X O - 1 s ",
"X X X X . . X X @ - 9 k ^ ..0.s.b.Z.Q.OX$X@X@X+X.X+X+X+X@X@XW.m.d.0.d.D.Y.Z.0.Z > . . o @ ; ; > g L i $ > d & > > 3 d d 9 i ; 9 I *.m.D.D.Z.Z.m.F.T.R._.`..X`.`.`.R.Z.s.[ k 8 * & - - - O o X X X   X - G B.W.R.R.T.F.Z.C.n.C.Z.F.F.F.D.D.Z.Z.Z.Z.Z.d.z * k #...%.@.%.%.=.s.s.q.q.#.^ i @ 9 I  .....] J J ~ ^ ^  ...*.q.s.s.s.s.s.q.s.d.s.d.d.0.*.*.0.q.d.d.d.r.O.^ k t > > a H *.l.Z.m.d.0. .H i & o .     . . o X @ d G G d > & X     X +               X - 3 s B L P J J H z a i ; & o     + + + o o o o - - ; > i p g Z Z G g d i 9 3 ; ; > > > > > > 8 i i a p i i 9 & o X o & ; t a k z k k k j a k k z z z k 8 s.z.s.l.0.d.#.d g 8 * J ~ | ..@.@. .I ^ @...#.C.`.$X=X@X@X3X;X$XOXT.D.l.0.#...] H k d d 1 o X . 3 H ] @.q.s.l.l.l.s.=.#. .[ ] ^ H x x H ^ [ ..$... .] ] ] ] I L L g ; o X o o - > i g L | #.0.s.d.d.s.s.s.f.f.q.6...I k p 8 > > 8 i d z J | ..#.#.#.9.*.*.#...^ H j p t 8 & i z | 6.O.| G > * & * 9 i 9 1 # o . @ 9 i ; @ @ > d G G H J J J ^ I G k 9 - @ @ - 3 3 & 3 Z i ; i p g Z k G H L Z i > @ 9 g i ; o X o                         ",
"X . o o # - 4 s g Z L I / | ..*.l.m.W.Q..X+X@X@X+X@X$XOX@X@XW.b.s.0.n.T.Y.b.O.i -     . o - ; > R B i o X i > > d ; 9 i 9 9 @ i G *.Z.T.T.R.R.R.R._.`.`.`.`.`.`.`.Y.d. .k t = & & - ; - - o X X   . . 3 f.Q.Q.Q.R.T.D.D.Z.m.m.Z.D.F.T.T.D.Z.Z.Z.m.n.^ = t ^ ..#.~ [ @.[ #.d.s.n.d.*. .k * 8 ^ 0.n.z.d.#.] J z k p k H ^ ..@.6.9.*.*.q.s.d.d.q.*.@.#.#.@.O.] H a 8 & * t H ..d.Z.Z.m.n.r.#.| g > o . X .     . . o 9 K L G g 9 o   X o o                 X o > d g G P G H J J H k i > - o . X o   X X X o o o @ o & ; 9 d Z G L G G Z Z Z g g g d d 9 > > > > > > * * ; & o . . o @ * 8 p j j j j j j k k z z z k = ..d.d.d.q.q...* g d H | ^ J ^ | .. .^ ^ | | ..#.C.`.OX+X$X%X=X=X+XOXW.Y.l.0.#...] J z a i > o X o 9 H ] #.q.s.l.l.l.d.q.#...] ^ ^ H H H ^  ...@.#.@...[ ^ ^ J ^ ^ L Z d ;     X o - & ; i g /  .#.0.q.s.d.l.s.d.d.f.b.f.r.9...J k k a 8 8 p i p a k k z k k k k p p p y t y k ] #.l.Z.Z.B.r.o.G > * 9 g Z N 0 1 o & ; & @ * @ & 9 a a G J H I ^ I G g 9 @ o o # 3 9 - 9 Z i * i i g G k H H L G d > o 9 d d 3 o   X     X X             X X ",
"      X o O ; > 3 i g G G L | O.q.b.Z.W.Q.`..X.X`.+X@XOX@X].N.n.q.l.C.T.m.9.G 3 .     X - & ; g L B i &   & @ i Z @ 9 8 8 8 > 8 H $.n.D.T.R.`.`.`.`..X.X.X`.`.R.D.r. .z i > * & - & - ; - o . X o   ; O.Y.Q.W.Q.R.W.T.D.m.m.m.Z.Y.D.D.D.Y.Z.C.m.m.@.8 8 ^  .[ J p G I  .%.s.z.x.s.%.` k * ; L e.n.Z.Z.m.d.*.^ k a p t t p a k G H I ^ I I I L G k g p i 8 > ; = 8 H #.l.Z.D.Z.m.b.d.9.| G s - o X X X X X X o ; B L R L d > @ o X o o X   +             o > i a G G H I I I I H G d 8 ; & & @ @ o @ & & & @ @ @ & & & ; 9 s g Z g g Z G G G G G H G G G k a i 8 > > = > ; ; ; ; & ; 8 8 a a j k a k k k z x x z 8  .n.b.d.9.r.O.a a i a | #. .I I ^ | | ^ I ^ | ..#.z._.+X+X$X@X3X=X$X`.Q.Y.n.0.9.O.| J G g d 3 -   @ i G  .=.s.s.l.l.l.l.d.#.] [ ^ J H J ^  .$.#.@.....[ ^ I ^ J J J ~ I G p > X   X o - - - ; 9 d L  .9.0.0.0.d.s.s.d.l.n.m.m.D.Z.n.r.9.#. .I k k g g a a a z a a z z G J  .#.d.z.B.T.R.R.D.m.l.#.I d 3 i L X.| I G G G > o & o > a z z G G G L I I G s - o o X @ 9 i > 9 i 8 > i a k G G H I J J g ; @ ; i d 3 ; @ o o o @ o @ o o X X X     ",
". X             o o ; 9 i g L R O.9.d.n.B.D.W.R.`.`.OX`.#XW.f.f.s.n.C.m.r./ s @ X     X - - ; g Z d 9 &   & @ d G & 8 8 t 8 > 8 k ] s.C.T.R.`.`.`.`.`..X`.`.T.m.0...G p 8 > ; - - ; ; ; - o o o   & H M.Q.Q.W.Q.W.T.T.D.B.m.B.D.D.D.D.D.Z.m.m.C.9.k 8 x  . .z i & > a I ..=.s.s.-.@.[ z = & g O.b.Z.T.Z.Z.n.0...H z a p 8 8 8 > > 9 9 9 > ; @ o @ @ & ; i g I  .l.m.Z.F.Z.C.l.r.#.| L d 4 - o X X X X X o & d L ) R G i - o o o o O O X     + +     X o > i g z H H I I ^ I I I G a i 8 > > > > 8 9 i i i i i 9 > ; & & ; ; > > > 9 i p p d g k G G G H H G k k k k k k g a d d i p p p a a a j k z j k z z H = J d.d.f.f.9.9.a p a k ^ 9.*.| I I H H J I I ^ ]  .#.n.`.+XOX@X=X=X=X+X`.R.Z.b.q.9.O. .I G Z g 9 -   @ i G ..=.s.s.l.l.l.l.d.*. . .] ^ J ~ ] ..#.*.@. .` J H H H H H J ^ ^ J k a ; o   X o & - - - ; i g L | #.*.0.=.0.q.d.n.B.D.D.T.R.Q.Q.R.Z.n.n.l.d.q.9.#...O.%.=.q.s.z.m.F.R.Q..X.X.X.XR.Z.m.s.#.^ k 9 - - > Z H | #.o.p o o 8 G ^ I G G G G g g d 9 & o . o . & d i d 9 p > 8 d g k G H H I I J Z 9 @ @ 9 g d i > & @ & - - & & & & - - o o ",
"- - - - o o X X     . o & > s B I  .#.0.r.b.m.D.T.T.R.W.W.Z.q.q.q.d.b.e./ g - X     X o & : > d s 9 ; @   ; > k I ; > i i 8 > 8 a H #.z.Z.T._.`.`._.R.R.T.Z.b.0.^ G p i > > > > - > 3 ; - & @ o o k s.R.`.R.R.R.R.R.R.T.Z.C.Z.Y.D.T.D.C.m.Z.m.d.H = G O.| k * o . o > z [ @.%.=.%.@. .J t & i / d.C.T.T.Y.Z.z.d.*.$.] J k p 8 = > * * & & & & & ; i G ^ O.9.M.Z.F.D.Z.Z.n.d.9.o.I G i - X     X o o o - e G R X.R G 9 & o o o @ O o X             . - 3 d Z H J I I ^ ^ ^ ^ I I H k a a a a g k G G G H H H G G g d 9 > ; ; & & & ; > > ; > 8 i i p a g g k Z G H H H H H G G Z a k k a a k j z z k z H k J t p s.s.n.f.#.9.k d > k ^ O.#. .|  .H G z G H H I ]  .#.m.`.+X+X*X=X=X@X+X`.W.Z.f.q.0.#. .^ G G g 9 -   @ i H ..=.s.s.l.l.l.l.d.*... . .] ^ ^  .#.=.*.$.] J z k a g k G H ~ ^ ^ J H g > o X X o o - - @ - ; 9 g L | ....#.9.q.l.n.B.Y.W.R.R.`.OX$X$X+X.X`..X`.`.`.`.`.`..X.X.XXX+X+X@X@X@X+X`.T.m.l.9...L d > o X X   & 9 i i ; @ & ; i g i > : : - ; - @ o . o @ - & - B i Z 9 d * i a k G H I I ~ ^ ^ L g ; o ; g g d 9 ; * ; ; ; ; ; ; > 1 1 : ; ",
"; 1 < > > > - - o o o . o @ ; i G L | ..#.0.d.l.m.m.Z.Y.Y.b.9.9.6.9.6.R d ; o     X o ; & 1 - 9 3 ; & @ o 9 p H ^ 8 * i p 8 > 8 p k ^ 9.l.m.D.T.T.D.Z.m.l.q.O.^ Z d i 8 3 > > > > > > > > - @ o p #.Y.`.R.R.R.R.R.R.R.R.T.Z.Z.Y.D.T.D.n.m.Z.d.^ 8 i ..#.a & o o o @ > g ^ [ ..@.{ [  .] a & > L 0.m.Y.D.Z.m.z.d.z.d.q.*.O.| I H k a d d d a G I O.0.n.Z.Y.Y.Y.W.C.m.n.d.9.o.H g i > & o X X o o o - 9 B R O.| L g > o o & - - - o X     . X     . - 9 g G J I I I I ^ ] ] ^ ^ ^ I H G G H L I I ^ ^ / | | | | | / I G B d s i 9 9 9 9 > ; ; ; > > > > > > > i i a a a a a a d d a k k k k z z x H k H H H k 8 #.n.s.d.q.#.k k a a ] #.O. .O.O. .H G k a a p k I ..#.n.R..X+X*X=X=X%X+X`.Y.m.b.r.0.9.O.^ G z g i -   @ d H  .=.s.s.d.l.l.d.q.*... . . . . ...#.q.*...^ H a i i i d a G J ~ J H H G g 9 - .   . o - - - - - 3 i d G I | O.#.0.d.n.m.D.T.R.Q..XOXOX@X@X@X=X=X=X=X=X;X;X=X=X=X=X=X@X%X@X@X+X`.T.m.d...L d > @ o o o o & @ o - g G Z - @ o X X X X   X     . o ; 9 d 3 ; d 9 B > 9 ; p g G G I ^ ^ ^ | | / G 9 @ & 9 d d i > ; ; ; - > > 1 3 3 3 1 : ",
"; 3 3 > 3 i 9 > > ; - @ o o o - i g G I ] ..*.0.d.l.n.B.m.r.O.o.| | L s - X     X O - 4 o > o - @ o o o @ 9 g I ^ i @ 8 i 9 > 9 p p Z / #.0.s.d.l.d.q.#. .^ H k d i 9 3 > > > > > > > 9 > - ; 3 #.m.`.Q.T.R._.T.R.T.T.T.Y.Y.Z.Z.Z.D.D.Z.m.d.] t > | #.L ; o & & o @ > a H ~ ~ ~ ` ` ] ] k & ; G #.b.Z.Z.m.n.l.z.n.z.l.d.d.q.9.#.*.9.9.0.9.9.r.b.m.Z.Y.Y.Y.Z.Z.m.n.d.0.o.I Z 9 ; - o X X o o o o ; B | O.O.| G i - o o & ; ; # o o X   X X   X X ; i g G L I ^ ^ ^ ^ ^ ] ] ] | | | ^ ^ ^ | | |  . . . .O.O.#.#.O.O. .| ^ I L L L H G G k g a p p i i > = = > > > > > 8 > > > > 8 d G H x z x z z z J J H H * ..l.r.d.9.9.I H p p O.O.o.| o.O.^ a i 8 > 8 8 8 d G ^ ..l.T.`..X+X@X=X=X$XQ.Z.m.b.d.r.0.O.] G z g i - X & d H [ =.s.d.d.l.d.d.q.%...]  . .....#.*.0.#.[ J k i > ; - > 9 d G H J H H G G Z d ; .   X o o # - - - - - 3 i g G I ..9.d.M.m.I.T.R.`.`.OXOXOX$X@X=X=X=X=X=X=X=X3X;X;X=X=X@X@X+X`.T.m.s.#.I g 3 - o X   X @ @ o - s R L s ; o   X X X           o ; i g Z g > > 9 d ; > 9 g G H H ^ | | |  . .| I d > & @ 9 9 i 9 > > > ; > 3 3 3 3 3 > ; ",
"> 9 i i i d d i 9 3 3 ; @ o . o * > i g G I |  .*.0.q.l.r...^ G d i > o       X o < < s o 1 o X       . @ 9 k H ^ a o > i 9 9 9 i p a H ~ ^  ..... .^ J Z k d p i 9 3 > > ; ; ; > ; > 9 ; - d / n.T.Q.T.T.R.R.D.F.Z.Z.D.T.I.Z.Z.C.m.C.Z.d.^ p 8 G 0.| 9 & @ - o . & t a z x l j ~ ~ ` ^ k & & g O.d.Z.Z.n.l.l.n.n.z.l.l.l.l.d.d.d.d.d.d.r.r.b.m.B.Z.Z.B.m.m.b.d.6.o.I g i > ; - @ o X     o > s / O.9.O.I g > o o & ; ; ; # o o X X o X     o > d k H I ^ ] ] ^ ^ ] ] |  . . . . . . . ... . ... ...O.O.6.9.9.9.#.O.O.O.O.o.o.O... . . . .| | ^ I H G z k g a i p i t t > ; * * p G J H H H x H H ] J z = H l.q.s.q.#.| p k p ^ O.| | o.| I g 8 p d g G H G a i z ] l.R.Q.R..X@X=X=X$XQ.D.m.n.d.d.q.*. .J z B i - X & g H [ #.s.d.l.l.l.d.q.*.#.] [  ...#.#.#.#...^ z a 9 ; @ o @ - 9 d Z H H H G G G Z d 3 o     X o o # - - - - ; > 9 d G / O.r.d.n.m.C.Y.Q.`.`.`.OX$X%X=X=X=X=X=X=X=X=X=X@XXXXX.XR.D.m.d.#./ G s - o . X   X $ . & g R ( D 4 o X   o .           . @ 9 g L L G i & > 3 ; ; s G ^ | ]  . . . . . .| I G d ; o - > 9 9 3 > > ; > > > > 3 > > > ",
"> > 9 i i d d i 9 3 3 > - o X   o @ * > i g G J ] |  .O. .G a > & o .       X O < 3 - s o i o       . o & 8 k J ^ k o * 9 3 9 3 9 p d k k H H H H H G k d p p i 9 9 9 3 > ; ; > ; > > > > i | f.Z.D.T.T.T.T.F.D.Z.Z.Z.Z.Z.Z.C.m.C.n.b.q.] p t k  ...a o o # o . @ t z x z z l j J ~ ~ J k & @ p | q.m.m.z.d.d.z.n.n.l.l.l.n.n.n.m.n.l.r.d.b.m.Z.m.m.m.n.b.d.9.o./ G d 3 ; @ @ o     X o - d R 4.9.O./ Z i > & o & ; > ; - # O o X X X X X o > d G J ^ ] ]  . .] ] [  . . . . . ... ...O.O.O.O.O. ...O.O.O.#.#.#.*.#.O.#.9.9.6.6.#.#.*.9.9.9.9.9.#.#.O.O.O. .| ^ ] ^ I H k i > & p H J H H J J ~ ^ ^ H a 8 s.d.q.q.6. .k H @  .O.| ^ | o.H a a k | |  .o.| I k i p G 0.W.Q.W.`.@X=X=X$XQ.Y.Z.m.l.r.q.9...I G Z d ; X @ a J [ @.q.s.s.d.d.d.q.=.*. . . ...#.#.#...] J a i ; # o . . o - 3 d k z z k Z k G G g 3 @       . o # - - - - - & - 3 d Z I  .0.f.n.m.C.Z.R.Q.`.`.`..X.X.X.X.X.X+X+X+XXX.XR.F.Z.n.d.*. .J d > o . . . o o o $ i L R L N 1   X o o X           o > g L ]  .I g * & - - # 4 L  .#.#.#.#.#.#.#.#...| I G i & o # ; > ; ; ; ; ; ; ; > > > > > ",
"9 i i i d a d i i 9 > ; - o X X   X . o - i d g G L L I G p 8 o o . X X     o < 4 4 - e o g o   . o @ @ ; 8 G ^ ] z o * > 3 0 3 9 d k k k k k k k k a a p p i 9 9 9 9 3 > ; ; > > > > 9 d I t.Y.Z.Z.T.T.T.D.D.T.D.Z.Z.Z.Z.m.m.m.C.n.0.^ p 8 a ^ | k > . X o   @ > z ^ ~ x z l j x J J H a & o i J *.n.n.l.d.d.n.n.l.l.l.l.n.m.m.n.n.d.r.d.n.n.l.n.b.d.9.#. .I k i 3 - - - o .   X X o s L O.O.O.I L d ; o o - i i 3 ; & - - O X X X   X & i g G J ]  . . .....[  .[  . . . . . . . ...O.O.O.O.O. ...O.O.O.O.O.#.9.#.#.#.9.9.6.6.#.9.9.0.0.0.r.r.r.r.0.0.q.q.q.0.q.0.#...| G 9 & k I ^ J J ~ ^ ^ ] ^ k 8 @.q.s.q.#.#.H k a H  ./ / ^ | G 8 > a G a k g d d k H H i a  .B.Q.W.Q.+X%X%X$XQ.E.Y.m.l.q.0.9.O.I H G d >   @ d J [ @.-.s.s.s.s.s.q.0.=... .[ ..#.#.@. .^ H p 8 - # o . . . o - 3 i a a k k k Z G Z d 9 o .     X o o o O o o o o - > 3 d g L | #.0.d.m.n.m.Z.D.D.R.R.R.`.R.R.R.R.T.D.Z.m.z.s.=.@.| H g > & o o o o O o & f | O.R G i o X O % X   X X     X - i G ^  ...[ G > o o o o ; L O.0.0.0.0.0.0.q.9.#...| G i >   o - ; - - ; ; ; > > > > 8 9 i ",
"i i i p a a p i 9 3 > 1 ; - o X       X X o ; 4 i g B d 9 i i > 9 - X   X - 2 4 3 ; o ; & B - o @ @ @ & & > g I J z & o 9 9 3 9 9 d k k Z k k k k d p p p p p 9 9 9 9 9 9 > > > > 8 > i ^ l.Z.m.Z.Z.Z.Z.D.F.T.D.Z.Z.C.C.C.m.n.n.M.9.^ p * t J  .J 8 o   .   - 3 k ^ ] ~ ~ c j j x x G k a ; o 9 L #.d.d.d.q.d.l.l.d.d.n.n.n.n.m.n.l.r.q.r.d.d.d.d.0.O. .I k p i > - - o .     X @ s L X.O.O.| I G 8 o o ; 9 i 9 9 3 - - - o o o X X o ; i G J `  . ...$..... . . . . . . ....... ...O.O.O... . .| |  . ...O.O.#.#.#.#.#.#.#.*.*.9.9.9.9.q.s.s.s.q.r.s.s.s.d.n.m.m.r.d.r.O.H > = k J ~ ~ ^ ^ ^ ] ^ [ = ~ d.q.q.q.#.H G k i | |  .^ I G p g G 8 > * * * ; > p G H a 8 G d.Y.D.R.+X%X=X@X`.W.T.B.l.r.r.9. .| I B d - . @ a J ^ @.-.q.s.l.l.q.0.0.0.#... . .@.#... .J z i ; - # O . + X X o @ ; 8 i a a p a k G k g i - X   X o o . O O o o o o @ & > 9 p k H ^  .@.0.q.s.d.l.n.C.Z.Z.C.C.m.n.z.l.s.q.9.@. .^ H g i & o . o # O O O i | 9.+.P f * o o o O X     X X   . ; d L  ..... .I i o X o o o d | r.d.d.b.l.d.d.d.q.#.| H d 9 @     - ; ; ; ; > > > > > > > 9 ",
"i p p p p p i i i 9 3 3 1 - o . X X         X . @ o o . . - i i 1 o o o - ; < 1 O o X - - G i & ; - - & & > p z J k o @ 9 > i 9 p d k k k k k k k k d p p p p 9 9 9 9 9 9 9 9 i 8 8 a  .d.B.D.D.C.Z.Z.Z.D.D.D.D.Z.C.m.m.m.n.b.d.6.L p ; 8 H ] J t @ . . - ; d G I .. .^ ` J j j x x z k d ; o > G ..0.q.q.q.s.d.d.d.d.l.n.n.n.n.0.0.0.0.r.r.0.*. .^ G g p i > > & o . X   o ; s L R E | | ) G i & & * 8 i p i i 3 ; ; - - o o X X o 3 g G I  .....@.%.#.#....... . .........O.O.O.O.O.O.O. . . .|  . . . .O.O.O.O.O.#.#.#.*.*.9.9.9.9.0.q.q.s.s.s.d.d.f.b.n.n.m.b.b.l.q.O.a = i I I J ^ ^ ] ] ] ] = a 0.d.q.q.$. .* ^ 8 ^ #.~ ^ | H ; d G p p i i i i i i i i i ^ a p | m.W.R.`.$X%X@X`.W.T.Z.b.r.t.O.] ^ I G d ; . @ a H ^ @.&.0.q.s.s.q.0.=.=.#...[  .@.#. .^ J k i > - # o . +   X X o & ; > t t i i a a g g d 3 - o     X X X o o o X o o o @ - > 9 p k H I ^ ^ [  ...$.#.=.q.q.q.=.=.%.#...^ ^ ~ H G k i > & . . # - o ; s +.9.*.| G > o X o & o X     X X   o 3 B | ..%.*.#.] a & o o o o & a O.r.b.b.n.m.n.l.r.9...I g 9 @     @ ; > > > > > > 3 8 i i i ",
"p p a a p p p i i 9 3 > ; - o X X X + X                   - 9 9 1 o o o - % o o X   X * > G k * ; ; - & ; > i a G p . & 9 > g 9 d g k k k k k k k k k a a a p 9 i 9 9 9 9 8 8 i i g  .b.T.Y.Z.D.m.Z.Z.D.D.D.D.D.m.m.n.b.M.f.e.O.L 9 & 8 G ^ L d @ X o * d d G | ..#.$.[ ' ~ k k k k k a d > o ; g ^ @.#.0.d.d.d.d.d.d.d.n.n.b.d.#.*.#.*.*.O.| ^ H g i i 9 > ; ; o o . o ; s K E o.X.| R L d ; o & = p k g p i i - - - - o o X X & 3 B I |  .O.*.%.%.*.*.#...O.O.............O.O.O.O. . . . . . .o. . . . . ...O...O.O.#.#.*.9.9.9.9.9.9.9.q.s.s.r.d.f.n.n.n.n.n.d.n.r.9. .t = z ^ J ~ ^ ]  . . .H t ..s.q.*.0.#.p J 8 ^ .. .^ ^ H i p k i i k k g a d a a d i > g G p a 9.Y.W.Q.OX@X$X`.R.R.Y.n.r.9.| L L I L d ; . @ d H ^ ..@.%.=.0.0.0.=.*.#.#... ...#.#. .J H k i > - o . X +         X o & * ; > > 9 i i d g g i - o     X . . o o X X . . o @ * > i p g k z G H J J I ^ ` [ [ ] ` ` ^ J H H H G k k d 9 - o o @ - @ - Z O.r.9...J d & o & & - o o X X X X X & d L | #.*.=.*. .G 8 o o o o o & i ^ e.b.n.n.m.n.r.9.O.| G i - X   o ; 3 9 3 9 3 3 9 i i i i ",
"a k k k a a p i 9 3 3 ; ; - o X X . o O O o . X   X . o o - > - 3 o   X X       X o o : > g G > & ; ; ; ; > 9 i d ; . ; 9 9 g d Z Z Z H H k k k k k k k d d d p i i i i i 8 i i H #.n.Y.Y.Y.D.Z.B.B.Z.Z.D.D.D.B.m.n.b.r.e.9.| G 9 & ; B L Z i > o o * a G G I ..*.=.@.[ ' ~ k j a a a p d > o & d ~ ..@.9.d.d.s.s.d.d.d.d.d.q.#. . .| ^ I H k a p i 9 > > & @ o o @ ; d K E X.( R L L g > & @ & a a k k a i 9 > - - - @ o X o & i Z I |  .O.*.9.0.9.*.*.#.@.O.O................. . . .| |  . . . .| | | | |  . . . .O.O.#.*.9.9.9.9.9.9.9.q.s.d.s.d.f.b.f.d.d.d.d.b.0.#.I > i H J J ^  . ... .~ * ^ q.q.0.#.@.z a G k .. .^  .J 8 p I p ; a G G g a d a g k a d ; Z g 9 H d.Y.Q..X$X+XQ.Q.Q.Y.n.e.o.L g d G L g ; . @ d H ~ { @.@.@.#.#.*.*.#.#.$...[ [ ..@. .J z k i > - o . X             X o o & - - - > 3 i g g g 3 & X   X o o o o X X   X X o @ & ; 9 i d g k z z z x H H H H J H H H z z k k k a p 9 & o X o @ @ > G 6.M.r.*.I d * o $ > - & o X X X X X o > B I ..#.*.*.*.#./ g & . o ; - & @ ; Z #.d.d.C.m.b.r.9.O.I g 1 o   o ; 9 i 3 3 3 > 3 i i i i ",
"k Z Z Z k d p i 9 9 3 ; ; - o o X X o o o o + + X X X X X o > 3 3 o         X o o & ; > t a J a * > > > > ; ; ; 9 @ @ > 9 d g g Z G H H H G z z z z Z k k a d p i i i i i d G ^ 0.m.Q.W.Y.W.W.Y.B.m.m.m.Z.D.m.b.b.r.9.O.| I g 9 & ; d B g > o o . & i I ^ ] ..=.0.=.@...` J k j a p p i i > o @ i J | ..#.9.9.9.9.9.9.9.9.#.| I G G k g g a p i 9 9 > ; & @ @ @ > i G ( o.X.R L K B 9 ; o o > a k k k k d 9 > & ; - & o X o > d J ] ..#.#.*.0.0.q.0.9.*.#.O.O.O.O.O... . . . . . . .|  . . . . .| | | | | | |  . .o.O.O.#.#.*.*.*.#.#.*.0.q.d.d.d.d.d.d.d.s.d.d.d.r.*. .p * k I ^ ^ ]  .....~ a a #.0.0.*.*.] a ^ 8 O. .^  . .p 8 L i 9 g Z G Z g g d d d g Z Z d g i > i | N.E..X+XOXQ.R.W.Z.f.O.I d > ; i B B ; X @ d J ^ [ { [ [ [ ....$....... .] ^  . .^ H k j p 8 - o . X                 X o o o o $ - > 3 i s i 1 o X   o # - - o . . . X . o o & ; > 8 p p a a g k z z z x G z z z z k a p i i > - o . . o & 9 ^ q.b.d.9.o.G ; o o - ; - & o X X X X X & i L  .#.*.=.=.q.0.@.I i o o o > 9 > @ @ i | r.n.m.n.d.9.O.I Z 3 o X X & 1 9 3 > > > > 9 i d d ",
"d k k k a d p i 9 3 > ; - - O o o o o O O O o o X X X     o 3 s i - o X o o & - - > > t i a J J 8 8 > 8 9 > ; ; ; o 9 i i a d g k k Z G k k k k z z Z k a a d p i i i i a L #.d.Z.Y.W.W.W.W.W.Y.Z.B.m.m.B.m.b.0.#.| I Z g i ; & & d B i - o o X o 8 z ] [ @.%.q.q.=.@.{ ~ x k a p 8 i i 3 ; o o 9 G ^ /  . . . . . . .^ ^ J k p i i i i i i 9 9 > ; & @ @ - 9 d L | #.6.| L Z Z s ; o o * t a z k z k d 9 8 > ; ; - o o o - g L  .$.#.=.0.q.q.0.0.0.*.#.#...O... . . . .| | | | | | | | | | | | | | | | | | | |  . ...O.O.#.#.#.*.#.#.*.0.s.d.s.d.d.d.r.q.0.0.q.t.9.#.I = > H ]  . . . .#. .k 8 #.q.*.#.*...k  .k ~ ^ #.^ ~ k p L 9 > g Z G G d d d d d d g Z Z Z 9 > 9 > d O.B.Q.+X+XQ.Q.E.b.9./ g ; @ o * s B ; X o d J ~ ` ' ` ^ ~ ^ ] [ [ ]  . .] ^ ^ ] ^ H k a i 8 ; @ o X                     X X X X o & - ; > 3 4 ; o X . # 1 3 3 ; & @ @ o o o @ & * ; > 8 8 i i p a a g g a a a g a a i 9 > ; & o o o & > G O.d.n.d.0.O.H 9 o o > 9 ; - @ o o X X X X > a ^ ..*.0.q.q.s.q.#. .G 8 @ X & > i i ; @ 9 J 0.d.b.d.0.#.| G i - o X X - > > 9 3 > > 9 i i i ",
"p d d d d d p 9 3 3 ; - - O o o o o o % % % O o . . o o o - 4 d B d > & - ; > > 3 i i i p k x ] z t 8 9 9 > ; ; @ ; g Z Z Z k z k k k k k k z x x H Z k a a d d a a z J | 9.b.D.T.Y.D.Y.Y.B.m.n.b.b.b.b.r.9...^ G d 3 > - @ @ & > d e & o o . . > g ~ ..@.=.=.-.-.%.$.[ ~ x k p 8 > 9 9 > ; O o > d k H J H H H H G Z k a i 8 > > 8 9 i 9 9 > ; & @ @ - 3 d L / 9.9.*.| H a i 9 @ o @ > d k z k x k k i 8 8 > > - o . o > g L | ..%.-.q.s.s.q.9.9.9.#.#.O.O... .| | | | | | | | | | | | | | | ( | | | | | | | | | |  . .O.O.O.#.#.#.#.*.0.q.q.q.q.q.q.0.*.*.*.9.9.O.] p * a ]  ...@.......z p x ..0.#.#.*.H t ~ k ..O.^  .k 8 H G & g G g Z g g d d d d a g Z G Z i 9 i > ; G 9.T.Q.+XQ.E.m.9.| g 3 @ o @ & ; s 1 . o s H J ^ ~ ^ ~ H H H J J J ] ] ^ J ~ ^ ~ z k a i 8 ; & o X                             X X o o $ - - - o X X o ; 0 s d s 9 3 3 > - - - - - ; ; ; ; ; > 3 8 i i i i i i i i > > ; - & - > i G | r.n.n.d.9.@.J 9 @ & > s s 3 - # o o o . . o i z | O.*.q.s.q.s.s.0.#.| G i ; & o ; i d > * > H  .0.r.r.t.O./ g 4 & X   o ; > i i 9 9 9 9 9 i ",
"k k a a a d i 8 3 > ; - - O o o o o o o % O o X o X o o o - i d G g i ; ; > i i i i i t a z j [ ] k t i i > - - @ s K / I H I J H H H k k G H J H H H k k k k k G I  .9.l.m.Z.Y.D.T.T.Z.b.d.r.0.9.0.q.9.O.I g i i - o o . . o - ; - o o o X . - i L  .*.%.j.>.>.%.@.{ ] J z a p > ; > > ; ; @ o @ ; 9 d g g a k a p i i 9 ; & - ; > > > > ; & & & & > d L X.6.e.9.O.^ G d 9 ; o o & 9 a k z z z k a p i i 9 > - - o o - g I | ..#.q.s.s.s.d.d.q.9.9.*.#.#.O.....| | | | | | | | | | | | |  .| | | | |  .| | | | | |  . . .O.O.#.#.#.9.9.9.*.*.*.9.0.0.9.*.#.*.9.#. .G * > ^  ... .#.@.#. .t y #.0.*.@.*.] k ] t  . .| / I k k H @ G g g L g i d d d s d d g Z G L L d ; ; = i I b.T.Q.W.B.r.| z 9 & o & > & @ 3 3 . o i G J ^ ~ ~ J x z z z x H H ~ J H J ~ J z k a i > ; & o X X                                   X X o . X   X . @ 3 d Z Z B G Z B g d i i i 9 3 > > ; ; > > i i 9 > 8 i i 9 9 9 9 i i Z / O.r.N.B.d.s.s.#.^ a & @ 9 d i 9 3 - - # o o o o o a H  .#.=.q.s.s.s.d.d.q.#. .I G 9 & o @ 9 a p 8 @ i I O.9.0.O.I G g > o   X & ; 3 3 3 3 9 9 i p ",
"k k k k a d i 9 > > ; - - - o o $ & - - O o o o o o o & & ; i g k z a > 8 t t t p a a a a j z J  .` y i 8 * > @ > g ^ | ..O...@.| I H I I I I ^ J I I I I ^ |  .9.q.d.n.m.Z.Y.Y.Y.Y.Z.b.9.O.^ H L I L G d w - & . X       X o $ O o o @ o . @ i z ^ #.=.q.q.-.&.{ { ' J z d i 9 - - ; > ; ; > ; > @ - 9 i i i i > t i > - @ o o ; 1 1 - @ & ; > 8 p H ..q.f.t.6.3./ G g > . X o * 8 a z z z k k a d i d i > - - o o & d L ] ..#.#.9.s.d.d.s.q.q.*.*.#.#.@.O. . . . . .| | | | |  . .| | ] ] ] ]  . .|  .| | ] ^ ^ ] |  ...O.#.#.#.6.6.9.*.*.*.*.*.*.#.#.#.#.@.O.| ^ k o G  . .$...$.$...j t ] #.*.#.*. .H ^ p ~ .. .| | a i o.i p k k k g d d i i s d d d a g z G G G i > & @ i | b.I.B.f...G > @ @ @ ; d 9 & @ ; o . ; Z I J J J H x z k a j k k H H z G J H k a p t > ; & o o X                                             X   . o ; 0 B G I ^ | ] ^ ^ I H z G k g a a i i p a p a a a a k k Z Z H ^ ..=.l.m.D.B.N.f.9.6.| k o & i g k d 9 3 ; - o o o X X ; k ^ ..9.s.d.d.d.d.l.l.d.q.9.#...^ H p ; @ @ 8 H p * & d / O.O.o.L L d ; o . X o 1 > 3 > 8 i a h ",
"z z k k a d i 9 9 3 > ; - - - $ o o & & o O O O o o @ * ; > i k H J z p i h a p a a j j a a j x ^ [ I g * o @ @ d L  .#.9.0.q.d.0.9.O.O.O.O.O.O.O.O.#.9.9.r.d.b.m.m.Z.Z.Z.Z.Y.Y.Z.B.b.9.| G g i i i > & o X X X           X o o o - - - o o > a H [ %.0.q.=.=.%.[ ' ~ G g i 3 ; - - - ; > i k a 3 o - 1 3 > i i w w > * o o o O O - - @ @ * 8 p H  .q.d.d.0.#.O.( L s & . . o & i a z z z k j j a d d i 9 > - & o @ 3 g I |  . .#.9.q.q.s.d.d.q.*.*.9.#.@.O.O.O.| | | | | | | |  .| |  . . . . . . . .| | | | ] ^ ] |  . .O.O.#.6.6.6.#.#.#.#.#.#.#.#.#.#.@... .^ S ; > I ..$.#.#. .#.J 8 k #.#.#.$.#.J z ^ p ]  . .^ H 8 I i d k k k g d d i 9 s s d d d a g z k J | k ; ; > ; g O.r.r.6.L i & o & > i g g > o - o . ; Z H H H J G z k k a a j k k k k k z z g a p t > ; & @ o X                                                 . o - 3 d Z G |  .#.*.*.*.%.#... .] ] ^ J J J ^ ^ ^ ^ ^ ]  ...#.q.d.z.A.F.G.G.D.b.e.w.6.| a * & t k z k a i > ; ; o o o X o i H  .#.0.d.l.l.l.d.l.l.n.l.l.d.d.0.#.| H a 8 = > Z k i & ; Z | | R G g d ; .   o & : 3 3 w i a g ",
"G G z k g p i > > > ; - & - - - & & & - - - - - @ @ & ; ; > i k H ~ J k j a j j j j z x z j j z J  ...g & o @ 9 G / O.#.#.9.s.n.m.b.d.d.b.b.b.b.b.n.m.m.Z.Z.Y.T.Y.Y.Y.Z.Z.Z.Z.Z.Y.n.9.| G d > & o * 3 i > & X               X o - 1 ; @ o * a H ] @.q.q.=.%.#.@.{ ` H z a i > - @ @ & & 8 G ~ H 3 & o ; 3 3 3 3 > > - o X X o O O o @ & > p H ] =.l.n.z.r.*. .I Z s &     @ > i k G H H z j a a p a p 9 9 > & o . - i g G I ^ I ^ ......@.0.q.=.s.0.*.#.#.#... . .| | | |  .| |  .| | |  . . .[ ] | | | | | ] ] ] |  . . ...O.O.O.#.#.#.#.#.#.#...$.#.#..... .^ H i o H | #.#.#.*.....a 8  .9.#.#. .#.t ] a ^  . .] ^ t a I ; k G z g d d i 9 3 3 9 i i i d g k k G | I > > 9 o ; B X.X.I d & o & > i 9 i Z d ; o . . - g G z H H z k k k a a a a k a a p a d d i i 8 > ; - @ o X                                         X X X . . o - > 9 d g I  .9.q.d.l.b.n.b.l.l.j.r.q.q.q.d.d.d.d.d.l.m.Z.Y.'.`._.R._.R.D.m.r.O.o./ a * @ 8 z J H k k p ; - ; - o X X - g I ..0.q.l.z.z.n.z.z.n.n.n.n.n.n.l.d.q.*...J p * i k H g ; & 9 Z / I L g 9 ; o     o : 3 i f g k ",
"k k k k g d i i i 9 > > > ; > > - - - ; > 1 1 1 - - * ; > t p a z ~ ^ H k j j x z x x x x x x z G J I G i ; 9 G / O.#.#.#.*.q.n.B.m.m.m.Z.T.T.Y.Y.W.R.R.R.W.W.W.W.W.T.Z.Z.Z.Z.Z.m.r. .G i ; & @ 3 d g B d 1 O X           X o & 1 - @ o * i H ] @.q.d.q.=.#.#.$.{ ~ x g p 9 - @ o o @ ; d I ] J 3 O o - 1 1 1 > > - o o X X o O - & ; d G | 9.l.n.n.l.0.#.O.R G 3 & o o & > i z G z z z k a a a a a p i 8 > & o o & > 8 t i p a a k k H J  .#.#.*.*.#.#.O... . ./ / ^ / | | | | | | ] ] ] ] ] ] | | | | | | ] ] ] | | |  . . . . . ...O...@.#.#........... .^ I k * & ..@.#.@.#.#.@.x 8 H #.O.#...#.z H k k  . . .] G 8 G p g Z Z g d i 9 3 ; ; - ; 3 9 i d d a z k L  .Z ; > @ @ > Z Z d > o @ 3 9 i > > d Z s o     @ d k k z H z k k k k a a a i i i > > i d 9 9 > > ; - o .                               X       X o o o o o @ - - ; > i d k I ..9.r.l.m.Z.D.D.D.T.Y.Y.Y.T.T.R.R.R.R.`..X+X@X-X+X_.G.G.D.m.r.0.o.G i & & 8 j J ~ H z k p * - - - o X X 1 G ^ #.q.d.z.n.n.n.n.n.n.z.l.l.l.l.l.l.d.s.s.9.| k * * d ^ L > @ & > G R L d 9 1 o   X o * > i d g ",
"a g g k g g a d p i i > > ; ; ; - - ; > 9 9 9 3 ; - ; > i p a a z ~ [ ` c l k J J ~ J z z J H z z a > i 9 & g / o.6.6.#.#.#.0.n.m.B.B.Z.E.Q.Q.Q.W.Q.Q.`.`.`.Q.Q.Q.R.W.Y.Z.B.m.n.e.O.L i & @ ; 3 s g B B s > X         + + o O - - o o * i G ] #.0.d.l.q.*.#.#.$.` H a p i > & o o o & p J  .[ J > o . o - ; 1 - ; # . X . . o - ; 9 Z | 6.s.n.C.n.n.r.9.| L B d @ o @ ; i i k H G k k k j a a a h i t i i > * & @ @ & ; * & = t 7 8 8 y p a z J H ^  . .] ^ ]  .| | | | | / / | ^ ^ ^ ] |  .| |  . . .| | ] | | ^ ^ ^ ^ ] | | |  . . ... . . . .....O. . .| I G 9 @ a #.#.#.#.#.#.^ 8 p ..@.| .... .a  .t ] ]  .| ^ > G i 9 G Z g d i 4 > ; # @ @ - ; 3 i i d d g k L #./ ; & 3 @ @ > ; - & . - 9 > > ; & > g B @ .   o i k z z H z k k k k a a i 8 > ; - & - 1 3 > ; ; ; - o .                             X + X X X X o O - - - - ; ; > > 3 i p k I ..9.d.m.Z.Z.T.R.Q.Q.`..X.X+X+X+X+X@X@X@X@X+X+XXXXX_.F.m.l.9.O.G > @ @ 7 z ~ ~ ~ J H k i ; ; ; - o X o s L | *.d.l.n.m.m.m.n.n.n.n.n.n.n.n.n.n.d.d.d.d.q.O.L i * 8 G L g > o & 3 B K Z s 3 o X   X - i d f ",
"d p d a a d d d p i i 9 > > > > > 3 9 9 9 9 > > > ; ; > p a a a z ~ [ { ` x z J J ^ ` ~ J H z p i = . ; > @ g I o.#.#.#.#.@.*.q.n.B.Z.Z.Y.W.Q.W.W.Q.Q.`.`.`.`.Q.Q.R.W.Y.Y.B.b.r.o.L 9 ; - > i i s 9 ; & o o X X     + + + . o o o @ > a H ^ ..q.s.l.d.=.#.#.@...~ z a p i ; @ o o o 9 G  ...[ J 9 @ . o O # - # # .     . o ; 9 d L O.r.n.m.m.n.n.r.9.o.I g > @ @ * 8 8 p g k k z k j a j j j a a y i a p i 8 i 8 > i a a a k H x k a j p 8 8 p p p p a k k g a Z G H H H H L I I ^ ] | | | | ] | | ] ] ^ ^ ^ ^ ] ^ ^ ^ ^ ^ ^ ^ | |  . . . . . ..... .| | ^ G a * = | #.9.9.*.*...a 7 J .. .#. .O.a ] z H ^  .] | z p I > d G Z g s 3 > - o o . o @ ; 3 9 i d d a G G  .o.d & ; @ o o o o o o ; i ; @ @ o @ 9 Z ; o   . 8 k z z z z k k a a a p i > ; & o o o - ; - - - - - O .                             + X X X X X o - - ; ; ; ; > > > > 8 i p k I  .9.l.m.m.D.R.Q.`..X+X$X@X@X@X@X*X@X@X+XXXXX`.`.R.m.r.0.#.L > o @ = a x ` ~ J J H k p 8 > > - o o ; V R O.0.d.n.m.Z.C.Z.m.m.m.C.C.m.m.m.m.n.l.d.d.b.d.q.0.| a ; ; i Z G a > @ & i B B d 4 - X   o - 3 i ",
"9 i i i i d i p g a a a d d d d i i i i > > ; ; ; > 8 i p a g a j c ' } } ` J J J ^ ] ` H a t 8 & 8 p H L g g d /  .O.#.*.#.*.q.n.m.B.n.N.Z.E.E.W.W.Q.Q.Q.Q.Q.Q.Q.Q.W.Y.I.n.e.o.L s - - 9 d i 3 @ & ; ; & o X       X     X o o ; i G I ] ..0.s.s.d.q.%.@.#...^ H z a a i > & @ @ > Z ] ....] H i - o . o O # # . . . o - 3 g L | 0.n.m.m.C.n.d.d.#.| L B 3 o o > i a a a z z k z k a a j k j a a a j z z k z G G G J ^ ] ] [  .@...[ ] ^ H z z g i 8 8 i p 8 * & ; > 8 i p a g G H I ^ ^ I I I ^ ^ I I I ^ ^ ^ ^ ^ I I ^ ^ ^ ^ I ^ ^ ] ] ] |  . .| | I I H g 8 @ k #.#.9.9.9.#.J 8 k O.|  .#.| ^ k ~ G ^ | | ^ I p ^ d d Z B g s 1 - o o . X X X o # ; 3 i d d g k G I 6./ > @ - - o o o o # 1 3 & o o @ o ; Z d ;     > a z x z G z k a a a p i 3 ; & o X X X o o o o O O O +                             + X o o . o o o - ; > > 3 9 i 9 > > 8 9 i k L | 9.r.b.m.T.R.Q..X+X+X@X@X@X@X@X@X+XXX+XXX`.G.C.d.9.O.I 9 @ * 8 a x ! ' ~ ~ c x k a i i > ; o o > K | *.s.l.z.C.Z.C.C.C.C.C.C.C.m.n.n.n.n.l.d.d.d.d.s.9.9.o.G 8 & > d k G g ; o & i B s 4 - o X o - 3 ",
"3 9 9 i i i i p a a a a a a a a a i i 9 > > > 8 > t p a g z z z j v ` @.&.@.` ~ ` ~ H z y * = i H | 9.#.6.6./ Z p Z J | ..O.#.0.l.B.B.b.b.m.Y.E.W.W.W.Q.Q.Q.Q.Q.R.T.Z.B.b.9.I d ; ; > 9 9 > - & 9 d g d 9 : - - X X X     X & ; a H ]  ...*.q.s.s.s.0.@.$.@...~ x k a a i ; & & > g | ......' H d > o .   . O o   . # 3 d Z / #.q.n.Z.m.n.n.n.d.*. .L g > o o 9 p p a k z k k k k k a a j k j a j z H x H I ^ ^ ]  . .] ]  .] ^  . . ...$.#...[ .. .| I H G G G i i i i 8 > ; * 9 p k G L L I I I I I I ^ ^ ^ ] I I J J I I I I ^ ^ ^ ^ ^ ^ ^ ^ ^ ^ I H H G i & @ ^ *.9.9.#.9...8 8 ~ O. .O...| k ~ a I |  .| ^ g p | ; Z G i d 4 - X X X X X X   X o - ; 3 s d d a G ^ 6.o.i & ; > o @ # . - 1 @ @ @ ; > & & i Z 3 . . ; a z H z H z k a a a a 9 > - o X       X     X o o o X                             X X o o o o o o - > 3 3 3 i i i 8 > 8 > 8 p k H | #.0.l.B.D.T.R..X.X+X@X=X@X@X+X+X+X_._.R.C.l.q.O.I i & * a k z ~ { { { ' ~ x k j a i > ; @ o > L | 0.d.l.l.m.C.C.C.C.C.C.C.C.m.n.n.z.l.d.d.d.s.s.d.r.0.9.O.| H i @ > i k G d & o - s s e ; X   X - ",
"@ > d d d d g B g g a a a a a a i i i 8 8 > > > i p a a j k k j l c ' @.&.=...J ~ z y = t z ] ..e.t.r.r.0.9.O.O.I G a a z I ..*.0.f.n.b.b.m.Y.W.W.W.W.Q.W.W.W.Y.B.b.t.#./ B > - - ; 3 > & @ ; i Z | O.| G g i 3 ; o .     o > d H ] #.#.=.q.s.q.q.=.*.#.#...^ x H k k k i = * > k I  . .....` H G 8 & o   o # o # 1 d Z I O.q.l.Z.C.m.n.n.n.r.9.| I g ; o * i g k k k k k k k k p a j k a a k k z x J J ~ ] ] ^  .^ H a a a a p p k x H J [ ....O.*.*.O.| o.O.O. .| ^ I H G i = & * > i g Z G L I ^ / / / / ^ I I I I L H H L J I I I I I I I H G I I G G g ; o a  .9.q.#.#.6.J > k  ... .#...H H ^ a  .| | I I > | i g L d d 3 - o X     . . X X   X o - ; 9 i d p Z / O.6.I ; o @ @ @ - 1 - o o @ 3 s k i o > Z d ; o * p z H z H H z k k a a i i > o X     +               X                               X o o o o o % - - > > 9 i d d i i 8 8 9 9 d Z L I  .#.r.n.Y.W.R..X+X+X+X@X+X+X+X.X_.R.Z.n.s.6.I g o > k H ~ ~ ` { { { ' ! x x k j p i > o . ; K | *.d.z.z.m.D.C.m.m.C.Z.C.C.m.n.l.n.z.l.d.s.d.d.s.r.r.0.9.6.O.| H i * * i G G i & . & 3 0 3 # X   ",
"  o ; 9 d d g d Z g g a a a a a i i i i i t t 8 p a j j k k z z x c ~ } =.=...J 7 7 h H  .9.d.n.l.b.b.d.r.0.9.9.9.O.^ G a i p a L  .9.t.d.n.B.Z.Y.Z.Y.Y.B.B.b.r.O.| H d > @ o . @ o @ @ @ - i G | 9.r.9...] G g 3 - o   X & i G ] ..*.=.=.q.q.0.*.*.#.$...[ ~ x z k k k i 8 t a I [ ....@.$.[ ~ H i & . X o ; 1 9 B L | #.q.z.m.m.C.m.m.n.r.9.O.I k > o & i a g k k z x z k k a a a k j a a k k x x J ` [ ^ H z 8 t t t p k k k y a a p p a k j a k z k k G I | | o.O.O.O...^ G i 8 ; ; > i B G L I ^ ^ ^ ^ I I L L L L H H L I J J I I I I L H I L G Z g ; @ > | @.9.#.9.q.^ 8 d I  .........p  .k | ^ ^  .^ a k Z i g Z g i ; o o o o o - O o . X X o - ; 3 i g d Z ^ O.6./ i o o @ # - ; # o o ; d G ^ k & & g g 3 o & i z H H J J H z k k k p i 9 - .   X O . +                                         X X o o o O - - - ; 3 > 9 i d d d p 9 8 > 9 i g Z G I | O.9.d.n.Z.W.`..X+X+X+X+X.X`.G.D.n.s.6./ d ; @ p J ^ ' ' ' { { ' ` ! x z z k k p t * o & G ..9.s.z.m.C.m.C.F.C.C.C.C.C.m.m.n.z.z.l.d.d.d.s.r.q.0.0.9.9.6.O.| ] z > & & 9 g L i - . . - 1 o X ",
". o o & > d g g g g a a p p a a a a a a a a a a a j k k k z x J ' ~ ~ [ .. .J a z ~ $.s.l.n.n.n.d.d.d.s.q.0.9.9.#.#.#.o.I G k g p g G I I | O.#.9.6.9.9.O. .I G d i ; o .   . o o . . o & 9 G / 9.d.l.q.=.O. .L g e - X . > g I  .@.=.%.%.=.*.#.@.#.#...] ~ H z k k k a p p z J  . ...@.@.$.[ ^ H d & X o ; i d G R O.e.r.n.m.C.m.m.m.n.d.9. .R g > o @ i a k k z z x x x k a p a a a a p a k G J x x H k t 8 y t k ~ [ .... .] H H H k a a a p > 8 8 9 > > d G L ^ O.9.q.q.9.O.^ G i ; ; ; i g G L I I I I I L L L L L H H L I H J L J L L L H L G Z d ; o > H 9.#.q.9.0.@.p * H | | ..#...^ k G G | | | | ^ 9 | 9 g G g d ; o X o - ; 3 3 ; - o X X o o - 1 3 d d Z I  .#.o.L & @ o & - o . . # 9 K | O.^ > @ 9 Z d & @ > k H I I ~ J H z k k a d i - o   + O O o . X                                   X X X o o - - - - - ; 3 3 9 i d g g g p i 9 9 i d g k G H I | #.0.l.B.D.R..X.X.XXX.X_.F.C.d.9.o.Z > . * k ^ ` ' ' { { { ' ` ! v x x x k a p 8 @ o i ^ *.0.d.n.Z.Z.C.Z.Z.m.m.m.m.n.n.n.z.z.l.l.d.d.q.q.0.0.9.*.6.6.#.O.O. ./ G i > & ; d d 3 & . X o - ",
"        o ; i d d g g a d p p a a a a a a a a a j k z z z x J J ~ ` ^ x a t a x #.s.n.n.n.m.m.l.n.d.d.r.0.0.9.9.#.O.O.O.O.| | I ^ I I I I I | O.| | | | ^ L k i i 3 ; @ .     . . . o - 9 Z / O.r.d.d.0.*.*...| G g > X . > g I ] ..$.....@.@.$.@.@...[ ^ H z z k k k a p k J  ... ....... .' ^ J g & . & i g G | O.e.d.b.m.m.m.C.m.n.d.0.O.I Z > o o i G k k x x x x x z k a p p a p a a g k k j p t 8 7 = p H ..*.d.l.d.d.q.0.0.0.#...| ] ^ I G k g i > - ; 9 i z ^ O.9.r.r.q.9. .G i ; & > i Z G L I I I I L I I L L L H H H H J J H H H L G G G d ; o & Z O.9.#.0.s.6.H 8 d J | ^ ..@./ d ..9 | I  .| I a G / > G G g 3 & . . & 3 i d s 9 3 - o X X o - ; 3 i d Z L | O.O.| i & o o o . . @ 3 Z | #.0.O.d @ ; g Z ; @ ; a G J J ^ ^ ~ H x z k g d 3 o   X - - - O o o . X             X X X       X + + X X . o - ; ; - - ; 1 3 3 i d g Z Z Z g d i d d g g Z G H I  .O.9.d.l.Z.T.T.R.`.`.R.D.n.s.#./ d & . 8 H ' ` ` ' { { } { ' ~ x x H H k a a a = @ * t z ..s.n.C.Z.Z.Z.Z.Z.C.Z.Z.C.m.m.n.z.l.l.d.d.q.q.0.9.9.#.#.O.O.O. .O.O.O.| G 9 & @ - 9 d s 3 o   ",
"- o .     . & > i d g g g g a a a a a a a a a j k z x H J ~ ~ J ~ z a a k H ` ..#.s.n.n.l.m.m.n.n.l.s.q.0.*.*.#.#...| | | | | | O.O.6.e.e.e.e.r.e.9.9.6.o./ L g i 4 > ; o X     . o - 9 Z I O.9.d.d.q.=.*.*.O.| L g 3 o . ; d G J ^ [ [  .$.@.$.#.$...] ~ H z j k k k j k J [ .. . .......[ ` ] I d @ o > g G / O.9.r.b.n.m.m.m.m.m.b.0.O.| Z > o o 8 z H z z J J J x z j a a a a a a a d i i > * * = t z [ *.q.l.l.l.d.d.d.l.l.d.d.r.q.9.9.#.O.O.| L G d ; & & > a I ..0.d.l.j.q.#.I g > @ - 3 g G L I I I I I I I I L L H H H G G G G G G L G Z d ; o & d  .*.0.q.*.0.| 8 9 L / o./ #...G k / Z o.| | I L ; O.g i G G d - @ @ ; 9 g Z Z Z g i 1 @ X X o o < 4 i d g G | O.O.O.G > o . o . @ 3 g | 9.r.d.9.H > o d Z 9 & ; i k H J ^ ] ] ~ J H x z k d ; . o - < 1 3 ; - O o . X X . . . . . X     X X X X X X o O - < < - - ; ; > 3 s d g Z G G G g a g g g Z Z G G H ^ | ..*.0.l.n.n.m.Z.D.C.n.d.9.O.L 9 @ o a ` { ' ' { } } @.} ' ~ c ! ~ J x k z x j 8 * @ 8 j J  .q.n.m.C.Z.Z.C.Z.Z.C.m.m.n.n.l.l.d.d.r.q.0.0.9.9.#.O.O.O.#.O. . .O.O.| ^ i ; @ & i g d 9 ",
"N s 9 ; o o o & ; 9 i d g g a a k k k k k k k z z H H J ~ ~ J H z a a J 0.n.d.0.#.*.s.n.m.n.d.l.d.d.q.q.0.9.*.#.O.O.o.| | | | O.| | O.e.f.f.M.N.n.f.e.6.| L Z i 3 - o o X X o # o - 9 B I o.9.r.f.b.r.0.*.%.+.) L g 3 o . & 3 g z H ~ ~ ^  ...$.*.$.[ ^ J H k j k k k z ~ [  . .[  .....[ ` ^ ^ J i o @ 9 Z I O.9.e.d.b.n.m.B.B.n.b.d.9.| G 9 o X > G G z x J ~ J c x k j a a a a a d i > - @ o ; p H  .9.d.z.l.l.l.l.l.n.n.n.n.d.d.r.q.0.9.9.#.6.o./ L B 9 ; - > a ] *.r.z.b.l.q.#.| G 3 @ # 3 d k H I I I I I I I I L L H G G G G G G G G G B d & . & d | *.*.*.d.=. .a * g ^ | | | #.^ k  .d / / ^ | I g g ^ i Z G g 3 o o & d Z J J L H Z g i - o X X o - 1 9 p g G | O.O.O.| g - o o o > g J #.r.b.l.q.| i o 9 d s ; & > d z G ~ ] [ ' ` ` J H G k 9 @ . o ; 4 s 4 1 ; - o o o o o o o o . X X X . X . . . o O - ; - - - ; ; 1 3 9 d g B G H G G Z Z Z G G G G G G J I ] ..*.q.d.d.d.l.z.l.s.0.O./ g ; @ & k ` @.{ } @.@.@.@.} ' ` ~ ~ ~ J J x H ~ ~ H k y * & @ = k ] q.D.Z.D.D.Z.m.m.n.n.m.n.l.l.d.d.s.s.0.9.9.9.9.#.O.#.O.O.O.O.O.O.O.| | I g ; o o 9 Z ",
"; ; 1 s i 3 - @ ; ; 9 9 p d d p a a a a a k k k H H ~ J H H x k p J #.d.b.n.l.d.*.#.*.d.n.z.d.z.l.d.d.s.q.*.O. .] ^ I I L L G G L L I / O.9.e.r.e.6.o.I Z d 9 - ; - o X X o # - 1 s Z R O.9.r.r.d.f.t.*.O.| ) L B d 1 o   o ; d k k x H ~ [ ..$.#...^ J H z k j k k k ~ [ ..{ ] ` [ ..` ^ ^ ~ J Z & o ; d G / 6.9.e.d.b.m.B.B.m.b.r.9.o.L i & o * a I H x ~ ~ ~ J x z k k k g a a i 8 - @ & > i G | q.s.s.s.d.d.d.l.n.n.m.n.l.d.d.d.r.q.0.9.6.6.O.o.( L Z s 1 - = a ` *.q.l.z.j.d.*. .L s & @ ; i a G L I I I I I I L L H H G G G G G G G Z d i ; o & g | *.0.9.#.=...k ; 9 H / / / | o.H I ^ d I / I | | i | i g G G i @ o @ 9 G ~ / / ^ ^ H Z d > o X X X O ; 3 i d Z /  . .O.O.^ g > ; > g L o.e.d.b.l.q...a o ; 9 s 9 & & i a k H ^ ` [ { ..[ ~ J H g - . . o > d s s 3 1 - # # # @ # o o o o o o o o . o o o O # - - - - - - ; 1 3 9 i g g G G G G G G H L L I L L I ^ ] ..*.0.q.q.q.s.s.q.0.#.| L 9 @ @ 8 x [ %.} @.%.@.@.} { ' ~ ~ ~ ~ ~ ~ x H ~ ' { { ` ^ ^ H k 8 = p ^ s.m.D.D.Z.Z.Z.m.m.n.l.l.l.d.d.d.0.9.9.*.#.O.O.O.| o.o.| ] |  . .I |  ./ Z 3 & o ",
"3 - o o - ; ; > > > > 3 9 9 p p a a a k k z x H H J ~ H x k j a ..q.m.Z.B.m.m.n.q.9.#.*.s.d.z.l.l.d.q.0.@.] H k p 8 * * > 3 > > > > > 9 d Z G G L G B s 3 - @ o X     . # ; 3 9 d Z / O.e.r.r.e.r.r.9.O.| I L G g 4 < .   . & i k k z H ~ [ ..@.$.[ ^ J x k j j k k x ^ { ..` ~ J ] [ ^ J ~ J H i o o 9 B G / O.9.q.d.b.m.m.m.n.b.9.o./ B - o @ a G J ^ ~ ~ ~ c x x z z z z k a p i ; o . - Z | O.0.r.s.s.l.n.n.n.n.n.n.n.l.l.l.d.s.q.0.9.9.6.6.O.o.X.L B 9 - & ; p J ..0.d.l.j.l.q.#.| g ; @ & 9 d G L L I I I I L H H H G G G G G G G Z g 9 - o & g | O.*.9.*.0.~ k > 8 J / / / o.o./ p #.; ^ / | o.I L g I ; Z G B 3 o - > G ~  .$...| | I G g 9 & o X X O < > i s g / | | ..O. .I g p g I o.9.d.d.l.l.d.*.G @ & > s i & @ 9 p a z H ^ [ { @.@.[ ] ] H 9 o . X - s N d s 9 3 ; ; - - - - # @ o o o o o o o o o o O O O O O # - - - ; 1 3 d g g Z G G G G L L L I I ^ | |  .O.*.9.0.q.s.s.q.q.#.../ Z ; . @ t ` { %.%.%.&.&.&.@.' ` ~ ~ ` ~ ! ~ x ~ ~ ^ [ $.#.#.#.@.#.*...H y k ..l.m.m.C.C.m.m.n.z.z.l.d.d.d.d.q.9.9.#.O.O.O.o.O.O.| ^ ]  . .O.| | o.O. .I k ",
"o.L d ; o . @ 3 9 3 i i 9 i p p a a a k z H H H H ^ J H x a k *.d.m.Z.m.m.Z.m.l.n.d.*...#.0.s.s.#.| k i 8 8 i i G G G L L G Z g d i > - & @ - ; 3 3 < - o X         . o ; i g G I  .9.r.d.d.r.9.e.e.#.| ^ L G B s 2 O X   X - 9 a j k H ~ ]  ...$.] J H z k j k j z ~ ..{ ~ c J J ` ^ H H I H d - o - s g L | O.9.q.d.l.n.n.b.f.r.O.I G > . @ i H J ^ ' [ ~ ~ ~ x x x H J H z g i & X & i G | O.9.q.d.d.l.l.z.n.n.n.m.m.n.n.l.l.d.d.r.0.9.#.9.9.3.O.| L Z i ; & & i I ..9.r.l.l.l.d.9.] g > * & ; i Z G L I I L L L H H G G G G G B N B g 3 & o ; d ^ O.#.#.O.O.I i * i G I / | | I | I i | d I | | | I i  .G 9 K Z d # o > G ~  .@.#.#.@...^ H k p > o     . O 1 3 i g L | | | O.#.O.| J J o.9.b.b.d.l.d.r.9.^ i o & i i ; @ - 3 i g z H ` { { @.@.....^ a &   o   > G G g g i 3 > > ; ; - - - # # # o o o o . X X X o o o X X . . o @ @ - 3 9 s d g B Z Z Z G I L I | | ]  .#.*.0.q.r.r.q.=.%.#.] I d o . 9 H ..=.&.&.&.=.s.0.#...{ { { { ' ! ~ v x ~ ~ ] @.@...#.#.#.#.q.q.*.J y a [ d.n.m.C.C.n.z.m.m.d.s.d.9.t.t.6.O.O.O.|  . . .|  . . .| .. . .O.#.*.9.#.",
"0.O.| L g > - - 3 > s d p a a a a a k k z H H J J H H z a J =.q.m.C.Z.C.n.l.n.n.d.d.d.0.O.^ G a i a G ^ | | ^ I H G Z Z g d i i i 9 3 3 - o X   o . X             . o ; i Z I | #.0.d.b.b.d.r.0.9.6...^ H G B s 4 < O     X - 9 a j z H ^ ] ..$...^ H x z k a j k x ^ [ ` x z x H J H z G G p ; . o ; s B L | | #.0.d.l.b.n.b.r.3.X.L i & o 7 z ~ ~ ` [  .] ^ ~ c ~ ~ J J H k p & o & i G | O.0.q.s.d.d.d.l.z.n.n.n.m.m.n.n.l.l.r.r.r.0.9.9.6.#.3.O.| L B i ; @ * p I  .9.r.l.b.b.d.0.O.I a 8 * ; 3 d Z L I L L L L H G G G G k Z V B s > o @ * a I O.O.O.O.| H ; ; 9 G ^ I I / / | I G | d I | | | / J t | a g K M 3 # @ p ^ ..#.*.9.9.#.@. .~ k a 8 @ .   . O ; 3 i g G / | | O.O.#.#...O.9.d.b.b.d.d.d.r.0.| g & o > s 3 @ o - 3 d g z J ~ ` { { @.@. .G > o o o o G Z B g i i 9 3 > > > > ; - - - # o X X X X   X X X X X X . . o o o o @ @ ; > 3 9 9 i g Z L H H I | ..O.#.0.q.r.j.r.q.=.#...] J p o @ d ^ @.-.>.>.>.>.l.s.q.#.@.@.@.@.} ' ` ! x z a a k Z a p t y a H ..q.l.=.[ z a H @.q.d.n.n.z.d.s.r.q.d.0.6.6.#.O.O.O. . . . .| |  . .| | |  .#.9.9.9.",
"6.6.O.o.R g 3 @ 9 3 d g a g a k k k k z x H J J H x k k ~ *.n.n.n.n.n.n.n.n.l.d.m.n.9.J a a I .. .^ G d i 8 9 i > ; ; > > 9 9 9 9 > > ; & o                     X @ ; i Z | 9.t.l.b.b.b.b.r.0.6.O.O./ H k g d 9 1 - X     X - i a k H J ]  ...#.[ ^ H z k a a j x ~ [ ] H k k k H z k k k d ; .   # 1 0 B L R | O.9.r.d.b.l.r.9.| R g & o * k ^ ` [ ........` ^ ~ ` ` ~ J k i & o & i L | O.9.0.s.d.d.d.d.l.n.n.m.n.n.n.n.n.d.s.q.q.q.0.0.9.6.#.O.O.| L B i ; @ * i H | O.9.r.f.f.b.d.9.O.| Z i ; ; > d Z L L K L L L G Z G k g g g d > o o ; g | O.O.o. .| k * @ > Z I / I ^ / / o.g I | i | o.| | ^ z k H i G Z 9 # # 9 H $.=.q.q.q.9.9.#. .^ z k i ; o   X O - ; 9 d G I | |  .o.#.q.q.q.d.n.n.b.d.d.r.q.0. .G ; o & i 9 o o o - 9 d k z H J ` [ @.$...^ a ; & > o i G G G g d d i 9 9 9 3 4 1 1 - # o X X X   X X X X X o o @ @ @ & & @ o o o o @ @ @ & ; > d Z L I ^  .O.#.r.r.l.l.j.q.0.*... .L 9 o @ k ] &.j.k.k.k.x.C.z.s.,.-.;.=.=.%.{ ` J a = & @ & > = 8 p k k a p p ^ #.s.q. .J z y H ..0.d.d.d.r.q.#.9.0.e.9.O.o.O. . . . . . . .| | ] ] |  .O.O.O.",
"/ | | | R L s - i 3 d g g k k k k k z H J J J J H j a ~ 0.l.n.m.n.m.m.l.d.z.n.l.*.^ k H O.0.O.J i p k H ^ | | / / / I L G g d d g s 9 3 > ; ; > @ o o . X X . o - 9 d Z I 6.d.M.b.b.b.d.r.0.#.O.O.| ^ Z a d 9 3 < O X     X - i k z H ^ ] ..$.#.] J x z k a a k J ] ] H a p a k G k a d i ; o   o 1 1 9 B G L |  .#.0.q.r.0.*.O.I B ; o & a ^  ...$.@.@.$...[ [ [ [ [ ^ G i & . * i L | O.O.9.0.d.d.d.d.l.n.n.z.n.n.n.n.l.l.d.s.r.q.0.0.0.9.9.6.O.o.| L g i ; & & > d G I | O.9.r.f.b.r.t.9.| L d > - > g G K K L L L G G Z Z g d i - o o : B | O. . .| L d ; @ d Z L L I / / / o.G k / Z I | | | | ^ d  .i d G Z ; o ; Z | 0.q.s.s.q.9.#.#. .~ z k p > o     o # ; 3 s Z L / | | | @.r.d.s.d.n.n.b.d.d.r.q.q.O.I i @ o 3 3 o o X o - 9 p k H H ~ ` [ [ ] ~ G i 9 g i ; L G L B g d d i i i i 9 3 1 - o X X X o o o o o $ & & - > > 9 9 i i > ; @ @ @ @ @ o o o & > a G I ^ ..#.q.d.l.l.j.j.q.0.*...I i @ o p ^ =.j.c.c.x.v.A.x.k.s.s.>.-.-.&.{ ' J 7 @ & > d L O.*.s.d.l.l.=.[ p k [ s.z.l.q.@.J a 8 a ^ ..#.*.0.0.9.#.O.#.O.|  . . .| | ] ] ^ ^ ^ ^ ^ ] | | | ",
"^ ] | I I L d ; 9 > d k Z G H J H H H J ^ ~ J z z y J q.d.b.m.l.n.n.n.b.l.q.#.] k I  .^ k i p g | | | O.#.#.O. ./ / / / I I L L L L G G G Z G L Z N i ; - - 3 9 d Z I | #.r.b.b.b.b.l.d.r.9.O. .o./ J k d i 9 1 - o       . ; i k z J ^  ...$...^ J z k k a k z ^ ] I a > > i a g p i 3 & o X . - 1 1 9 B Z G /  .#.9.9.9.9.O.| L 3 o o i J  . .$.%.=.%.@.@......... .I p & @ ; d G | O.#.9.0.r.r.d.l.l.b.n.n.b.l.b.b.l.d.r.r.r.r.r.0.0.0.9.9.#.O.o./ L B d > ; & & ; 9 d Z L I | O.6.6.9.e.6.O.R g > ; i Z L L L L L G G G B d i - o o > B / O.o.X.| G 9 & ; i Z L I I / | | / / i / Z Z | o.| | O.G g O.8 k Z s - @ s ^ #.s.d.d.d.s.0.6.#. .~ G k p 3 @ X   X # - ; 9 g L ^ / | | O.r.d.d.d.b.b.b.d.d.r.0.q.#.| g & . - 3 o .     o - 3 d k G H ~ ^ J J J G d g I I > G G G Z g g d d d d s s s 1 O o . . o o & - > 9 3 3 i i d a g g Z G Z a i i 9 t i 8 > & @ o o > p z ^ O.9.r.l.l.l.l.d.q.9.O.^ Z ; . ; H %.j.c.c.x.v.C.z.j.s.s.s.>.s.-.@.` k & @ i J O.d.b.n.m.m.Z.T.T.Z.l.^ p a ] q.m.Z.z.s.#.] k t a H ^ O.9.*.O.O.o. .| | | | / ^ I I I I ^ ^ | | | | ",
"^ ] / I L L d ; 3 > p k k G H J J J ~ ^ ^ J H k a H #.d.d.d.n.n.b.d.r.l.r. .H k  .J a a ^ *.9.*.| | | | o.O. .| | | / I L L L L I I I I I / X.O.6.O.X.R L G Z B H | #.0.d.b.b.d.b.b.l.d.t.#. .| / I G a p 9 > ; # o       o > d k H ^ ]  .......^ J z k k a k H | I k > & * 9 d i 3 ; & .   . # ; - ; 9 B B G I  .O.#.#.#.O.| L i o X ; H  .....&.-.-.=.%.@.@.$.@...^ k & . - g L / o.O.6.9.0.r.r.d.l.l.b.b.b.l.l.l.b.d.r.r.r.r.q.r.r.r.t.9.9.O.O.X.| I L Z d d > ; ; ; > > > > > i g G L | O.6.O.L i > i G L L L L L G G B d i * o o : Z | O.o.| I g ; & > d G G L I I / | | / g Z / d I | o.o.o.O.i I J i G Z > - 3 G @.r.d.d.d.d.d.0.6.O.| I H k d i - X   X o @ ; 3 d G I ^ | | ..9.s.d.d.d.l.d.r.r.0.9.0.#.o.G ; X @ 3 - X       o - 9 d k k H J H H G k d Z / ..g i L Z G Z g d d d d d s s 1 o o . o @ & > 9 d a d a d a k Z G Z G H H G G k g k G H G z d ; o o @ & i H ..9.d.l.z.n.l.r.0.O.| L i o & k @.j.k.c.c.v.C.z.s.>.>.s.s.s.q.@.J t @ * z  .0.l.m.m.Z.D.D.Z.Z.D.Z.m.l...k a H ] s.z.C.C.n.0.J p 8 i G  .O. .|  .| | / ^ ^ I I I I I I I ^ ^ ^ ^ ",
"I ^ I L L G d ; 9 > d G G G H J ^ ^ ^ ^ ^ H k a k 9.d.q.f.f.d.n.l.l.r.#.I H I  .a H  .9.r.r.q.9.9.O.| I I ^ | | / ^ I L G G K L G G K K L I o.6.e.r.d.d.e.#. .] ..*.r.l.b.l.l.l.d.d.r.r.9.O./ I I L k d i > ; - O X     X o 3 a z J ]  ...$... .^ H k k k k H ^ ^ G i & @ & > 3 > - o o X X O < - - 1 i d B H I  . .....O.| L g & o & z $.*.%.=.s.s.s.=.%.%.@...../ k ; o & g I | o.O.6.6.9.0.q.d.l.l.l.l.l.b.b.l.d.d.d.r.r.r.r.t.r.r.r.e.9.#.O.O.o.| | R I L L G Z d d i 9 9 9 ; ; > 9 i g L | O.I d 8 i G L L L G Z B B d 9 - o o * a R o.X.R G i & o > g G L I I I I I / I L g I Z L / o.| O.O.^ i | p a G g - ; d | 0.d.l.l.d.d.s.=.#.| / ~ J G a i ; o     . o - 1 s Z L I ^ ^  .#.0.q.r.s.d.r.0.0.*.#.9.#.O.L i o . 1 ; .       X o - 3 d a k G G k k k a k ^ ..I 9 k g G Z g g d d g d d s < o o o @ ; 9 i d k G G z k k g G G k k G G G k k k G J ^ ^ ^ I G d i * @ & 8 z | 9.d.n.m.m.l.r.9.O./ B & @ i ..-.j.j.k.v.C.z.>.>.>.>.-.-.&. .z > & d ^ 9.r.b.Z.Z.Z.D.D.Z.D.T.T.T.T.Z.d.*.^ p 8 a J #.n.Z.m.d.] a = t G ^ | | | / ^ ^ I I I L L L L L L I I I ",
"^ ^ I H G Z i ; 9 > g H J I ~ ] ^ ] [ ] J z k a ..0.f.d.d.f.d.e.0.9.| G I ..] a  .9.r.r.9.*.9.0.9.#.O.| ^ I L L L L L L G G Z Z Z G L L G L /  .0.r.l.b.b.d.r.q.0.q.l.b.l.d.d.b.r.r.r.0.#.| I I L G g p 9 > ; - o X     X @ 9 g z J ]  ...$... .J H k k k k J | L d & o o @ - ; - o       o # < ; ; 3 i i B I I  . . . .| ^ Z 9 o @ i | 0.=.-.s.z.k.s.-.=.=.%... .H > o & Z | X.O.O.3.6.6.9.q.d.d.l.b.l.d.d.d.l.l.d.r.r.r.r.r.r.r.r.r.e.9.6.#.#.O.o.o.X.X.| | | | / I I I L L I L Z d 9 > > s Z | I g 9 i G L L G G B g d s ; o o * d I X.| L G ; @ o 3 g Z L I I I I I / I G d I L d / o.o.O.| o.G g | i g Z i & > G O.q.d.z.l.d.d.s.*...| | ^ ~ H g i > o     X o - 1 s B L L I |  .O.9.0.q.r.r.r.9.9.O.O.9.6.O.R Z &   - ; o           X - 3 g a g k k a a k H ^ O.| i > d d B g d d d d d s 3 - o o @ & 3 d a k G H H H z k a G G g a g Z k a a k z H J I I I L H L H a > & * g  .q.n.Z.B.n.l.r.O.| G > @ * ` %.-.>.s.k.v.s.>.>.>.;.&.%...~ i @ & Z  .0.b.B.m.Z.D.Z.D.R.R.D.F.D.D.D.Z.m.l.0.$.k 7 a  .d.m.Z.m.q.I i = i G / | | / I I L H H H G G G G L I ^ ",
"I I I L L Z i ; i ; H ^ ^ ^ ^ ^ ] ] ] ^ H k i | 9.e.r.r.b.r.b.9.#...G  .O.k I 9.r.r.r.0.0.9.9.9.9.9.O.O.X.R L G G G G G G G Z Z Z Z Z G G L I / 6.q.d.d.l.n.l.d.q.d.l.l.l.d.d.r.r.9.9.9.O.| I L G G g i 9 > ; < O +     X & d k x ~  ......... .H H k d a J ^ I g ; o X o o o o X       o # < < - 1 9 i d G L I | | O.| I I s @ . t J *.q.-.s.z.z.j.-.-.=.%.....J > . ; S / o.6.9.9.6.6.9.0.r.d.d.d.d.r.d.d.d.d.d.r.r.r.r.r.r.r.t.e.0.9.9.9.O.O.O.O.O.O.O.O.O.o.X.| | | | | | / / I I G g i > d / | d > g L L G Z Z B d s 1 o . o i G I | / g & o - i B G K L L L / I I / g Z G L i I O.| o.o.o./ d I I > g g > @ a / 9.d.d.b.l.l.q.0.#.| |  .^ ^ I G d 3 o X     . O - 3 d Z L I I | O.9.0.0.0.r.9.#.O.O.O.O.O.o.| G > . o - # +           X $ > i d g k a a a H ^  .^ a i i ; 9 d d s s d s 4 1 # o o - 9 d k k z H H H z k a g d d d i 9 9 8 > ; & ; i a Z G G H H I | | H p @ = k #.n.m.Y.m.l.b.e.O.L B i . k $.%.=.s.s.l.-.&.>.&.&.%.@. .k @ * g | 9.d.m.Z.D.D.D.D.D.D.T.T.T.W.T.D.D.Z.m.n.b.0.^ h t k O.b.Z.D.n.#.k = = p H I / / I L L G G G G G G L L L ",
"G G G G G B i ; 9 ; L ] ] ]  .[  . .| H G 8 I o.e.e.d.r.0.0.#.t.| i O.| a | #.l.0.r.9.O.*.#.#.9.O.| | L g i i d d i d d d g g g Z G K L G Z G I  .#.q.s.d.l.d.d.q.d.l.l.l.l.d.r.r.9.9.6. .^ L G G Z g i 9 1 ; ; O +     X - d k J ^ ........ .^ J z k a Z ^ ^ G i - X X X X o X       X O - < ; ; 3 9 i d G I |  . .O.| I Z ; o & z  .0.s.s.z.z.x.s.&.&.%.%...~ 8 * ; g | O.6.9.9.9.9.0.0.0.r.d.r.r.r.r.r.d.d.r.r.r.r.r.r.r.r.r.0.0.9.9.9.6.#.O.3.O.O.O.O.O.O.o.o.X.| | | | | / R I R L G g 3 i I / d i g G G G Z B B d s - o o ; g I | R g > & ; 4 d V G K L L / Z L / i L L L g G o.o.| o.o.O.I i | G > G 9 & & G ..r.b.d.b.l.d.q.9...| ..#. ...| I Z i & o     X o # 1 s B G G L ^  .#.9.9.9.9.*.O. . . . . .| | L 3 . . - - O             o - > i d a a k k H ^ ..] g i i ; & ; 3 9 s s 0 1 - o o @ > d k G G G G G G k a p 9 > ; - & & & & o o . . o o o o @ p J ^ ^  . .^ g   p I b.m.Z.Z.m.m.r.9.| L a & * H  .#.=.q.s.-.-.-.%.@.$.^ k * @ 9 L 6.r.b.m.Z.D.D.D.D.D.Y.T.T.T.T.T.D.D.Z.m.b.m.l.q.#.z > a  .l.C.Z.m.0.~ t & p G I I L L L L G G G G G G G G ",
"Z Z G Z B g 9 - 3 ; I  . . ..... ...^ G i a O.6.9.6.r.9.0.0.0.I p 9.^ H O.e.b.6.9.#.0.r.9.*.O.I G B g B G L L G G B d i 9 3 9 9 i d g Z Z Z H I ^ O.0.s.d.d.d.d.q.d.l.l.b.b.d.r.e.9.#.O.| I H G Z g d i 3 ; ; ; O X     . ; a z ~ ] ........] ~ J k d k H ^ J d - o         X       X O - < 1 1 1 3 i d g H | |  .O.O.| L s o o p [ =.s.l.z.C.z.j.-.=.&.@.$.^ p o ; g | 9.e.e.e.e.e.t.t.q.q.q.r.r.r.r.r.r.r.r.r.r.r.r.r.r.t.e.e.e.9.9.6.6.6.6.6.3.3.O.O.O.O.O.O.o.X.| | | | / R R I R I L Z i i I I d d G G G Z B B M s 3 o . @ d H | | Z - o ; s M B Z G G G L L L L d g I G G G o.o.| o.O.o./ G g X.g 9 G > @ 8 ^ 9.d.l.b.n.d.q.q.#.[  .#.#.#.@. .] G d > o       . o ; 3 d Z G G I  .O.#.*.#.*.O... . . .| | / | I s o . # 1 O +             o & > i p a k z J [ #. .z a p i o o @ - 3 3 1 ; o o @ ; d Z G H G G k k a p 8 ; & @ @ @ @ & ; ; d g g a d 9 > > & @ * k ^ | | ..| = . g O.n.B.W.D.B.b.r.9.o.L 9 . > a J ..#.#...@.@.` ~ x p * . ; Z o.e.n.B.B.Y.D.D.D.Y.T.W.W.W.W.T.T.T.Y.Z.m.n.n.d.d.q. .p 8 g *.n.D.T.Z.d.J = & 9 Z L L G G G G G G G Z Z Z Z ",
"Z Z Z g g g 9 - > ; I  . ....... .| I p > / o.9.9.e.r.6.t.9.^ a #.| G | r.r.t.9.e.9.O.#.#.H p G L L I L G g Z G L I R R L G g i ; > 9 d g Z G G I  .0.d.d.d.l.l.j.l.l.l.b.b.l.r.e.9.#.O.| I G z B g d 9 3 ; ; - O X     . > g G ^ ] ........] ~ H k d Z J ^ Z > o X                 o - 1 1 1 ; 9 i d g G I | O.O.O.| I Z > . ; k %.s.s.k.z.C.z.-.s.-.#.$.] a @ * g | 6.r.r.i.i.r.r.r.r.q.q.q.q.r.r.r.r.r.r.r.r.r.r.r.r.t.0.0.0.9.9.9.6.6.6.6.6.9.6.3.O.O.O.O.O.X.| | | | / R I R L L L L Z i d I G d g G G G B B N s 9 - . . ; k I ^ G 3 o @ 9 N B V Z G G L L G / g 9 / Z g G | O./ | O.o.| L i I L i g d 9 @ a ..q.l.l.l.n.d.q.%.[  .#.#...@... . .I G i $ X     X o - 1 s g Z G I | O.#.#.#.O.O. . .| | | / I / R d @ . # 1 # .             o o ; i p j k x ~  .#.[ x k k Z ; @ . o - - - # o o - 9 g G L H G k d i i > & @ @ - ; 3 i g Z G / ( | | / I G G a i & o > H  .| | G & & I 9.Z.W.W.Y.m.n.d.9.| k @ @ @ 8 H | ] J ^ J k p * @ @ @ d o.e.f.Z.Y.Y.W.T.Y.Y.T.R.R.Q.W.W.W.T.T.Y.Z.m.m.m.b.d.q.*.^ p * ^ q.Z.D.C.n.=.J & & > B L G G G G G G G Z Z Z Z ",
"g g g g B g i > ; ; ^ O.O.........^ G * Z o.O.6.9.9.9.9.9. .a 9.O.g o.w.9.e.6.e.9.9.9.I t g | | / L g g g g d i > > > i d Z G L K B d i i d Z G H | *.r.d.d.d.l.b.b.l.l.b.b.b.r.e.9.#.O.^ J G z B g i 9 3 ; ; - O X     o > k H ^ [ ........^ J H k k H I L d & o                 X # 1 3 3 3 3 i d g G L | O.O.O. .| L d & o i J =.j.j.z.x.v.s.s.s.#.....k & o k | 9.r.r.b.M.b.b.d.r.t.e.e.e.0.0.q.t.t.t.t.t.0.t.t.r.r.e.w.9.9.9.9.9.9.6.6.6.6.9.6.#.O.O.O.O.O.o.X.| | | / R I L L L L L B i d L B i B P G G B B g s 1 o   o 9 Z I L 9 @ @ 3 d N B B V G G L P G d 9 / G d G / | o.| o.o.| | G d O.G ; Z 9 & > H *.d.j.l.l.n.d.q...^ ..0.#.^ / ^  ... .I g - o       o O ; 9 d g Z H ^  ...O.O.O. .| | / ^ I I L L L B - . # 1 ; o . X . X     o o > i a k x J ^ ..@.[ H k k G g ; .   . o o o o @ ; i Z H G G g i > ; - - - - > 9 g G R | o.O.9.e.q.r.r.e.9.#. .| G > o & k  .^ H H * > | t.Y.R._.T.D.n.r.#.I i @   o i G k a a i > & . . * d ~ 0.b.n.Y.Q.W.Q.W.T.T.W.Q.Q.R.W.W.T.Y.Y.Y.Z.m.m.M.N.N.b.r.#.G > p ^ l.Z.C.m.d.@.d - o 9 G G G G G G Z Z B B g g ",
"g g g g g d i ; & - / O.#.#.#.#...] > > / o.3.3.O.O.6.9. .a #.#.i O.9.e.r.9.9.O.9.| g g | 9. .g i g G G Z G L L L Z i > - > 9 i d d i > ; ; 9 i Z I o.9.r.d.d.d.n.n.l.l.b.b.f.r.0.9.6.O.^ J G z k g i 9 3 ; - - O X     o 9 k H ^ [ ...... .^ H H k H I J Z 9 @ X               X o - 1 9 i i i d g Z G I | O.O. .| / G i o o a [ s.j.z.x.x.c.s.s.q...[ H & o a | 9.d.b.b.n.B.b.b.f.r.t.e.e.0.0.0.q.t.t.r.r.r.t.t.t.r.t.e.9.9.9.9.9.9.9.6.6.6.6.9.9.#.O.O.O.O.O.o.X.| | | / R L L L L L L B i g P g i B L G G B N s i - o X o d G I g & @ 3 s d B B B V G G G G Z 9 L I i Z / o.| o.o.o. .o./ i I | Z ; B 3 o a  .q.l.l.l.l.n.d.0. .] #.9./ G G G ~  . ./ G 3 o       X O - 1 i d g G I ]  . ... . .| | ^ I I I L L L B ; . o 1 1 - # o o o X X o & > p k G J ~ [ $.$.[ J k g G I d - . X . . o @ ; 9 d k G k d i ; @ o o # 1 0 B G / o.6.9.0.9.r.f.f.b.f.r.r.r.r.#.O.O.z @ @ p ^ / ^ G o d | b.T.`.`.R.m.l.e.X.K 9 - o @ ; & @ & . . . o > g ^ #.f.Z.I.Q.`.Q.Q.Q.Q.R.R.Q.Q.Q.R.W.Y.Y.Y.Y.Z.m.B.M.M.M.M.f.0.| k * y  .z.Z.Z.n.q.| d o & i g G L G G Z B g g g d ",
"g g g d d d i ; o & / #.*.*.=.*.| G @ Z / o.o.6.9.6.6.#.H k q.i | O.9.e.9.9.9.6.| i G t...a i a L L L I / / L G G G B g d i 3 > - 4 g V Z g i > d g I o.9.r.s.d.l.b.b.b.b.b.f.r.e.9.6.O.^ J H G Z d i 9 3 ; - O O     X @ i G H ] [ ......[ J z H Z J ^ H d ; .                 . # 1 4 i d d d g B G I | O.O.O.o./ / Z ; o - G *.s.j.z.x.z.s.-.=.$.^ x > @ i o.9.b.m.m.m.m.B.b.M.b.d.r.q.e.0.0.9.t.r.r.r.r.t.t.t.t.e.w.w.9.9.9.9.9.9.6.6.6.6.9.9.9.#.O.O.O.O.O.o.X.| | / R I L L L L L L B i g L g i B G B V B s s 3 & o X - d L Z 3 @ ; s d d B B V G G G G G i G | i d L | | o.o.o.| O.o.Z i O.L i i s - & L *.j.l.l.z.l.f.d.#.[ ..#.^ a 9 8 8 a H ^ | L d -       X O % ; 3 i d Z L I |  . . .| | ^ I I I I G G K B ; . o 1 9 > ; - - - o o & > i g G J ^ ] ..@...[ ^ z k H / G s ; # # # - ; i B Z G k i > & o o o - 3 m V I | O.9.0.r.r.t.d.b.b.b.f.r.d.d.d.d.d.r.9.^ 8 X k ^ | ^ Z * g  .z.T.`.R.Z.m.b.3.( Z N 1 o o X X o X o @ 9 Z I O.d.m.T.Q.`.`.`.`.`.`.Q.Q.Q.R.R.R.W.Y.Y.Y.Y.Z.B.Z.B.N.g.f.f.r.O.I 8 * a *.z.m.m.n.e.R 9 @ & 9 g Z G G Z B g g g d ",
"d d d d g B d 9 o & / #.*.*.9.*.^ ; > Z o.o.o.9.6.6.O. .a d.z H 9.6.9.9.9.9.O.| i I O.| p g I I / / / L L L L L G Z g g d d i i d 4 > > 9 g g i > 9 g I O.0.q.r.d.l.b.b.b.b.d.t.e.9.9.O.^ I J G z g d 9 3 ; - O o     X & d H J ] [ ......] J z G Z J I Z 9 @               +   . # 1 9 d d g g g G L /  .O.O.O.O./ I Z & o 9 ^ q.s.s.k.c.s.-.&.&.^ z 8 @ i o.6.b.N.B.B.B.B.m.b.M.b.d.r.r.q.0.9.9.0.r.t.e.e.e.9.t.e.w.9.9.9.9.9.9.9.6.6.6.6.9.e.9.9.#.O.O.O.O.O.| | | / R I L L I L L L G B d g G g d B B N B N s d 1 o X o ; g L i & & 9 d d B B B V K L G G Z i / g g G / | / | o.o.o.O.I d I O.Z o g 9 . i ^ 0.l.j.l.n.l.d.q. ...#. .a ; @ o @ > d L | | Z 1       o O - ; 3 i i g G L I ] | | | ^ I I L L L G Z G B ; . o ; 9 9 > > > > ; ; 3 i a G H I ] ..$.@.[ ^ J z k I / I G d 3 > 3 3 i k L L G g 9 & o o - 4 s N K R | O.6.9.0.r.r.r.r.b.n.b.d.r.d.b.n.n.b.b.b.e.I i o H | #.9.H X H 9.C.R.R.D.Z.m.9.X.Y L d - & & & 3 > s d Z / o.9.n.Z.R.`.`.`..X.X`.Q.Q.R.W.T.T.T.Y.I.I.Y.Y.B.m.m.M.M.M.b.f.f.9. .Z * 8 ] 0.d.n.m.r.3.G & o - i d Z B B g g g g g ",
"d i g s d B s > o ; L *.9.9.9.o.Z o g | | O.o.6.3.6.O.d O.O.i 6.3.3.6.6.#.#.] i I 9.G 9 L ^ ^ | I R L L L L K V B B N g s d s s s s s 9 > ; 3 d g g > i / 9.0.f.r.f.b.b.m.m.d.q.0.9.6.#. .I H H z g d 3 1 ; - - X     o > d z ~ [  .[  ...^ H H z H I H d - o X               . o # 3 d d i d g g Z I | O.9.#.O...| L d ; o i $.>.>.k.k.s.s.=.@.^ a & o > I w.b.B.Z.Z.Z.Z.m.m.N.M.b.r.r.r.r.e.e.9.0.q.e.e.e.e.e.w.9.6.9.w.9.4.9.9.6.6.6.6.9.e.e.9.9.9.6.#.O. .| I I I I L K L L L L K K K d i G G i d B B V B M s 4 < o X X O s L > @ 3 d d d N B B Z K K G B 9 L H i g L / R | / | / O.^ a g  .| 3 ; 9 & & g  .d.l.l.l.n.d.q.9.^ ..#.k 3 @ o o o o > g L | H p o     . . # ; 3 4 i d Z L L I ^ / / I I L G G G G B B B 3 o o ; 9 9 i i i i i i p a G J ~ ]  ...#... .^ H z G J | O./ k a d d g z J ^ ^ L d ; o . O 1 s g Z L L | X.O.6.9.9.0.r.t.d.b.b.f.r.i.b.B.b.m.B.n.N.r.^ > *  .6.q.#.a @ ~ 0.m.T.R.D.n.b.6.o.| L g i a k I I I I | 6.q.d.Z.Y.`.].`.`.`.OXQ.Q.Q.W.W.W.W.W.Y.Y.Z.Z.Z.Z.Z.B.n.M.M.M.b.d.e.9.^ p * p  .d.b.f.M.e. .G > o & 3 d G g d B B d s ",
"d s N s M N 0 > o > I *.#.#.O.I i ; G | | O.O.O.9.O.L B 9.g R 3.6.3.6.O.O. .a k 9.Z d L / / I I L L L L K K K V V N N d s d s s s s s N N d i 9 B G K d 9 I 6.0.r.d.d.b.m.n.d.s.9.9.#.O. .I H H G g d i 1 ; - - .     o 3 d z I [ [  . . .~ H H H J L G i - X                 . # ; 9 s d d d g Z L ^ O.6.9.6.O.o.| L d & @ a %.;.,.>.s.s.-.@.] z = o 8 L 8.b.L.Y.Y.Y.Y.Y.Z.B.N.b.b.f.r.r.r.e.w.0.0.0.0.9.9.w.w.w.w.9.6.9.9.9.w.9.9.6.6.9.9.9.6.6.6.O.| ^ L G g a t > 8 d Z G K L L K K K d d G B 9 d B B B s s s 4 < o     # N Z > @ 3 d d d M V B Z K G g d d | k d L G I ( L R R | / I i I O.I 3 ; ; @ > I q.d.l.l.l.n.l.q.#.^ ..| 9 o o X o X X o 3 Z I J a @     . o # ; 1 3 9 d B G L I I I I I I L G G Z Z B N M 3 o X - 9 i i p p p a a a k H J ]  ...@.#... .^ H z G J |  .| J z z G H J ^ ] ^ G s - . o - 1 s d g G G L I |  .O.O.#.9.9.t.i.i.r.w.e.r.f.d.N.B.B.I.Z.e.^ 8 > ^ 0.@. .8 * L d.Y.T.R.D.d.e.9.6.O.^ L ^  .O.....@.0.d.n.m.Y.W.`.].`.`.`.OX`.`.Q.Q.W.W.Y.Y.Y.Y.Y.Z.Z.m.m.m.b.b.b.b.b.d.0.9.o.G > ; i L 6.f.r.r.r.O.L i & X - i g g s s f f ",
"s d N s s s 3 > @ i I O.O.O./ Z - s L | | X.O.o.O. .d o.| d O.O.O.6.6. .| a G O.| 9 Z / L I L G Z V C C N N M m s s s s s s s s s s s M V B g s 3 > 9 s 9 d / 6.r.r.r.b.m.m.f.f.0.6.#... .~ J H G k f i 3 2 - % o     & i g H ^ ]  . .[ / J k k H J H g 3 - X             X . o - 3 s s s d g g G I | O.9.9.6.O.o./ L i @ & J 0.=.,.>.>.=.@.~ a * o * L 0.b.B.W.E.E.W.E.Y.Z.B.N.M.M.f.i.r.r.e.e.0.9.9.6.6.6.9.w.6.w.w.9.9.6.9.9.O.O.O.6.9.9.6.O.I H k d p p d a G k a a d i d Z K L K K K d d G B 9 d B B N s s s 4 < o     O N d - & 9 d d d M B B B Z Z 9 i L | g 9 Z L L G L I / / I d a | *.G ; @ @ @ d O.d.d.l.l.l.b.b.q...^ $.Z & X o o o     X @ i L ~ G ; .   o O # - ; 3 3 i g Z G L L I I I L L G Z Z B B M s 3 . X ; 9 i p a a a k k k z H ^ [ ..$.@... .] J H z x H |  .O.| I I ^ ^ [  . .I B 3 o X O - < 3 4 i d g Z G I / | | o.O.O.9.9.9.9.6.9.r.r.d.N.B.B.Y.W.B.d.J @ a ..$.q.J * 8 ^ d.Z.W.W.b.r.r.r.t.#.O.#.9.9.9.0.q.f.n.I.I.W.`.`.].].`.`.OX].`.Q.Q.W.W.E.Y.Y.Y.Y.Y.B.m.N.N.b.b.b.b.b.d.e.9.6.| Z 9 & ; g I O.0.r.9.O.| g > o & 3 d s d s g ",
"s s N s s s 1 > & i | O.O. .L i @ B L / | | O.| | L g 9.d | | o.X.6.o.| ^ > #.O.i Z / I K L Z g d s 4 3 3 3 3 3 3 3 3 4 4 4 4 4 s s s s s s N V Z d 9 g L d d O.e.r.d.f.m.m.n.n.q.9.#... .^ I J G Z d i 3 1 - % o   X - i G I ] ]  . .[ ^ J k Z H H G i - o X             + o O - 0 s s i s d d G R o.#.9.9.6.6.O./ G i o > ^ *.#.-.-.&.@.~ h * o = G O.b.Z.E.W.W.W.W.Y.Y.B.N.N.M.M.b.f.r.r.r.r.w.9.9.6.6.6.w.w.6.9.9.9.9.9.9.6.6.6.O.O.o./ G g i g H |  . ./ I I ^ | | L d i g Z K K G Z d s Z Z i d g M M M M s 4 3 O X   o s s - - 9 d s s d s M d B B 9 d X.I d 9 g L G B R L / L L 8 G ..O.g @ . o 8 I 9.r.d.n.n.l.b.f.9.| ^  .9 o o o o o X     . - B I L 9 o   o # # - ; 3 3 9 d g G G G L L L L G G Z Z B Z M s 3 o   - 3 i p a a j j z z x H ~ [ ........] ~ H z z x H |  .#.#.| ]  . .....] L d ; o X o O - - 1 1 9 i d Z L L I R | | | O.6.9.9.9.w.r.f.b.m.B.B.Y.Q.Y.Z.9.k @ x *.0.%.~ 8 8  .n.Y.Y.b.f.i.b.b.e.9.r.d.d.d.f.b.m.Z.Y.W.Q.].OXOX].`.`.`.`.`.Q.W.W.W.W.E.Z.Y.Y.Z.Z.B.m.B.b.b.b.b.f.d.r.e.6.O.o.I g > ; & g L | o.O.O.| G 3 @ o 3 N s s g ",
"g g N s s 9 - > & d | #.O.| Z > 3 K L R | | O.| | d | | d O.o.X.o.X.( | G k 9.p d I L L R Z d 9 3 1 - @ o o # # # # # - - 1 2 3 4 s M M m s N V B K g i 9 ; ; g O.r.f.d.n.B.B.M.r.0.#.O. .^ I I L G g i 4 1 - O .   o > d G ^ ] ]  . .] ^ J G H J J z i - o X           + O O # 1 0 s 9 3 4 s g G / O.6.9.9.9.6.3.R G 9 o 8 ] ..@.&.%...^ k = @ & G 6.d.m.W.Q.W.Q.W.W.Y.I.B.B.N.M.b.M.b.r.t.t.r.9.9.9.9.6.9.9.9.9.6.6.6.6.9.6.O.| | I k i i L O.O.| L g d a g G a p g L R L B g B G G G Z d i B B 9 d g d d s M s 4 3 - o X o 4 s - - 9 s i s s 9 s s s s 9 g O.L > d G B K R L I L I d i z *.| k & o = z ..0.r.l.n.n.l.d.d.#.^ | L @ o o o X o X       o 9 G L d @   o # - ; 1 3 3 9 d g Z G G G G L L G Z B B g B s 9 3 o   & > i p a j j j z x x x ~ ` [ [ [ ` ~ H x z z z H | | #.9.O. .O.O.O. .^ G i & X   X o O O % - 1 3 s d Z G G L I R | X.3.9.9.9.w.r.d.b.N.B.I.W.Q.Q.Y.d. .& 8  .#.=.0.H 8 a =.Z.D.b.M.M.N.N.f.d.b.m.m.m.B.Z.Y.W.W.Q.Q.].OXOXOX`.Q.Q.`.Q.Q.W.Y.Y.Y.Y.I.I.Z.Z.I.I.B.N.M.M.b.f.f.r.r.e.9.6.O.O.| L d > ; ; 9 i g L | o.L g @ o d N d N ",
"g N N s s 3 - 3 ; g | O.o.I d ; d L L ( X.X.o.| | i o.L G o.O.O.6.| | | i ..| > Z R L L Z s 0 @ @ o o . . . . . o . .   . o # - 3 0 s m M C N N V V K B i i d 9 I 9.f.d.b.m.B.b.r.0.#.O. .] ^ I L G g d e 3 < - X   @ i g H ] ] ]  . .] ^ J H I I H g 3 & X             X O - - 3 0 4 ; @ - s N Z / O.6.9.r.e.9.O.I Z 9 @ i I ] #.*...J k > o & k | r.m.E.Q.Q.W.Q.W.W.Y.I.B.B.N.N.N.b.b.r.t.t.e.e.w.9.9.9.6.6.3.6.6.6.9.6.o.^ H a p d L O.O.I k a d p i p d d d d i 8 p G L Z d g G L G G d i B g 3 i g M d s s s 4 3 - o . o s d ; - 3 9 9 9 9 9 s s 9 9 9 g X.Z > Z G Z L L L L L L g i H *. .G > > a ^ *.q.b.l.n.n.l.d.r.@.~ | d . . o o o O X X       & g L Z ; . o @ - 1 3 9 9 0 s g B Z Z G G G G G Z B B d g s 9 3 O X o > 9 p a k k k z x x x c ~ ^ ~ ~ J H z z k k z H ^ | O.0.9.6.9.9.O.| L g 3 @     X X X o o O - 2 4 s M B B G L L | o.6.w.w.9.e.r.d.b.N.B.Y.W.Q.Q.`.m.d.J * 8  .#.0.*.z = z q.m.M.f.b.N.N.f.b.m.D.Y.Y.Y.E.W.Q.Q.^.].].OX#XOXOX`.Q.Q.Q.Q.Q.W.Y.Y.Y.Y.I.Z.Z.I.Z.m.n.b.M.f.i.r.r.e.9.9.6.O.O.O.X.R L d 8 ; & & ; d G | | d o - d N N ",
"g N N s M 3 @ 3 > a ^ ..| G 9 ; Z L ( | | X.| / I g | g / O.O.6.6.o.| G i #.Z d G L L B 3 1 ; o o @ & - ; ; ; ; ; - @ o . . o o - < 3 3 0 m C N F N G L G B i ; i | e.r.b.N.N.n.d.r.9.#...| ^ ^ I G g d s 4 1 - X   - d G J  . .[  . .] | ~ J I I z i > & X             O - - - 1 1 - o o o 1 s Z R O.9.t.d.r.9.3./ G 9 & 8 G H ....J p > o @ d | 9.N.W.`.`.Q.Q.Q.W.W.Y.I.B.N.M.M.b.M.b.f.r.t.r.r.w.w.9.9.9.6.3.6.O.O.O.| H Z G L | O.O./ G G G G L R | o.| / L I G g d g Z B g g G L G G d i g g 3 s g N B M s s 4 3 - O o o 4 B > @ ; 3 3 9 4 s 0 s s 9 3 g / Z i G G R R L R L R G G 8 I #.#.` z z I ..0.r.n.n.n.n.n.d.0...^ I ; . X o o O O o X X X   o 9 G L 9 o . o - 3 3 s 0 s s d B B B Z G G G G Z B B g d s 9 3 - . X ; > i a g k k k k k k z H H x x z k k k k k z J ^ | O.9.r.0.9.9.O./ G g 3 @           X X X O O 1 4 s s M B G L | o.6.w.w.9.9.w.i.M.N.B.I.Y.W.Q.#XW.Z.q.a o k #.q.l.=.k t H *.e.w.e.g.b.i.b.m.D.Y.Y.Y.W.W.Q.].].].].#X#XOXOX`.Q.Q.Q.Q.W.Y.I.I.Y.Y.Y.I.I.B.B.N.N.b.M.f.r.r.e.9.9.9.6.3.O.O.O.o.| / L G g i & o o d G L 9 @ 3 B d ",
"g N N s s 1 o 3 > g I  ./ Z 9 9 Z L X.X.| | | I G g O.3 O.O.o.O.o.6.I i ^ o.i d L A Z 0 9 ; . @ ; > i g G G G B d s 0 3 - @ o .   o < 3 3 s s m N K V N L Z 9 i & G 6.r.b.b.n.m.f.r.0.9.O. .| | I L B d s e 1 ; X   ; g G J  . .[  . .] | ~ J ~ H a i > o               O - - - ; # o o X X o 1 B I O.9.r.d.r.9.6.( K 9 & > g G ~ J p * @ o > | 3.M.W.].`.`.`.Q.W.W.W.Y.I.B.M.g.M.M.M.b.f.f.r.r.r.r.w.9.9.9.9.6.9.O.| L k p G  .0.O.L g g G | O.O.O.O.o.X.| | | I L G g B G L G d Z G G Z d i g Z 3 i d d N M M s 4 3 < - O o ; G > @ - 3 9 0 9 s 9 s g 9 3 g / L > L ( R ( | L L R R g i k *.=.#.] [ ..q.l.j.l.n.l.n.n.d.9. ./ G o . . o o O o O X X .   X 1 B / d @ . o ; 3 3 s s s s d B B B Z Z G G G Z B B B d s s 3 - o   @ ; 3 i d g k k a a k k k k k k k k k k k k z J ^ |  .9.d.t.6.9.o.I G d 3 @ X               X X - 1 4 0 s M Z L | | 3.9.9.9.9.9.t.f.M.B.I.I.Y.].].Q.Z.q...= > #.n.z.C.s.j = G o.6.e.g.g.r.f.m.Z.W.W.W.W.Q.].].].].].].].OX].`.Q.].Q.W.I.N.M.N.I.Y.I.I.B.B.B.N.N.b.M.b.i.r.e.9.9.6.3.O.O.O.O.o.X./ I L L G g 9 > o - L K - - B d ",
"N g N m s 1 ; ; 9 d / / L G > d K R R R / | L / d | L G o.O.O.O.O.| / d I | i d K Z d 3 # @ ; 9 a G I I ^ ^ ^ I I L Z g d 9 ; - o . . o < 4 s s N V N V G L L > 9 ; L e.f.M.N.N.f.r.0.0.9.o.| | / L G d s s 4 o   X > g G ^ .. .[ ] ] ] | ~ I ~ z a i ; o X           + O - - o @ . o @ o . o o d I O.9.b.b.r.r.6.X.R s @ & > p G 8 @ o o 9 R O.f.Y.W.].$X].`.`.Q.Y.Y.W.B.r.6.9.b.b.N.b.b.f.f.f.r.u.r.w.e.w.6.6.O.L i 8 J 0.0. .i g L | O.6.3.O.O.O.X.X.X.| / R R I L Z g B G G B B Z L Z d s d Z d i i s M M s 4 4 3 1 < - O o B d ; - 9 s s B d B B B B i i I Z g L | ( X.5.X.X.| | G 9 a O.r.0.*.*.q.d.l.n.n.m.n.b.b.l.*.I  .9 o   o o O < O O o o o X   O 4 L G -   @ 1 1 0 s M M d N Z Z B Z G G G Z B B g d d s 9 3 ; o   o # - ; 3 s d g d i 8 i i a a a a a a j k z H H ^  . .#.d.f.9.O.| L Z g i ; o o             X X O - < 3 0 s V L | O.3.8.8.9.9.9.r.f.b.b.B.B.I.Y.Y.B.n.M.O.H @ z 0.j.A.z...7 = I 6.r.N.N.i.f.B.B.Y.Y.W.`.#X#X].].].].].].].OXOXOX`.Q.Y.9.#.| o.f.B.I.N.N.N.N.N.b.b.b.i.r.r.w.w.w.9.3.3.3.3.X.X.| / R L L G Z B g 3 . ; R g & 9 Z ",
"N N M M s 3 1 ; i d I I G Z > d K R R R / | L / d | G L X.o.O.O.o./ I d I ^ 9 d Z d 0 ; - ; i k I ]  ......... . .| ^ L G Z d i > - o o o - 3 e s N N V K L R G i i i O.r.f.m.b.b.d.r.e.9.O.| | | I G g s s 1 o   o 9 Z H ] ...... . . .| ~ I J z a i - o             O - % o o . o ; 9 ; o o o 3 K O.t.b.b.r.r.9.O.X.s o o & 3 i @ o & 9 L 6.i.N.].#X#XOX`.`.`.`.Q.W.N.r.| O.e.M.N.N.b.M.b.f.i.i.9.r.r.6.9.9./ p k ^ 6.9.| H g / | O.O.6.3.O.X.o.| | | | ( R R R I L Z g g Z G d d g Z G g d d g d 3 3 s s 0 s 4 3 1 < - - O o 9 G 9 @ d B M K V K G K K g d G G g K o.2.o.5.o.o.X.| L i p | r.l.d.s.d.l.z.n.n.n.n.b.b.l.O.I | 3 X   o o O % O o X o o X   o ; Z L d o o # 1 0 s M B B B A G Z Z G G G Z B B g g d s 9 3 < O X X o o # - 3 9 9 9 ; - ; > > 9 9 i p a a k k H J I ]  .O.r.r.6.o.I G g g d 3 - o . X             o O < 3 4 m V L E O.9.9.3.3.8.9.e.i.f.i.f.f.M.N.n.N.b.d.9.o.8 8 k 0.l.q.s.H & a 9.M.L.L.M.M.B.m.Z.Z.Y.Q.].].].].Q.].].Q.`.#XOXW.Q.m.6.H 9 > d 6.N.I.N.N.B.M.M.b.b.f.i.r.e.w.9.9.3.O.o.O.O.X.X.X.R I L G G Z B B g 9 o s L 3 3 s ",
"N N N C M 0 1 - i i G I Z Z > g K R I R R | L R i X.Z I X.X.o.O.o.I I g I L 9 i B s 1 - ; 9 Z I  .O.*.=.*.*.*.*.#.O...| | I L G g i ; @ . X o 1 0 s s V K K I | d > & Z 6.f.B.M.M.f.r.r.9.O.| | | I K B d s 1 o   & i G J ] ...... . . .^ ~ H H k a > & X           + - - o . o o ; g Z i ; & o @ B O.r.B.n.f.r.w.6.X.s o o o ; @ . @ i L O.b.L.Y.#X$X#XOX`.`.`.W.Q.Z.9.H k | f.N.N.N.M.b.M.b.i.i.r.r.r.w.O.L d G o.0.#.L g G / 6.6.9.6.O.O.X.X.| ( R R R Y L Y L K K Z g d B G Z g g B Z B s 3 i Z i ; 0 s 3 0 3 1 < - - - - - - g s - 9 Z Z K K R L L R K g g Z d Z X.9.6.6.7.3.o.| I g 9 G 9.l.z.z.z.z.z.n.n.n.b.n.b.l...I | -     o o O # o o . o O X     o d I G &   o < 4 s B A A K L L L G L L G B g B g B d s s 4 1 - o     X X o O # # - # o o @ & - ; 8 8 p a k k H J I ]  .O.e.e.3.| I G g g a i > & @ o X             . - 1 4 s V L R X.9.3.O.X.X.O.O.9.9.6.9.9.w.r.f.N.f.f.e.f./ g * a ] q.=...t & G 0.I.L.N.L.B.B.m.m.I.Y.Q.Q.Q.W.W.W.Q.].].].W.E.n. .a G H H i a d.Z.B.M.N.M.M.M.b.b.f.r.r.w.6.6.3.3.o.o.o.X.X.| | R L L G Z B g d Z ; - R g ; g ",
"V N C C M s 1 @ i i G L Z G 3 Z K R L R R / G R i O.B / X.| o.o.o.R I g L L s 9 d 9 - - > a I  .O.*.9.0.0.0.0.0.*.#.O.O. .| | ^ L G d 9 & o o o 1 s s V G V L o.L & > ; / f.N.M.M.b.d.r.0.#. .| ( I K B d d 3 o   & d G J ] .... .[  .] ^ ~ H G d i : o             O - o X o * > p H H a i 8 - @ B 3.b.N.n.M.b.r.9.( s @ @ o - . ; g / O.r.N.E.^.#X#X#X#XOX].`.Q.D.O.G > g | M.B.B.N.N.N.M.M.g.i.r.9.9.| d i I r.6.I a a I O.9.6.3.3.O.o.| X.X.R R Y L K A A K Z V V Z B d g Z Z B g g B Z M 9 3 G B > 1 0 4 3 3 < ; - < < < ; ; > d i ; d L Z K R L R ( R Z g g d g R 6.e.w.w.3.O.( L B > 9 ^ q.d.z.z.z.z.n.n.n.b.n.n.d. .I L o     . + o O o O o o O o     X > G L ; . # 2 2 s B K L L L I I L L L G B g g d d d s 0 4 3 - # X         X + . . . . . . o # - > 9 a k k z H J ^ ]  .O.9.9.3.| I H z k g d i > - @ o .           + O - 3 s V R | X.3.X.R L L R I | | | X.O.6.t.M.N.M.B.M.N.M.6.k @ a *.%.-.[ t * ~ N.I.N.L.Y.L.B.m.m.I.Y.Y.Y.I.I.I.Y.W.Q.W.B.r.J k x *.d.q.I d 9.B.B.N.B.M.b.M.b.b.f.i.r.w.6.6.6.3.o.o.o.X.X.( E R L L G B B g s B B - d L - K ",
"V V V B B d 3 @ 3 i g G g L 9 Z K R Y R R R G R d O.B R | | X.X.X.R I g G I g ; 9 > - ; i G | O.*.=.0.q.q.0.0.0.*.#.#.#.#.......^ ~ H k s ; o . o 1 s N G K K | O.d i > g 9.M.N.b.b.f.r.t.9.O.X.( I K Z B d 3 o   ; g G ~  ..... .[ ] ] ^ I H G d i & o           O - o . o > i a z J H z z a > @ B 6.M.N.B.N.M.i.w.( s 3 ; o & ; G o.6.t.B.E.Q.$X$X$X$X#X].OX`.`.*.a p p G O.M.B.B.L.N.N.N.M.g.r.r.e.I i L 0.9. .G g I O.O.O.3.6.3.2.X.X._ E E T L K V N s m m M m N V V g g N G G B g N V C s 3 d g i ; 1 4 3 1 1 < 1 3 4 4 4 9 ; s d > 3 Z Z L R R R | X.L Z d d g L O.e.e.w.2.3.( G g ; & d ..q.n.n.n.n.m.n.n.l.b.b.r.| ^ g X   X X X . o o o o O O o X     o g L i . o 2 2 0 M K L R I R / I I L G B g g d d s 0 0 4 3 < - O o                       X o - > i a k k k H J ^ ]  .O.6.w.6.| ^ J H z k a p p 9 > - @ o . X       O - 3 s F R X._ R K N s f B G L I R | o.6.r.N.B.B.Q.Y.I.Y.g.O.p > a =.s.=.@.t p O.B.L.I.E.L.B.B.N.N.B.B.B.N.N.L.B.B.B.b.O.G a J %.d.n.l.*.z | n.B.B.L.M.b.M.i.i.i.u.w.w.4.3.3.O.X.X.X.X.X.E R R L K D V V B V M B 9 > L 9 s ",
"V V V V B M 0 - ; 9 g G g L 9 Z L R R R R ( G / d O.G L R R ( ( / L I g G / G ; ; - & > a I ..#.0.0.0.q.0.9.9.9.*.#.#.#.#.@....... .^ J G d ; o o - s s Z K K L 3.| > i ; L M.N.b.M.b.d.r.9.O.| / L K K Z d > . X > k H ^  . ... .[ ] ^ I I G k d > & X         + O - o o ; a G z H H x H J G t o d 3.M.B.Z.B.M.b.w.X.B d 4 @ - Z | 9.e.b.E.].OX$X$X$X%X#X].#X`.q.k G J ] z 9.m.B.B.L.L.K.N.M.g.g.6.I Z | f.r.I g G | #.O.X.o.3.O.O.X.X.| R L K V N m s 4 3 3 3 0 s s C V V N N G G V g s s m s 9 > i g 9 ; 3 0 3 3 3 4 0 s s s s i 9 i s 3 3 Z L R R ( X.o.| I p p d Z | w.r.w.o.5.R Z g ; @ 8 ^ =.n.m.n.m.n.n.n.d.b.d.0.] ] > X + X X X . o . o o o O o X     X 3 L B o . < 2 0 M A L R R | | / / I L G B B d s s 0 9 4 3 1 < ; % o + X                 X o - > p k k k k x H ^ ]  .O.3.w.w.o.^ ^ ~ H k k k d p 9 > - # o X       . - 3 m F U L K N s 3 1 4 s d Z L L | O.9.b.B.Y.Y.W.E.W.^.N.t.| i @ ~ =.-.k.{ 8 p 6.M.I.E.Y.N.n.M.N.B.N.M.M.N.M.M.M.9.L g g  .&.l.s.z.C.b.z H r.N.B.N.M.b.b.i.i.u.t.w.w.9.4.2.X.X.X.X.X.X.| E R L K K F V V V B d G ; d K ; ",
"N V V V V B s - - 9 d g i I i Z L R R R R R G / d o.L Z L I R R L K L g Z I L 9 @ @ & > k ] @.%.0.9.0.0.0.#.6.#.#.#.@.@.O......... .] ~ L G d ; @ o 3 s N K G L | O.i i * i 6.M.b.M.b.r.t.9.o.| I K G K Z d ; X o i Z H ^  .[ [ [ [ ^ I I J G a i ; o X         O O O o ; a H H H x H x J ` ~ a o s 3.N.I.Y.Y.N.M.e.X.K V s 3 B | 9.t.f.Y.^.OX$X#X$X&X$X#X#XQ.b.H z 0.0.I G d.Z.L.L.L.N.K.N.g.u.9.k i #.m.O.a k  ...o.| R X.O.X.X.| R R R L V C s 3 < - - # O # < 3 0 s N V B N s g N N m m C B d 3 3 d d 1 ; 0 4 0 s s s s M N d g i 3 s 9 1 s B K R | X.o.O.O.H a p d G o.w.6.o.X.Y Z d ; & 9 ~ #.z.m.n.m.n.b.b.b.b.d.9.] ] * o O o o O O o X . o o O o X X     & B K 1 . - 1 4 s B K R / |  .| | / I L G B B d s 0 0 4 3 1 1 2 - % O o X             X X o - 8 p a k z z H J ] ]  .O.O.e.e.o.^ ] ^ H x k k j k p 9 ; - O o       X # 4 m C C s e 4 1 ; ; 3 s d Z L | O.w.f.B.I.Y.Y.Y.E.W.^.E.N.t.^ = t { j.x.l.~ t g O.M.P.P.N.n.M.M.M.b.b.b.b.r.r.9.L i G #.s.z.x.s.0.z.m.] k 9.N.B.M.M.M.h.i.i.r.t.w.w.4.4.2.X.X.E X.X.X.E R T L K K F V V M Z M L i ; R 3 ",
"N V K V B A s 1 - 3 i g 9 R s Z L Y L R R R Z R d | L g L L L L R Z G g B L / g o @ & 8 G  .#.*.9.0.0.0.0.6.6.9.#.#.@.O. . . . .] [ ] ^ I I Z i @ . ; 0 s Z K L | 6.L ; i & L t.M.M.d.r.9.O.| I G B B Z Z d ;   o i G H ^  .] ] ~ ^ J J H H G d 3 - o           o o o # i L I G H H H H J ' ` G & d O.M.I.E.W.B.M.e.o.L Z M d X.9.r.M.Z.^.OXOX%X%X%X#X#X$X$XZ.^ ~ =.C.d.i | B.L.I.L.L.N.N.N.i.w.a G 0.b. .k L o.O.o.| X.E R R E E R L L K B s 4 < - o o o o o o O < 4 4 s N B B N V V V s s s s d g 9 3 d 9 - 1 0 s m m m m C B A B g s 9 s s ; 0 g L | X.o.3.6.6.L d i 9 G o.O.o.( L A d - - i ~ *.n.n.n.m.m.b.b.b.N.d.9.] ] & - - o o ; ; o X X o O O O o X   X . i K 9 # - - 3 s N K L / | o.o.o.| / L L Z B d s s s 4 3 1 3 1 ; - - - o               X o - 3 i a k G H H J ] ]  .O.O.e.r.O. .] ^ J H x k a k a i 9 3 ; # O     X # 3 s s 4 ; - ; < < 1 s N L R | O.e.f.N.I.I.I.W.W.E.I.E.W.P.M.#.a * c -.v.x.l.H * g 9.M.N.N.N.M.M.f.r.r.i.r.r.O.Z i J 0.m.C.x.=.@.~ q.B.*.a 6.n.B.M.M.K.h.i.u.t.w.9.4.3.3.o.X.R L R R L K B B B B V V A A Z A Z Z Z > K 9 ",
"9 G B N V V 4 4 # - N s > I G g K R Y R ( L G L g / | i G G K L L Z B L B d I / i ; = a J [ $.*.9.q.q.0.9.#.#.#.@.#... . .^ ^ .... ... .^ I J k > @ o ; d N K R | 3.3.B i ; d | r.r.r.9.O.| I G d s 4 K V s 1   o d G J ] ^ ^ ^ ^ J I I H G B i ; -         + o o - . 3 L L G B d k i k ] [ ..J * > | f.E.Q.E.Y.M.w.X./ L G / 9.d.b.Z.Q.OX#X#X$X,X,XOX;X$XW. .H j.x.C.0.I | N.P.P.K.L.B.N.b.#.p a r.l. .i L 6.o.( ( R L K K K A K D V f s 3 < # o o o o O O O O O O O < 5 s M V C N s s N N s 4 f f d i i i 4 ; < 4 s m m C V V V A A B s 9 9 d 3 > i G ( 3.6.w.e.9./ g 4 i B R E L V N s - - g J 0.n.m.m.m.m.N.M.N.M.b.0...G p i 9 9 i g g 3 & o o o - o o o       O V V - O ; 1 4 f K L R | o.O.O.O.o.| R L L B g d s s 9 3 1 3 1 < < < - o             X O - > i d g k z J ^  . ...O.O.e.r.6. .] ^ ^ J z k k k a p i 9 9 > ; @   . # 3 - - o X o < 4 s M A L X.o.6.w.i.M.B.I.Y.E.E.E.E.E.E.E.~.K.i.X.p * ..z.C.C.j.k ; L 9.i.b.h.i.i.i.r.i.g.6.O.k 8  .d.z.C.A.q.] a * ~ C.q.z | f.N.b.M.M.i.i.w.w.w.6.6.3.X.R L Z g d i 9 3 3 9 i 3 3 9 d B Z Z B L B s s A ",
"; L B K B V C 4 - # 4 d 9 Z G d K Y Y Y R L Z G G G O.d g L R K L G B L Z i Z I H k a z ~  .@.*.9.0.q.9.9.#.#.#.....[ ^ ^ ^  ...#.#.*.*...| ^ k d ; . @ s N V K X.O.w.| > i & B O.9.9.O./ L Z d > - - 4 C s ;   & a G L ] I I I J J H H G Z s 1 - -         O O o . ; Z L L g & ; 9 * a H [ [ ^ ; > R r.Y.Q.Q.Y.N.w.O.o.| / 6.f.m.B.E.OX$X$X<X<X<X#X3X+X`.0.x %.v.A.C.#.I e.I.L.L.Y.L.V.b.O.H J z.q.I z ^ | E R K A M s 0 s s s 4 4 1 1 - - O o o o o o O O o + o + O O - < 4 m m C s s s i s g e s s s s s 4 1 - 3 s m C B V C A A A A A B s 3 3 & & > Z X.6.w.w.r.w.X.G d d V N G K V s - o 3 I =.l.m.B.m.B.B.N.N.N.b.r.#.^ G I H H I | | L B - o o - O . X X X X . 0 K 1 o - : 3 s V K R _ X.O.6.6.O.o.X.| I K Z B d s 0 4 3 0 4 3 3 3 1 - o X           o O - ; i d k G J ^ [ [ ..@.#.e.r.9. .| ^ ^ J x k k k k k a k k Z g i @ X     X X   X % 4 C K U E X.6.w.e.i.g.M.N.L.L.I.I.I.I.I.I.I.U.P.g.6.G = x l.D.F.n.0.g ; | t.w.r.b.b.b.i.e.3.o.g >  .=.m.C.l.%.J a i = h d.m.H G r.B.r.g.b.b.u.e.e.w.o./ L Z i d g Z g g g Z g d d i i 9 > - s B R d V K 9 X.",
"s g V Z V C K s 3 # - g d i L d K L L K K K B g I g o.G i L R K L L Z L L i i g | | ^ ^ ^ ..#.*.9.0.0.9.#.#.#.@... .^ J J ^ ....o. .O.O.O.#. .H Z > o o 1 s C K R O.w.w.i i o > G | o.R Z d 9 - @ o o o M M -   - k H I ] I L H H H G G B g i ; O o       o < - o o d I I L i & @ o & * H ^ ..` i ; L 9.L.Q.Q.Y.N.r.6.6.O.3.r.B.Y.W.`.$X,X<X<X<X$X%X%XQ.b.z ] l.c.A.C.@.H i.L.P.P.L.N.b.9.k G d.m.J k H | L Z d 0 9 ; - & & ; & - - O o . X + . o o o o O O O o X o o o o o # < 3 s m M s s s s s s s s s s 0 3 0 4 3 1 3 s V K A A A K L Y Z d g i ; - ; d X.e.r.b.i.3.L d B L d d s g i @ @ 9 J #.q.m.B.m.B.B.B.B.N.M.d.0.#. . . ...| H Z B L s ; o O - o X o . o   # V s o - ; 1 s N K L E X.O.6.9.9.6.3.O.| R L G B M s s 0 0 0 0 0 0 4 3 < o X             o o - > i g z H ^ ]  ...#.0.t.9...| ^ ^ ~ H z z a k k k H J J L L d > @ o - X   # 4 V T ( X.o.3.9.w.e.i.g.M.N.L.L.I.I.I.I.I.L.L.K.P.g.w./ > = =.n.R.C.m.*.= > | r.i.r.e.e.i.9.( k ; ^ #.z.C.z. .k i p G k 8 #.D...i O.N.r.M.p.i.r.w.6.X.L B g d Z Z G L I I G Z g d g Z L L K B 3 3 B K K M s B ",
"( ; K M K B C C 4 ; o s Z 3 G G B K K A A V B d R g I I i L R L L L K L R B 9 9 L  .#.O...@.#.#.9.9.0.9.6.#.#.#...^ I H H |  .I Z B B G / #.#.| G d & o - 4 N L L O.4.r.R > > > 3 B L Z i > & o o $ > o 4 M ;   > G L I ^ L H G k k G k d 9 ; o X     X o - < o @ p L L H i o & ; ; o * 8  .[ ^ Z > g 3.N.E.Q.Y.N.r.w.w.9.e.N.Y.R.`.#X%X,X<X<X$X$X%XQ.Z.^ G n.n.k.v.C.#.^ f.N.E.P.N.M.9.G G 0.Z.| i L / Z i 9 ; - ; ; * * * & @ - O o o o . . o . o o . X o o o o & - - & o o o - - 3 s N M s 4 m s 3 1 4 s s 4 s 4 4 3 1 i s N V K K K K R R L d g B 9 @ @ 9 K o.e.g.i.3.L Z K o.L s > ; & @ & G ..0.n.B.m.m.B.B.B.B.N.b.r.t.9.*.*.O.J 9 & - s K s # o - - o o o o     s V - o - : 4 s V L E X.O.3.9.9.9.9.6.O.X.( L K Z B M s s s s s s s s 4 < O X             X o @ ; i k H J ^ |  .O.9.9.9.O. .^ ^ ~ H z z z x H ~ /  .| / I G H G g B o X 4 C T X.X.X.o.2.6.9.w.u.i.b.N.L.L.I.I.I.I.I.L.K.M.N.i.w.| i @ ^ q.C.C.n.m.^ & > L X.6.6.O.| G i ;  .*.n.z.q.[ a d G I O. .i  .Z.r.p L r.f.M.i.u.t.O.I G g B L L R | | / G g g g g d 9 > > i B K L s s G V K d s ",
"X.3 A V K K V V m 3 - 2 B i g I d B A A B B B g L L a | g L L ( R R L L | R g 9 i L @.9.*.0.0.*.9.9.9.9.9.9.6.#.o.^ H G G ^ L i - ; ; ; s L o.6./ G > o o 1 m K L X.4.w.9.s 3 3 & ; 3 3 ; @ & - > > d 3 @ s 1   > G L I ^ J H G k k G g 9 - o X X   X o - < - o ; J | I g ; > d g i p o > z  .^ I 9 i O.M.Y.E.E.K.i.i.i.r.f.I.W.Q.#X$X,X,X<X<X$X$X#XR.O.z 0.D.l.s.c.m.] | f.N.I.K.N.9.g k d.Z.@.Z Z Z p ; 8 & 8 8 t a a p y 8 = ; # o o O O # # # # o . X . . . & * > > > ; & @ & o o - 3 s m M s 4 < < 3 4 s s s s s e 3 > 3 i M A Y L K Y ( ( X.L M 0 9 9 1 - B E 6.i.r.o.G g L o.X.g & o & & a { q.b.m.m.B.N.m.B.B.N.M.b.d.d.d.=. .z > @ o & s N 4 o O # O o o o O X - V 4   - ; 4 s N K T X.O.6.9.9.9.9.9.3.O.o.X.R R K V N M M M M C C C N s 3 # O o o X X       X o * i G G I ] | ..#.9.9.O. .| ^ I H z G H J ^ ]  . . .| ] ^ | | L Z o @ s K E X.X.X.o.3.6.w.e.u.i.g.M.N.L.L.P.L.L.L.K.N.M.u.w.6.| Z & t #.0.m.Z.n.q.G @ 9 A ( ( Z 9 > 8 ^ 0.m.m.q.] = k I X.O.O.O.a I m.b.I p | e.e.y.w.O.L g g G I | | | L g d g B d 9 s d B B s 3 ; - g ( s s L Z L 3 ",
"g Z s K M K K V C s 1 - s d i L B M B A V A Z B G I d I G G K X.( ( R K R X.L g > a ^ @.9.q.0.9.9.9.9.6.6.6.6.#.o.^ G G G H p o X O O o # > G O.O./ d o . - s B L E 4.w.w.R & > - @ @ @ @ & > d d f Z g o 1 ;   ; G I I ^ J H G k k Z d & o X       o % 3 3 o o a ^ | G ; > R / L / G p o i I | | g 9 / r.L.E.E.N.i.g.M.g.N.W.Q.].$X1X1X,X<X$X$X$XQ.q.z *.Z.m.] } x.C.H L e.N.N.b.e.G i *.T.q.a g p 8 > & p j z J ^ ' ` ~ H k a 3 - o o o o # # # # o . . . o o @ & = > i i i 3 - & o . . # 1 3 4 4 4 3 1 < 1 4 s s d s i 3 3 i 0 s B K R R ( X.X.3.3.R N 9 s B 3 s B L X.R G B > g O.9.L 9 * * y ] 0.j.n.m.B.n.n.N.N.N.M.M.b.b.s.*. .G 9 o   X o e m 1 O O O o O o - o X s s X - ; 1 s N F R X.O.6.9.9.6.9.9.9.6.3.O.o.X.R K Z A V B B V V V V V m 4 < < - % % o o X     . & 9 g H ^ | ..#.9.0.O. .| / I H H H J ^ ] ] | | ] ^  . .O...I d o @ s K E X.( X.o.o.3.6.w.e.i.g.M.N.L.L.L.L.L.K.M.g.p.9.3.3./ L 8 o J *.l.D.C.l.=.k @ o @ @ * 8 H ..d.m.Z.d. .= k I 6.w.7.w.9.H z d.D.*.8 p X.3.3.X.G a g L | | | L g g g d i s B K L L L L K K G Z 3 3 R s Z A V d ",
"9 L s Z C K K A V N s ; 3 B g B L g d Z A K K Z Z R G G L G K ( X.( X.L L | I G i i d H ..9.9.0.9.9.9.6.#.#.6.O.o./ G Z G Z ;     O O O O o > B O.O.L > . o 1 M K Y 3.w.w.w.9 1 3 - @ @ - 3 d g d d Z Z > @ &   ; G I I ^ J H G G k g 9 o . X X   o - < s 3 o 3 | | I 9 & d o.O.O.O.O.G > & L | O.I 9 Z 3.N.E.Q.K.p.N.N.M.L.^.Q.#X%X1X1X<X#X#XOXQ.n.J ] D.m. .p ' F.F.] H 6.f.f.O.L a ..D.n.J 8 8 ; 9 Z k ` =.@.-.s.s.-.%.{ H k 9 - o o o @ - 1 - ; 3 3 > > 3 3 > > > t i d d i 3 3 > - o o o o < 1 3 4 3 ; 1 4 1 4 s B B d s s 4 3 0 B L R ( X.o.5.3.4.3.X.K s 3 1 > s K G g g g & i O.r.O.k > a [ =.d.b.n.N.n.M.N.M.M.M.M.M.b.r.0.#.^ d o X X X - s s ; o o o o . o o   < N ; o - 1 s m V U E o.3.9.9.3.6.6.6.6.6.3.3.2.X.E Y L K K K K K K K K V M s 4 2 < 2 3 - O o X   . o 9 k L ^  .O.#.0.O.o.| | ^ I I I ^ | ] ^ I I ^ ^  .#.O.| L > . o 3 N L R R X.X.X.o.3.6.w.u.i.M.N.K.K.K.N.N.M.g.u.w.O.X.X.R K d . >  .9.n.F.z.j.=.^ Z d k ~  .*.d.m.C.n.O.8 g L 6.w.u.i.i.r.O.p O.D.l.H > g L L Z d d J  . .I G g g s d s B K L L K L L L R R L K Z 9 B A d s E L ",
"B Z B s L K V K K V s 4 ; Z K 3 X.B s Z K K L K K R | d L G K L X.( 3.| L R L L Z 9 * p I O.#.9.9.9.9.#.#.#.O.O.o.| L G G g &     + O < 1 o o - | 6.O.d o X - s B U X.w.w.u.R 3 9 3 ; - ; s g d i i g K B o o   ; G I I ^ J H G H k d > o . o o o - 3 4 m 4 - B |  .H ; d O.w.b.r.e.O.O.d * G ^ 6.O.i i | M.E.Q.L.M.K.I.N.I.].^.#X,X2X,X#X[.^.Q.Y.] J m.D.d.> i ` A.x. .J O.O.o.H g ..D.D.#.a * ; k H [ l.s.z.z.x.x.z.j.s.@.H p ; @ o o @ ; 9 B K I | | | | | | G G g d p d d i d d i i 9 ; & o o o o - 1 4 e s 4 1 1 4 s N V V M 0 3 s N Z R 5.3.6.w.w.w.7.3.o.L B 9 9 d B g Z g ; & d | r.d.#.J ..=.l.n.b.n.N.N.N.M.f.f.M.M.b.r.*...I d & X X o X - s 3 o X   X     .   o s s o - ; 4 s C K R X.3.9.6.O.3.6.6.6.3.3.6.6.3.X.X.E R Y Y U U U U L K K V m e 4 4 4 3 < ; # . X o & i G I |  .O.9.O.o.| / / I I ^ I ^ I H k k G H ^ O.| Z g @     # 4 B K R ( X.X.3.4.w.w.e.i.g.M.N.N.N.M.M.g.u.9.O.X.E L L Z Z @ o d #.l.m.D.x.s.q.#...#.q.s.z.C.Z.m.*.a p G O.6.u.i.g.u.9.9.i ^ b.Z.r.p & > i d k G | #.| G g d s N V V B B A L L L K K K K L Y K L 1 K d L K V ",
"K s Y Z V K V L K K B 4 3 s L s Z L 9 Y B T K L L g 3.| 9 L K A R X.o.| L L L L Z d > > g ^ O.9.9.9.9.6.O.O.O.O.| | L G L d @ X   + O O - - o X i | w.R ;   o 1 s K ( 4.w.u.6.s ; 1 9 s 3 3 9 > ; & > L K o o   > G I ^ ] I I I G k g ;   - 1 ; 3 3 M B B - 9 / O.| ; ; | r.b.N.b.i.i.e.L ; i | 0.r.J i G e.I.W.K.M.L.K.N.E.^.].#X1X,X,X[.W.^.Y.r.H d.Q.B.H t z { F.C.^ a H J a 8 ..m.`.z.j = 8 J ..s.z.C.S.S.A.S.A.x.j.=.[ k 8 @ o @ > g I o.3.9.6.6.#.O.| | O.| R R R L G B Z g g g g g d i > & & & @ o & ; 3 s d s 3 3 0 M M A K K B s 9 0 s R X.7.w.7.6.w.p.i.7.R s 3 d L / I / / / O.r.b.d.%.=.d.n.m.n.n.n.b.b.f.f.f.f.f.d.0.0.#./ g - X     o o 3 M .               o 4 K 4 o - 1 0 m C R X.X.3.6.3.O.3.6.6.3.3.6.6.3.5.o.X.X.( R R R T T T U U K V C m m s s 0 4 3 ; o X . ; g G I | ..O.O.o.| / / / | | / I G a a a k H J I G 9 o .     X # 4 V U R X.5.o.3.7.w.e.i.g.M.M.N.N.M.g.u.w.3.X.R L L K K d - . - G 9.n.z.k.x.z.s.s.s.k.c.x.C.x.%.z i g X.6.3.w.w.u.i.r.9.^ i 9.D.m.%.z i k G I O.9. .G d i 9 B M M C C M V K L K K F K K K L R N L s R s L K ",
"L d K Y s V L K U K N s s 3 B K d L B s R Y B E L G X.| g B K L A R o.X.R K L / L g 9 > i G | 9.9.9.9.#.O.O.o.o.| | I K K i o X   + O O - - o o o d X.O.d o o - s V T 4.w.u.e.R ; @ - 3 3 ; ; & * * o d K 9 o   ; G ^ ^ ^ I I H H G a ; . 9 s 4 0 m B K d ; G o.O.z 8 G w.N.I.L.N.M.N.f.3.g > / 0.0.~ 8 d 6.N.E.K.M.N.N.N.E.^.^.$X#X,X#X^.E.E.N.G ..T.D.*.8 H k =._.F.%.z t i a ] m._.F.@.t y J =.d.C.S.G.).).G.S.A.z.s.#.J 8 @ @ & i I #.e.e.e.6./ G g a i 8 9 B M M Z G Z G G G G G G G k a a d i > & @ @ & - ; 3 M B B s 4 3 9 N L ( R A s 1 0 A ( o.2.4.w.e.i.i.w.o.R Z 9 @ d Z L | O.#.O.O...*.q.l.b.n.m.m.M.b.f.f.f.f.r.r.q.0.#.| Z ; o         # 4 1 X X X           1 K V 1 o o 1 s m K ( X.3.3.3.3.3.6.3.O.O.3.6.3.3.5.o.X.X.X.X.E E E R T T U K K V B C m m s s 3 < o   o > g L I |  .O.o.| | | | | | L G a p p a g G Z d ; o       X   + < 0 V Y ( X.3.6.w.w.w.i.g.g.M.M.N.M.p.e.6.o.| L K G V V d 3 @ . & H q.l.z.C.v.v.c.k.k.z.z.l...G i g L ( 5.7.4.7.w.w.9.9. .p ] m.D.b.=.| | #.9.q.9.I d > 3 3 9 9 s s m m m C V V V V V V V V V K V V V V V F ",
"K Z Z K V N L K L K V s M 3 0 R B d L s A Y R L L L I X./ B K L K K R X.( K Z L G B i 3 i g I O.9.9.9.9.#.O.O.O.| o./ I L s & @ . X X o # - - o X o G 6./ > . o 3 M L 1.w.w.i.e.K ; o @ @ o @ ; 9 p & - L Z o   * H ] ` ` ^ ^ J H G d @ o B B B m K K R 9 9 | #.o.8 g 9.M.Y.E.L.P.K.Y.N.b.| > G *.9. .p i | M.E.K.g.M.M.N.E.W.Q.#X#X#X^.E.E.I.O.z D.`.l.G G O.a =._._.z. .a k [ m.XXXXk.! j ' s.C.G._._.|.|.).).F.v.k.-.[ a * @ = G 9.l.r.6.| L d i > 8 i d i 9 s 0 4 0 s 0 9 9 d g g Z z G G J a g g g g i > & - @ - 3 0 M A Y g s 9 s Z L ( X.B d s 9 B ( 6.e.i.g.r.X.L G Z g i > > 9 9 > 9 p ^ #.d.n.m.m.n.b.b.b.d.d.d.r.r.e.r.9.#. .G 3 o   X + X O < s o o O . + o     O s R N o   o - 4 s K R o.3.3.3.3.3.3.3.3.3.6.3.O.o.o.o.o.X.X.X.X.X.R R R T T K K V V V C m m s 4 < o   . - d G I  .O.| | | | | / I Z d i 8 i a a g > @   X .           + < 0 V R X.3.6.w.w.w.u.i.g.g.g.M.g.u.w.5.( L G D B N N s 4 3 - @ * G *.l.z.v.x.j.j.j.j.%.` p 8 i G E E X.3.5.3.3.2.3.9.O.G p 0.T.Z.m.z.s.n.n.d.@.k * @ & - & - - ; < < 4 s M N C C N M N C m K B K s K B V ",
"B L K i E N V L V V L N M s 0 V X.i g L s A R L R R L | 9.L L K L V Z L R K B g G B i > i g L O.9.9.0.9.6.#.O.O.X.o.X.| / Z i 9 - o   X # < < # O o 4 X.O.g o   - s V E 7.w.u.g.9.V & o @ @ > g G I G o K K >   * H | ] ] ] ] ^ I J a @ & L K K B U E E 3 k 6.#.I 8 / M.N.Y.E.K.K.P.E.I.L.9.d i  .-.#.H p G f.L.p.i.g.M.N.E.E.Q.Q.<X~.W.E.I.f.k *.`.m.] p 9.6.G { G.|.C.q...9.C.XXXXS.%.~ { k.F._.|. X|.).).G.F.A.x.s.@.H 8 8 p ..q.d.*.| L d & g Z L I I / I L Y K V B M s 4 3 - - ; > > > i i G G G G Z Z B B d 9 1 ; ; 1 4 s B G Z d 3 3 d K 3.X.R A M d B K X.3.6.( K B g d g i i i 3 & o o k  .q.l.b.n.n.b.b.b.d.d.d.r.r.0.0.*.@.| Z ; o X O < < < 1 4 - - < < < < - o o - K K -       O 1 s Z ( o.3.3.3.3.6.3.3.3.6.6.3.o.o.o.X.X.X.X.X.X.E E R T T U K K K A C C C m s 5 1 o   o > g L |  .| | | | / G g p 9 > > i p p i o . o - < O           O < m Y X.5.3.6.7.w.e.i.g.g.g.p.u.w.4.X.Y K B B N s s 0 3 3 i > o & z #.s.j.s.s.s.-. .z 8 * i B L E X.X.X.X.X.o.X.o.3.O.I > I n.m.m.D.m.n.n.q.^ y @ @ @ @ o o o . X o - < s s s s s s s s s N N N s B V F ",
"B K L i R N f G V N L V M B s s X.L 9 K K B B R R R L L 3.| ( ( K Z V Z Z Z d s B G g > ; i G | O.*.9.9.*.O.O.O.O.O.o.o.X.R L G d > o o o # - - - o o d 3.| ; . o 3 C U 3.w.w.i.i.X.g 9 i d G / | O.o.& s I B o * J  . . . ...] ] ^ G & - | R R L R 3.I 9 | 9.@.i Z r.L.I.Q.E.P.P.E.E.W.Y.f.| * H -.=. .a i 9.g.w.u.M.N.L.E.E.W.E.#XE.E.E.B.| H D.T.%.a ^ r.e.| [ S.|.F.C.m.F.XX*X).k.@.&.c.F._.|.|.|._.).G.S.A.v.z.=.` a t x #.r.d.9.G > > G X.X.3.6.O.| | | | E T T R L A B N s i 3 > - @ o o & > i g Z G Z Z Z Z B d 9 3 ; & > i G L L L Z Z 4 9 B ( 3.X.L G B Z Z B Z Z B s d s d d s > @ o & k O.r.b.n.b.b.l.d.d.d.d.r.q.0.9.#...I i @ . O < 4 m s s - ; < 4 4 4 4 4 4 - o 3 N ; . X   X o - 0 Z R X.3.7.w.6.4.3.3.6.6.6.6.3.2.5.X.X.X.X.X.X.X.E R T U U U K K A V V C m e 5 - o o - d G L | ] ] ] ^ L g i 3 - - > 9 p i - X # 2 4 3 # O +         O 3 V E 5.3.7.w.w.u.i.g.i.p.i.u.w.3.( L Z g M M s s 4 < 4 s s 3 & & i I ] ..0.=.^ i * * 9 B L L R X.X.( ( / | X.| X.X.E d i O.b.n.D.C.z.s.#.~ p 8 = 8 8 > ; & o . . . o - < 3 4 4 3 3 3 3 3 s m N N V F ",
"K B L K B D B g L N V K M A B s Z O.G s L K K A K L / I X.o.X.o.( R K B B B d 3 > g g i > > d L | ..*.9.*.#.O.O.O.O.O.O.O.O.| / I Z p ; @ o # < - - . - R O.d o X - s V X.w.7.e.g.e.X.L L / o.9.r.r.6.k ; / L & ; J  ...$.$.....[ ] I * & X.X.X.( ( 3.G d *.*.^ > | B.Y.W.^.E.P.E./.E.Q.W.B.0.= j &.&.#.H i ( 6.4.i.L.K.I.W.Y.E.^.E.E.P.B.r.a 9.`.m.z J 0.f.r.| @.C.|.|.`._.XX*X>Xv.>.-.c.).|. X_._._.G.G.F.A.C.c.s.@.~ z ~ =.m.q.I i d L | O.w.2.3.3.o.X.X.X.( R R T T U K K A K V C s s 4 3 2 - - - # - ; s g Z L L G G Z d 9 & @ o ; g L R R R N 9 d K R R | w.3.( L K Z G K d d s 9 3 9 3 > & p ^ #.r.l.b.l.l.d.d.d.d.r.0.*.#.@.^ Z ; o O < 4 m m M m O 2 - 4 m m s m M 0 - O 3 - o # O o . o - 3 M K ( 3.w.6.7.6.6.6.6.6.3.3.3.2.o.X.X.X.X.1.X.( R T T U U L K K V V V m m 5 2 O X o > d g J I I I L G d 9 ; & ; i i d i @   < m m 4 3 < O           O s L X.3.w.w.y.u.i.g.g.g.i.u.7.5.R K B d d M d s 4 < 4 s B B s ; & & ; t a B 9 & - s B A L L L R R ( | R ( ( R Y T T Z - g 0.l.z.k.s.&.@.~ k j k z z z k d i > & o   X o # < < < - O O # - s s N s V ",
"L B Z L d B L s V V N K B A B B i | o.d Z Y ( B B K L I R o.o.( 6.5.R K Z G B s ; 9 i d 3 - 3 g J ] O.*.9.*.#.O.O. .O.3.3.O.O.O...[ ~ G i - # # - 2 O o d o.I @ . o 3 m R 4.6.e.M.N.r.O.O.9.t.b.m.m.r.| ; L I i > J  .#.=.*.*.*.O... .> & o.3.o.X.5.o.g G 0.$.k d w.Y.E.!.^.E.P.E.E.Y.Q.].W.d.k j ' &.q...Z Z R 6.M.U.L.Y.Q.E.E./.P.Y.N.M.o.H Z.Z.$.a *.r.N.w.L  .z._.*XoXXX-X>XF.j.>.k.S. X X|.G.G.F.F.F.S.C.C.l.-.' ~ @.s.k.q.J k G | 9.w.6.6.6.7.7.4.3.2.X.( X._ E R R L K K B C M m m M C M m m s 0 1 - & & & > i g G J J J G G Z i ; - 3 d V R X.X.L G G G V G L R L N s s G K K K V V N d d p i g I #.r.b.d.d.d.d.r.q.*.#...] H 9 @ # 1 0 m m C V m 3 < - 4 s m m M C m 4 O O # O < 0 3 - - - - 4 s B K ( o.3.6.6.6.3.3.3.3.3.2.5.X.X.X.X.X.X.( E T T T T L K K A V V m m 4 2 o     o ; 9 g z G G G g i ; & @ > d g g i . . 3 C V C m 4 < O +       X : d Y X.3.w.w.u.i.p.g.g.i.w.3.X.Y A B s s d s 9 1 ; - s V V A K g 3 - o o o # - 0 V A K K K K K L I / I R E U K K V A - & H #.#.&.@.{ ' ~ ~ ~ [ [  . .] ^ H G d 9 & . . X o o o o X X o o 1 4 N s N ",
"Z K B Z V s R N s L N V A A V V g G o.L K A K E Z Z d G Z X.3.R 3.4.3.( K G L R d 9 > 3 3 - - d z I ..#.*.#.O.O.o.o.O.6.3.6.9.9.*.@.O. .I d - o O < < o - | O.> . X < s L o.3.e.i.N.N.f.f.b.b.m.B.B.N.3.9 g I Z > H  .*.q.q.q.q.q.*.*.i & O.7.3.X.9.X.g | q...8 | M.Y.W.!.!./.K.P.E.E.E.$X$XM.] 8 z %.q.0.^ 9 g 9.K.E.L.E.^.E.Y.P.E.L.M.f.G #.T.l.z O.d.N.L.g.| H -._.oXXXXX>X).v.,.k.v.F. X).F.G.F.S.S.F.S.C.x.s.&.` ' s.C.-.x g I 6.e.e.w.w.w.w.7.7.3.2.5.X.X.X.E R R T T L K K A V C M M C C V V V B B B d d i > & & & & t g H J H G Z i ; @ & 3 d g L o.O.| L B B G G s s s d s d s 0 4 4 9 3 & @ 9 G | O.#.d.d.d.r.q.0.#...] I d ; @ 1 s C C C K K s m ; ; 3 4 M B C C m m - o - O < M m s 0 1 1 9 9 3 s B R X.3.3.6.6.6.4.3.4.3.3.2.X.X.X.X.X.X.E E T T R L L K K F V m s 5 < o o .   . @ i d g d d i > @ o o ; d d g >   ; 0 C V V V m 4 < O X     X $ 4 B Y X.4.w.u.i.i.g.g.i.w.o.E K V M s s s 0 3 ; - 2 4 s V Z G K L B s 1 O O < m K A U Y K K K L L L L L L A V V m m s o ; J  .[ ~ ~ ~ ' { @.%.%.%.#.$. .] | I G d # o X     X X X X X X o ; s N s ",
"d K K Z G B V L Z d V B V B K A Z s R ( K L L K / L Z g s M Y 5.( 3.w.3.R Z B B L Z d d 9 ; - ; p G [ O.#.#.O.O.o.X.O.O.O.O.9.9.9.#. .L L ( V . 1 # ; 1 o 3 3.K @ . - 1 K ( 3.w.r.M.B.B.B.B.Z.B.I.N.Y.r.B 3 / L t G  .*.s.d.d.z.k.s.q.a & 3.w.7.3.6.| d r.r.Z p w.N.E.Y.E.Q.W.L.I.U.E.^.#X$XP.O.p p $.d.m.#.8 i o.N.E.U./.E.E.Y.K.E.N.m. .a Z.C.^ Z r.N.L.N.N.O.a  .F._.|. X Xv.;.,.k.C.G.G.S.A.D.S.D.C.C.S.C.c.-.{ } s.n.d.^ > o.9.i.i.u.u.u.w.w.w.6.3.2.5.X.X.X.( R R R Y Y K K A B M B V V V B V A A A K K K K A A B s 3 - & > i g G H G G G g d 8 * & 8 a G L o./ L G B B B d Z B d B B s s 0 0 3 ; - i ^ O.9.q.d.d.0.#... .I g 3 - ; 9 N A K K V V K m - # 4 4 V N V V V N 4 o . # o M m A V C m s 4 3 1 3 s V R X.4.4.4.3.3.3.3.5.5.5.o.X.o.X.X.( R T R T Y U K K A V m 4 < - - - O . X o ; 3 4 4 1 - o X . . 1 d d g @ X - s V K L K C C 0 2 O X     . O 0 M K R X.4.w.u.M.p.e.6.o.R Z g s s 0 4 4 5 < O O 4 C B B G G G G Z B s 9 0 N K K A A K A Z G K L L L K V C m 3 1 - @ & > k x z J ~ [ @.%.0.=.%.*.*.#.@...| ~ G d > o X           X o X o 1 s N ",
"B Z Z Z G B N A R s B A A N K B A A M R R Z / R L L R L B s s B K R o.6.3.R Z d i d B L G g i > t k ^ ..O.#.O.o.o.X.o.O.O.O.9.9.#.9.O.G s Z A s o 1 ; - & - X.X.1 . ; 1 N Y X.6.e.b.N.B.B.I.Y.I.L.P.I.b.L > L J p k ^ #.q.d.z.C.m.z.l.I G 9.e.9.3.O.G L f.O.d I i.N.I.I.I.W.E.N.P.E.~.[.$X<XE.e.Z 9  .n.C.s.j t / r.U.E.^./.E.L.P.N.B.9.~ J F.d.a | B.K.L.K.K.w.G J s.A.G.G.v.;.%.>.v.A.S.C.A.S.C.C.C.C.A.S.v.j.&.} %.z.d. .L ( w.i.g.g.p.i.i.e.e.w.6.3.3.2.o.X.X.( R R R R Y K K A B M N B B B B B Z A K K Y Y Y Y Y Y K A A V i 9 > > > i a G H G G G G a > o 9 s i d B d d B 9 i s i s 9 9 9 3 1 # o @ i ~ ..=.q.q.=.#.$.^ H B 9 ; - 9 B K K L U K K K M 1 - 1 3 B N B N V N s ; X O o s M K T T U K N s 4 : 3 s N L ( 1.3.4.4.3.2.o.5.o.o.X.o.X.X.( E R T Y U U U K V C s 3 < < < < < - O O X o O % O o X       1 d d d @ X 1 m A K U K V V C s < O X     X o # 1 0 M K ( X.3.w.w.6.| G d i 1 4 4 4 4 5 < O O 3 m V G G G G G K K B d d d B Z Z Z Z Z Z A K L L K V m 4 2 - o o o @ = p k k x ~ ' ..#.*.*.%.$.$.........^ I G i * o X         X X   X o 3 d ",
"B B B Z K V d B R V V B A N A V A A V K R L L / I I I L K Z d 3 0 d K ( X.R Z g i > > d R X.I k a z I  .O.#.O.o.o.X.o.O.o.O.9.9.9.*.O.I i - s R - - 1 - ; o N 3.B o - 1 0 A R 5.w.i.N.B.L.I.Y.Y.I.E.L.M.O.8 g I g h H ..*.s.z.m.C.C.z. .9.e.w.6.3.X.g O.f.L d 6.M.N.L.L.L.Y.P.M.P.E.^.#X$X,X].N./ 9 ~ n.C.j.` 8 a o.L.E././.!.L.L.N.N. .a j.Z.@.p q.I.K.K.N.N.h.I k ] s.v.k.;.} } >.v.C.C.C.C.A.C.C.C.C.S.C.k.;.} } j.z...k / f.M.M.M.g.g.g.p.u.e.w.6.4.3.2.o.X.( ( R R R T Y K A B B N B B B C N N B B Z K L Y R E ( ( ( X.X.X./ I Z i > ; ; > d k G G G G G G g d 9 i d > > 9 9 > 9 9 > ; ; ; > > 9 i a ^ #.0.0.q.0...| ^ I Z > - - 3 B L R Y T T U U U V 4 < - > V B V N B N C 4 o O X 3 C K T ( X.E R L B s 3 2 1 s V Y X.3.7.4.3.5.5.5.5.X.X.X.X.X.( R T T U U U A C m 4 3 < 1 3 3 4 4 < #                     ; d g d o . 3 N K K U U K L K B s 3 O X           X o - ; 3 9 s B B d d d i 9 3 3 1 1 1 # o # 2 s M g g Z L K L L K Z B d d B B B V V V Z K L G Z N 4 < O O o & ; ; 8 a k x c ~ ' [ ........ . . . . . .| I H d > o X X           X o X O 1 ",
"s d B Z A Z B N d L K s A B B A A A R Z K R G L / R L L R R K M i s g G L K Z B 9 ; o o 9 L X.O.^ ^ ^ | O.#.#.O.O.o.o.o.X.O.8.6.9.#.o.| Z o o B A . 1 1 - o - _ ( - - 1 0 N K X.3.e.M.N.B.I.Y.I.I.Y.I.N.0.a 8 ^ G t a ` $.0.l.l.C.z.d...M.f.o.o.o./ Z r.e.g L 9.g.M.M.N.N.L.L.N.I.~.[.#X#X,X#XY.6.g Z q.k.s.@.j 8 I M.L.E.E.E.L.N.I.r.H z T.n.H I f.M.N.N.M.p.b.o.g k [ =.%.{ ' &.s.v.C.A.S.S.v.C.C.C.A.S.v.s.&.} ;.x.q.z G e.M.N.M.g.g.g.g.i.e.w.w.6.3.3.2.X.X.( ( R R T Y K K A B B B B B B B N N N B Z K L L R R ( X.X.X.o.5.3.O.O.o./ G d i ; * ; 8 d G G Z g G G I / | o./ / H L I G G L G I ^  .....#.*.$.*.=.#. .^ H g i - ; 9 B L ( ( R E E T R U V s 1 o - V V V N B B B s o o X - C K Y E X.X.X.X.E K N 4 ; ; 3 s K E 5.3.3.3.5.5.o.X.X.X.X.X.( E R R T T T K C 4 3 < < 3 4 s s s 4 < X X           X     - d d i . o i V K K U Y U R U K V m 4 < - - O O o . o o . X   . o o ; 9 9 > o @ & ; 3 3 - . . - 0 d B B G K Z K L K G B g d M M M B B B V Z G Z B s < O o & - w a a k J ~ ^ ` ` ' [ [ [ [ ] ] ] ] ] ] ] ^ I G d ; o X   X         O O X . O ",
"; 0 B B B A A B s K L N Z B Z B B K K L K K ( Z R o.3.o.E L Z B 9 ; - 9 Z L K B g d > & > G | O.O.| | | O.#.#.O.O.O.O.O.X.O.3.6.O.*.O.| G ; . o E 3 ; 1 - - o V 6.i @ 3 9 s B R o.w.g.N.N.B.I.L.I.B.Y.m.d.I * J G > > G | *.q.q.x.j.0.#.m.M.G G L g I b.O.i o.6.e.i.g.M.M.N.L.L.Y.W.].].#X,X$XW.r.L p ~ &.>.=.` j k 6.i.L.P.P.L.L.N.#.i 9.R.d.i #.f.r.M.i.i.u.w.O.B i g x ~ ~ { s.c.C.C.S.S.S.v.C.C.C.A.C.c.-.} &.k.s.J k O.M.M.N.M.g.g.g.g.i.w.w.w.6.4.3.5.X.X.( E R R Y K A A V V B V B B B B V V V V Z Z K K Y R ( X.X.o.2.3.3.6.w.9.6.O.o.| I Z i > > > > > G G G G L | O.O.9.O.O.#.O.#.9.*.*.*.*.#...[ [ ` .. .| ^ G d ; @ 3 g L | X.X.X.( X.E E R U K m 3 o - V K K V V V B N # o X O s K T X.1.1.2.4.2.X.R V 4 ; O # 3 M Y ( 4.3.5.5.5.5.5.o.X.X.( E R R E R Y K m 4 1 < 1 s m m m m s 4 ; - O o o o o o X   @ s d 9 X @ i V K L T R Y T T T U K V B B V M M M M M M s 0 9 #   o B 3.e.w.O.I i & . o o @ @ ; 3 0 d A K V K K K G Z B B B M d d M M M B V B Z B 9 # o @ > i g J I ]  .....@......... .[ ] ] ] ] ] ] ] ^ H Z i - o X X + +       + O o o X ",
"o ; s M M V K B A s K L Z V L M A B V Y L K R ( B L | o.2.5.o.X.K B s d Z L L R L G g d g L / | ( I I | O.#.#.#.#.O.O.O.O.O.6.6.O.O... .H 9 o . 0 L 1 < 3 - O ; O.K - 1 s s d K X.4.i.M.N.B.L.B.L.B.Y.B.b.O.; a G = & i H ..9.0.j.=.%.*.m.r.d > d 9  .N.^ i o.O.6.e.i.g.b.N.L.L.E.W.^.].#X,X$XW.i./ 9 p ~ =.-.=.[ a z o.N.L.N.Y.B.r.G p m.W...p 9.i.i.p.w.u.w.2.X.Z 8 > t c ' &.c.C.S.A.C.v.v.v.C.C.v.C.v.s.&.@.s.z.] p | r.p.N.N.N.M.g.g.i.u.w.w.w.6.6.3.2.X.X.( E R Y K K A A A A A A A A A A K K Z Z A Z K K L Y E X.o.3.4.6.9.w.w.9.6.6.6.3.o.O.O.X.L g 3 > ; ; i G I I O.O.9.*.#.O.O.*.*.*.#.$... .` ]  . .] ] ^ G 9 @ - 3 L | 9.w.9.3.o.X.X.E E E U K C 3 o - B K K V V V V C 1 o X o 3 V R X.X.1.2.7.w.4.5.R V 4 - o O < M U 1.3.3.3.3.3.3.3.o.X.( E R R E R U V s 3 3 3 0 m V V C N M m s 4 1 < 1 1 1 < o   o 3 s >   - s F L L R R R T E X.X.E T E E X.X.X.X.X.5.3.3.3.X.X.R g ; 3 L 9.t.r.r.9.R i @   o ; 9 s d V A K K K K Z B B B B M d d d M d M B B Z B 3 o o ; i G I [  .#.*.#.#.*.$....... .[ ] ^ ^ ^ ^ ^ ^ J G g 9 - o X X o + + +       X O + ",
". . 1 s m M V B K M V A K Z K A L M K Z L Y V X.( ( ( X.5.2.X.X.X.( L B i 9 s d d g B s 3 9 g K g d Z I  .#.#.*.O.O.O.O.O.O.9.9.*.....O.I i @ o . V C < 0 - # o K o.9 > s s d V Y X.w.i.M.N.N.B.N.B.N.B.B.9.d 8 G ; o $ i H | *.%.%.@.0.D.9.I = > a r.m.G d / o.o.w.e.e.i.N.I.I.Y.W.^.^.].$X#XE.g.3.G i a ' -.s.s.c a a 9.M.b.L.f.| i O.Y.Z.z L 9.e.i.w.6.w.O.X.R B ; * t ` %.k.C.S.F.S.C.v.v.A.C.C.C.v.c.-.&.&.k.=.H k 6.g.i.J.N.M.M.M.g.i.e.e.w.w.6.6.3.2.X.X.( E R Y L K K K K K K K K K L Y L L L L L L L K L L R ( X.o.3.6.6.6.7.w.w.w.w.w.w.3.o.o.3.o.( R G i ; > ; > G | | O.O...O.*.%.#.@..... .] [ [ ] I I G i & & d R 3.e.f.f.r.e.6.o.X.E X.E L L V 4 O - V K U K A K K V 0 o X X - C T E X.2.3.4.w.t.9.O.E K s ; o o < n U ( 5.3.3.3.3.3.5.X.X.( ( E ( T K C s 3 4 s N V K U K V V A C N s s s s s 4 - .   ; 9 -   ; N K T L R R R R E X.X.X.( X.1.5.7.7.7.w.u.i.g.g.M.i.9.X.K 9 & @ 9 G O.f.n.r. .H @ @ > g K K A K K K L K Z B B g N M d d d s s M B A Z 1 o @ i G ] [ @.#.=.q.q.0.*.$. . . .] ` ` J ~ ~ ~ ^ J H k g 3 - @ . . o o O O +     X + X ",
".   # s M M M M s Y Z s Y K B R K E B B R Z B A R R R X.X.o.2.4.3.o.X.( R K B B i 3 ; - - - - ; ; ; 9 Z ^  .O.#.O...O.O.O.3.9.9.*...#.O.^ Z >   - ; T < 3 < < - 3 9.d ; s d B B K ( 6.u.g.M.N.M.g.B.g.L.B.e.L ; G 3 X   & f L O...%...q.R.*.9.i = ^ D.n.d G L ( X.4.w.w.i.N.E.E.Y.W.^.^.^.#X^.L.N.r.6.G 8 x =.z.x.%.H = L r.i.f.9.g k b.`.r.i | 9.w.w.3.w.6.R ( K d & * a @.s.C.G.S.S.S.S.C.A.S.C.C.C.v.k.;.&.>.l.^ G | 6.i.M.p.M.M.M.g.i.u.e.u.w.7.6.3.3.5.X.( ( E R R Y L K K K L U Y Y Y R R R ( ( ( ( R R R L L R R ( X.O.3.w.w.w.w.w.w.w.w.w.w.w.w.w.3.3.6.X.( L G d 3 9 ; i G I L ^ |  .O. . .| | ^ ^ ] I H Z i ; > B E o.r.f.M.M.b.i.w.3.X.| X.E L L V 4 O - V U T K K K U V m o   X O M T E X.2.3.4.w.t.w.w.4.E K s - X   , m U ( 5.3.5.2.2.5.o.X.X.X.( E T K C s 4 4 s V K U E T K K U L K V V K V N s 1 .   - 3 -   3 B L R T R R R E E X.X.X.( X.1.1.3.3.7.w.u.i.g.g.g.i.e.6.L 9 - - & @ & i / r.B.m.#.g & > g Z B B B G L L K B g d B M d d s s s d d Z B ; . & g I ..@.%.%.=.q.s.s.*.@... .[ ^ ^ ^ ~ ^ ^ ^ ^ ~ H k d 3 - @ o o O O o O O o X     X ",
". . . # 3 M M s B B Z K A B B Z Y R R L K K A Z B K A K X.5.X.X.o.o.X.R L L K Z Z 9 3 3 - - > 3 1 - - 3 g L  .O.#.#.#.O.O.6.6.6...%.*.O.| G >   o o C M 3 3 2 - o I | - 3 d K B Z R o.6.e.g.M.M.b.g.M.N.N.g.X.& d i o X X & i I [ ....z.D.0.n.I H r.R.d.> G K E R 3.6.w.e.M.E.E.L.E.Q.Q.Q.E.Y.I.L.L.M.o.p * ' l.A.x.%.x t / 9.6.I > *.T.R.o.i | O.9.6.O.4.o.R K s ; ; p ^ s.D.F._._.G.S.F.F.S.C.v.C.C.v.j.:.=.s.q.J g e.w.i.g.i.M.M.M.p.i.u.e.w.7.6.4.3.o.X.X.X.( ( E R L K K L L L Y Y R R E ( X.X.X.X.X.X.| ( ( R L L R R X.o.3.7.y.u.u.w.w.w.w.w.y.w.w.w.7.7.3.2.X.X.( R Z d 3 - & * ; i d g g g B B B g d i & - - > g R 2.t.M.M.M.b.f.i.e.w.2.X.X.E R R V s o o K K E U K K K K m O X X o m Y ( X.o.7.w.9.6.e.u.w.3.( Z 3 o     # m Y X.3.2.o.O.3.3.O.o.X.( R K B s 0 s N Z L R E E R Y Y R L L K K Z K A N 3 X X - ; X   < B R E ( ( R ( X.X.X.X.X.X.X.o.3.6.7.7.w.w.e.i.g.M.i.w.3.R s ; ; ; ; - @ o > ^ f.Y.b.I > > p a g g R K K L g d B M s s s s 0 s s d B B 3 o ; H [ ..@.%.&.0.s.d.s.q.=.$. . .[ ^ ^ J J J J J J G g a d 9 ; & - - @ - - # .       X ",
"  o # o # 3 M B N M N V K K Z Z B K R ( R R L K B s N Z B K X.5.X.o.o.o.( L B d B s 9 3 - & ; > 3 ; - ; i k I  . ...#.#.#.6.6.6...@.#.O.| G 3 o . # - Y 3 0 3 < & i 3.3 3 s Y K Z L ( 2.w.i.g.g.g.p.g.M.M.M.O.; i d o X X o - g J { %.m.T.d.D.#.#.B.Q.r.> g B K L o.3.6.e.M.E.Y.L.E.Q.Q.E.I.I.I.L.W.I.e.I 8 z -.A.A.j...p a G L 8 z d.Y.Z.I Z o.O.6.3.O.3.X.L V > ; i I =.m.G._._._._.G.G.G.S.C.S.A.v.c.;.} &.s...Z / u.u.i.i.p.p.g.g.i.u.u.w.w.w.6.4.3.o.X.X.( E R R Y L L L L R R R R R ( ( ( X.X.o.o.o.o.X.X.X.( R L L L R ( X.3.7.y.u.u.u.u.u.u.u.y.w.w.7.7.4.3.3.3.3.5.X.R A s 3 ; & @ o o # # # # @ @ o o @ ; 3 d L X.4.i.f.f.f.i.i.i.r.w.O.O.X.E T T A s X O U K T U U U K K M - .   X 4 A E o.2.3.7.w.r.r.i.u.w.o.R M 1 .     # M R o.X.o.o.O.3.O.o.X.( R K B d d B K L E ( X.X.( ( E ( R R R L L L L A s o X o < X   3 A ( X.X.X.| X.X.X.X.X.X.X.X.5.3.2.3.4.7.w.w.i.p.u.i.i.2.Z 1 - 1 3 3 1 < # o @ > O.d.B.*.t * p d Z B R K B K B d d s s s 0 9 0 s s M B 9 @ ; G  .$.@.&.=.q.s.d.d.d.q.*.$... .] ^ ~ ^ ~ J J H z g g a i ; ; > > > i i 4 ; & o X   ",
". o # # o # 4 B V B M N Z K K Z s B K L Y R ( ( Y B B M 3 3 M V L I ( X.( K B d s s s 3 ; - - 1 9 9 9 9 i i p a J ] ..#.#.#.#.#....... .| G > o   o   K s 3 4 3 ; & X.G - s K R K L R X.3.w.r.i.i.i.i.g.g.M.4.4 3 B - o o X o i H @.s.D.T.d.T.l.z.R.Q.9.- d d N Z ( o.4.e.M.I.I.L.Y.Q.E.B.N.B.I.E.^.~.N.9.k 8 ..C.F.A.l.~ t * 8 8 %.D.Y.r.d L o.O.O.O.O.X.( A 0 & > G *.n.D._.XXXX|.`._._.G.F.C.S.A.c.>.:.} -.s.~ g w.u.i.i.y.p.i.p.p.i.i.u.e.w.w.w.6.3.o.X.X.( R R Y L L Y Y R R R R R ( ( ( X.X.X.5.3.3.3.3.2.5.o.X.X.R Y Y R ( X.5.6.w.e.u.u.u.u.u.u.u.y.w.7.7.7.7.4.7.7.4.2.E A d 9 3 > > ; - < - # # # # - 1 i g G R X.3.r.i.i.r.r.i.i.i.e.4.4.X.E U R V 4 o - K V K V V V V K C ; X     3 A R ( X.3.6.w.w.r.i.u.w.7.o.L M #     . - B E X.X.X.o.X.X.X.| R L K V B V K R X.X.o.o.o.o.o.X.X.X.| ( ( R ( R L s - X o ; X   4 K X.o.2.3.o.o.X.o.o.o.X.X.o.3.6.6.7.7.w.w.e.i.i.M.i.w.3.K 1 - 1 2 < - - - # .   & i O.b.*.a = a L B R L Z G B g s s 0 9 9 9 9 0 s s B s - - k | $.#.=.=.q.s.d.s.d.q.0.*.@...] ^ ~ ~ J J H H z g k a t 8 t i a k Z Z B g d > o X ",
"o   . - ; # - 4 B V B N B Z Z Z K K Z Z A K L Y ( ( K A A d 4 s B B G L K B s s 3 s s 3 3 ; - 1 9 s d d i 9 ; * g G ] O.#.#.#.O... .| | I g - . . . o 3 U < s 3 3 & d O.- s B R E R R ( o.3.w.r.u.u.u.u.u.i.3.s ; Z 9 & @ o o i ` 0.m.T.D.q.D.Z.D..XR.O.& 9 s s N R ( 5.w.M.Y.I.L.Y.Y.L.M.b.B.E.Q.^.^.E.g.| 9 H n.F.D.C.=.H 8 p ~ m.D.Z.| 3 R X.O.X.o.O.| L B ; & p  .d.A.G._.XXXXXXXX|._._.F.C.C.C.k.>.} :.>.q.H Z e.w.i.i.w.w.u.i.i.i.i.i.e.w.w.6.3.o.X.X.( ( R R L L R R R R R R R R ( ( X.X.X.o.5.3.3.4.4.4.6.6.6.3.o.( R R R E ( o.3.w.w.u.u.u.u.u.u.u.w.w.w.7.7.7.7.w.7.4.2.R A d 9 4 0 0 4 4 4 3 2 < 1 3 9 d N G L _ O.t.r.r.r.e.e.i.i.r.w.4.X.X.T T B 1 - O s 4 4 < < < 3 4 4 - o     - N K R ( O.6.6.6.e.r.u.e.w.3.E Z 1 o     o ; B L / / ( R R R R L K Z V Z K R X.2.3.3.3.3.3.3.3.5.3.o.o.o.X.| | R V 1 X   - X   s L o.O.3.4.3.3.o.3.3.5.o.X.X.2.4.3.4.6.7.w.w.e.u.i.i.e.o.B - @ 3 s 4 < # # # o .   o & d 9.q.G & d ( R R R Z Z B s s 0 9 9 3 4 9 s s d s ; @ d  .$.%.=.0.q.r.s.s.q.q.0.*.#. .] ^ J J J H z z k g k i t i g z G L H H L L L B i : ",
"3 o . @ - - & - 9 d Z B N B B B K Z Z A K L K K A Y K A Y L B B G L L L K Z g s 3 s 0 3 9 3 - ; 4 i s s 9 3 > > 9 d G | O.*.#.#...[ ^ ^ G i & o # - - O K 0 1 4 9 3 - X.g ; B Y X.( ( | X.o.3.w.w.w.w.w.9.w.O.d ; G d 8 > * * z ..j.D.R.Z.d.D.R.R.@XR. .o - < < s K R X.9.M.E.I.B.L.B.b.r.i.B.W.^././.~.K.e.Z i d.Z.C.C.z.%.^  .-.x.m.l.d s ( X.X.| | o.( L d @ * H =.z.A._.|.XXXX+X+X|.|.R.G.A.C.C.k.,.} &.>.@.k ( w.y.a.a.a.w.w.e.u.u.u.e.w.6.4.3.5.X.( E R R R R Y Y R R R R R R R ( ( X.X.X.o.5.2.3.3.6.7.w.w.w.w.w.w.4.o.X.E R R E X.2.w.t.u.u.y.y.y.y.w.w.4.w.w.w.w.y.y.w.w.1.R K s 3 4 3 3 3 3 1 - - - < 1 s s d Z L o.e.e.r.e.e.w.w.u.e.y.4.1.1.E K m 3 < X o O # X X X X X o o - ; o o 3 N L R ( X.3.w.e.e.r.e.e.w.X.Y s @ . o @ & > d G L L G Z G K Z B B Z K R X.3.6.9.6.6.6.6.6.6.3.6.3.3.3.X.X.X.| K i X   o X   4 L o.O.3.6.3.6.3.6.3.3.O.o.o.3.4.6.7.7.w.w.u.i.p.p.M.i.X.d ; - ; M s 2 # O # o   . - > & >  .*.G > R | ( R L L g N s s 0 9 4 3 4 9 4 s s ; @ 9 / O.#.0.0.0.q.q.q.0.0.0.*.#. .] ^ ^ ~ J x z k k a p t t a H I I J H G G G L L G B ",
"G g 3 @ @ - ; - - 9 B Z Z Z Z Z d d d Z K Y R R A A K A s d B 9 B K R ( ( ( L B 0 0 3 3 4 3 - - > 4 s i 9 9 9 9 @ ; d I ..*.%.#. .] I I Z 9 - ; 1 M 1 3 0 A o 1 9 9 ; B o.@ V K X.X.o.X.| | O.6.6.6.6.9.3.O.o.g ; I H z k a k [ 0.m.T.R.Z.d.Z.`.`.*XT.| @ o # # 3 B K ( 6.b.Y.I.N.M.f.e.9.r.L.Q.^.!././.U.M.( 9 ^ d.C.F.A.z.q.s.j.x.n.O.; G X.E | R | | / Z 0 @ > [ j.x.F.|.XXXXXX+X+XXX.X|.T.D.Z.C.z.-.} ;.s.{ p 3.7.p.y.w.a.w.w.w.e.w.e.w.w.3.3.3.o.X.( E R R R R R R E E R R R R E ( ( X.X.X.5.5.3.3.4.7.w.w.w.w.w.e.e.e.w.3.X.| R R R X.2.4.a.u.u.i.i.y.y.w.w.w.w.w.y.y.u.y.w.3.5.X.K N s 4 4 4 4 1 ; - - ; ; 1 9 s N Z R 3.w.e.e.w.w.w.w.w.w.3.2.X.K s 4 3 4 O O < 3 1 1 < ; o o o 4 V s 4 - 4 s B L R X.6.w.w.e.e.e.w.3.( K - . ; i i > ; d g Z g g B Z B B Z K R X.3.w.w.w.w.w.w.w.w.9.6.6.3.3.3.o.o.o.X.R g O   X X   3 K o.3.6.9.6.9.6.3.6.6.6.6.6.w.w.w.w.7.6.6.w.w.w.i.u.w.o.N @ - s s s 1 o O < - . . - s d 3 > G O.g 9 | 6.( ( L K Z M s s 9 4 3 3 3 3 9 s 3 o 9 I ..#.9.0.0.q.q.q.0.0.0.*.#...] ^ ^ ^ J H z k k p t t i k I ~ J H Z k d d B G L L ",
"G L G d > ; > > - ; 9 d A K K A K Z B N M M V K R Y E Y M s d 9 9 i d Z L L K Z d 9 3 3 1 - - - - 3 s d s 0 3 ; @ ; d I ..@.$.$. .^ J H d ; ; i s B m C 3 K - - - 3 9 3 o.9 d K ( o.6.3.o.X.o.O.3.O.O.6.O. .| a * J ^ ] ^ ` ..=.m.D.Q.T.m.d.C.XXXX=XD.| - o O O ; s Z R 3.g.I.L.r.e.9.O.9.i.Z.Q.^.Q././.E.J.6.d 9 ..z.F.S.C.z.m.x.v.l.G ; L X.R R R R / R B 1 o a @.z.v.F.)._.XXXXXX+X+XXX|.R.T.F.Z.c.;.} ,.s.~ d 6.w.i.y.w.w.w.w.w.w.w.w.w.6.3.3.5.o.X.( ( E R R R ( ( E R R Y R R R R E ( ( ( X.5.2.3.7.7.7.w.w.w.w.w.u.u.u.e.4.3.X.| R R E X.3.w.w.u.u.u.y.y.w.w.w.w.w.u.u.a.w.w.w.4.E K m 4 e 3 3 : - - - ; ; 1 3 9 s s V R 3.9.w.w.6.4.7.7.4.1.E U s < - < 4 4 0 m M C V N V s 4 > 3 g B V s 9 3 3 d Z L | O.6.6.6.6.4.o.( L > o 3 G L B 3 ; i B B g Z G Z K L R X.3.6.w.e.w.w.w.w.w.w.9.6.w.3.6.6.O.O.O.O._ D 1         - B X.6.9.9.9.9.6.6.6.9.6.3.3.2.3.| R Y K K K L L R R ( L 3 X # d N g 3 o o < 2 # - 3 3 m R K 4 3 G & Z 6.3.| L R K B s s 9 3 3 3 3 3 9 s 9 @ ; H | @.=.=.=.0.0.0.0.0.9.9.#...] ^ ^ ~ H H H z a p 8 i a G J J H k p 9 3 > 3 9 s g ",
"9 d G I Z > > i 3 - & 3 B K A Z K K A B s 0 s B A Y Y R ( L B K g i 9 d B B B B V 9 3 3 1 - 1 ; @ > 9 9 4 4 3 ; 3 i G | @.@... .| I G Z 9 @ - s A N T K N V s o o ; 9 3 K Y 1 K R 5.w.w.3.O.O.O.9.O.o.6.O.| ^ p & x ] ....@.=.s.A.G.R.D.l.d.D.;X=X;XD.| - . . o # 0 B R 3.g.L.N.9.3.o.o.6.b.Y.^.Q.^./.E.E.M.w.K ; J -.C.C.D.C.D.x.x.*.8 i L E R L L I I R g - o H =.c.v.F.G.G.|.|..X+X+X+XXX|.R.F.Z.c.;.} ;.&.a G w.w.w.y.w.w.9.4.6.6.6.6.7.4.5.o.o.X.( E R R R R R ( ( E R L L L L L L L R R T ( X.5.3.7.7.7.7.w.w.w.w.w.u.p.p.i.r.w.3.X.R R R R X.4.w.u.w.w.w.w.w.w.w.w.u.p.p.i.w.w.w.2.E K N 4 3 > - & & - - ; ; ; 3 9 9 s K X.3.w.w.3.3.3.4.4.X.K s - O O o - 0 C C m N V N N B K i o o 1 s K V s 1 3 9 B I | o.O.o.X.X.( R Z > & 9 L X./ g o 3 B Z Z K L K L R X.o.6.9.w.w.w.w.w.w.w.9.9.6.e.6.6.6.O.O.O.O.X.K 4 X       O d | 6.9.9.9.9.6.w.w.6.3.| L K Z B d s 9 9 s s s B B 3 @ > B s o i g i - o < 4 2 < 4 C K L E L s 3 ; > L 6.O.o.L L Z d s 9 3 3 3 > 3 9 d 0 @ ; Z | O.#.*.*.*.=.=.0.9.9.9.#...] ^ J H H z H z k t 8 p k G G G Z g > ; - @ o # ; > ",
"; > 9 B G G d > i d 9 & ; g K K K L L G B g d d g B B B A A V N B B g d B L L K L d 9 s s 3 - - # - ; 3 3 3 i d Z H I | ..O... .^ H G g ; - 9 B K U U Y L K N 1 # o - 3 1 5.3 Z L ( 6.w.i.6.3.6.O.O.O.X.o.| L p o H [ %.@.=.>.k.A.F.S.x.q.d.T.;X4X;XD.#.i & o o o - m L 2.p.N.M.| L R O.w.N.^.^.^.^.E.E.P.K.w.| > > @.l.x.F.C.D.m.z.^ ; B L L K G L L G R Z # & J &.c.S.F.F.`.`..X.X.X.XXX.X|.|.R.A.k.&.@.s.#.k L 6.e.w.w.w.w.4.4.3.5.2.4.6.2.X.X.( R R R R R R E E ( E R K B N M M m M C V K K T R X.5.3.3.4.w.w.w.w.w.w.t.u.i.b.M.M.g.e.4.X.Y K L R X.4.w.e.w.w.w.u.u.i.i.i.p.i.u.e.e.w.3.( L N 4 ; - @ o - 3 3 3 3 3 3 3 9 i B O.9.o.o.X.X.2.2.Y s < < - O O - 4 s 4 3 4 s 0 s m M s - X   o O 4 V V s > e B G I | R L L A B B > o & g / / G 3 o B R K R R R X.X.3.6.7.7.7.7.7.7.w.w.e.w.w.w.w.9.9.6.3.3.3.3.2.L 4 o   o   X s R 6.9.6.w.9.9.3.o.R G B g d d s d 9 s s s N g B G d & - O.O.Z & & - ; o o 0 4 4 M N K X.( 3.X.d - . s 3.w.X.( R A d s 0 3 1 1 1 3 9 0 s ; @ d / O.#.*.=.#.*.*.0.0.9.*.#.O. .^ I H G k z G a 8 p a g G G B s 3 1 # o O # O o o ",
"o o @ 1 g G L G i d g i - @ 3 g g B K L L G B B d g d d s M M M s d i 3 3 d K L B s 3 3 3 3 - o o @ ; 9 d Z G L | | | ]  . . . .I G g i ; ; s K T E X.E E U s s 9 - o @ - R s N B ( 6.e.i.r.e.3.O.O.X.| X.| L g @ Z  .#.%.;.>.j.x.C.x.j.q.d.D.%X;X@XD.=.z > @ . . o 4 A X.p.M.r.L V L O.w.K.^.^./.^./.E.I.K.e.X.d & a ..d.C.m.C.n.*.g * B K L L G L L G R G ; @ J ;.z.C.F.T.`.`.`..X.X.X.X|.|._.F.C.k.@.@.q.*.H L 6.w.7.w.6.6.3.5.o.o.o.3.3.o.X.R R R R R E R E X.E T U A m 3 1 1 1 3 3 4 s N B K K R X.5.2.4.w.w.w.w.t.u.i.h.b.g.M.M.M.M.i.w.o.E L K K ( 3.7.w.e.e.w.e.u.i.g.g.i.i.u.u.u.w.2.X.L B 4 ; @ o @ ; 3 3 4 4 3 3 > 3 9 L X.( R K L X.( C 1 < 3 1 - O - 2 3 < < < 1 1 3 4 0 4 - X   X X o - s N g i 3 G G Z B Z B M s i > & @ ; d K L 9 o d R | o.X.3.2.3.6.7.w.7.7.7.4.6.7.w.w.w.w.w.w.w.9.9.6.6.6.6.4.R s o   o     4 L 3.9.9.3.o.X.R L B d d d g Z G L K L R R X.2.3.O.| G 8 g | / g d > @   & s 9 0 d K R X.X.3.w.X.d . o Z 3.4.X.( L B s 0 3 1 ; ; 1 3 0 m ; o 9 I O.#.*.*.#.9.9.9.0.9.*.*.#. .] I H G k G g i 8 p a g G Z g e : - O - < 3 3 1 < ",
"s 0 1 # @ > g L G g g g s 3 3 9 M d M B G L G B Z G L K K K K Z i i > & o @ > d d d i 3 3 9 9 1 3 > 9 g L / | | | ] I J I ^ ] ^ I g 9 > - 3 V R X.X.5.E X.E 4 V B s o . o B L s B R o.r.i.g.M.9.O.X.| | X.( L Z @ 9 ~ ..%.=.q.-.j.j.-.=.0.d.D.XX;XXXD.q.] p * o o X - N E u.p.2.D N L 4.i.L.^.^.^.^./.E.U.N.e.o.G * @ k ..s.n.n.q.L > ; Z K K K G G G G L K 3 o x =.z.m.D.T.R.R.`.`.`..X|.|.`._.G.C.s.@.{ =.#.k I 6.w.7.7.4.3.3.3.5.o.X.X.X.R R L L Y R ( ( ( E R K C s 3 # o X     X o o - 1 4 s g Z L E X.X.2.w.w.w.r.u.i.p.h.g.M.M.N.L.K.M.i.6.X.K Z K Y X.3.7.w.e.e.e.i.g.g.i.i.u.u.i.e.w.3.X.L M 3 - o @ - ; 1 4 9 9 3 3 3 ; d K L V i M R T 4 - 1 3 3 1 O O O O O o o o O O - < < O X         X - i s d i ; i N N s 9 s s 9 i 3 - @ - 3 s 3 . 3 R 3.9.3.w.6.6.7.w.7.6.6.6.6.6.7.w.w.w.w.w.w.w.9.9.6.6.6.6.4.E N -   o     1 K o.6.6.X.L L g g g B G L / | 3.3.( ( X._ X.X.o.O.O.O.i . > @ @ - K L R & & d g B L ( o.7.3.g.p.X.>   - R 7.o.X.R Z d 0 3 1 - ; ; 3 0 m 1 o > L ..#.*.*.#.9.9.*.*.9.*.*.#... .I J G z G p > t a a k k g i 1 - O - 3 0 s s s s ",
"M C B s 3 ; 3 i G G B g d i > @ s M d 0 s B B d d g Z L I I L L R G g i > - > 9 g L L Z g B G K G Z g G I | | ^ I I J J J ^ ^ I L i & & ; s Y ( 1.X.3.X.X.X.N G M K s # o 3 o.s Z R L w.i.M.N.f.9.O.| | X.( L G ; @ a H ..#.@.{ %.%.@.@.=.d.Z.|.:XXXD.q.#.z i & @ X o s R w.w.E C N R w.N.E.^.^.{.#X^./.U.N.w.o.L i @ * a J #...I 9 & 3 A K K B Z B Z G G K s o a @.z.n.Z.T.T.T.R._.`..X|.`._._.R.C.s.@...=. .t I 6.7.4.6.3.3.3.3.2.X.X.R L K K K L R R ( ( R L V s 4 ; o X . o # @ o o X X X o & - 3 s Z L E X.2.4.w.u.r.u.i.h.g.M.M.M.N.L.L.N.M.u.3.( K B A R X.6.u.u.e.u.i.i.i.i.u.u.u.e.w.7.2.( K M 4 ; - - - ; 3 9 9 9 9 9 3 3 B G d > 3 s K 4 < 3 3 4 3 o + X   X X     X X o O # O X         X o - 1 s g 3 3 9 s s s s s d B Z B s 3 & . o . - Z o.w.3.6.6.6.7.6.6.6.6.6.w.w.w.w.w.w.w.w.w.9.9.6.3.3.3.6.2.E N ;   X X   - Z X.X.X.L B B g G I | X.o.o.O.X.( G B G L K V K L G G ; * i . s 3 . d 3.O.; i G L / X.3.u.3.i.p.w.L @   s o.3.X.R A N s 3 1 1 ; ; 1 3 s 3 o - G  .#.#.*.#.9.9.*.*.*.*.*.#... .^ J G G G i > p a a g g d 3 - o # < 4 s m m M B ",
"C C C V K B s > d G L L Z g d d ; s B B s s s d s s d g L I I L I L G B d > > > d G I I L G G G L G g g H ] ] I I I J J J I J H G > @ & s L X.X.3.1.3.4.X.X.E N i R L d & o X.L s R I 3.r.M.N.N.i.9.X.| X.( L K d o * > G I J x c ~ ` ..=.j.C.|.:XXXD.s.=.~ z t ; o o 3 Y w.4.A M A X.g.I.W.^.].#X#X#X/.E.M.w.X.I Z ; & * * p i > & & s Z K K V B g Z G G K B & 8 ^ d.n.C.D.D.F.T.R._.`.`.`._.R.F.m.-.{ { -...p I 3.3.3.6.3.2.2.5.X.( R K K K K K Y R R ( R L A s 1 - o o & 3 s d d i 3 3 - - & . o o @ ; s B G Y X.2.w.w.w.p.M.M.N.N.N.N.N.K.K.L.N.g.w.X.K B B K ( 4.w.u.u.u.e.p.i.i.i.u.u.w.w.3.5.R K B s 3 ; ; ; 1 1 3 3 3 3 i 3 s d s 3 ; ; s 2 1 3 1 4 1 X                       + X         X O - ; > 1 1 B s 3 3 s M B B K L E ( E Z 1   X o - 3 L 3.6.6.6.6.7.7.6.6.6.7.w.w.w.w.w.w.w.w.w.9.6.3.3.3.3.3.2.X.V 3   X o X . s L K Z Z B Z L / X.o.| R L L Z Z s & ; d g g B B d i @ G | d @ s s @ K e.I ; g / | O.3.e.w.e.e.i.9.d   @ L 3.X.R K B s 0 3 1 ; ; 1 1 0 4 @ @ Z | @.#.*.#.9.#.*.*.*.*.#.#... .^ I G G k i 8 a a a g g d > - o - 3 s M M M B B ",
"K K V V K A B d ; > i B G Z g B 9 3 0 B A B d B M 0 ; > 3 i d g Z G L G B i 3 9 9 i g L I G k g L G G z G ^ | | I I J J J I J G d ; & 9 G o.w.w.4.3.4.w.2.2.X.d i L R R d @ L 3.; K | O.w.M.N.B.N.r.3.| ( R R L Z ; o o ; r r = = u x [ =.j.C.|.*XXXF.x.s.@.~ j 8 @ o - K 2.( M M Y 7.K.E./.^.OX#X#X#X^.E.M.w.X./ S 9 i 9 * 8 8 i i s V V K K Z V B B Z Z G K i > k #.l.m.Z.Z.F.F.T.R.R.R.R.R.R.F.C.s.{ ' %...a I 3.3.3.6.3.O.O.X.E L K V B V K L R R ( ( R A M > o . o - i B Z B g g B Z Z B g > > & o o @ - - 9 d K E X.2.w.u.g.N.L.P.L.K.K.K.L.L.N.M.u.2.L B d B K X.w.i.i.e.u.u.u.i.u.u.e.w.7.3.X.E L Z d s 1 ; - - ; ; > > i 9 9 s s 9 3 4 ; - < 3 3 3 -                                     O 1 4 4 4 3 1 9 9 3 3 s Z R ( X.5.3.3.5.R s - X o o o 4 Y 2.6.4.6.6.4.3.3.3.4.4.6.7.w.w.w.w.9.w.9.6.3.3.2.O.3.2.X.K i   . - o   - d B B K R R X.X.| I G B g g d B i .   - e B N V Z d & Z | I # - - 3 @ 9.9.H > G X.3.O.9.u.u.i.g.i.R - . s o.X.E K B s 0 3 1 ; - ; 1 4 4 # @ d ^ O.#.#.#.#.#.*.*.*.*.#.O... .I I J G a p p a a a g g i ; o o - 3 m C B B B B ",
"C V K U L K K G Z s 3 d G L G g G i 3 i B K A B K Z B d i 9 i d i s d d 9 > ; - > > i g G G Z g k G G G G G L L L L G H L I L G i > 3 B ( w.g.g.y.4.w.w.4.w.X.K s K R X.L d d 3.Z d R o.9.b.N.L.B.N.i.3.X.( R L K g - o o o o o @ 7 z [ =.s.C._.XX+X_.S.k.;.{ c h > o @ B E A 3 V X.p.P.E.~.^.OX#X#X#X^.E.M.9.X.R Z s g G Z Z G G L L L K U A K Z Z g B Z G L g 9 ; J q.n.C.C.D.D.F.F.R.T.T.W.T.F.C.s.@.] @. .p I 3.3.3.4.X.X.| R K Z B M d N Z L R ( ( R L B 3 o o o - i g Z G G G G G G G G G L G g i 9 ; & @ & - 1 s V Y ( X.7.u.M.K.L.L.L.L.L.L.K.N.M.p.6.( K N d A ( 3.w.e.w.w.e.u.u.e.w.w.7.3.5.X.( R L A s 9 1 ; ; ; ; ; > 9 9 9 s 9 s G 4 < ; 1 3 - X                   X               . < s s s s g B d 9 - - s E 3.2.w.w.w.w.4.X.K s @ @ o o # s R 2.3.3.3.3.2.2.2.3.3.3.6.7.w.7.7.6.9.6.3.O.o.o.o.o.X.X.K s   o 4 < o o 9 K L | o.X.| ( L G B g g g s d s o X & 3 G V G Z g > > O.6.-   . ; ; i #.*.8 i  .6.9.w.u.i.g.b.g.3.s   - L X.( L V M 0 3 3 < - < < 3 0 - o i I  .O.#.@.#.@.#.#.#.O.O.O. .| I I I G p a k p a a g g i ; o o - 3 s C V V A A ",
"U K V V K K K K Z G g 9 i G L L Z G B i s Z K B B A L K B i i s M s s s s s 4 ; - & & - > 3 i i > d g d i i d d g g g B Z B g i 3 > d L o.e.M.M.M.w.w.4.w.w.X.X.i G R X.| ( > L 9.; Z | 3.i.N.I.B.I.N.r.3.X.R L K R d i $ X   o o 8 k [ =.s.C._.XX*X_.G.k.s.%.` z p & o g L s # A 4.K.E.~.W./.OX#X#X#X^.E.M.6.X.L Z d s Z I / | R | R E Y Y A K Z Z d g B Z L B 9 o p #.l.m.C.A.A.D.F.F.T.T.T.T.D.m.s...[ #.] > I 3.3.5.3.X.E L A B d d d d B K K R ( E R K 0 & o @ > d B Z G L G G G G H L I I L I / ^ I H g i & @ @ ; s A U Y R X.6.u.M.K.L.P.L.I.P.N.M.N.g.e.o.L N d N A ( 6.w.w.u.i.u.e.w.w.7.3.5.X.( X.( E L B s 3 > ; ; - & > > 3 9 ; s E K s < 1 3 o                                     O < 4 s m V K L R K 9 o # A 2.y.w.w.7.w.w.7.( Z ; @ o - # - V X.2.3.3.3.3.3.3.3.3.3.6.7.7.6.6.3.3.O.O.X.X.X.X.X.E E V s   O s 4 ; . 3 R o.3.3.| L L L G B B B g K B B 3 & - - d V G B g Z @ o.| 3 .     X o I #.k > O.9.r.b.i.g.p.M.M.e.A X . B X.R L Z M 0 3 3 < - 1 1 4 s - o 9 I  .......#.@...O......... .] I I ^ G i a G i g g g g i - o o < 4 s m C V K A ",
"K K U U K K K K L Z Z Z s ; i G J z G g 9 3 B K N B K K K V B C V A A V V V C s 1 - - - - - - & o o @ - > ; - - ; ; > > ; ; ; 3 & > g R 6.i.N.N.N.p.y.w.w.w.4.5.B 0 R X.X.X.( 3 o.B - L O.9.N.I.I.I.L.L.i.6.2.R L R K B s $   o @ = k  .=.s.x.G.|.5X`.R.C.s.;.} ~ j p * @ s 1 # T g.P.E.~.E.#XOX#X#X#X#XW.N.w.X.R K s 9 Z R E | | | X.X.R K K K K B g g g g B Z K - > H 0.l.A.m.C.D.D.C.C.Z.Z.Z.D.z.-.@...*.G i R X.3.X.T T K N d s s s M V A K Y Y R R L d ; o o > d g B V Z Z Z Z Z G G H I ] |  .o. .| ] I L d ; & o 9 K K ( ( R R ( o.w.g.N.L.P.P.K.N.N.M.g.i.6.( Z s s B L o.w.u.e.w.e.w.w.3.2.X.X.X.X.X.X.( Y A N s 9 > ; - ; - - ; - 3 F K 4 X o o                                       O < 3 4 m K R R O.3.X.M o - U 5.w.u.7.w.w.w.w.5.L 1 o - 3 1 ; L o.o.3.3.3.6.3.o.6.3.3.3.3.3.3.3.O.O.X.| | ( ( R L K V 4   1 s 0 -   s R 3.o.R R K K K Z B B B B g G Z i o B o e G L B G s o ^ o.0           8 #...; H t.r.g.p.g.M.i.M.e.L #   3 Y R L Z M m s 3 3 ; < 2 3 0 1 o > H  . . ...O.O.O.O.O....... .^ I ^ I G i k k a g g G G d ; % % < 3 s m C V K K ",
"K K K U U U L L Y K A G B d s d G J G G H d 3 N K B M A K K A V M V K K K K K V N s 4 4 4 s 4 3 - & - > 3 > 1 1 - - - # # o # # > i G | w.g.N.N.N.M.i.w.w.w.4.2.K 4 Z X.o.o.X.B Z R - 9 R w.i.N.I.I.L.Y.M.r.w.X.R E T K N ; X X o > k ] #.s.v.G.|.4X+X`.F.c.>.%.` J ^ g & ; ; # ( K.L.U.E.E.^.^.#X#X#X#XW.N.w.X.L K s 9 B Y ( ( R / ( X.E Y Y L K B g g g g Z G Z g 9 > ..l.z.C.C.C.A.C.C.Z.Z.m.C.z.-.@...#.z 9 L ( ( R K V C s s s s M B K K L K K L L V 9 # o ; i g g B B d i d g Z Z G H J ^ ^  . . . .] ^ I G d > o - K R 5.6.7.6.2.X.X.X.3.p.M.N.N.M.M.M.M.M.g.e.2.L M s s B R 3.w.e.u.e.w.3.3.5.X.( ( X.o.X.( Y K Z g s s > & o - : & o ; - o X % O                                         O < 4 s C L X.3.6.4.( s o 2 Y 7.i.u.u.i.u.u.7.X.V 1 # ; ; ; 9 R 3.3.3.3.o.O.3.3.O.o.o.3.3.3.3.O.o.X.| ( R R L K V N 1   - 4 3 @ . d K R R Z Z B Z Z Z B B g g Z d d 3 X D B - g L V Z d - Z o.M   X       ; | 9.d d O.e.g.i.u.i.i.i.w.Y - . - Z A Z M s 0 4 3 < - - < 3 4 1 o > G  . . .....O....... ... .] ^ I I I z a k k a g g G G d > % o < 3 0 s m C A K ",
"K K K K U Y W U K U L K K Z B i 8 z I J G L B 3 s B A B B A K A m M V U U U U U U K C m m m C N s 9 3 9 0 4 3 4 3 3 1 ; - - < 1 i g L X.w.g.M.M.N.N.M.u.w.w.w.3.( 9 0 X.3.3.X.E 9 R ; o s o.e.N.B.B.B.Y.I.N.g.3.X.X.E R U s % X o & d ^ @.q.x.F.`.=X=X`._.v.>.;.} @.=.@.k i g > X.L.P.L.E.E./.^.#X#X<X#X^.N.w.( L K N 4 9 A E E / | | X.( R Y L A B g d g g B Z A L d o G q.j.m.m.m.m.m.C.m.n.n.n.d.=... .#.k > K L K V m s 0 4 9 s M V K K L L K K K A s ; o @ 3 i s d s 3 ; o & - > i p a H J ^ ]  . .] ] ^ I I G p @ @ i Z X.6.u.g.g.w.4.X.( ( 3.u.M.M.M.M.M.p.M.M.g.w.X.Z 0 3 0 V E 3.w.w.6.3.5.X.X.X.X.X.o.X.X.( E L L G Z d 3 ; & o o - ; o - 2 4 -                                           o - 4 N L | 3.9.w.w.( ; . 3 E u.i.u.i.u.u.w.3.( d - - 3 i ; B X.3.3.3.X.o.3.O.o.O.3.3.3.3.3.O.o.| | R R L L K N s 1   o 1 <     s N B Z B M d g B B g d d g g d g s o 1 V X s L L B d > 9 o.K   o o     o Z 9.I > L 6.u.u.w.e.i.e.3.R ; - o 0 s d s 3 3 3 1 - # - < 1 3 < . ; Z ] ] |  . . . . . . . . .] I I I I g G k k a a a k G g 3 - o < 4 s s s M V A ",
"F F K K U U Y W K U T U K K A B i ; i I I L G B > d A A B M V A V C m B K U U K K U U A C C B A A B M M s 9 0 0 0 0 3 1 1 1 3 4 d g L | 6.i.M.M.M.K.N.p.y.w.w.3.5.M 1 R 3.3.X.X.B B 3 & o d 6.M.N.B.N.L.I.L.N.i.4.2.X.X.X.K 4 o o o > G ..=.z.F.`.@X4X.X_.C.j.>.=.-.z.z.q.O.#.9 ( K.I.L.E.E./.#X#X$X<X#X^.L.w.( L K B 4 ; d R R | | X.X.X.R Y L K Z g g g g N B K L G 3 > ^ l.j.z.z.z.n.n.n.l.l.z.s.#.[  .#.a > B B M m s 4 4 s s M V K K K K K K K K B 3 o o - 3 s s 3 % X       X o & > i k z J J ^ ^ ~ ~ J I I G z i ; @ - B ( 4.p.N.K.N.i.w.X.E R 5.e.p.g.g.i.g.g.g.M.i.3.R M 9 1 0 K ( o.3.5.X.( ( X.o.X.X.X.X.X.( R R L K B s 3 o X ; s 1 % 3 B C -                                             o ; s K L X.3.6.w.7.R 3 o s X.u.u.u.u.w.e.7.3.K s ; > g i > K O.o.| o.o.o.3.3.3.6.6.6.6.3.3.O.X.| ( R L L L V s 4 . X - ;     ; s d B B M d d g g d d B Z g L L K d o o X s E o.L G d * X.R . o @       1 O.3.; K 5.6.w.w.w.e.w.3.( - 3 o ; 3 9 3 1 1 1 - - O # - < 3 - o - g ^ ^ ] | |  .|  . . . .] ^ I ^ ^ H k H z a a a a k Z g 3 - o < 4 m m s m B A ",
"V F K L L L U T U Y U U K K K K K g 3 d / R G I g i 9 B K B M A A V C m M A L K L R T U K V V V K V B N s 3 4 s 4 4 3 1 ; < 1 3 s g G R 2.r.g.g.M.N.K.M.i.y.w.4.3.K 1 K 5.3.X.o.E 3 ; 9 ; @ Y w.N.L.N.L.I.I.P.N.i.6.X.X.2.X.V 3 o . o t H @.l.D.`.OX4X+X`.S.k.j.-.z.C.D.m.n.n.a G r.L.L.E.E.~.#X#X$X<X#X].I.w.| L G B 4 - 4 K L I / | X.X.X.( R L K G Z B B d d N G G D * t 9.r.z.j.l.l.z.l.d.d.d.q.$.[ #.*.a & s 0 4 0 0 0 s C B Z K K K K A A B Z V s - . o 1 4 4 : $             X o & > p k z z x x x x J ~ ~ J J H g ; o - B R 3.i.M.K.N.M.i.w.X.R L R 2.e.M.M.g.g.g.M.p.e.X.K s 3 9 M K ( 1.X.( E ( X.X.X.X.X.( ( R R L K N 4 ; - < 4 4 O o < B C O                     X X o o X           X X X o > B L | X.6.9.w.w.R # o V 3.u.p.i.u.u.w.6.X.L 9 & d B 3 3 ( X.( 3.o.o.3.3.3.3.3.3.3.O.6.O.O.X.| ( R L L L V s O   - < -   o 9 s N d d B d d d d B G L L o.| O.| 3   X 4 X.u.7.3.R ; L ( o o # . .   o ( 7.1 N ( o.6.4.6.w.6.3.R - s 1 # ; 3 ; - - - - - O O - < < - . - g I ^ ] | | | | |  . .] ] ^ ^ ^ ] G G G G a a p a g g d 3 ; - < 4 m m m m M B ",
"B D K L L L U T E W U Y T L K K A U B 4 i G I L G g i 3 s V V M N K V s s N K K R T T T T T U B V B C N s 3 3 4 s s 0 4 < ; 2 1 3 d Z L X.w.i.i.M.N.J.M.p.i.w.4.3.( 3 B 1.2.X.X.o.9 - s A ; 3 Y i.L.L.L.I.L.I.I.M.e.w.4.4.4.X.V < - o o 8 J 0.m.W.].1X@X`.R.v.k.s.A._.G.A.T.R.] i | g.K.E.E.~.^.#X$X<X$XOXE.r.X.L G N i ; ; m K I ^ | X.o.o.X.( I L L G Z B d s d G B L i * I d.l.j.d.d.d.d.d.d.s.0.$...*.*.i @ 3 3 4 s m M B K K K L K K K A A B B M 3 o o - 9 4 - o               X o & > p a a a j j j j z c ~ ^ J J J k > o - s Y 3.e.g.N.L.N.N.M.w.R B Z R 3.w.g.M.M.M.M.g.e.4.( Z 9 ; 3 s B K R ( ( X.X.X.X.X.( R R R L Z 4 o o ; 1 - o     o m N O                   X o o O O o X X     X O O X   o 3 B R / 3.6.6.e.2.B X 1 Y 7.u.i.e.w.w.6.O.| g - 9 Z B - B ( X.O.X.3.o.O.O.O.o.o.X.X.3.O.O.X.X.( R R R E L N -   - 3 3 X   9 d B M M B d d g B Z R X.6.9.9.r.X.G o X o K u.M.M.6.d s ( ; o @ . .   . M Y o 1 A E 2.o.o.3.o.o.K - M 0 o - ; - - - - - - O O - - < - . ; g I ^ ] ] | | | |  . .] ^ ^ ^ ] ^ G H G H a a p a g g d 9 ; - - 5 m m m m M M ",
"g B K L U U U T E W U T T Y U U U C A A 3 > g G G L G 9 > d B M s N B g s s N V L R R R E X.R U A V V V N s 4 3 s i 4 1 ; - - ; ; 9 d Z L 3.r.i.h.h.M.N.M.i.w.w.4.1.0 0 1.3.5.X.X.K - 4 K K 1 s | i.N.L.L.L.I.Y.L.M.i.e.w.w.7.X.V s ; @ & t ^ q.Z.Q.%X=X+X_.C.c.z.G.|._.S.|.|.=.= d o.i.K.E./.^.#X<X,X<X$XQ.b.O.L D g s 3 - 4 G I I / | o.3.3.o.X.| I L G B d s g B g L G 8 i #.r.l.l.d.d.d.s.s.q.q.#.$.*...> & 4 s m C V K K U L L K K K K Z V N B 0 - o - 4 s ; o               X o - 9 i a k k j j j a u j l x J H H I L a > @ - 9 K X.w.g.N.L.K.N.M.g.7.R d A R 2.u.g.M.g.g.i.i.w.o.L s 1 - # 1 M K Y R ( ( ( ( R L L L Z s o o o O o     X   X m m O                 X O - ; ; ; - - - O o o O ; > & o & 3 B L | o.3.6.4.X.3 o 9 L o.w.w.6.6.O.O.o.L d > d L i 3 G X.X.X.3.o.o.o.o.o.X.o.o.O.O.O.o.X.| ( R R E L N <   < 4 9 .   3 s B B V B N B K L R o.9.e.r.i.b.2.K 1 X o 1 X.g.L.f./ 3 I i @ # . .     O 1   . 3 A R ( R ( R R N 3 B s o - - - - 1 1 < ; - - < - < - . - d I ^ ] | | | | ] ] ] ^ I I ^ ^ H G J H G k a i p d g g d 1 - - 3 s m m m M M ",
"s B V K U U U U U U T Y U T T T U W Q B B s 9 i I H H G d 3 i Z d s g B G B s s N K R R T E X.X.L K K K V s 4 1 4 i s 3 1 ; ; ; ; 3 9 s B X.w.i.i.i.p.M.M.i.w.w.7.3.0 3 5.5.2.X.X.( 1 1 s o.N 0 g 3.M.L.L.N.L.Y.L.N.N.i.w.e.u.7.X.V s 9 & . i #.N.W.#X1X+X|.S.x.D._.R.G.F.oXR.%.& * Z O.p.E.^.^.[.$X,X,X$X^.M.O.L D d f i & ; G H J I / o.9.9.9.9.O.| R L Z g d B i N L L d & J r.l.l.d.d.l.s.s.s.q.*.$.O.| > > s M V K U Y T U L K K K K Z B M M d 3 o o > s s O X   X X     X - 1 i g Z G H H H x z z j u u j a z z H H z k Z i & . - B ( 6.i.M.N.N.M.M.g.w.3.Z B Z ( w.i.g.g.i.i.i.u.w.X.A 0 o . o - s A L Y R R L K L K M 3 o - o X X o X       4 m O                 o - 1 9 4 4 4 s d i > ; - > g g ; o @ > Z L R O.w.6.w.Y @ @ d L 3.6.9.6.O.O.X.| L > 3 I L & 9 ( ( o.X.o.o.O.O.O.O.3.3.O.O.O.O.o.X.( E E X.L s <   1 4 s o   4 s B Z Z B B K R X.O.w.r.r.r.e.f.u.L 1 X o o V w.B.N.e.9 G d @ - o o .     . .   # s Z K K L L K s s B 9 @ - - - ; 1 3 1 1 < < < < < - . - d L ^ ] | |  .] ] ] ] I J J ^ I z H J I G G p p p a g Z g 3 o < 4 s m m m M N ",
"B N B K Y R T Y Y T R R R Y Y Y U U K V V N d i i g G L Z d 9 3 M d s s B K V s s M K ( ( E ( X.R Y K K K A M 0 3 0 0 3 1 ; ; ; - ; 9 i s L 3.w.i.g.e.i.K.g.u.w.4.2.K < K 3.4.X.1.E m ; - T X.V s G 3.M.I.N.N.I.I.L.L.N.p.p.i.7.w.( K Z s & & d 9.B.W.3XXXR.|.m.D.Q.R.S.A.|.T.O.@ @ 1 A X.h.Q.^.#X#X,X1X$XOXI.6.G z p > 8 o & d a g z J  .q.b.r.i.9.6.3.R G G g N g B Z L G i *  .b.d.j.z.q.s.q.q.=.*. . .g > d K K U Y T T U U K K K A V V B N d d ; . o i d 3 o           o - i d Z H I I ~ ~ ~ J J H x z j a a j z k g a g k g i * o & i L O.w.g.M.M.g.p.i.p.w.O.L g N R 9.p.w.i.p.i.y.w.3.( B < .   o - s B A K Y L K Z s 3 X ; o   X X .     - 2 < .               o - > i d d a g G G k a a p i p G G i @ @ ; d K R 5.w.7.3.s 9 ; d I o.O.3.o.o.6.| R K @ Z | G @ d / X.X.o.2.3.3.4.4.4.O.O.O.o.o.X.X.( ( X.Y K s @   9 s 1 -   3 d Z B Z K I | o.3.9.e.r.e.r.i.i.e.R d   o @ ; R p.N.u.Z 1 R ; V - o X             3 s N B Z L g > d B ; - - ; 1 3 9 9 3 0 4 3 3 3 4 1 X - i G I ^ ] ] ] ^ ] ] ^ J J I I H H H J I H Z d p i a k k a i - - 3 s M C N N m ",
"B B B A K Y Y Y Y Y T R R R Y Y Y U K K V B s s 3 i g L I L d > 4 B A s 0 N A A M M C A R X.X.( ( R L K K K V M s s 4 1 - - < ; ; ; > 3 9 B X.w.e.i.u.u.p.g.g.w.7.X.T - C 3.3.5.X.X.U 1 - A 3.1.K B K 4.N.I.L.L.I.N.K.N.g.g.M.i.u.3.( R L s ; @ L f.T.+X%X_.R.D.R.`.T.x.k.S.m.^ @ o . 2 C X.V.!.#X#X,X1X1X$XI.6.G t a k ^ #.0.9.O.^ H J ] #.b.Y.N.M.i.w.3.| L Z B V B B G L d ; H q.z.l.s.q.-.@.#... .H H i 9 A Y Y Y T T U U K K K K K V V B N d 9 @ o - d i #         . @ > p z G J ^ |  . . .] ` ` ~ J H x z k z z g a p p p i d p > @ o > B ( 6.u.g.M.g.i.u.p.b.u.X.B s B R w.w.y.y.a.i.y.4.( V 0 - o . # - 1 0 M B A V M 3 X 1 - X   X X   X O - .               . @ > i a g k k G J J J H x k a j H J Z i & @ ; B L E 3.4.6./ 3 d d d L o.o.6.3.o.( ( R s > I / g @ G ( X.o.3.6.7.4.4.4.9.o.o.o.X.X.X.( ( ( Y Z 9 . X 3 s 3 -   3 d Z Z L | o.3.6.9.9.w.e.i.e.e.i.i.| g . . - o d 4.M.w.A - N 1 R s - O o   X O X   o - 4 9 g g 3 > B B - - ; 3 3 9 s s M M M m m s s 4 o & > g H I ^ ^ ^ ^ ] ] ~ J J ~ I k G J I I H G g d p a g k a i - - 1 s M C N N N ",
"M N B A K L Y T Y Y T T R R R T T T U U K V C N s 9 3 s Z L A M 4 9 d B d s d A K A M m B R X.X.X.E Y Y Y Y K K B s 4 1 # # - 1 3 > ; ; 3 i K o.w.u.u.u.u.i.g.w.4.X.R ; 1 3.1.2.X.1.( 3 O 4 X.3.3.L N K 6.N.I.N.U.L.L.K.M.M.M.M.p.u.3.X.X.R d & ; | Z.R.%X|.R.R.`.`.F.j.-.x.d.k 9 1 . o < N 3.(.^.#X$X$X%XOXb.| G t.m.W.Q.W.3X].$XY.n.q. .^ #.b.B.Y.N.i.e.o.L I K K B d B L B 8 i ..l.j.*.%.$.]  .~ H p d > s E ( E R T U L K K K L K K K V V N d - . o 9 d 1         o - > d G I ^  ...O.O.@.O... . .[ ` ^ J J z z g a p i i i i d d d > @ o @ s Y 3.w.a.a.u.i.a.u.p.M.u.X.V 4 s R 7.i.i.w.w.w.3.X.R A 0 1 # o . o - 1 4 0 3 ; o 4 s o   X X o O - o     + +       X o > i a k G G H I ^ ] ] ` J H z j k J I L i @ o 3 B K E X.6.O.g g g d g G | O.| | o.( R I ; i o./ > > L X.3.3.3.9.9.3.4.w.o.o.X.X.X.( ( R R K B ;   @ 3 s 3 @   3 d Z K ( o.6.w.w.9.w.e.r.w.r.i.i.r.X.B @ o 3   - B X.K 3 o o ; E E s - X   o 4 <     o < ; > > - i Z d @ - 1 9 s s d V K K U K K V N s - o - 9 g G G J ~ ^ ] ^ J I ^ ^ J k G J I I H G G g d a g k k p > - 1 0 m C C C N ",
"N B B V A K Y R Y Y T R T R R R T T U U K A V V B s 3 ; 3 d A Y V 3 ; s Z M s d A K K B M B Y ( ( E R Y Y Y Y U K B s 3 < # - ; 3 3 ; ; > 3 s L 6.w.w.e.u.e.u.w.X.X.K e - 1.1.4.1.5.X.s - - K 3.w.3.R B Z 9.L.L.I.L.K.L.K.M.M.M.i.p.u.5.X.X.R B ; i e.W..X`.`.R.`..XD.s.%.s.%.8 k B < + O O N 9.K.W.Q.E.I.e.L i e.Y.Y.d.e.9.O.6.| | 9.q.#.^ L L i.I.U.N.g.e.O./ R L B d g G Z d ; z *.*. .] ^ J H Z a 9 9 ; M X.X.X.E T U K K A K L L K K K V N 9 o . ; d s @     . - 1 9 d G I ] |  ...O.@.@.@..... . .[ ] I J G z a a p i i > i 3 3 9 s 3 - o o 0 K X.4.7.w.u.u.u.p.M.N.u.2.R s 4 m E w.i.y.4.3.5.X.X.R Y A 0 ; - # o # - # o X ; s ; X o o < 3 #       O O       o - i d G H I I ^ ^ |  . .[ ^ ^ H j k H I / L > . @ 9 B L ( o.| / i G I Z i L | X.o.o.( ( X.G ; L o.L & i ( 3.2.3.6.w.9.4.3.3.O.O.o.X.X.( E R K M -   3 9 d 0 o   4 g K L X.3.6.9.9.9.9.9.w.w.i.i.w.w.o.B @   - o 1 # 9 Z R N o X N 3.D < O o ; C M O   X o o o o 9 G g ; & - 3 s d N Z L R R ( E ( R V s - & o - i a g k H ~ ^ ^ J ~ ^ ~ G k G H I L H G G Z a a g k z a 9 - ; 4 m C B C N ",
"B B B B V A K Y Y Y T R R R R Y R T U U K K A V B N s 9 3 3 s B K B i 3 s B V d N A L Y K A A K R Y Y Y Y Y Y Y R K N s 3 - - - ; 9 3 ; 3 3 3 s R w.4.2.w.w.7.5.L V 4 s 0 A E 3.1.1.E K < O s 1.6.e.w.Y d K w.L.L.K.K.K.K.J.M.M.i.g.i.w.4.3.X.R d ; G d.T.XXR.Q..XXXD.-.{ &.{ * ^ ( V 5 #   - D 4.u.t.3.| i & ; X.9.d i i @ > o > 3 i g G G i o 3 X.P.E.N.i.9.| / K B d g g Z G d i g I I H k G d i 9 ; - & B X.1.X.( E R Y K K K L L K K K B s - o - s N ; X     @ 4 d G L ^ |  . .....@.#.#.#.O.O.O... .] ^ J H z k a d p 9 > - - ; 3 3 ; 1 1 o o - s R 2.3.3.w.w.u.i.p.i.i.u.4.K 1 3 A X.7.w.3.5.X.X.X.X.X./ K B s 3 1 1 1 - X o 1 - O ; < 4 4 o     O < < X   X - 3 d G J I ]  . . . ..... .] ] ~ k a k I | o.g o X - d K L | / o.g g ^ ^ k i H O.O.| o.O.o.o.d ; I o.Z & B X.3.9.9.9.w.9.3.9.6.3.3.3.o.X.X.R A 9 o   i d B s o X 4 B R ( 3.9.w.9.6.6.6.6.6.w.e.w.w.e.o.s o o - - d ; N o.w.R -   4 2.K 4 0 M m U U s O     . o > Z L 9 @ ; 3 9 d B K R ( X.X.X.X.X.E L N - - o @ > i i g k H H H H I ^ H a k k G G G G z G z a a g k G k i - ; 3 s C C C N ",
"B B B B B B K K Y Y Y R T R R Y R T T Y U K K K B B C s 4 3 3 3 M Z Z d 4 9 d Z V M M K R Y K K K K K Y Y R R R R L A N s 3 ; - - > 3 > 3 9 3 3 d 2.5.R X.w.6.R V 1 ; s C O s K E X.X.X.4 . - T 3.e.u.6.Y d L w.K.L.L.N.K.M.M.K.M.g.u.w.w.7.2.X.L i ; H b..XT..X`._.x.@.' &.$.8 6.i.4.U m O o ; s V s 1 3 1 g X.| g i d 3 3 - - o 9 I O.r.M.e.( - # K M.L.b.9.O.I Z g g g g G | | d & 9 Z g i i 3 ; - o o o Z o.5.5.X.( E R Y Y L L L K K A d 3 o o 4 N s o   X o ; d G I ] | | .. .....@.#.#.#.#.#.@.@...[ ^ J H z k a a i 8 ; @ @ - - - - ; 3 1 # . o 4 K ( 3.4.4.w.u.p.g.i.u.i.w.X.A 3 1 N E 5.5.5.5.1.1.5.5.5.( R K K A B M 4 - o X o 3 m M <     O 2 4 3 o   o 1 d z H I ]  . . ........... . .^ x a a G | o.I >   o d K L R o./ / i g |  .G p G | o.O.o.O.O.I 9 9 | X.3 - G X.9.9.8.9.w.9.9.6.3.3.3.o.X.( L M -   o s B Z s . o 3 B R X.3.9.9.6.6.6.9.9.6.6.w.e.i.6.K - - Y s o #   9 3.e.R 1   - V s m U E U E E K 3 X . - g L L B - o ; 9 s B K R X.X.o.3.2.X.5.X.L N - o o o @ ; 9 i d g g k G H H k p k k k k z z k g k a a k z G z d ; ; 1 s N C N B ",
"B B B B B B V A K K Y R R R R R R R R R U K K K K A B M s 0 3 1 1 9 B K d 3 4 N K B N B K Y Y T L L Y Y Y R R R R Y K V N M 0 3 ; - ; 3 3 9 9 3 9 L E K K X.4.K s 3 1 1 s o - 4 V R X.1.V O O B 5.w.u.i.w.L M Y y.K.L.K.K.J.g.J.J.p.u.w.w.w.7.3.X.G > > | B.W.`._.G.s.' ~ &.&.a #.N.g.7.E M < o % ; - 1 K 3.N.^.P.X.9 B d s 9 ; o 3 L O.r.L.W.W.p.d o Z g.B.r. .L Z g B G L | 9.w.| ; @ > ; ; - - o o o o O U 3.2.5.5.X.( ( R R Y Y L K K V 0 O X ; s 0 -     o ; i G J ^  ... .#.......#.#.9.9.9.*.*.#.$. .] ~ H x z k k a i 8 - @ @ @ & - - ; 3 3 ; @ & ; d R o.4.w.w.4.4.w.i.u.u.u.7.R s 1 - B A ( 5.5.5.5.5.3.5.X.X.X.( R Y U B < X   < C m o   o 3 s m 4 o X - e g x J `  .......O...........[ ^ H a t a L o.o.g o o 3 B G I o./ | g i H O.O.Z p k | O.| O.o.| L ; Z / L > 3 Z | O.8.9.t.w.9.6.3.3.5.X.( R B 3 o o 3 d B g ;   - s A X.5.3.3.6.6.6.6.w.w.w.3.w.w.3.L 9 . - o o ; d @ X B X.1.m X o O s E 3.X.E ( ( R 0 O 4 B R R B ; @ @ ; 9 d Z L ( o.3.3.6.3.o.O.X.K m - o o X o o - 3 3 i i i d a a a g k z k G G z k a g a g z z G G a > ; < 4 M N N V ",
"B B C M M M B B A K L R R R R R L R R U U K K K Y K A A B M s 0 ; 3 i d B B s 3 B K Y K B B K Y R R R Y Y R R R R R Y A A A N s 9 - - 3 3 3 9 9 4 0 A K s A X.B ; s s 1 3 m 1 3 O 3 K T U - o < ( w.e.u.M.6.A V Y u.K.K.K.K.g.J.M.g.i.u.u.y.7.3.3.( Z @ 9 9.Q.T._.F.>.` ! &.@.y | m.U.K.p.3.K 1 - 4 N E N.#X,X,XOXr.B s N s @ s 3 4 Z 3.M.Y.].#X#XL.K o g 9.9.] L G Z G L X.9.i.f.r.g o . X @ o o X X X . O R 4.3.3.2.5.X.( ( ( R R L K A B 1 X o 4 s -     o o 9 a H I  .#.*.*.*.#.#.#.#.9.0.0.q.0.*.#.#...] ^ ~ J J J H x k a > ; @ @ o o @ @ ; 9 d d 9 & @ - B K X.4.w.w.w.w.u.w.w.u.e.3.K 9 # # 0 K ( 1.5.3.5.5.X.X.X.X.( ( T E V -   O s -     - s m C s X o - d D G J [ ..#.#.#.@.#.@.O...#...] H a > i G o.6.L & . - d G / I o.I ^ k p I 6.9.L > Z O.| o.o.o.| Z & L | G & > B | 8.w.9.9.w.9.6.3.5.X.R K 9 - . & B g Z i @   3 Z R 5.3.3.3.6.w.9.6.6.6.6.6.w.X.Z s 9   X     @ V 0   ; E 1.C - m 4 Y 4.E E X.( T U 3 O N Y L d - . @ ; > s B L / X.3.9.w.6.3.O.o.E V s - o o X   . @ - - > > 9 i i 9 p G G G G H H G k k a a g z z G G g 3 ; < 4 m C N V ",
"B B B C M M N N B A K Y Y Y Y Y Y Y L L L L K K U U U K K V C m s > - ; s B B s 9 0 B Y Y B B K R R R R Y Y Y R R K K K A K K A N 3 - - 1 3 3 3 9 s d B s 9 Z Z 4 N N 1 - s K K s o o M E 4 X X K 5.w.e.M.M.5.A 0 R i.K.M.M.K.p.M.M.p.y.w.y.w.4.3.o.| d ; G b.Z.F.S.;.! v @.s.H z b.E.Y.P.M.w.X.L O.h.E.#X6X6X,X#XE.R s Z Z 3 ; M d K 3.M.I.Q.$X,X6XU.Z - i | I G Z L I | t.N.L.I.M.( -     X             o E 3.4.4.3.5.o.o.X./ ( R Y K V s #   1 3 - .     . - p z ^  .#.9.0.0.*.#.*.9.0.0.r.d.q.q.0.*.#.@.....[ ' ] ` ` ^ J J g d 9 > * * & * 9 p k G J J z i & 3 d K ( 2.4.7.7.7.w.u.e.w.6.6.K 3 o o 3 V R X.X.o.5.o.o.o.X.X.E R T m o X O .   X 3 C V m 3 O X > g z J ] [  ...#.#.#.#.#.@.#.#... .J a > ; p / #.| 9 . @ d L / | o.| | ^ k 8 | 9.#.^ @ H o.o.o.O.o.L d ; L X.L > & B | O.9.r.w.w.9.3.o.E K B - . - g B Z d -   - B R X.3.3.3.6.6.3.6.w.6.3.w.9.X.K d d d 4 -   X . M Z o . d U - - X 1 T 1.X.E ( ( K 0 - X o 1 & @ & - ; 3 9 g Z R X.3.w.w.w.9.9.3.X.R V 3 # o         X o o - - > ; > i d a G G L I J H G G k k z z H J H g 3 ; < 3 s C V V ",
"A A B B B B M M M B A K Y Y Y T L L L L L L L L U U U U U K V V N s 3 ; ; 9 d B s 3 4 M A K K A K L Y R R R R R R Y Y Y K L R Y A s 1 ; ; 1 1 3 s s s g 9 ; d Z 1 s s s < - M Y E K 1 X 3 m <   1 X.7.e.g.M.K.3.M 0 K u.K.M.g.J.p.p.i.y.w.w.w.w.7.3.( B > - G r.z.j.;.! u ' q...p s.Y.E.E.E.P.M.M.(.^.#X<X6X6X6X6X/.2.4 L R B - 9 V R X.r.E.OX#X,X6X,Xg.d d z a g G L o.9.b.I.W.W.L.3.3     X           X - X.4.6.6.3.3.5.o.X.( E R R K M 1 # O 3 - . X X   o i z I ..#.=.0.q.0.q.q.q.q.q.q.r.d.d.s.q.=.%.@.{ { { { ' [ [ ' ` ~ J H G z k k z z H I ^ ]  ... .] Z - o ; g Z Y X.3.7.7.w.e.e.w.6.6.( Z 4 - @ 3 M A R X.o.o.o.X.X.X.X.E V - o O . X - s V A V 4 X X > g G ^  .[ ]  .@.#.#.#.#.#.#.....[ I k > & * I 6.O.g o & g L / | o.o.O. .I g >  .#.9.| & L o.6.o.O.| R 3 - R / G > & d L | O.w.6.O.o.X.K s - . o 9 Z g i ; o @ i L X.3.6.6.6.w.w.w.w.w.w.6.w.| L V B A Z 0 #     o s Y 3   ; 3 4 <   o T X.( T T U m < O o ; ; - ; 3 9 9 s d Z L ( o.6.w.e.e.9.9.3.X.R N 1 O .             X o o - - > i d g g G H I I I I I G G H J J I J g 3 1 - 1 s C V V ",
"K A A A A A B M M M B A K Y Y R L L Y Y Y Y Y Y U U U U U K K K A Z B 0 ; ; 9 M B s 1 ; 4 d Z Z K K K U Y R R R Y K Y L K Y ( ( R K d 9 3 1 1 3 9 9 s d s 3 i 9 ; s s s < < s 0 s U K 0 - O . X o E 2.e.M.i.g.M.X.4 - Y u.M.M.g.p.p.p.i.w.w.w.w.4.6.( K d & > O.s.-.@.l 7 x q.*.p *.Y.W.Q./.^.^.^.{.#X<X,X<X,X6X6X1XP.N s / I d 3 3 L 6.i.Y.#X#X1X,X3X].O.H I p g G I O.b.L.W.]./.E.w.N o X X             2 2.w.w.w.w.4.2.o.X.( ( R Y K 4 o o - # o     . o > Z I ..*.0.0.q.q.0.d.d.d.d.d.q.q.s.d.s.q.=.=.%.@.} @.} { { { { [ [ ^ ] ] [  . .......#.#...$.@.@...| g & o @ 3 d B K ( 3.7.w.w.w.w.6.3.5.X.K s ; - ; 4 d Z L R R R K V V m < - 3 1 O 0 A A V V 4 X o 3 g G ^  .` ~ ] ..#.#.9.#.#.#..... .] G > o o Z o.6.L @ ; Z I | o.O.O.#.#. .I i = O.9.0.Z * o.o./ X./ K K 3 - L R R i X & g B L L L L B 4 @ X @ 3 g g > o o @ d G | O.3.6.9.9.w.w.e.w.9.w.w.3.L Z Z L ( Y s #     . 3 E Z . 1 O K s     V T T L L V 1 o ; 1 N s s s d d d B K L ( o.6.w.e.r.e.w.9.3.X.L s < O +                 X o - ; 4 s s d g Z G L I I ^ I J I ^ ^ ] I Z i 1 # 2 s C V V ",
"A A A K K K A V N M M M V K L Y Y Y R R R Y Y Y U U U U U U K K K K A V M s 4 3 N B d 3 - - 3 s B V A K Y Y Y Y Y K K K K Y ( X.X.R K N s 9 3 3 3 3 9 s d d d 3 4 2 3 N 4 o o - 4 m V R C 1 O 3   9 X.3.u.N.M.N.i.( 0 1 L i.N.i.p.p.p.p.i.w.4.4.4.w.( A B 3 - g ^ ..H t * t #.0.z J Z.W.Q.W.[.#X#XOX#X<X3X,X,X3X6X1XE.X.; g d G 3 G L R r.I.Q.,X3X3X$X$XI.J O.k g H I O.B.W.Q.].^.Q.M.Y 1 o o X X         e 4.a.u.t.w.6.3.2.o.X.X.R K s - X . -   o o   o ; g I ..#.0.q.0.q.q.q.d.d.d.l.d.d.s.s.s.s.s.q.-.=.%.%.@.@.{ { @.@.@.@...@.*.=.0.q.q.q.q.q.q.=.%.%.%.@. .O.H - X o > 3 0 B Y ( o.6.w.6.6.5.o.3.3.o.R K 9 1 - - 1 9 0 4 0 < - O . o - < o 4 A K V C 3 o o > d G ^  .~ H J  .@.#.#.#.#.#.#... .] G > o . 9 R 3.| & > k I | o.O.O.6.9.#. .^ = 8 O.6.O.i g O.o.L / G K B o - B K Z D 3 o & - - @ o o o - 1 s d i & o o ; a L | 3.3.3.3.9.9.9.w.e.w.6.w.6.R Z Z L X.5.Y 3 .     . 3 K N # ; - K m X   3 V V B B s - o 4 N E Y K A Z B Z L R | o.6.w.w.e.e.w.w.6.o.R V s < % X                   . o - 1 3 3 9 i d g Z G H H J J I ] ] | ^ G d 1 O < s M B K ",
"A K K K K K K K A B M M M V K K L L Y Y R R R R R R R U U L K K K K K K L K d 3 9 d B B 9 @ o @ ; 3 s V A K K K Y K K K K Y E E X.( R L K B s 9 3 3 > 3 9 s B L e 1 s V 3     O - 1 4 K K U m 4 s o B 3.6.g.N.K.N.p.R ; ; R i.M.p.p.i.i.i.y.w.w.7.7.( V N B d d & i 9 * & & z r.] p b.Y.Q.W.].#X$X#X#X%X1X,X,X3X1X3X].e.I r.| a O.B.m.| G f.$X#X$X3X$X$X].| ..| i L | 9.N.^.OXOXOX^.K.X.s ; - % O o X X . V w.p.i.u.w.4.4.4.3.1.X.U s - o X X . . o . o > Z | O.*.0.0.0.=.0.q.d.d.d.l.l.l.l.d.d.s.s.s.s.s.-.&.%.%.@.@.@.@.@.@.@.=.q.j.l.z.z.z.l.s.s.s.q.-.=.=.*.#...^ k ;   o ; 0 0 0 d A ( O.3.5.o.o.o.2.3.3.6.X.L d 3 1 1 - # < o X X X . # < X o 3 C V m < X X ; i B ^ ] J z H [ @.@.#.#...$.O... .] G ; .   - L 3.o.> > g L ( | o.O.6.9.9.6.| G o G  .9./ > Z O./ I Z K K Z - o 9 K V N D V s 9 3 3 9 s s s ; - .   * i k I X.3.9.9.9.9.9.9.9.9.w.w.9.9.o.Z g G ( O.X.B #       o s 9 - @   o s C o X o m m s s 4 o o s K X.3.X.R L L Y ( X.o.6.9.w.e.e.w.9.w.3.X.K M 4 < < +                   X o - ; ; ; 3 3 i i d a g k G G H ^ ]  .| G d ; o - 4 m C A ",
"V A K A A A K K K A B B M B A K K K L Y R R R R R R R R R U U L K K K K L L K A d s d Z B i ; - o # ; 1 3 s B A L K K Y Y R R R ( ( E R R Y Z M s ; ; 3 3 1 d o.V B s s #         o < 4 m U V 4 L N i L 6.6.i.K.K.N.w.K ; ; L g.M.M.g.p.i.y.y.w.w.3.( A d A R L > o & o & ; @ o.#.p 9.Y.^.^.[.#X#X$X$X$X,X,X,X1X%XW.r.g G 0.#.a d d r..Xr.H 0.%X#X%X#X].W.d.J 0.t H O.r.L.^.$X$X#XOXP.2.N ; - < % O o o o U u.p.p.u.w.w.w.4.3.X.T N - X   X X   o . . > G  .@.0.*.#.#.#.#.*.q.d.d.n.n.n.n.n.l.d.s.s.d.s.s.s.q.-.=.&.@.@.@.@.%.&.s.l.z.x.x.x.z.l.j.s.q.=.%.%.*.=.=... .| G > o o - 1 3 3 9 s Z I R ( X.5.2.3.3.6.w.4.o.E L V B B 4 2 < 3 s m C V 1 X   - 0 4 -   X o > g I I z a k ] #.#.#.#.#.#....... .L > .   & K 6.6.d 9 d L R ( | o.6.9.0.0.6./ k o ^ t.6.G & d I Z 9 B d s 3 #   . s N s V d g B N s 4 ; # X @ & 3 Z L I | O.9.r.r.r.e.9.9.9.9.w.e.w.O.R B G R 3.3.Y 0 o       o 0 o o 3 .   < V o X   4 3 3 3 1 o - s L 5.w.6.o.X.X.X.o.3.6.w.e.r.r.r.w.9.3.X.Y B s 3 < < +                     O O - - ; ; ; > 3 9 i p d d a k H J ^ I G 9 - o O 2 0 m B ",
"M N B B B A A A A K K A B B B A K K L L Y R R R R R R R R R T U L U K K K Y R E L Z g g Z G B g 0 3 1 - - ; 3 s M N A Y Y R ( R ( ( E ( ( ( R K B s 9 3 > - ; G L s - 4 -       O X X o < m V m ; L B 9 L 6.i.g.N.N.M.w.Z o - R i.M.J.p.i.y.y.w.y.4.( B s B L ( E 4 1 < s B > d O.G G m.^.#X[.$X,X3X3X,X3X6X1X#XB.6.#.0.r.G a k I k = z B.Z.#.*.Q.].].I.N.b.a 0.a G | r.L.^.$X%X#X#XP.2.N ; ; 1 3 < < ; 1 X.i.p.i.r.w.w.w.w.1.E N 2 X           o # 3 Z | @.$.#. . . .....*.0.s.l.n.m.m.m.n.n.l.s.s.s.s.d.s.s.s.q.=.=.&.=.q.s.d.m.C.C.C.x.z.l.q.q.0.*.#.#.#.*.*.=.*.%.O.o.I i @ . @ - 1 ; # ; s B Z K L ( o.3.4.3.3.6.4.2.X.X.o.T T U U R R T T K 3 X X o - O   X X @ d L k 8 = a ~ @.#.#.#.$.#.....O. .L > .   @ Z 3.w.L 9 p L R / ( X.O.6.9.e.r.#.^ o k O.e.o.Z o > s & . . X     . o     X X . o . .   . @ ; 3 B L R | | O.#.#.9.r.r.r.r.r.9.9.w.e.r.e.X.L G I O.w.O.K 1 .       o # X 1 B 3   O s o - O - < 3 < ; O ; s L 2.w.w.w.6.4.6.6.w.e.e.r.r.r.r.9.6.X.R V s 3 < - O +                     O O o o - # - - ; > > 9 9 9 i i a k G G d 3 - o O < 3 4 s ",
"0 s M B B A A A A K K K A B B Z K K L L L L L L R R T R E R R Y Y Y K K K Y R R R R K g g G L L L K B 0 1 - o o 1 9 B Y R E ( ( R R R E ( X.X.( R K d - ; > & ; ; ; O o X           X X o % m m 1 . B L s L o.e.M.N.N.M.5.4 . - 5.y.M.M.i.i.y.w.w.w.( V V L ( 2.X.R B K R ( / & I / ; M.Q.$X#X,X,X3X,X$X3X6X#XN.| O.b.`.D.| ^ =.= & o . a m.m.H 9.M.Y.N.f.9.z q.H g L 9.L.].$X$X$X#XI.3.N 1 1 4 s s s s s 4.p.i.i.r.w.w.y.w.X.T 3 +           X   3 K / ..O.] ^ ~ ~ ^  .#.9.q.d.d.n.m.m.m.m.m.n.l.l.d.d.s.s.s.d.q.-.=.=.q.d.z.m.C.A.C.z.l.s.=.@. .[ ]  .....@.@.%.%.%..... .L g @ .   @ ; 1 - - - 3 s Z L R X.X.3.5.5.3.3.5.o.2.1.1.X.E X.X.E E R C 1 . . - -       o i Z i @ . 8 H  ...........O... .| H > .   . d O.9./ i i G I / / | o.O.9.9.r.O.O.d & | 6.6./ i .   .   - o o .         X O @ @ - 1 s B V B L I I L I |  .o.9.9.e.e.t.r.r.t.w.e.r.i.e.( Z K | 3.w.X.B <         #   X s N -   X - o s 4 o 2 < - - o - s L 4.w.w.e.w.w.w.e.e.i.i.i.r.r.e.6.O./ K M 4 < - O O O X                   + X + o o o o @ - - ; > > > > 8 i p a d 3 ; - O O O < 2 3 ",
"1 3 0 0 s M B B Z A K K A Z B B K Y Y R Y L K K U K U Y R T R Y Y L L K K K R ( E ( ( L Z B L ( | | | R K d 3 @ o & 3 B K Y R R ( R R E ( ( X.X.( R K i - @ - 3 ; & s 1   X                 % 3 4   X V K 4 K O.r.M.B.N.i.( 3   1 ( g.i.i.M.u.e.u.7.X.A B Y 5.7.6.6.3.o.6.w.O.L & L i | Y.$X1X3X3XqX6X6X,X$XY.O.9.d.Q.W.d.O.k C.r.& o . X g i.M.d R O.r.O.] k q.I i I 9.m.Q.%X%X%XOXI.3.B 9 d 9 N s d d Z r.g.g.i.M.e.e.e.w.L m X               o s L I L J H z H J `  .*.0.q.d.n.m.m.m.m.C.m.n.l.z.l.s.s.d.d.d.q.0.q.q.s.l.m.C.S.C.m.n.s.0.$.] H k k z H ~ [ @.@.%.@.$.....[ ^ k *     @ # # # # o O 3 s B L E ( E ( X.o.X.X.X.X.X.X.X.X.1.( T A V s - - s s 3 X . o 3 3 @ .   @ k ^ ^  ... . ... . .| G > X     s X.w.| g * G I ( X.X.o.O.6.9.t.w.9.G   I o. .| I g & @ > 8 i 8 ; & o o .       X o - ; 4 s f B Z G G G L | O.O.9.w.t.r.r.r.r.r.e.e.r.w.L K L 4.3.X.U 4 X             ; 4 4 3 o       9 B . ; - 1 - # - s L o.w.w.e.i.i.r.i.i.i.i.i.i.u.6.X.R Z d 9 1 ; - o o X X               + + + +   X X X X o o o O # - - - ; 3 i i 3 > ; - - - - - 2 2 ",
"1 2 2 3 0 s s M B B Z Z Z B B N K L Y R R R R R Y U L L Y Y K K L L Y L L L R R ( ( ( ( R L K K | | X.| / L G g > & o - s Z L R ( R Y R ( ( ( ( ( K g 3 ; 3 s d d ; K R -                   X o O - O   < L 3 B O.b.M.N.M.w.L o O 3 3.p.i.g.i.e.e.6.( K A R 3.w.e.r.e.e.r.b.r.9.3 L i i B.%X3X6X6X3X6X8X%XY.r.9.B.Q.Z.#.9.#.~ k n.| X & o o 3 X.- o ; d G g t B.G p I 9.N.Q.$X,X,X#XL.o.B d g d d d B B R i.M.M.g.i.M.p.w.6.B O               X < 4 s i 9 p k z G J ]  .%.q.s.z.m.m.B.C.C.Z.C.m.n.n.z.j.s.j.l.d.s.s.s.l.k.z.C.S.F.C.z.d.*. .~ z p 8 8 8 t a H ^ ....$...[ [ [ ] ^ a & . . . o o o X X o - 3 s N K K L R E R R R ( ( ( R E ( R K M s 3 - o o 0 K B i > i 9 o . o @ g I ~ |  ...#.%.=.*.| g - X     > R 9.O.k * G L ( X.O.O.6.9.w.e.w.9.| ; ; o. .O./ ~ G a a k k k d i i s s 4 3 - o X     X o o > 9 d g g G L I | o.3.9.9.9.w.w.e.w.w.w.3.Z K R 2.X.R m - X         X   < 4 3 2 O       i Z o & ; 3 ; # ; s K X.9.w.e.i.i.i.i.i.g.i.u.e.7.o.R K g s 4 1 ; - o o X X X           O O O O + + + X + + X X o o O O O O - 1 1 1 ; & 1 3 3 4 5 3 2 2 ",
"3 2 1 1 1 3 4 0 s s d N B N d d B A U R R ( ( ( R R Y Y Y K K K A A K K L L L L ( ( X.X.X.( Y K B L | O.O.o.( L B 3 o . o 1 s B Y Y Y Y R R R R Y d 3 ; - 9 s 3 1 o L 1.4                       O o X X X o X.s G O.b.f.g.M.o.B . o 3 X.g.e.e.r.w.6.| L L X.7.e.i.i.f.f.M.N.N.N.R > g & I Q.3X3X8X9X7X7XOXr.r.Y.OXr.*.0.*.9.9. . .E.I > - - - o -   - @ ; > G n.a g | 9.I.].$X1X,X$XB.X.Z g g d d d B G O.M.N.N.L.M.i.r.6.Z -                 X o o o o @ * i g G I ]  .%.q.d.n.m.C.C.C.Z.Z.Z.Z.m.m.n.l.d.l.l.l.l.l.z.n.m.C.Z.F.C.z.s.=. .^ z a 8 ; & & & * i k J ^ ] ] ] ] ] ] ] I g - X     . X       o O < 4 s s M V A K K K K L K K K K V M 0 < O O X   o s L L I L s o o - d I O.#.6.#.O.*.....] g ; o @ - @ - G 6.9.G * G L ( O.3.9.9.t.r.r.f.9.3.L o H 9.6.o.../ H J I H J H G G K K K V s i > - o o X X X o o - 3 d Z G I / | O.O.O.6.9.9.9.9.3.( g K R X.R s #             o X < 2 < % o   . o g L & @ > 3 1 - ; 9 B R O.9.r.i.g.g.g.i.i.r.w.3.X.R K B s 3 1 ; ; - O o . . X       X o O O O O O o + X X X X X X X o o o o O - - - - - 4 s m C m s 4 3 ",
"s 0 4 3 1 1 1 1 3 9 s s d d d s s M A K Y R ( ( ( ( ( R R R Y L A A B V Z A A A K R ( X.X.X.X.X.L L L I / X.X.| R K s ; o o @ - 0 B K L L Y R Y B 3 - - @ - ; . X X s R e X                               - X R s R | e.i.w.e.X.; - 3 g ( 3.6.6.9.3.X.R ( 3.e.g.f.f.M.M.N.N.L.Y.B.g 9 d @ b.$X7X8X9X7X,XY.d.Z.%XY.6.8 a *.q.0.O.G H M.9 d 3 1 ; o ; R G - & t.n.i G O.r.E.#X%X1X$X#XM.( G Z d i g g B G e.N.Y.I.L.N.i.6.L @ 3 ; X     X O O o o       X o @ > p G I ] ..%.q.d.n.m.C.Z.Z.Z.D.D.Z.Z.m.n.l.d.d.l.l.l.z.n.m.C.C.C.C.m.s.=.$.^ H k p 8 ; & @ @ @ ; 9 a k H J J J I I I I L d #     .         X o - < 1 1 3 s s s s d s N M m N N s 4 < O X X         & g L G 9 @ - - 9 g L L G Z a a a i > @ o - d Z d > d | 9.H = g I X.O.3.9.r.i.i.f.N.b.r.O.d ;  .6.O...^ ~ ^ I I ^ ^ I I I L K K V B N N s 4 ; & . X   X o ; d Z G L I / | | O.O.O.O.O.O.I B L ( R V 1 X         o   O X - % O o .   o - G I ; o ; 3 3 ; ; 3 d K | O.w.e.r.i.i.w.9.3.o.( Y K N s 9 3 ; - - - O O o o X     X O O O O O O O O o + + + X X X X o X X o o o o o - ; s N K L K K B M ",
"A B M s 0 3 3 1 3 3 3 0 s s s s 0 s d V K Y R R ( ( ( ( ( ( E E R Y K K Z V B M s B A L L R ( X.( R L L R ( ( ( ( ( R Z s 1 # o o ; s B A L L K d 1 @ - o o - . X X - C C O                             o   - % N s K ( 3.9.o.o.Z & I G 9 I / | | X.| / | 6.f.N.N.N.N.L.I.Y.Y.W.W.f.i ; ; g I.3X7X6X3X^.B.Y.OXQ.b.r.i i d / b.l.*.O.O.b.d B 1 4 ; 4 i.I.t.g O.| a | 9.M.W.$X%X1X#XQ.r./ L G d p g g B I M.Y.W.Y.B.r.3.Z s g K ; X . O 3 s s 0 3 o       X o - i z J [  .=.q.d.z.m.C.C.Z.Z.D.D.D.Z.C.m.n.l.d.d.d.n.n.m.C.C.C.C.z.z.-.@.[ H k p 8 ; - @ o o o o @ ; > i g g g g G L L I K 4 X   . .           o O ; ; 1 1 1 1 1 3 3 3 5 4 4 4 3 < O o X             o - ; 4 s s - o o o o o o o o o o . o 3 G I / I i 9 G O.L > g | O.3.6.w.i.b.b.b.N.N.b.w.X.- i | O. .| ..| H ] ^ ^ / / R L K V Z Z Z Z Z B d s 9 ; @ X   o 1 s g g G G L I ) | | | X.X.L N K L s 1 o           #   -   o . X       - 9 L I 9 X - 3 3 ; 1 3 d Z L / O.O.3.9.6.o.X.( L K Z g s s 3 ; - # - o O # o o X X o O - - - # - # O o o o . X + X + X + + X . o . o o < 4 s V U T T R U K ",
"Y K A B M m s 0 3 3 3 3 9 9 9 9 9 0 s M V K L R R ( ( ( ( ( X.X.( ( ( E R L K Z d s s d B B B d d d N Z L Y Y Y R R R R R K M 4 o o o # 3 M V V N 4 # ; o   @ o X X . m U <                     + X   +   % < < 4 N s G L K ( L L ; i o.R d k I L I / / | 9.M.B.I.L.I.Y.Y.E.E.W.W.E.9.& ; o / ].7X7X$XL.B.OX#Xb.r.9.9.g 9.O.I m.T.Y.B.| 6.g M.E V V N.W.Q.| ; 9 o.f.g.L.Q.$X1X1X$XY.e./ L G a a g g G O.L.W.W.L.M.o.Z & Z ( ; - 3 m K U K V m 0 O X   X X o o - p G `  .%.q.d.z.n.C.C.Z.Z.D.D.Z.D.Z.C.C.m.n.n.n.n.m.C.C.C.C.n.l.s.&.@.' x k p > - - o o o o . X . o - > 3 3 9 i g B Z Z 0 o X O - O o         X O o # - - - - 1 - - - < < < - O .             X o X X > N V N 3 .   . .   X .   .   X - Z | o.| X.B i > L G i d O.9.e.r.r.b.b.b.M.b.N.b.e.9./ > 9 ^ O.^  . .J ^ I ~ ^ ^ I L G G L L L L L K Z B d s 1 o     o - 3 i d g D G P L R ) R I d 3 e 1 o X           . - X 1             X - d G I i   @ ; 3 1 > 3 i B B L I / ( ( ( R K K B g d s 9 4 ; - - - - - O O O o o O - < < < - < < - # O o O . X + X X X X X + + + X X o < 4 N K R T R E R R ",
"R R L K K A B N s 0 4 4 9 9 9 4 9 9 0 s N A L L R R ( ( ( X.X.X.X.X.X.X.X.X.X.( Y K B B Z Z N s d s 9 9 0 s V K K K Y R ( ( Y K s 3 @ o @ ; 9 s s 3 @ 3 1   o o X . . s C O                               X < B 4 s B M d B B Z B d o L 9.g i L I ^ | | O.r.N.L.I.I.I.I.Y.Y.E.E.W.^.W.6.& > > 9.#X1X^.N.Y.$XQ.b.d.f.b.6.> o.@ 0.3XwX6XB.| 9.2.Q.w.p.OXW.I.X.i 6.N.W.E.^.#X1X1X%X].N.O.^ H z k g B G I i.Y.W.W.N.6./ d 3 B d & L E X.2.X.Y B 0 1 o X   X X X X o > g J [ %.q.s.z.n.C.C.Z.Z.D.D.Z.F.Z.Z.Z.Z.m.n.n.z.n.m.m.C.C.k.s.&.@.{ ' J z a 9 - - o o o O O + X X o o o o $ - ; ; 1 3 < o o O 2 2 1 - # O o X . . . o o o # - O O O O O O O +       X X       X o ; s V M 4 -     o o     X   .   o 3 K X.3.6.6./ g @ i g 3 > O.r.M.M.b.N.N.N.B.N.B.M.b.e.r.G @ i I I J ] ^ H J J I I L L L L G L I I I L B d s i 1 O X     X o & > i f g G G L L G G - o o             + O O O X s             . - d G I g X o ; 1 1 3 3 i g g B G G G G Z Z B g d s i 9 3 3 ; - - - - - @ @ O O # - < 1 3 2 < < < < - - # O o o . + X   X X     X X o - 3 s V L E E E ( ( E ",
"( R Y Y Y Y L K V B s s s s s s 9 9 9 s d Z K L R E ( X.X.X.X.X.o.o.X.X.X.o.o.5.X.X.R R E ( ( ( Y K Z M 0 3 3 0 A K Y Y Y R R R Y K M 0 ; # - ; - - o s d o . . X O - 4 3 O +                 X           X 3 s B C s M B d B g d d i @ G O.d d | | o.O.9.f.N.L.I.Y.Y.I.I.E.W.W.W.OXQ.B.I @ 9 ; M.OXQ.B.#X$XI.N.b.f.e.t.9.H & i | Q.7X7Xr.3 1 9.N.K.W.].I.| d 6.Q.$X].$X$X1X,X#XI.9.| ^ H G G G G L | B.E.Q.Q.L.6.Z > L 9 s 3.3.6.7.2.( K N 0 1 - o X         X ; a J [ %.q.s.z.n.C.C.Z.Z.Z.Z.C.Z.C.Z.Z.Z.m.z.z.z.z.z.z.z.z.s.=.&.} { ' J z p 8 - # o X X + + + O . X X X   X X X o o o o . X   2 4 s m 0 3 # o . . . . . . . o O o o o O o +               X o X 1 s V V m 1 X . o # o     +       # s R O.9.r.0.6.L o ; i ; o o.r.L.I.B.B.I.I.L.E.E.N.I.f.6.X.9 o i | I z H ^ J ~ I I I L I I L I I I L L Z B s 4 3 # .         X o ; 4 d g B B V B g o X o             O < - . . N X     X   . o ; d G ^ G o o - 1 ; > 3 i g g g B Z B g d d d s s i 9 3 3 ; ; - - - - # - - O - ; 1 1 3 3 3 1 < < < 1 1 < - O O O o + + X X     X o O 1 0 m K R _ _ E X.X.X.",
"X.( R R R R Y L L K A A B N M s s s s s s s B L Y E X.X.X.X.X.X.o.X.X.o.o.5.o.o.2.o.X.( ( X.o.2.5.5.2.X.E K s - - s K R R R R E ( R Y Y K N s s 1 ; o - d 9 o o # O 3 3 O     +           X o o o           O 3 m Y Z B g s B Z B K L K > > B & / e.6.e.r.i.Y.N.L.L.I.I.E.E.W.W.Q.Q.OX^.w.d ; > d b.Z.Z.3X`.I.N.b.r.i.M.E.].t.; i a t.W.r.N.X.o G N.#XW.B.w.9 / L.Q.$X$X%X1X$XQ.r.O.| ] J G H H L R r.E.Q.Q.Y.M.| i i G i 3.r.e.e.6.X.R Z s 3 ; ; < - O X     X & i G ^ #.q.s.z.m.C.C.C.Z.Z.Z.C.C.C.m.m.m.m.z.k.s.s.l.z.z.s.-.&.} } ' ~ J z a i ; - o X X       + O O O +                     . - 3 m V A V s 4 1 # o . . . . X . X     X X         X + X X X O 3 M K A C s -   X O O +     +       - B X.O.9.t.t.9.| i . ; 4   B 3.N.Y.W.W.E.Q.Q.Q.Q.Y.N.i.9.O.L . o k I J H J ^ ^ ] ^ ^ I I I I I R / R L B g s 4 3 - O X         X o # < 4 s s 3 3 o - s o X       + # , o       B ;   . X . o @ & i G I G o o - 3 1 ; 3 i d g g g B g g g d s i 9 9 3 3 > > ; ; - - - - - - - ; 1 3 3 1 1 1 2 ; ; ; 1 1 < ; - O o o o o X       . # 1 0 M A R ( X.o.X.X.X.X.",
"X.( ( R R R R Y R Y L K K A A B B N d d s s N Z L R X.X.X.X.X.o.o.X.X.X.o.o.o.o.o.o.X.X.X.X.o.3.3.3.3.3.2.X.R K s 1 1 4 N K R ( ( E E ( X.( L B A N ; @ ; ; # ; 1 3 m 2 X   + 2         X o & & o X X X       o s B Y R R 9 o L X.5.3.6.X.s o - i 6.M.i.N.M.N.K.N.L.L.I.Y.E.E.E.Q.Q.Q.W.Q.O.@ B k p 0.OX3XY.I.f.b.r.M.W.$X3XQ.6.& k ; | | $X^.o.X.R L.E.w.O.g Z 3.N.].$X$X#XW.M.9.| I I I I I I I 9.N.W.^.].Y.i.R > G 9 R r.b.g.e.3.( K M s 9 3 4 4 3 < O X X X & i G I @.=.s.k.n.m.C.C.m.m.C.m.C.m.z.z.z.z.k.s.s.s.s.s.s.s.=.%.{ ' ` c x k i > ; @ o X X X       + O O + X           X X X X o - 2 4 C K U K V M 0 3 1 - - o o o X                   + o o - 3 B K K V s < o X o O O +   + + +   O 3 K X.6.e.r.r.9.O.B o o 1 @   G r.N.Y.^.].Q.OXQ.E.E.Y.N.r.O.L o o i H ] ^ ^ ] [  .] | | | | / / / | I G B d s 4 3 < O X               X o o O X X   < B o         + O O X     X Z s o o o o o @ & 3 g L g o o - 3 3 3 9 d d g g g B g g d d s i 9 9 3 3 3 3 ; ; ; ; - - - - ; 1 3 3 3 1 1 1 1 2 ; ; ; ; < < < - - O O o     . O # 1 3 s A U ( X.o.o.o.X.X.X.",
"X.X.X.( ( R R Y R Y Y Y Y L K K K K Z V B M M B K R ( X.X.X.o.o.5.o.X.X.o.o.o.o.o.5.2.o.X.X.X.2.7.7.4.3.7.7.3.5.X.K s 1 ; 3 M L ( X.X.R R ( X.X.( ( K s 1 .   1 N N s %   X O 3 o     X o o ; > 1 ; - o       X @ 3 A ( e.6.i ; 5.u.g.e.u.w.N . - 3 w.N.g.L.N.K.N.N.N.L.I.I.Y.E.Y.Y.Q.W.Q.B.L i O.I g W.Q.I.r.B.b.r.N.#X6X8X3XQ.^ & g L 3 | Y.Y.L X L r.9.R / > Z 3.M.L.I.B.M.9. .| ^ ^ | | ^ I | N.E.Q.Q.Q.Y.r.Z g 9 d 3.g.N.M.e.3.R Z d d s s s s 4 4 < O .   @ 9 k I ..*.q.l.z.n.C.m.n.n.z.z.k.j.s.s.s.s.q.-.*.%.*.=.q.0.%.[ ` ` ~ c z a i > - o X X X X           + + + + + X X o O O O O O - - < s K T T R Y K A B M s 3 1 - O o X X X       X o O < 4 M K R U K C 3 O . o O O O X   X + +   # 0 Y o.6.e.r.r.e.9.R > . - i 3 o d 9.b.I.OXQ.].Q.W.E.Y.N.r.6.L ;   i G |  . . . . . . ...O.o. .| | | / L Z B s 4 4 < O                               3 V .       + +           o g Z @ @ # @ & & - ; d L d o o - 3 9 9 d d a Z B B B g g g g d i 9 3 3 3 > 3 ; ; ; ; - - ; 1 9 9 9 4 1 1 1 1 1 2 ; ; ; 1 1 1 1 1 < - o . X . # < 3 s M B L ( o.o.5.5.5.5.5.5.",
"o.o.X.X.X.( R R Y K K Y Y Y Y L L L K K A A Z Z A L R ( ( X.X.X.5.5.o.X.X.X.X.X.o.2.3.3.o.X.X.5.7.7.4.3.3.3.3.3.3.3.3.X.K 0 1 3 d K ( X.X.X.X.X.E E ( ( A # . < C B 4 o   O < 3 < X   o & - > i d i 3 - @ o X     - s L o.e.w.d @ w.u.p.g.w.w.s . - 1 4.M.M.K.N.M.M.N.N.L.L.I.I.I.L.Y.E.N.I.i.& o.#.d #.I.M.M.r.f.b.Y.$X3X6X3X,XN.I G g 6.i i X.O.3.& > R I Z G d K X.6.9.e.9.O.| .. . ... .^  .r.E.Q.Q.W.Y.I.9.g G @ L 6.M.N.g.e.3./ K Z B d d s s s s 4 1 O   o > k I  .@.q.d.d.n.n.n.d.d.s.q.-.=.&.%.%.=.%.$. .[ ] ] ..O. .^ H x z k a i > - & o X X X X             + + O O o o O - < < < < < - - 3 M K Y T R R R Y Y L K A m s 4 1 < - < < - - 3 s C K U T U K V s - o o - - - O X   X + X   - B ( 3.w.r.r.i.r.r.O.B @ o 3 i > & > / r.B.Q.Q.].].Q.E.I.M.e.X.d   > G ]  . . .[ ]  . .O.O.O.O.O.O. .| L B g s 4 3 < O X     X X +                   < m X                 X . o 9 G ; @ - # ; - ; ; i B > o @ ; 0 s s g B Z G G G Z Z B B g d d i i 9 3 > ; 1 ; ; - - 1 9 s s s s s 4 4 1 1 1 2 ; ; 1 1 3 3 1 1 < - O O - < 1 0 s B K Y ( o.3.3.3.3.2.5.5.5.",
"o.o.o.X.X.( E R Y Y L Y Y Y Y Y L L L L L L K G G K L R R R R R ( ( ( ( ( ( ( X.X.o.o.o.o.X.X.X.5.5.3.3.5.5.3.6.o.4.w.w.w.o.L s ; ; 9 Z ( o.o.o.2.X.( X.( B - o 3 s 3 X X - s m 4 o   o ; 3 i d d d g g d 3 & X o . @ B L X.r.9.s o o.M.i.b.6.w.s o - 3 6.i.K.i.M.M.M.M.N.N.L.L.L.L.M.B.B.M.e.G i  .i ; o.e.f.B.f.N.^.%X,X1X3X3X$XR B - G i.L d R b.O.> g i g G Z Z L / O.O.O... .O.O.#.O.|  .t.Y.].^.OX^.Q.L.K s ; i R i.N.M.g.e.3.( L G Z g d d g d d d s ; o X - g ^  ...=.s.s.s.s.q.q.0.*.@.@.@....... .] ^ J k i 8 i k G g a i i i i 3 - o o . X X X X             + o O < # O # ; 3 3 3 3 3 - O - 4 M K U R E ( ( ( X.X.( E R K A V C C C C B V K U Y Y U K V s - o o - ; ; - o X     X X o 9 Y 3.w.i.g.g.M.M.g.w.( 9 o o d k Z > @ g 9.B.E.^.^.E.E.W.L.e.3.G . & 9 I  . .] ] ] ]  ...O. .#.#.O.O.| L B d s 4 < - O X       X X             +     - s o               X o @ o > H i & - ; 1 & ; ; > 3 o o ; 3 0 M N B G G G G G G Z Z Z B B g d d i 9 3 ; 3 1 1 3 0 s d M s s s s s 9 4 4 3 3 3 3 3 1 1 ; ; ; - - - 1 9 s s d B K R X.o.3.6.6.6.3.3.3.3.3.",
"3.O.o.o.X.X.( E Y Y U K L L U U L L L L L L L L L L L R R R L G A A A A K K L R R R R E E R L K K Y R ( ( ( o.3.6.6.4.3.w.u.e.3.L d > ; 4 d K R X.X.( E ( R s o o < X   o 4 C V s o . @ > i a k k z G G G Z i ; - o o @ g o.O.w.i.4 - X.i.M.N.e.w.d @ 9 1 7.u.N.b.b.M.M.M.N.N.L.B.M.M.f.M.b.9.9.i * G L 9 O.N.r.b.W.$X%X%X,X,X,X].9.9 o   R N.|   - L i R L a G L G Z I |  . .O.#.O.#.*.#.O.r.I.OX$X$X$X#XQ.w.@ @ o B 6.L.M.K.i.e.3./ L L G B g Z Z B B B M 4 - X o i I ] ..%.-.q.q.9.=.#.#... ... .[ ] ^ ^ H k i * o o o & - - & @ o & - - o o X X X X X     + +       + + O < - - - ; 3 3 4 0 3 - O # < 4 N K Y R ( X.X.o.o.X.X.X.X.E R T T T U U U U U Y L K V m 1 o . @ ; ; ; - o X     X X @ s ( 6.e.i.f.g.g.b.g.e.3.K ; o ; a Z G G ; > o.M.E.].Q.E.E.L.i.4.E > o o Z  .|  . . .]  . . . .O. .o. .| L G B d 3 ; # O o X X X o + +                 - N <           + o O $ & @ * G G 9 - ; 3 ; ; ; ; @ o - 4 0 s M B Z G G G G G G G G Z Z B g d d i 9 3 3 9 9 0 s M B N d d s s s s 0 4 4 4 3 3 1 1 1 - - - - ; 1 3 0 s s V Z K R X.o.3.4.9.6.7.6.6.6.3.3.",
"3.3.O.o.o.X.X.( R T Y K K K U K K L L L L L L L R R ( ( X.( L Z s s 0 9 9 s B A K K L L L K A V M M M B V A L R X.3.6.w.w.e.e.w.e.6.( G s 3 1 1 s N A V B V s < o ; X   < m V C s - . @ > p Z G H J H z H J L Z 3 i 9 . & N L O.w.r.B - ( i.r.N.f.e.g - Z > 3.i.g.g.b.M.M.N.N.N.N.M.N.b.r.b.M.r.6.9 G H k d e.N.N.].,X%X$X#X#X$XW.O.o.d X @ X.R 3.d o 3 * #.G ; Z Z Z Z L | O.*.*.O.#.0.e.f.Y.#X$X1X,X$X#Xg.g     s L M.I.N.K.u.w.2.( R L L G G G G G G Z Z s 3 o o > G ^ ..#.#.=.=.*.#.@....... . .] ^ I H k p & o . @ ; ; O o X     X o X     + X X + . + + o + X + o O + O < 2 < - 1 1 3 9 s 0 < O O - < 4 s A Y ( X.X.5.o.X.X.X.X.X.( ( E E Y Y K K K L K V m 3 @ o # - ; ; - - o o X X X o - g | 3.w.e.i.i.i.g.g.i.w.o.L g o o ; G I L d > | r.Y.Q.W.E.I.L.w.X.G ;   > H ^  . . . . . . . . .| | | | L G B s 3 ; o o o o o o O o X           X   X O N s o X X + O o O - - * & * p I g > ; 3 9 ; ; - o - s M M B V Z Z G G Z G G G G G G G B g d d d i s s d d B B Z B B M M d s s 9 9 4 4 3 1 1 ; - - - - - ; 3 i d B B Z L L R | o.O.3.6.9.9.9.w.w.w.7.3.",
"4.3.3.o.o.o.X.X.( E Y U K K K K K K L K K L R R R ( X.o.3.o.R K 9 3 ; - - 1 s M K L L R L L K V M s 0 0 s s M B L R X.3.6.w.w.e.6.9.9.6.3.X.K s 3 ; ; 1 - # o o o e < - 4 m V C m ; o @ > d z z J ^ ~ J J ^ I L Z i 9 Z 3 X 9 G X.O.w.s o / i.r.f.9.e.Z - B 9 ( g.b.g.M.M.M.N.N.L.E.M.B.N.r.B.f.M.^ * O. .8 / f.B.^.$X$X$X#X#X$XY.9.N.3.-   d 3 X.3.d   ; | f.L ; d Z Z L  .6.9.9.#.9.d.M.Y.$X%X,X1X$X$X^.R . @ & Z e.N.U.I.i.p.6.o.X.( / R L L L L L L G G B s @ . - Z ^ ..@...$.#.#.@... .....[ [ ] ^ ~ H k d ; @ @ 4 M s 0 4 3 ; ; - O X     o + X . o o o o o o O O O O - 2 3 < 1 1 3 3 0 s M 4 - - - - 1 4 N K ( X.o.3.O.X.X.o.X.X.X.( E R K K K A A A B s 3 o . @ 3 3 3 > - - o o . X . o 3 G X.6.w.r.p.p.M.M.N.M.i.w.6.X.| i @ o i I o.I - g O.M.I.Y.B.N.i.X.X.g . o i I | |  . . . . . ... .| | I G g d s 3 ; % o X o O o o o X           X X X X f N - o o O O O O - - ; * * > I L i > 3 s > - @ . 3 V K K K Y L L L G Z G G G G G G G Z g d d d g B B A K K K A Z Z Z N d s 9 9 3 3 1 1 - - # - - - ; 3 9 s g Z K R R R | X.O.O.O.6.9.9.9.w.w.w.w.7.3.",
"3.2.2.2.5.X.X.X.X.( ( R R Y L L Y L U L U R E E / | X.X.X.X.I Z s 1 - o o o - 1 s N K K L K K F N s 1 3 4 3 3 0 s B K T | 2.4.4.6.6.6.9.9.w.w.3.X.Y B 0 1 - o . o o o o < m V C s : X X > d G G J ^ ^ I I I I H G H g i g 9 @ - B E O.4.e X R t.e.g.r.9.g > Z 9 I t.f.r.M.B.N.L.L.N.B.Y.N.g.N.B.N.#.i I #.H * O.N.].$X#X#X#X$X#XM.i.E.w.3   o : s | G > @ H d.0.g o d G R o.3.O.#.9.q.m.Q.$X%X3X3X%X,XOX9.3 3 & i O.N.Y.I.L.N.w.9.3.X.| | | / R R L L I L L G d < . o d I |  .O.....@.@.$... .] .. .[ [  . .I G > ; o 4 V V K K B B M s 0 3 ; 1 2 1 - - - 1 1 - < , O # - - < 1 3 3 3 3 3 4 s m M s 4 ; - - 1 3 s B T X.5.3.3.3.o.5.5.5.E Y U U K V m m M m 0 1 o o - > i i > ; ; - @ o . . . o i L o.9.r.f.g.M.N.N.N.N.N.M.g.p.e.O./ G ; o i o.| g > G 9.n.Z.m.i.t.O.R d . o d L / | / ^ O.#.@.O... .| I G g d s 4 ; O O O - - O O o .       X X X O o o 3 g > o o - - - - - - > > > > a ~ H i 9 ; ; - . o s L ( ( X.X.X.| I L L L L L L L L G G G G G G L L G L L L K K Z Z V N s 9 3 > ; ; ; ; - - - 1 3 0 s M B Z K R ( ( ( X.o.O.O.3.3.6.6.3.3.3.6.w.w.w.w.",
"4.3.2.2.5.X.X.X.X.X.( ( R R L L Y Y R T T E E X.R | X.| X.X.L B i 3 - - ; - o o ; 4 f N V F F N N s 1 - - ; 1 3 4 s N V L R | X.o.O.3.6.9.w.w.6.w.w.3.X.E Y K K N G s o   - s m s < o o - d g G I I ^ I I ^ I J I H a i d Z i & - m E X.2.s o L w.o.9.e.9.L > R Z L 9.r.f.b.N.b.M.N.L.I.L.I.L.M.M.e.a 9 #.O.i ^ f.W.].].].[.#X].g.i.E.h.N X X - 1 L i ; o 8 / r. .> 3 Z R X.3.9.6.B.W.Q.#X%X3X3X3X3X#Xe./ B i > L i.E.Q.Y.L.N.r.3.3.O.o.o.o.o.o.| / / / I ^ L g 4 o   - g I |  . . .......$.@.@.$.$....... .] ~ k ; @ 9 9 d R ( ( | R K A B s s s s s 0 4 3 3 1 2 < < < < ; < 1 1 1 < 1 < 3 4 s s s s 0 3 1 1 1 4 m K ( o.3.3.3.5.o.X.X.E Y K K V N s s 4 3 - o o & > i i i 8 ; - & @ o . . O # M I O.9.r.f.b.M.M.M.N.N.N.N.N.N.N.b.r.6./ d > ; | O.| 9 8 | r.b.M.r.3.o.R s o   i R ( I O.#.@.*.O.O...| I G g d i 4 ; # O O % O O O O o o + + X X X # @ o 3 g i - - - & & & ; > > > = > p H J H 9 - o   X 3 K E X.X.o.3.9.9.O.o.X.X.| | | | | | | / / / | / R R L L K K L L Z d d s i 3 > 3 s d B M s s s M B V K K L R ( X.X.o.3.6.6.6.3.3.3.3.3.3.3.4.7.7.7.4.",
"4.4.4.2.2.2.X.X.o.X.X.X.( ( / E R E X.X.X.X.X.X.( | | | | | L g i i p a Z B i - @ - 3 s C V B C C N s < - ; < 1 1 3 s N V G G L L I | | O.3.6.6.7.w.w.w.4.2.5.5.X.X.R C -   o < 4 O     & > f J I J J I ^ ^ ^ ^ I H G a i g Z d o o s K 2.X.- ; d 3.3.6.O./ / 9 I g i O.w.i.r.M.N.I.L.M.M.N.N.b.M.e.G & #.6.p k r.Y.Q.].].].].^.r.r.^.P.R X   1 1 > 3     9 p ^ 6.B > G ( 3.e.b.B.E..X@X3X1X%X%X,X#XY.6.| d @ d 9.I.^.Q.Y.N.N.i.9.6.3.O.O.3.3.3.O.| | X.| I L L N > X o > g I ^  . . .....@.#.=.#.=.=.*.%.*.*.#. .i & @ @ ; B X.o.O.X.R R L K A K K K A N d s 0 3 3 3 1 < ; ; ; ; ; - - - < 3 3 s s s 0 9 3 3 3 3 0 N L ( o.2.3.5.X.( ( R U A V m s 3 < - o . . @ > d d d p i > - & & - o   O < Z ( 3.w.i.g.b.M.M.M.M.N.N.N.K.L.N.N.M.b.b.e.R i ; I O.O.g ; G | 9.i.b.9.| L d & o > L | |  .*.*.O.O.O.| I G g d i 9 ; - O O O O O o O O O O o X . . - - @ > g Z 3 > ; - - * > 9 8 i i 8 > p G | d - . o ; B R ( X.5.3.w.r.f.r.w.w.w.w.9.9.6.6.6.3.3.O.3.O.O.X.| R R R L L L L Z B s 3 3 s B K L K K Z B B V K K L R R X.X.3.6.9.9.9.e.w.9.9.6.6.6.3.4.4.6.6.7.4.",
"4.4.4.2.2.2.o.X.X.X.X.X.X.X.X.X.X.X.X.X.X.X.X.X.| | | | | R G g t a H ^ ] | I G 9 - - s M C B K A K K B m s s 0 4 3 3 s s d g B Z G G L L / X.o.X.5.3.6.3.3.5.5.X.E R R V - X X X o     X - i g H z G H I ^ ^ ^ I J I G i > d L 9 o o 4 V X.E > i d L O.o.O.o.G & | | 9 X.6.9.i.b.B.N.N.I.L.N.N.M.9.L & | O.g i r.Y.Q.^.].^.].Q.r.r./.P.R     4 s i     ; @ i p I G > I O.r.N.E.].OX#X%X1X%X$X3X#XY.b.9.I @ o / M.W.Q.W.L.N.N.f.i.w.3.O.6.9.9.3.6.o./ G g g g d i - X   o 8 z ^  .....$.#.#.0.q.s.s.d.d.s.d.d.d.0.^ t & 8 9 > L O.6.3.o.X.X.E E Y R R R L K Z M s 3 < - - o o o - o o o o o O - 4 3 3 3 9 s s s 0 s d V L ( o.3.2.X.( R Y K B M s 1 - o . X o @ ; i k g a d i ; - & - - X   O 4 K X.6.e.i.b.M.N.M.M.M.N.N.N.N.K.L.I.L.M.N.B.f.O.d ; G #.t.| 8 > G o.r.r.3.X.R d o   > L I | #.O.#.O...| ^ H Z g g d 9 1 ; ; ; ; - ; ; ; ; - O X o o - ; & ; d G i > ; ; > > 3 i i i i i 9 i g Z G ; X # s K ( X.o.2.3.w.i.b.b.r.r.f.M.b.f.r.r.r.e.e.w.9.9.6.O.O.o.X.X.| ( R L Z d d d Z L R L Z Z V B B V A K L L R ( X.3.6.9.w.9.9.t.r.r.r.w.w.6.6.6.6.6.6.7.7.",
"4.4.4.4.2.2.o.o.X.X.X.X.X.X.X.X.X.X.X.X.X.| X.| | | ( / / G g i p z ~ `  . . .| J g 3 1 0 M K Y T E X.1.( Y U U K N s 4 4 3 i s d g g g B Z K L R R ( X.X.X.X.X.T E R V m s <   - - o X     - B Z d d g G J I I I I G G g > ; B K s   o s B L G g i i G / o.| | L d G | & B w.r.b.N.M.M.L.L.M.N.f.e.G > / O.i g r.Y.W.W.W.W.^.^.b.r.P.b.K     4 0 R @ & & t 8 p p g > X.e.M.I.Q.OX$XOXQ.#X%X#XQ.B.Y.M.O.9 . d 6.Y.Q.Q.W.I.N.N.b.f.r.9.O.6.9.9.9.| L d & @ > > o & o     X & a I ]  ...#.*.0.r.d.d.l.l.z.z.z.l.d.0.O.J z |  .a G | 3.w.6.3.o.X.( E ( X.X.( R K V s 3 - o o o o o o o . . o o o o @ @ - 1 9 s s 0 s s N B A L ( X.o.X.( R K V m 0 3 - o X . o - > i k k g a a i > ; & - - .   O m K X.w.u.g.M.M.N.N.M.N.K.N.N.N.N.K.L.K.N.N.N.N.b.w./ > d | 9.9.G i i L 9.9.O.X./ g - X * G |  . .#.O. .| | I L G g d 9 > ; > ; ; 1 1 1 1 1 < # o o o ; 3 - & i Z a 9 ; > 8 8 i p i i i i d g i - 9 @ o 3 K ( ( X.o.2.3.6.e.g.M.f.b.b.N.N.M.M.M.M.M.b.i.r.r.e.w.9.6.6.3.O.o.| K d B Z K K Z Z K L K G K K L L R R R ( X.3.3.6.6.6.6.9.9.w.t.e.e.e.w.9.w.7.6.6.6.6.",
"w.w.w.7.4.4.2.2.o.X.X.X.X.X.X.X.X.X.| X.X.X.X.X.X.| / / L Z d i k x ~ ] ...... .| I d - - d L R X.1.3.w.4.3.1.3.5.X.R L V s 3 1 3 > 9 i s s d B B B B V K K K K K K C s 3 2 < O X 4 s o   X & ; g i 3 i k H L H G I G k G i & ; Z K ;   & e g L Z d G i i I L I | L d B e.Z > | 9.M.B.N.N.N.N.N.b.3.9 i | G & I n.W.Q.W.W.W.^.^.b.t.N.9.s     s 0 # 3.d 9 8 a p d 9 @ o.g.M.N.Y.Q.OXOXQ.^.W.Y.B.E.Q.e.g   o | i.Q.^.W.W.Y.B.B.M.i.i.r.9.9.9.9.9.| g > i g G L G d 9 - & @ & > h J ^  .....#.#.9.0.0.q.s.s.s.q.=.%.] ]  .*.d.#.G G | 3.3.4.3.X.X.X.X.5.X.X.( K B 1 - @ & - ; > > ; ; > > 3 > - @ X X . o - 3 s d s N Z K K K L R X.X.( Y K M 4 1 # o X o @ & > i k k z k a a t > ; - - - o   < C Y o.w.u.M.N.N.K.N.M.N.K.N.N.N.N.N.N.N.N.N.N.K.K.N.e.o.d > G / 9.O.G > i I 9.9.X./ Z - . & d I ]  .| | / ^ I L G g d i 3 3 3 3 > 3 4 1 ; ; ; - o o @ ; 3 ; & ; p G a 8 > > 9 i p d g d i 3 > & . o @ - 3 A ( X.5.o.3.3.4.w.g.M.M.b.M.M.b.M.M.N.B.N.M.M.b.f.i.i.r.e.e.w.o.R K G Z K K G Z Z L R X.R R E E E R R R R ( o.3.6.6.3.O.3.O.O.O.O.6.6.9.w.w.w.w.w.w.w.w.",
"w.w.4.4.4.2.2.2.o.X.X.X.X.X.X.X.( ( ( ( | | | / / I L L Z d p a H H J ^ ^ ] ] | I L g 3 - 3 B Y X.X.2.4.w.w.w.4.w.w.y.w.2.E K s s 9 9 9 9 3 4 0 0 9 4 9 0 s s s m 4 3 3 < + X o     O B N o   > 3 ; @ & i G H H k H H z k i * o > g V o   ; d B L i ; L G > G | R O.| G i R R i g R w.M.N.I.L.M.w.L - Z L > i 9.m.W.W.W.W.E.W.E.h.3.w.K o   O s -   d e.k p j k a ; @ X.p.M.g.N.N.Y.Q.W.L.M.B.].OXb.B o   d r.Q.Q.^.W.E.Y.B.B.N.f.b.f.r.r.e.3.| d & - B Z d B L L L G g i > > = a k G L I I ^ /  .....@.@.@...[ [ J J  .*.l.q.H Z I | | o.O.o.o.X.X.o.X.( L B i ; ; > i g k G G Z k Z Z Z Z d i @ o o . . - 9 B d B K L L L L L R R R L V s 3 - o o @ ; > > 9 p z x x z k a i 8 > > ; - o + 5 V R 2.w.u.g.M.M.N.N.M.N.N.K.N.N.N.L.K.J.N.N.M.N.N.K.N.r.9.L 3 s B  .9.O.G 3 i L O.| I G >   o i G I ^ ^ ^ L H H H G G k g g g d i 3 3 : & $ - - o @ - > 9 > * ; i G k p i t i i d d d i > o o - ; s B s 1 0 A E 2.X.5.3.3.9.f.M.M.b.b.b.M.b.b.N.N.N.M.M.b.f.i.i.r.w.6.o.L B g Z L B Z L ( 3.3.o.| X.X.X.X.( E E R R R ( X.X.o.o.X.X.| / R / / ( ( X.X.X.o.o.2.3.6.",
"2.2.2.2.X.X.X.X.X.X.X.( ( X.X.( E R R R I I L L L Z Z g p i p Z J G G z g a g G G g g g 9 & 9 L R X.X.X.4.y.w.4.4.y.i.p.u.u.w.2.( L B s 9 ; 1 3 3 1 ; ; ; 1 1 1 < < - o X         X     < V N 4 o .   . ; B G G H k g k k a > o . d G 4 o o > d g G d & G | ; i L I | | R i d X.G 9 9 L 3.r.i.9.I i i G > > 9.r.b.I.Z.I.Y.I.B.M.M.R K &   X < 1   o 9 i O...J a i ; ; ( e.M.M.g.i.t.O.O.r.Y.Q.Q.r.G o . d e.M.Q.^.^.W.W.Y.B.L.B.N.M.f.f.b.r.X.B o > d d ; @ & - 9 k L L Z g p 9 > 8 i a g B G G L ~ ^ ] ] ] ^ ~ H ` J ..d.d.*.H Z L G Z K R R R ( X.X.( Y B s > 9 i k L I ^ / | / I H G G G G Z i 0 3 & o o ; i Z Z K L R R R R L R R K V s 1 o X o - i i i p k x x x x k a p i i > ; - . X 3 V ( 3.w.w.i.g.M.M.N.M.M.M.N.N.N.K.J.J.J.J.M.M.M.M.p.M.N.p.u.w.R d > k | 9.O.g 3 d I | I g 3 X o d L ^ ^ ^ H G H L G G k g g g p i 9 3 : & $ - ; - - > 3 i i > > t k z z a p p p d d ; o o o 1 s L R X.R A N s s K ( X.2.3.6.i.b.b.r.r.f.M.b.b.M.b.M.M.b.b.f.i.e.w.O.R B d B G Z d K L ( o.3.3.3.3.O.o.o.X.X.X.X.X.R R L L I I I I L L L L G G Z B B B A K L R ( X.",
"g B B Z Z Z A K K K K K L K L L R L K G G Z B g d i 9 > > 9 g L L B 9 > & @ @ & d d B L L G i > B R ( ( o.4.3.3.6.7.w.g.M.g.g.b.i.e.6.o.R Z s ; - @ @ @ @ @ # - - O .                     O 4 C 1 o     . 3 g g Z Z Z Z g g 9 o   X 4 G ; X 3 d Z G G d i d L | ; g L R | I g 9 Z R L i - 3 9 ; 9 Z g > d O.r.9.r.f.f.f.r.r.r.r.w.L : o o o . o o # s i p  .*.*.| 3 ; Y 7.3.X.R L I 9.r.N.E.M.X.9 o & L i.Y.Q.W.Q.Q.Q.W.E.Y.I.L.B.B.N.M.e.O.G - ; d d ; - i d 9 @ - 9 g G G g i ; @ o o & & - > 9 d k k k z H H J ^  .*.d.d.@.I H o./ d ; ; s L K I R G d 9 9 9 p H |  .|  . .| I L G G G k g k B B B Z s o . 9 g Z L / ( ( ( ( ( L K G s s ; X   o 9 g k k k k x v x z k j a p i 9 3 ; o X < C ( 5.w.u.i.g.M.M.g.M.M.N.N.N.N.M.M.J.J.M.h.h.M.M.M.M.M.M.p.p.u.w./ d 8 k O.9.| g > i G / L i &   Z L I I I I L H G G k a a a p i 3 > ; ; - - ; ; > > > > > * > i a H G a a p 9 > o o > s K R E E X.X.X.( ( Y B s M B L X.3.w.i.f.f.r.i.b.M.M.M.M.M.M.M.i.e.6.X.L d d s i i s B K R X.3.6.9.w.9.3.4.2.5.X.X.X.E R L L K K G G D B Z B g d d s i 9 9 ; - ; 3 9 9 i ",
"3 ; & o @ - 1 3 1 1 4 0 s 4 3 3 s s s s 9 3 ; - & * ; 9 i g Z G N 4 - o o X   X & g L I I I G p 3 B L ( X.( X.4.2.2.4.w.g.M.M.g.M.g.i.i.w.3.( L d 9 - o .   X . X         X         X X       X O . . . o ; d d g d g g d g i &     o s i o & s Z B Z L G d i d | g i Z / / G Z i ; > g L G Z L d @ @ B | R I | | O.6.O.o.o.o.| X.s 4 K   X o   # 9 d a k k x J B 9 9 Z R X.5.6.e.r.9.b.w.L s 3 o g 9.Y.W.^.^.W.Q.Q.Q.Q.W.E.Y.I.N.L.B.b.9.G - > g > o - Z o.o.R Z 9 # - 9 g d s - .           X o @ ; > i a G H ~ ] @.0.s.q...I I O.6.I d ; & & s d d i 9 9 d Z I  .O.O.| | | ^ L G g a d d p p d B B Z B 9 @ . i B I / ( X.o.( ( L K G s 4 - X X - d G z k z x x x x z k j a a p i 9 3 o   - V R X.w.g.g.p.g.M.g.g.g.M.M.M.M.M.M.M.M.M.M.h.h.h.p.p.M.p.p.p.p.r.e.9.| g i G o.O.I i & > B P d o i g L I L L L L G Z a a a a a p > 3 > ; ; ; > 3 > 3 > > 8 i i 9 p G J G p ; o   3 s K E X.X.X.X.X.X.( X.5.X.( R B M s d Z R O.w.w.t.i.M.M.M.i.r.r.9.3.X.R L B d s 9 9 9 i d G R X.3.6.9.w.w.6.3.2.O.X.X.X.E R L K V N g g d d i 9 9 9 > - @ @ - @ @ @ - - - ; 3 ",
"K Z B g s > o   o X   X o o o o o o # - o o o $ @ - > i g B g d 3 - . . o o o o o d I ^ ]  .^ z i i B I ( ( ( X.X.o.5.3.w.g.M.g.N.M.M.M.M.g.e.w.5.E K M 0 ; o .                             X . < < < # o - s d d d g g d g s ; o     3 V 3 o 1 s d Z G L L d > 3 I L > i L L d g 3 & @ .     @ - 3 9 i > ; - - i g G B B Z Z N 1 X X V - .   o & i i a k g G k ; K 3.w.u.u.w.w.9.w.6.L 9 I Z d o.B.^.OXE.Q.W.W.Y.Y.E.E.E.E.Y.Y.L.B.i.9.| 9 @ 9 9 & - Z 6.i.r.w.2.L 0 - @ - 3 s 3 # .               . * i g H I  .@.0.r.r.9. .^ ^ O.r.9.I d ; . & ; > 9 i g L | O.#.O. ./ / I L g i > ; * & & & & 3 g K L G 3 . & i L | | o.3.( ( L L K s 1 o X . > g G z k x x x x x x k j a j a i 9 i &   o 9 L ( 3.w.u.g.M.M.M.M.g.M.M.M.M.g.p.p.p.h.M.h.p.i.i.i.i.i.p.p.p.u.i.e.w.6.L i i d | | L i @ @ > i X & i Z L L G G G k a p p a a p i i i > > > 9 i 9 9 8 8 8 i i d p k G g & o > d L R X.X.1.X.1.5.o.X.X.X.X.X.X.( ( R K V g B K R / / | o.O.O.O.o.O.X.R L K K Z B i 9 i s d Z R X.3.6.6.3.3.3.o.( E R L K V C m s 3 4 1 > : : : > - ; 3 > ; ; 9 s s d g B d d d B ",
"; ; 3 9 d s 9 1 o o                 X X . o O ; 3 9 0 i s d s 1 o .   X o & - - - i Z ^ .. .^ J g d g L R ( X.( ( X.o.o.o.9.i.g.M.M.M.M.M.g.i.e.u.w.6.3.X.Y B s 3 < O o o o . X o . X o O < 3 4 4 3 1 O     # ; s s M B M N s ; o     o V V o o 3 d d d B I L g i @ g o.g - > > o o X     o o . X o o @ & * - - . o @ o o - - o       - K s o > > i p a k H H * i X.w.w.w.w.7.6.3.3.g G I d B X.e.N.N.Y.Y.Q.Y.Q.E.E.Y.E.E.Y.Y.I.I.N.r.R ; o & 3 o ; K 9.g.i.r.i.w.3.( Z ; o o 1 3 ; o         X . . @ 8 g H ^  .#.9.r.r.9.O.| ^ | O.r.r.O.I Z 9 ; > 9 g G I X.O.O. .| L G g d i ; & & @ @ o o @ o o 3 B G G g > o & g | X.o.2.X.| I L G s - o X . > Z H H z x x x ~ ~ x k j j k g i 9 i 9 & o o 3 B ( 3.e.M.M.e.M.g.g.g.g.g.g.g.p.p.p.p.p.p.i.u.i.i.i.y.u.i.i.u.r.r.p.f.i.w.| d ; i L / L g > o     o > g G L G G k g d p a a p i i i t > > i i 9 i i i i i a g i & o o o 3 G R R | X.X.X.X.X.1.X.X.X.X.X.X.X.X.X.X.X.( R R R ( | | | | X.O.3.3.3.o.| R L Z g s 9 9 s d B K R ( ( | ( R L K B d s s 3 2 ; - O o X o o o o o - - s 9 9 9 i s s s - 3 9 3 ; - ; 3 ",
"i 9 3 ; - @ o . o o X X X               X X O O - ; < - - - o o X . o @ & ; > > d p k ^ .. .] | H g G / R I | o.R R ( | X.o.6.r.g.M.M.M.g.i.u.u.u.w.w.w.6.3.o.X.E U V m s s 4 4 4 4 4 4 s s s 4 2 < , O             . - < 4 4 3 X       1 K 4 o 3 3 i d N Z L I G > ; g R G > o X & i d s 9 d Z K N g K L B s i & o                     1 B d ; i 8 p k H G t ; O.e.w.7.7.w.7.3.B g R Z B R 5.w.3.r.f.L.Y.Y.B.Y.L.B.B.B.B.B.N.N.w.o.K 3 o @ - @ - Z O.r.i.i.r.e.w.6.5.( A 3 o o ; ; - @ o o & - ; ; 9 k L ^  .#.9.0.0.*.O.| ^ ~  .O.q.d.9.o.| L G G L | O.O.O.o.| L g i 3 ; - @ - - 3 i i i i d d ; @ - 3 g G g ; o ; L o.3.2.o.| R L G s o X X @ i G J H H c c ~ ~ ~ H k j k k a p p p d i * o o & i B I 3.r.g.p.g.g.p.i.i.p.g.p.p.i.i.u.y.y.y.y.y.y.y.y.w.w.u.w.w.w.w.w.i.r.O./ d ; 9 Z / R G & o     & 9 g G Z Z g a a g a d d i i i i i i i i d d i g Z g > @ o - 3 4 d G L R X.X.X.5.5.X.X.( ( ( ( ( ( ( X.R E ( X.( X.o.6.6.9.w.w.e.w.9.3.X.( L B s 3 ; - 3 9 d B Z K K K Z Z B B d i 3 - - O o X X X           X X o o & & @ o o & - @ o ; 3 9 9 3 9 s d ",
"( ( ( R K g 4 ; ; o X                   + X X X o o o o X X     o @ > i d g g k G H I ^  . ...@...H L X.o.R R X.X.( R | X.X.X.o.w.u.i.g.g.i.u.u.u.w.w.w.6.3.2.3.5.X.E T U K K K K A V V C m s 4 2 O + +                         X o o   o C V ; o ; i d d N Z L I G > & g L Z g g d i g K L L L s L R R L G B d i - X X o X X + + + o - @ g G G a i i a I p * | 6.w.w.w.w.3.R Z L L d g 3.X.3.X.X.6.e.r.M.N.B.B.I.N.f.w.3.| I L d i o . ; ; o @ B X.r.r.r.i.i.w.w.7.3.o.E B - . - 3 9 3 3 9 d d d g G I |  .O.*.*.#.#...| ^ ~ ^  .O.q.l.r.*.O. .O.O.O.9.0.0.O.| G i > & - - ; > 9 d Z L R I R | ( K 9 @ o > G L G ; o i ( 3.2.3.X.| L G d o X o ; d H J J ~ ~ ~ ~ ~ ~ H k k k k a j k j k z g p ; & @ & & 3 K 3.u.p.M.M.g.i.i.i.i.i.u.y.y.y.y.y.y.w.w.w.w.w.w.u.i.w.u.p.w.9.w.r.r.6.| Z > ; d I G f > & o @ ; i g g a a g g g a i i 9 i i i i i a p d Z g > & @ - s R E V s N L ( X.X.X.5.2.5.X.X.o.X.X.X.( ( E X.X.X.X.( ( X.o.9.e.r.e.9.6.o./ K B i > - - 3 9 d B K L L L L K B B d d s 9 3 ; - O o X X X X               X o . o @ - > 3 9 s d B Z G L R | X.",
"w.9.6.3.o.X.( ( L V s 1 O X             X + X o - % % - O o o o & > a G J ~ ^ ^ ^  ... . . . ...#.] G I O.o.| | o.X.X.o.O.o.| ( X.5.4.w.u.u.u.w.w.w.6.6.3.o.X.( E E T R L K K K K V C m s 4 3 3 O           X X             + X o < < - O 1 m s . ; 0 s d Z K G L G I g o i R G B G L G Z G K Z K G K R R K g s s ; o o o O O O       - - > i H J H z k a 8 g 9.w.6.w.w.2.E K B B B O.O.X.E X.X.o.X.O./ o.X.X.L B g i 9 9 3 > - @ 1 ; # @ . @ B o.w.f.r.w.w.9.6.4.3.O.X.L N ; . @ > i i s g Z Z G J I ] ]  ....... .] ^ ~ J ~ ^ ] ..0.j.l.q.9.9.9.0.q.q.q.9. .H i ; @ - 3 s M V K L ( O.6.6.6.6.6.4.( d - & i J I g * & Z o.3.3.O.| L L s & X o 9 Z ^ ^ ~ ~ ` ~ ^ ^ J H z k z z k k k k k H J J G k a p 9 ; > 3 ( 2.u.g.g.i.a.i.i.a.w.w.w.w.w.w.w.w.w.w.w.7.7.w.3.w.a.4.2.w.r.w.w.9.e.6./ Z 9 ; G G D g i > > > i i i d d g g d i i i i p d d p a i d d > o @ s K T R T U V N C R ( X.( X.o.2.5.X.X.X.( E R T T K K K L K K G K / | X.| | / L Z d i 3 ; ; 3 s B L R R R R L K Z B d s i 9 3 ; ; - # O o o o o . X X X X o o - - ; 3 9 s s d B G L R R ( X.3.6.9.",
"w.9.6.6.3.3.o.X.X.X.E T K s < % X           X o O o o o @ @ - ; p k J ^ ]  . ...#.....O...^ I I ^ | L k I O.O.X.R o.3.3.O.O.O.o.X.( X.5.6.w.w.w.6.5.X.X.X.( R R U U K K N N s N s s s 4 3 < O o X     +     X                   O 3 4 s <   - s ; - ; s B B K R I o./ L L > o d G Z B g g B Z G G L L R R L G g s 3 - o # - # o O o O o 3 > i > x J ] J > g 9.o.6.3.6.3.U B B V ( X.| ( R R ( L L g G B L G I Z g d i 9 i i 9 3 - o @ @ o > L X.i.i.r.e.9.O.O.O.X.X.E L L B > X @ > d d g Z G G G J L J I ^ ^ I I J H H x z J ^  ...*.q.b.d.0.r.e.d.b.r.0.#.I a - o o 1 s B A L E ( o.7.e.i.i.r.g.u.4.X.Z & & g J / d & d ( 3.w.O.o.R L N - X & d L  . .` ' ' ' ^ ^ J H x z x x z k j k z H J ~ I | / I / | L i ; g ( 9.e.e.i.i.u.w.w.w.w.y.y.w.w.w.w.w.7.3.4.4.4.4.4.w.w.9.w.w.r.e.e.e.r.e.6.I & & > i d i 3 > 3 9 9 9 i i i i i i d d d d a a d g i @ o 9 G R X.1.X.E X.R V C B Y ( X.X.o.o.X.( R L Z d 0 3 < 1 1 1 3 3 ; ; ; - > s d d d 9 ; @ @ @ - 3 i B L R R R L K Z B d s 9 > - - @ o o o o o o O # O O O O - - 1 4 s g B Z K L L R X.X.X.O.3.3.3.6.6.6.",
"6.6.6.3.3.2.o.X.X.X.X.X.E U A C 4 < o X   X o - 3 4 s d g g k k J ~ ^ | ....@.#.#.O...| ^ I G k k G G d g | O.o.o.| X.6.w.4.3.9.6.o.X.X.o.o.O.3.2.X._ _ E K V V F V N s s 4 1 1 1 < , # o X     X X o o . . + +                 # 1 s N d 1 o X - - < m A K K E R | X.( ( R d @ @ 3 d d g G L G I I / | | | L g g 3 @ @ - - - - ; 1 - o > p p p p k H i 9 K R X.o.2.o.A s s K X.1.( ( ( L G i L L ( K R i Z d G I / | | | I L G Z Z Z L I o.6.9.e.e.w.9.3.X.X.X.E R K B B s 1 o . - s d g Z G G G G G k Z G G k g g k k z G J J  ...#.r.b.n.b.r.f.d.f.r.9. .H > o % - 1 s C A K R X.3.w.e.i.p.p.N.h.u.4.X.G i * G | I > & L 9.9.e.O.X.Y V 3 . o a J ..$... .......^ J H H J J H x k j j k k H ^ ^ L ^ | | / | #.^ a > i I O.9.9.w.w.w.w.w.w.4.3.4.4.4.4.3.2.O.2.2.4.4.6.6.6.9.9.w.w.w.r.r.r.r.e.| G - o o i d i i 9 i i p i d d d i p g d d g d B 9 & & d R | ( X.X.X.X.( E R L Z A L E X.E K B ; 3 9 3 9 g S Z K K A Z S Z Z B 9 - o . . o . . X o - 3 d B Z K L K A M s 9 3 1 ; - - @ @ @ @ @ & & ; > 3 3 9 s 9 i d g Z L I R | | o.O.O.3.6.6.w.9.w.6.6.6.6.6.",
"6.3.3.3.2.X.X.( E R R R Y K A A m s 4 ; o X o - N K R X.....$.$.@.@.@.#.@...| | / / ^ J H k p t 8 8 8 > > d L / | o.o.o.4.w.w.6.6.3.O.O.o.X.| X.| R L L K N m s s e 3 ; - o o . . . . . X X o o @ @ @ o O o +                 X - 1 s s s s ; o o     < V T E E X.X.o.3.3.( Z d . o 9 Z G Z G / H I | O.| | / L d i > ; - ; > 9 > 9 > ; > 9 i d k Z a 9 B L V K L Z B R 1 K R ( R R K Z V L | i s B Z L G R R | / | O.9.9.9.6.3.6.3.3.3.6.9.e.e.9.9.9.3.o.( R R Y K A M s 0 ; o . & 3 i s d g g g d i > 3 9 i i i p d g k z H J  ...#.0.f.b.M.b.b.f.r.9.O.^ a & o O - < 3 s C V Y ( 5.6.w.i.p.b.K.M.p.i.e.o.g & p | / G & g O.e.e.6.5.R K 9 o o p J $.#.#.#.#.9.@.] ^ ^ ~ ^ ~ J H z k a i 8 8 9 i 8 ; ; 8 i Z J ..O. .G 8 8 z | O.3.6.7.3.3.4.4.4.3.1.1.3.4.2.X.X.o.5.2.3.3.6.9.9.9.9.w.e.r.r.e.3.O.L B ; - > g d i p a a d d d i g d p B d i G 3 - - d R X.( ( E X.X.( X.X.( L K B d s 9 3 3 s K L I G S Z Z g d d d 9 9 > > ; - o o o o o . o @ - > i d B B B d s 0 3 1 < - - # # & - - ; 3 > > 9 d d g g Z K L L L R X.O.3.6.6.9.9.w.w.9.w.w.w.9.7.6.4.4.3.3.",
"o.o.o.o.o.X.R L K K Z V B B M M m s 4 1 ; $ o o - 0 K | O.#.=.=.=.9.=.=.#.@. . .I I ~ ^ ^ ] I J k a 8 > & @ ; p Z / O.o.o.6.w.6.w.6.3.3.O.| / / L L D B N s 3 < O o o o X X X   X   . o @ & - 3 3 ; - - # O .                 o 1 4 s N N N 4 ;   X o X - C ( 2.X.w.w.o.X.o.| G i o X 3 G L Z Z L L I / / ^ I Z d d i > > > i s i 3 ; > i i i d Z 9 9 G 3.X.R X.L 3 L B K K Y A Y B s A R i B K K K Y L R U R L L R ( X.3.9.6.6.6.6.3.O.3.3.3.3.O.O.O.o.( L K A A V M s 0 3 - o   . @ - ; ; ; ; - & o o o & - ; > 9 p a g z H I  . .O.9.r.b.b.M.M.i.e.6./ G i o X o % - < 3 s M V U X.3.6.e.g.b.P.J.p.p.g.r.X.g & G | | ; & | e.i.w.7.X.Y d @ o t ^ #.#.9.q.q.q.9.@... .] ` ` ~ H H k 8 @ o o @ @ & ; > 9 > > ; 3 G O.#. .H i * i g L X.3.6.3.X.X.5.3.3.2.1.1.1.X.X.X.o.5.3.3.3.3.3.O.3.6.9.9.9.9.w.2.| N - @ g g a a a a d d d d a a a g g d i @ ; B ( o.( R ( L R ( ( ( E ( ( N 3 1 M L L B d - > 9 1 ; ; - @ 1 ; 1 3 3 3 9 4 0 s d g d i 9 9 3 4 i d g g d s 0 9 3 1 ; ; ; 1 1 > 3 3 i s d g g B K L L R ( X.X.X.X.O.9.w.e.w.e.r.r.r.r.e.w.9.w.6.3.3.3.3.O.o.",
"| | | | ( ( R L K Z B d s 0 4 3 4 < ; ; ; - o     o 3 g L ^  .......@.*.9.9.9.#.@.@.@.#.#.#... .^ H k a i > > p 9 g I X.o.o.O.3.3.3.O.O.X.| R L G G B s s 4 < O X     . o - - - - - ; > 9 i i i 9 3 1 ; - # o +             X - 4 s s N B B s s ;     o O   o 4 L E 3.w.w.3.O.o.L i o o ; d G L L H I |  .o.| L G Z g d d g g d i > ; 9 a a a k Z 9 K 9.6.X.X.E 9 0 s Y ( Y X.Y 4 K E 4 s V N V K A U V U V K B K K K U T ( X.1.X.X.X.X.X.X.o.o.| | | / R L Z B M M s s 0 3 ; @       . . . . . X X     X o o o ; 3 p a g z H I |  .O.*.t.b.M.b.i.t.9.o.I Z 8 o   X o O % < 4 s N K R X.3.w.i.g.K.J.M.i.g.M.r.O.> 8 | | d o I 9.i.i.w.5.( Z ; o > ^ #.*.q.q.q.s.s.*.#..... .[ ~ J H a & . o ; 9 Z L / X.o.O.o./ B ; ; L 6.O.O.#.Z d > * > g R ( X.1.X.X.X.X.1.1.X.X.X.X.X.X.X.X.o.o.o.o.o.O.o.o.O.3.X._ L 9 o i B g g g g a g g Z d a g d g i o 3 Z X.o.| R R R R R R ( X.R B 3 s Z R E V 3 1 0 N V K L L L R R K K K K K K K K K L ( | ( L L L K G G G G Z g g g M d s s s d d B B B Z G K L L I R ( | | X.o.o.o.X.X.O.9.w.w.9.w.w.e.e.w.9.9.9.6.3.3.o.o.o.X.X.",
"R I I L L L L L G Z B d s 9 3 1 - < < ; - o o X X o @ ; 9 k z H ~ ` ..%.q.d.d.d.s.q.q.0.0.%...[ ^ J H H H z z G d 9 i K X.O.o.O.O.o.o.X.( R L L K Z M 4 1 - O X X X o - 3 9 i i i 9 9 i a a a i i 9 3 > - # o o +           O < 4 s s s s N N N 4 ; X   o ; < - o > B E o.O.X.X.R L d @ X o 3 g g G / o.o.| | I I I H G G H Z a i i d d a k G G 9 Z 3.9.| X.X.s d > R E T K K B C 4 V K m V N V B C C C C C V V V V V V K U E E ( ( ( R R E ( | R I L L K G B B s s s 0 3 3 1 - # .                       X o o ; 9 d g k k H J ^  .O.#.0.d.f.r.w.9.O.| H k 8 o       X O - 1 4 m V R X.o.6.e.i.N.J.N.M.M.N.b.w.I ; G | L & d 6.g.M.u.7.5.L 9 o & J *.=.0.q.s.d.d.=.@.@.@.....] ^ G i @ . - M L E X.2.3.4.w.w.w.O.X.B & ; L 3.6.O.*.O.I g i > ; g K R ( ( ( ( ( ( E E ( ( ( ( R X.X.X.X.X.X.| | | O.| R L s . i Z k k k k k Z Z Z G B g B 9 - ; L R X.| ( | R L R R R R B 3 9 N V s 1 - 3 d A K Y T E E R T R R U U U K K K K K K L ( o.O.O.O.3.O.o.X.X.X.X.| / R R R L L L L L L L L R / | X.o.o.o.O.O.O.O.O.3.o.X.o.3.9.w.9.9.9.9.9.9.9.9.9.9.6.O.o.X.X.| / R ",
"R L L L L G G G B B d d s 9 3 3 3 3 1 ; ; - o o X X . o ; p k H ` [ @.=.q.s.d.d.0.=.*.*.%...[ ^ ~ ~ J H J J H z H g 9 i G | 3.6.3.3.3.o.| ( R L K B s 1 O X       . # ; i d a a a a a a z z j h p i i > - @ o o X           O < 4 s d s s N N V V s 3 - o   X O ; 3 1 - 3 K | X.( R L G i - o . 3 i Z I / |  ./ I ^ ^ I H G G k g g g g g G G p 9 | 6.o.X.| L s ; Z L V R E - R C K M K B B B s s s s 4 3 5 4 4 s m m m m m C V A K A A A A K K K G Z B B B B d s s 0 9 3 3 1 1 1 # o o o .               X o @ ; 9 d g k k z H ^  .O.O.9.r.r.e.9.O. .^ G k i @ o       o O - 2 s B U E X.3.9.e.N.M.M.M.N.I.N.b.r.9 > I I i & o.i.N.g.w.4.E d @ @ g O.=.=.q.d.d.s.%.@.@.@.@... .I g ; o @ 0 K ( 5.4.w.w.w.w.7.3.w.6.3.| Z > ; i / O.9.9.O.| G d ; > i B Y E E T R R R R R R R R E ( ( X.X.| ( ( E | E L K s . 3 Z G z z Z G G G G G G G i @ > L ( R R ( ( R L R L R B - 1 A Z 3 3 d K R R R L Z U T R R R R U L L K K L U U T R L L R o.3.9.w.e.w.9.9.9.9.9.9.9.3.3.3.3.o.o.X.X.| | | | X.o.O.O.O.O.O.O.O.O.3.3.o.X.o.6.9.9.9.9.9.9.9.6.6.6.6.6.3.O.X.| | / R I ",
"I I L L G G G Z B g d d i i 9 9 s 0 3 1 4 4 ; o X . o o ; d J  ...@.%.=.=.=.=.=.#.O. . .] J z a j z z k z H I I I H g 9 9 Z X.w.9.w.w.6.3.X.( R K N 4 - o     X . @ ; i a k k k k Z G z x x z j a p i 8 ; - @ o X X       o < 3 0 s N N N N B V m V V C C C s - o o - 4 s 2 - ; B G L R L Z d i o o o ; i G I I I I ^ ^ H z G G G g a k G L Z > / 9.3.O.o.K d s L L L L V - L 1 C R V C N 3 < 2 O o O o O O O O < 2 2 3 5 5 5 3 0 0 s s s d M B B d d d g g d d i 9 4 3 3 1 1 1 1 < # # # # O .           X o - - 3 i a a k z H ~ | o.O.#.e.r.w.#.O.| I G G a ; @ X     X + O < 4 M K R ( o.6.w.M.p.p.p.M.L.I.L.b.I ; g I G * G w.N.M.i.w.X.L 3 & t ] *.#.=.d.q.q.@.@.@...[ [ ] z t @ o > V T ( 3.3.4.4.4.w.y.a.7.w.w.w.4.E F g & * > d ^ #.*. .^ d & @ 9 A L K Y L Y R R R Y Y Y Y R R R E E ( R L L K K d o 3 G G G z G G K G G Z G g @ - G | R R R R L L L L K s s A V 1 1 B K E o.o.( R L L V A K L U Y Y Y K K K A V V V F K L I | O.3.9.9.w.w.9.w.e.e.e.e.w.w.9.9.6.3.O.O.o.o.o.o.o.O.O.O.O.O.O.O.O.O.3.3.o.X.o.6.9.9.9.9.9.9.6.6.6.6.O.O.O.O.o.| | / I I ",
"R I I L L L G G G Z g d d i i 9 0 s s s 4 4 3 < O # - - > p H [ ..@.@.#.@.......O. .| ] ] J z g y j j a p k J ^ | L g 9 > d L o.6.w.e.w.6.O.X.R L N 4 - o   X # ; 3 d k G H H x z H H z z z z z k a i 8 > ; - # . X     X O 2 3 s N V V V V N N K C V K L K K Y V N 4 - - e B K i 3 - - 9 Z L L L B i ; ; i G I ^ I I I I H H H z g Z H G G Z 9 3.9.3.O.R B V s R L L V 4 K 1 C K s V s 1 O X X o o o o - o O o X X X o O # - # 1 2 3 3 4 4 0 0 d s s d d d d i i 9 3 3 3 1 1 1 1 1 1 1 2 1 # O             X o ; 3 i d a k z H ~ |  . .O.0.r.w.#.O.| I H G k 9 - o         . O 3 s V L R X.O.9.w.u.p.M.M.N.B.I.B.f.B > / | i 9 O.M.N.g.u.3.( g & > J ....*.s.=.=.@.@.@.' ^ ^ I g * . o s K ( 1.4.4.7.w.w.w.w.7.7.w.w.w.w.4.2.X.L B 3 & > G  ...*.O.^ d & @ 9 Z K L Y Y L K K K K K K L Y L R R L L L L B 9 . i L L J G G H L L G I g o - B R ( R ( R K L R L N ; N A s 3 d R X.X.R L R X.X.( R T K V V V K K K K K K K K K K K G L I | O.3.6.9.w.e.t.r.t.e.e.w.w.w.9.6.3.O.O.O.o.o.O.O.O.O.O.O.O.O.O.O.3.O.3.3.o.X.O.6.9.9.9.9.9.9.6.6.9.6.O.O.O.O.O.X.| / R R ",
"R I I I L L L G Z Z Z B g g d d M s s s i e s s 3 ; - - > 9 k I ^ [ ..#.0.d.l.d.b.d.r.9.*.#...] ^ H j t t a H ] O.I Z d ; @ i R o.6.w.w.w.6.o.( U V s 3 - X X o i p z J ^ ~ ~ J J J H H H H H z z j i t 9 8 > - - o     X # 5 0 s g B G K V V N B V K K V A K Y L L L K B s ; % 1 s B K Z g 9 ; 9 3 i i d 9 o & i i p H G z H g k k G G L G > | 6.9.X.X.g L ; ( E L K s K 1 N C C s < O o o ; 3 g a p g d 9 1 1 o o o .     . o O # 1 1 2 3 0 s d N B B B B g s s s s 9 9 9 3 3 3 3 5 4 4 3 2 < 6 O             o - 3 i d a G J ^ | | | O.9.e.e.#...| ] I z k p > - .       X o < e C K R | O.6.p.p.p.p.M.N.N.L.Y.L.O.> k I I & I r.N.L.u.w.2.L > @ g ]  .#.*.0.@.#.$.` ~ ] I G > o o > V T X.4.w.w.w.w.w.w.w.w.w.w.w.w.7.4.3.5.3.X.L d ; @ 8 J ..*.#. .H ; @ & d V K L K K K K A A K K K L L L L L K V M 1   g I I L J I I I L G G > o s R R E E R R R L L B - Z K 9 1 L X.R ( R E ( ( E ( X.( E R L Z N d N g B B V Z Z Z Z Z G G L | O.O.O.3.9.9.e.e.e.t.e.e.r.e.9.9.9.6.6.6.3.O.O.O.O.O.O.3.O.O.O.O.O.O.3.3.| X.3.9.9.w.9.9.9.9.9.9.9.6.6.6.6.O.O.o.X.| | | ",
"| / R I I I I L L L L G G G Z Z K V B B B V N s s 3 - - ; > a H ] ..*.q.l.m.Z.I.m.m.N.b.f.r.r.9.*.@.` H z a a a L ^ I G i > > > K X.w.e.w.w.3.X.T K B s 3 o X o ; a J ` ` ` ` ~ ~ ~ ~ ~ I J J H z j p i i i > ; & @ .   X # 4 s N N N B V V V V C C C V U Y U K L L T R R L K K Z B s 3 3 9 d B I K G G G d & @ * > i p a i k H H G I I / a g O.9.o.3.( B Z A E R L B f s s s N s - X o 1 s G L J I ` I G Z g d d 9 ; - o     o - - 1 3 0 0 M V Z K K K L L L G Z Z B d d s s 4 4 4 4 0 0 0 0 4 5 < O             o - > i d Z H ^ | |  .O.9.t.r.9.O. .| J H z k 9 ; @ . X   X . - 4 N F L ( O.9.p.M.M.M.N.L.L.I.Y.E.e.g i | | p d 6.N.I.M.i.4.E i o > G ^ O.#.@. .....[ ^ J k i o o - s L X.5.4.w.w.w.7.4.w.w.7.w.w.w.7.4.3.2.1.1.X.( R B ; & * G | O.*.*.^ p o @ 4 N V V V V V V V V V V V V V K K A V M 1 . Z / I I I I I I I L 3 o 3 K L R R R E L K L d - L B ; 0 ( X.R R ( R R R R X.X.R Z B 3 ; 9 g d 9 3 i 9 3 ; ; 9 d B Z Z G L R o.O.3.3.9.9.e.t.r.r.r.r.r.t.e.9.9.3.O.3.O.O.O.O.O.o.X.O.O.O.3.3.3.o.o.o.3.9.w.e.w.w.w.9.9.9.6.3.3.O.O.O.O.o.| | | | | ",
"| | | / | | / / R R I I L L L K B B B B K L L F B 0 - @ & > a J ..0.l.m.Z.Y.W.Q.Y.Y.I.B.N.N.M.b.d.s.q.*...I k p g H I L G d > @ > G o.9.w.w.6.o.E T L V s - o X & p J [ @.%.@.{ ...... .^ ~ J H k j a a a p i > ; - @ .   o < s m N V K K G V V K A V B V V K K F F K K U U R R L R E E ( ( R L Z B s 9 3 9 Z L g a g p J J H I ~ J | | | 8 L 9.6.o.3.B R B R | R L d N 4 B s s o X o 4 K / |  ...] J J I | X.X.o.( R L g ; o   o - 1 3 0 M B V K L R R ( | | / ( R L L K A B d s s 0 0 s s m m n 4 < O             X o > i g G I / |  .O.9.t.r.9.O. .| ^ J H H d 9 ; o . X   X O 3 m B K R O.9.b.N.N.M.N.L.I.Y.Y.].B.| > | O.^ > L b.L.L.g.w.X.G o o 8 g ] | | ^ ^ J H k i > & X o i L X.2.4.7.w.w.w.w.w.w.w.w.w.w.7.4.4.3.3.1.1.1.X.E Y d - o i J ..O.#.#.[ a o o > s B B C B B V V V V V V V C C C m s - o Z | ^ I I I I I R Z o & G R L T U U Y L K d - L f 3 Z R R ( X.R K E R R R A 9 3 9 9 L X.| R ( X.| ( X.X.( L d 9 ; - 9 g Z L X.O.6.3.6.9.9.9.e.t.r.r.e.9.9.9.9.9.9.6.O.O.O.O.o.| | | | X.O.3.6.3.3.X.o.6.w.e.r.r.r.e.e.e.w.9.9.9.9.9.6.3.O.O.O.o.o.",
"o.X.| | | | | / / / | | | / I L L R R L L I L L V s - @ - p I O.q.l.Z.T.T.T.W.W.Y.Y.I.L.N.N.N.N.n.n.n.n.d.*.^ G g a Z I / L g i & 9 Z | 6.w.7.3.2.X.E Y V s ; o @ 8 H [ @.=.&.&.=.=.9.#...| ~ H x z k k k a i 8 9 9 3 - o . o O i d N V V V V V m C V A V V V V K K K A K K L T R R R R R ( X.o.6.6.o.w.e.w.9.I I Z d i g | | ^ ] ]  . .I > | 6.O.3.X.d R B / ( L V g f e V e ; X & d L X.O.o. . .] ]  . .| I I L / ( / / I g ; o o # 1 3 0 M B K L R E X.o.o.X.o.X.X.( R R L K B M M m m M M M m m 4 2 O O + +       X o > d B H I / | O.9.0.t.9.O. . .] ^ J H k d 9 & o X     o < s C K R O.w.g.K.K.M.N.I.E.E.E.#XW.t.i G #.#.p i 9.N.L.M.u.3.R > . o ; B I I H G a i ; @ o o o 3 K E 5.4.w.w.w.w.w.w.w.y.y.w.w.w.w.7.4.4.3.1.X.( E T Y K s - @ a | #.#.#.#.I i o o > N N m C C B B B V V V V C M m s 4 o o Z | | ] I ^ / I K ; & s L L L T L Y V R V $ R B : B R ( R R R R ( R Y B 9 s L X.X.K 9 - 3 9 > ; > 3 3 9 9 i g K R G d ; - s L | | o.O.6.6.9.w.r.r.r.r.e.9.9.9.6.6.3.O.O.o.| R L L L L L I | X.o.o.X.o.6.w.e.r.r.r.e.e.w.w.w.w.w.w.9.6.3.O.O.O.O.o.",
"3.O.O.O.o.| | / / / ( ( ( R R R R / | / | | R L V s > - i H O.q.l.m.D.T.R.W.W.Y.I.I.I.B.N.N.B.L.Z.C.C.m.b.0.| L G p p G | ^ L L d > 3 Z X.6.w.e.y.4.2.X.E L s > . * k ] ....@.-.=.q.s.q.9.@. .] ~ J H z z k p i 9 i d d 9 ; o o o o 1 s N V V V V B N N C C C m V V V V V V K L K L R E X.X.X.X.O.w.e.i.e.r.B.M.M.r.O.L ; H | ^  .#.@.O.G p O.O.2.X.L R B K X.L L d L e N N 9 o o i I | | O.O.O.I  .| I d > & @ o - ; 3 g L / I s @ . - 3 1 0 B B A L E X.o.O.o.o.o.X.X.X.X.( R K K A B B B B B M M m 0 2 - O o o X       o 3 g Z H I |  .O.9.t.9.O.O... .] ^ H H k p > & o X   X % 4 C K R 3.e.b.K.K.N.L.E.W.W.Q.OXQ.N.^ ;  .9.^ > | N.L.K.M.4.E d o X . > d d i w 3 - o X X o 4 V E 2.4.w.u.w.e.e.e.w.w.e.u.w.w.w.7.7.7.4.3.1.X._ E R E R C 1 o & g ..*.%.O.^ L 3 X o 1 s m M C C C C N N N N C C M s 3 o @ G ^  .] I ^ | L d o 4 F K K K U L L U N 1 R V ; B ( K R X.Y R X.R Z 3 9 R X.Z 3 3 4 K E L K K V s s s d s s 4 1 ; 1 M L Z > @ s R R | o.O.O.O.O.O.9.9.9.w.w.9.9.3.O.O.o.X.E L G G I I R / / / | X.X.o.3.9.9.9.9.9.e.e.e.e.e.e.e.e.w.w.9.9.9.9.9.9.",
"3.O.O.X.| / R I / R R L G Z G K / / / | | | L G G N i 3 g | 9.r.n.m.Z.T.R.Q.Q.W.I.I.B.B.N.N.N.B.I.Z.m.m.b.q.O.| | G i 8 d G I I | g 3 i K X.w.g.p.u.w.2.5.X.K s & o ; z  ...$.#.9.s.d.s.q.*.@... .[ ^ ~ J H k a i 9 i d B M s s 1 ; o o o ; 4 s V V C N m m N C N N C B C V V K K K K K K R ( ( O.O.o.6.w.r.e.O.9.w.O.| ; Z 6.#...*.#. .p G O.o.X.O.K ( B E ( R L 4 E 1 K s > . > G o.o. .O...] / ) Z &   X .   X     X o & i G L B ; o @ 1 0 3 M B K R X.o.O.o.X.o.X.X.X.X.X.X.R R Y K K A A V B B N m 4 2 - O O o X       - 4 d Z L / | O.9.t.0.#.O.O. . .^ J J H k i ; o o     O 3 N K ( 6.r.M.N.K.N.L.E.E.W.^.^.].E.0.* H O.O.8 k e.N.K.J.7.E K 1 o . o - - o o o X   X - 4 V R 2.w.u.p.p.u.i.p.i.i.u.u.u.u.w.7.4.4.4.3.2.X.X.X.E E E R A s ; @ & G O...#.O.| L > o o 1 s m C C M M s s d s m m m s 3 . - G ^  . .` | / Z ; - s F K L L K L K K 1 N R o V R Y ( ( R R ( L 9 0 R 5.K 9 s Z K E L L T L N s B m N M s s s s s s ; - s L K 9 @ s B L R / | | | | | | | X.X.X.| I L Z B d d B G L I / | R I R R L ( o.6.9.e.t.r.e.e.e.e.r.r.e.e.r.e.w.w.9.9.6.6.",
"L L G B g g d d > > > - & @ - > - ; > d g G L R L V s w g  .9.q.l.z.m.D.D.T.Y.Z.B.m.B.m.B.N.N.B.Z.Z.m.n.M.d.0.9.O.^ p * & i G I  .I g i d K o.w.a.u.a.w.4.2.E K s - . ; k J  ...#.q.q.q.=.#......... .[ ^ J z k p > & - 3 9 d B V B V N s 4 ; o - 3 s C C N N C C C V V B B V V K K L L L L R R / X.O.o.3.6.3.9.3.9.O.| d d 6.6.#.*.*.^ i I X.X.X.2.Z R Z ( L ( K 4 E ; Z 9 - o g / 6.#.O.O. .G ) B ; X o - - o # O O O X     o d G g - o ; 3 - s N A Y ( o.O.o.X.o.o.X.X.X.X.X.X.( R Y L K K A A Z B N m 0 3 < < - O X     X - 9 d G I | o.9.t.q.*.O.O... .[ ~ ~ J x a 8 - o X   o 1 m K X.6.i.M.N.N.M.L.I.E.E.^.].OX^.b.d i  .O.g > / p.K.M.y.X.R s 4 - . o .     X X o ; m K R X.w.u.b.M.M.p.M.M.g.i.i.u.u.e.w.4.3.3.3.2.X.X.X._ R T R E U V 3 - o i I | O.O. .| G > o o 3 s C N M M s s d s s s m 0 1   - G |  . .] | L i o 9 N V K U K K U L 1 N E o F L R R X.R Y ( B 3 B 3.R s 3 M R R L K T U K K K F N C N m m m N m m N M s 3 ; ; 9 g - 3 s B K R X.o.| / L G Z g d d 3 ; & @ - ; 3 9 > 9 i d d d d d B Z L / X.o.O.O.6.7.w.w.w.w.w.w.9.6.3.O.O.o.X.| ",
"3 ; @ o o o o o o - ; 3 3 9 d g Z Z Z g i > g L R G s > d | 0.d.l.z.m.m.m.m.n.b.n.b.b.m.B.B.B.I.I.Z.B.N.M.r.e.9.O.| Z 3 ; 3 Z I I | L i ; i L X.w.u.p.u.w.w.X.E A 0 @ . o 8 H  ...#.*.#.#.@.@.@....... .[ ^ H z p ; o . X X o o o o o o - 1 4 s s 3 - - ; 3 0 s s m m N m N C B V K L K K K Y R R R ( R o.3.X.3.3.6.o.I g & O.e.q.*.0.I i | X.2.3.R L R B R R R K s R > d 9 o & L | #.#.O...] H _ 4 X X o o o O O O O - % o o X   - g d ; . # 0 s M V L E X.5.o.X.o.O.o.X.X.X.X.X.( E R R L K K K K V B C M 0 4 2 2 - O X     X > i k L ^  .6.t.r.*.#.#.......` ~ ~ x j i > & o X o ; s K X.w.g.K.K.N.N.L.I.U.E.W.#X#XOXM./ ;  .#.^ * g w.K.g.g.4.E C C s o o . o - ; 1 4 N K L X.4.w.p.b.M.M.M.M.M.g.i.e.w.w.w.w.4.3.2.3.2.X.X.X._ R R R E Y K B 4 X o B | o.O.O.| L d & X o 4 s m m m m m s s m s m s 1   ; G |  . . .| Z > o s B K K K K U K N ; E e s R L L R R R R B 3 B 3.B 0 s Y ( U K T T U U K V C C B C N m N C C N N s M B V Z B i ; 3 3 3 - - > s d G G L L K g 9 > @ @ - > 3 > # o . o o o & - ; ; - ; 3 3 > > ; - - - ; 1 3 3 4 9 9 3 3 3 3 3 3 3 ",
"@ @ @ @ - - - - & - 3 i d i i 3 9 i g G R | L g 9 d i ; i ^ 9.q.s.s.l.n.n.d.q.q.q.q.q.l.m.B.B.B.B.I.L.M.g.f.r.9.9.o.I G i - 3 Z L ^ ] ` z 8 i Z o.y.g.g.i.u.4.X.R Z s ; o . ; g I |  . . ..... . .] ^ ^ | ^ G g > @ . o ; 1 4 s m M s s 4 1 - # # 3 d N 0 - o o o # - ; 3 9 s s B B B B B Z G K R U K R R E ( X.( o.X.R d > O.r.q.d.#.B d X._ 2.X.) B G K X.R ( L d R @ d - o 8 ^ O.O.O.O.O.| Z K O   X o X . O + O # O - O X - o o o s m - X < 3 s m A K R 3.5.o.o.X.X.X.X.X.X.X.( ( R R T Y L L K V B C M s s 3 3 < - o X     o > a G | X.O.t.t.0.*.O.#.#...] ~ ~ c z p 8 - o   o - m T X.w.M.P.N.M.M.N.I.Y.E.W.^.#X].Y.O.i g ..@.p ; | g.N.p.w.X.K K C 4 1 9 d B G B Z L ( ( 3.w.i.M.M.M.M.M.N.M.i.t.w.w.w.w.w.4.4.3.3.3.5.X.X.E E E E E T U V s - o ; V ( X.O.O.o.L d - o o > s N N s s m s s s s s - X - L / | | | L d X 3 B B K Z K R K K - K G - R Y K R Y R K G > g 6.i 4 A E W U W U K U Q A A V C C C C C M m N N m m M C B V V K L L G 1 & i f 1 - 3 s d B Z N i 4 3 s g G G g i 9 9 d 9 ; ; 3 3 ; @ o o o @ - > > ; 4 3 3 1 - # # @ # @ o o # # # o ",
"  X . . . o o o - > d Z L I R R | L G g g G R | R Z 9 > 9 Z  .q.q.q.s.d.d.q.q.q.q.r.r.q.q.t.i.b.M.g.M.M.i.w.w.r.w.6.O.X.K s 3 i L J ]  .` j t > K 5.p.J.J.p.w.4.X.R K N 4 - @ ; 9 s k Z H I ~ J I I I I H k i ; o . o 1 s N V K K K K K K K A A s 1 o o - s B Z K B s 3 ; - @ o o @ ; s g B Z K K Y Y Y T T E ( ( ( R ( Z - I d.q.d.6.g s X.( X.X.P L f I R ( R R 3 L 9 9 ; X p ^ O.O.O.O.O.| Z R o     o o X   O O # # - - o O O O o - m C 1 . - ; 1 s m K X.X.5.5.5.5.X.X.X.o.X.X.( R R T Y Y U K A V B N s s 4 3 3 < - o X   X - d G I | 3.e.r.t.9.#.#.*.$.[ ` ` ~ x g p > @ o o ; m T 3.y.p.K.M.p.M.N.I.Y.E.W.Q.#XOXQ.e.B d [ @.H > a 9.N.p.7.X.E E Y B M Z L I R I R X.O.3.w.i.M.N.K.K.N.N.K.J.M.p.u.r.w.w.w.4.4.3.3.3.o.X.X.E T T E E T U K C 1 o o ; C R / | O.| I Z > o o - s M s s n m s s s 0 - X - G / | | / G 1 o 0 V V K A K K L d i R 3 d Y U T T Y R L > i 9.; 3 K U W U V V V C C M m m 0 4 4 4 4 0 s s s s s s M C C C V K K L L E L 3 ; s s 4 1 1 1 1 3 3 9 s d d d d d B L L R L Z B Z L L K B d s 9 9 3 ; - o o # @ o o # @ o o o . . . . . ",
"- 3 i d B Z L R | o.O.9.r.i.f.f.r.w.w.3.| K g d | X.| L k G  .0.q.s.d.d.d.d.r.q.d.d.r.q.6.X.X.3.6.6.6.e.w.9.w.i.w.w.3.| G s 3 3 p I ........H 8 9 K 7.g.M.i.w.4.X.X.E R A s - o @ @ @ & * > 8 8 8 8 > > ; @ o o o - 4 N K U R T R R Y Y Y Y Y Y K K V B d 9 - o . o ; s B K K K Z s ; o o @ > d B A A A K R R T X.R R ( K - d e.q.q.O.i N X.X.X.X.L G B L E ( ( R s Z B @ & . g ^ O.O.O.O.O.| G B o o   o ; s K A 4 2 - o - # o X .     3 U V < o   o O < s V Y X.o.2.3.2.X.X.5.X.X.( E R R Y Y U K K V V C m s s 4 4 3 < - o X   o 3 B L | 6.9.r.r.0.9.*.*.#...[ ` ` J x g i * o o ; N T 3.i.i.i.w.w.e.M.L.I.Y.E.W.].#X^.N.R 9 H  .$.k i X.M.p.4.1.1.5.X.Y Y ( o.O.O.O.O.6.w.e.p.M.K.L.L.K.K.M.K.N.M.p.p.u.w.w.7.4.3.3.3.2.X.| ( E T T R R T U U A m 4 - o # 1 Z L | | X.| L g @ o @ 1 s s 0 m 0 e 0 0 - X - G / ^ | L d . < m A V K K L Z L ; L G & L K K R Y K K d i  .J & B Y K V V C m 4 1 1 < - - # # # # O - < 3 4 4 0 s m m m N B V K K R R R L N 1 2 4 s s e e 4 4 4 4 4 4 s s V L E X.X.( R K K Y R ( L L L L L L L K L L K V d 9 3 3 1 ; ; ; ; - - - ",
"( X.o.3.3.6.w.r.r.r.r.i.r.r.r.r.b.p.p.p.r.o.K d d L ....^ J ~  .0.d.n.m.Z.I.Z.m.b.r.r.d.9.X.o.r.w.w.6.6.w.r.e.9.6.3.X.| | L d & 9 I 9.9.=.0. .g d Z ( w.g.M.u.w.7.4.2.X.X.L B 9 - @ o . . X   . o o . . . o & - s B K R T E E E ( ( R T Y Y U K A K K A M s s M 9 3 # .   o 3 M L R R L B 9 & o 1 M K K A A Y R R Y R R G > 3 O.q.9.| > K X.X.X.| L g L K X.( ( R K i L ; . o d ^ O.#.*.9.#. .L L o o > G L i - 1 3 M s - o             O s V V o   X X . - 3 M K R X.2.3.5.o.o.5.X.X.( R R R R U U K K V C M s m s 4 4 5 < O o   X - g L | 6.9.r.r.0.9.*.*.#...[ ` ` ~ J H g i @ . ; V T 1.w.4.4.X.X.o.e.b.N.N.B.L.Q.Q.W.L.o.9 a ] #.^ p G w.p.7.3.2.4.2.( ( O.9.9.9.9.e.r.i.M.M.N.L.L.L.K.N.M.J.M.p.p.i.r.w.w.7.4.4.3.3.2.X.( X.E R T R R T Y U K K A M 3 O o o 3 g G L / | / K 9 o o 0 M s m s s 0 4 -   - G / I / Z 3   4 C A V A K L Z g 3 | > d K Y Y K Y L B ; | | o G L K V C M s 2 $ o X . . o o o o . o . X o - 3 3 3 0 s m M C V V A U T E X.E V s 4 3 1 1 4 4 4 1 1 1 4 s F L R R L R R R L A A K L R L L L L L R R R R ( | X.| X.X.X.| X.| X.| | | ",
"6.6.9.9.9.9.9.w.i.i.i.i.i.r.i.i.i.p.p.u.i.i.6.X.g 9 d I  .I k k H ^ #.q.f.m.I.Z.T.Y.Z.n.9.o.3.r.N.M.r.e.r.i.w.3.3.6.3.O.X.X.L f - > z #.l.l.q.=.H Z B R 6.u.r.w.t.u.u.w.w.2.X.R L L L L G d i > ; ; ; 3 s d Z Z R ( X.X.X.X.X.X.X.( E R R R R R Y Y Y Y K A N s s M M 0 - o . . d L X.X./ L g 3 @ @ ; s Z K Y Y Y Y R L K 9 > X.t.9.I ; L X.X.X.| L g G L Y ( Y R K 3 L L > - Z | #.6.9.9.9.O.^ L 9 G I I d @     o ; 3 m 3 X X o o O - # - 4 C - X O O O O O 1 0 s V R X.X.o.2.5.1.X.X.( R R R U U U K K V C m m s s 4 4 3 - O o   o d L | O.6.r.r.q.9.*.*.#.....[ [ [ ] ] ^ G i o - A E ( X.T R L K R 2.w.r.r.f.b.L.Y.I.B.9.d 8 ..%. .a i o.i.w.4.3.7.7.5.2.7.i.r.i.f.M.M.N.K.K.L.I.I.P.L.K.K.K.M.M.g.i.e.w.w.w.7.7.3.3.2.X.X.( E R T T T T T U U K K K A m 4 o @ & - ; 9 B L X.R d - - s M s m s s 4 -   - L | | L g - o s C A A A K L K > Z L & L K Y R K Y R 9 d 6.; i R K V V m 1 o o o o ; > 8 i i i 9 > - @ o . . O # - 2 5 s s m m C V K T E T E ( Y N 4 1 - - - < 1 4 m C V K K K K A K L Y K A B A K L K K Z Z Z Z Z L L R / / / | | O.O.O.O.O.O.3.6.",
"O.O.O.3.6.9.w.w.9.9.9.6.6.6.6.9.w.u.p.i.i.g.i.w.o.Z 9 d J J k p 9 d H ^ o.6.r.f.q.d.l.d.f.N.M.i.M.e.9.e.e.9.6.w.w.w.w.6.2.2.2.X.K i > z ..=.=.%...H i i G | O.O.4.w.p.p.u.w.7.3.6.6.6.3.O.| R L L L K L R ( o.o.3.6.w.w.w.w.4.2.5.X.X.( ( ( E E E Y K K K A A B M s s s 0 1 o . X > Z R | | I G s - o @ 3 s M N K K L R L 9 - L 9.9.L > L E _ E E R d L B L Y K L Z s s I | L o.6.9.9.9.9.#.9.O.O.H | ..] g ; o o X     s s ; ; 4 3 s s 0 3 1 - - O 3 s 4 3 ; < 1 ; 3 s Z R X.3.5.5.X.X.( E R R R R Y U K V C N m m s s 0 4 2 - o     1 B L X.6.r.r.r.0.0.0.*.#.......$.O.#.#. .G * o d L L K N B M d Z R o.3.9.9.i.M.B.N.M.e.L & ..q.*.I i G 3.6.5.3.7.7.3.7.e.M.M.M.N.N.L.L.L.L.I.I.I.I.P.L.K.K.M.M.M.g.r.e.e.w.7.7.3.3.5.X.X.E E E R T T Y U L Y U K K U Y K Z s 1 - & @ - ; d R R 0 o 3 N s m s s 4 -   - L | | G d o 1 M V A K K K L L & / d i L R Y R T Y K > | L @ K K A B m < o X & r d H I ^ ^ ^ I H Z d s 4 - .   . o O - 3 4 0 s m C V K U R R U Y Y L V s s 0 0 s s V K K K V V V V B V A V M M C B A Z Z V Z Z K K Z G L L I / | | X.o.O.O.O.O.3.3.",
"X.| | X.o.O.O.O.3.3.3.o.X.X.X.o.X.2.4.4.6.w.e.e.O.L i > a H H k p p g g k Z ^ ..9.q.s.d.m.Z.M.6.9.o.o.6.w.9.9.r.e.w.w.i.K.K.u.2.o.L 9 ; a [ *.%.q. .k t i G | O.4.w.i.p.u.u.w.u.M.M.M.i.r.r.t.w.w.6.6.2.3.6.w.e.u.i.p.p.i.w.w.w.w.7.3.5.X.X.X.( U Y Y Y U K V B V M s s m s 3 # . o - i G R | | L L B i - & ; 9 M K K R K s # 9 X.9.I > D R E R E | g X.s Z K A Z Z Z 3 g | X.O.6.9.9.9.9.6.9.9.O...*.=.O.G i o     o O < 1 - 4 s s C V V V s o # - 1 M V C C s s 3 ; ; 4 M L ( X.5.5.1.X.( E R T T R U K A V C C m m s s 4 3 3 - X   o i G R O.e.r.r.0.0.0.0.*.#.#.*.0.0.s.s.9. .p & > i s 4 s s s s B L / o.O.6.r.M.N.N.M.r.| = x 0.d.9.H i L ( ( X.3.3.5.7.u.b.M.N.N.L.I.E.I.P.I.U.I.I.P.L.K.K.M.M.g.i.w.w.w.w.w.7.3.2.o.X.X.E ( E E T R Y U U Y T Y U U Y Y R Y K K Z s - o @ 3 G Z ; - s s m s s 4 -   - G | | L > o 0 B V A Y K K L Z ; / ; G L R R ( R R s d O.i s B K V 0 < o @ > g I  . ...#....... .^ I L G d 3 @ o o o # < 3 4 4 s s s V U K K L R L K K K K V V V V C B V V C M m m M M M M m 0 0 s N M d d d d M d Z Z G G L L I I / / | | | | | | ",
"I I I R / | | X.X.X.| ( R R R ( X.E E X.X.( ( X.( g > i G ^ ] | ....| | / / O.0.d.l.m.C.m.f.f.M.r.9.O.3.e.f.r.w.e.b.L.Y.E.E.U.P.u.2.L i i k ] %.%...x t > a | 9.h.h.M.p.u.w.u.M.N.P.(.L.K.L.N.M.g.g.M.M.g.g.g.g.M.M.M.M.p.u.w.u.w.7.3.5.X.X.( ( ( R U K K A A V V M M M M m 0 3 - .   @ 3 d g G I I I R | ( K s - V K K B B ; @ L 9.| > N L E R E R L L g 9 G B B Z B Z 9 ; B I o.6.9.0.9.9.0.0.9.0.9.*.O.^ I ; .   O 3 s m 4 < m s B A V A C 3 o O - s K U E L K N 9 ; ; 3 s Z X.5.5.5.X.( ( R T T T Y L K V B C C m s s 0 4 4 ; - X   ; g L X.9.t.q.0.0.q.0.9.#.9.q.d.l.n.n.d.0.I 9 * & o & 3 s s g Z L | O.3.6.r.b.B.B.M.i.O.a =  .d.r.| * d L R X.5.5.1.3.u.g.M.N.B.I.W.W.E.U.E.E.U.I.I.L.K.L.K.M.i.e.3.o.O.w.7.4.3.2.o.X.X.( X.X.E E T Y U T U U T R U U T Y Y K A A K Z M ;   3 R d - 3 s s s 0 4 -   # Z | | L & o s A K A U L K K d i L - L R K ( X.T ( > G | - s K A 0 < o o i L  ...O.0.q.q.0.0.0.0.9. .| I G Z i ; @ o o ; 1 4 4 s s s s m V V N N G V V V V V N N C M m m s 0 4 4 4 4 4 4 0 0 3 2 2 0 0 0 0 s s s s d d g B B G K L L L L L I I I L ",
"B Z G G G L L I R R R L L K K L L R R Y Y Y K K B 3 ; d I  .O.9.q.d.f.d.d.M.n.b.m.m.m.z.d.0.0.f.M.r.d.N.M.e.w.r.M.M.L.L.E.E.E.E.P.y.3.R i 8 x ..=.=.@.` z t k O.i.K.P.M.p.M.M.M.P.P.E.E.E.Y.Y.(.E.E.U.P.L.K.K.K.K.N.M.M.g.g.p.i.i.w.6.3.5.X.X.X.E R T U U K A A V C C C C m s 4 1 ; - o o o o o & & ; ; ; s B L A 3 s K A V 0 # d X.O.i g G | R E L L s X.3 d K K K K ( G s & & Z | e.e.9.9.q.r.0.9.0.9.#.O.I i . # 3 M A V s ; 4 B V K L V A s # o o 3 K Y T X.( R K d 3 ; 1 4 A R 5.5.1.X.( R T T T T U K A V C C C m m s 0 4 3 - o X o 3 G | 9.0.0.9.0.q.q.q.9.d.b.l.n.m.m.z.s.0.H 8 : o - 4 B Z Z L / X.O.3.9.r.N.I.I.N.b.r.| > k q.9...i @ G / 9.u.7.5.7.u.g.b.M.B.E.W.W.E.U.P.U.E.E.I.I.E.K.K.N.i.| Z B G ( 4.6.3.1.2.E X.( E R T T R R T Y R T T T T T U Y Y U U K A V V N s X 4 R - - s s m s 4 1 X o G | X.G o > s K V K A K Y A ; R d i L R R R R ( K & X.G @ N A M 3 o - d L ..q.d.q.s.s.q.s.s.0.9.9.#...] I I H a > & o o ; 9 9 s d d d s d B B g d s s s s s s s 4 s 4 3 3 3 < < 1 2 2 < < 3 < - - ; < 3 3 4 4 4 4 s s s s s d B B B B B Z Z G G G ",
"g g g B Z G L L L L L L K K K K K L K K A K Z B d > - 9 G I O.9.r.d.f.r.q.q.r.q.0.=.#.@.*.0.r.n.N.M.N.N.i.9.9.r.M.M.L.L.P.E.E.E.E.P.i.2.L i a x @.-.s.-.@.H k G e.h.K.P.K.M.N.K.K.P.P.E.E.E.!.Q.^.^.~.E.E.U.E.E.I.P.P.L.N.M.i.u.w.w.w.6.4.2.X.( ( R Y T Y U K A A V C C C M s s s 4 4 1 1 > 1 3 ; ; 9 3 ; ; @ - M d 1 A K M A # ; G O.g d R L L K R K 1 K R 9 L R R R ( L g - o > L 6.e.0.t.r.r.9.9.0.9.#.#.R i o 2 m V A U C 3 1 s A U U K K V 3 O o < C U E X.o.5.X.Y B 9 1 ; 0 B R X.1.X.X.( R R T T Y U K A B C C M m s s 4 3 < O X . ; Z / O.9.0.9.9.0.q.r.r.b.n.n.n.m.n.z.d.l.*.^ d o ; N R ( ( X.3.9.w.r.r.b.L.Y.E.Y.L.N.9.G i I 9.#.G & 8 ^ 6.9.e.w.7.a.g.f.M.N.I.E.E.E.E.P.K.L.I.I.I.Y.I.g.6.L 8 & & - L 3.3.2.1.5.E X.X.( E E E R R T R Y U L U T T T T T T U U K K K V N 4 - G d & i s m s 0 3 o . g / X.G o 3 s K V K A K L A ; I i d L R R R R R A 3 | Z @ B A s - @ i L o.9.q.d.r.d.d.d.s.q.q.9.9.#.O. .I H z k a p > @ @ - 1 i d d d B Z G G G Z g f f s s s s 4 1 < ; ; - - # - O - # O - O O - ; < 1 3 3 3 3 4 0 0 s s s s s s s d M B B B B B ",
"G Z G G G G L L K G G K K K Z Z Z A Z V B B B B B i > ; > 9 i d H H L G Z a g G J ]  ...*.q.d.m.Z.Z.B.B.f.e.w.r.g.M.L.L.P./.E.E.E.~.K.e.O.G p j ' -.v.A.C.=.H p / w.B.Y.I.I.P.L.P.P.P.P.E.E.^.{.[.[.^./.~.E.E.E.E.E.P.K.N.M.M.M.i.r.w.6.3.5.X.X.X.( R R R T Y K K A V C C M m m s s s s s s s s M s B M d M s s s B 1 A K M T < o ; R ( i L L L K V C s 9 | G G R X.o.| R G 9 @ ; Z O.e.t.r.r.0.0.9.0.9.#.O.I > # 0 A Q Y R A 0 < 3 K U T K U U M - . - s U X.1.o.3.4.5.E Z 9 - # 3 B Y X.5.X.( E E R T T U K K V C C M m m s 0 4 3 - .   @ d I o.9.0.9.9.q.r.d.b.b.n.n.n.n.z.z.z.n.n.r.G & s R 3.7.7.w.i.g.g.M.N.I.E.W.W.W.E.Y.f.X.9 i #.#.] t @ a | 9.i.u.y.i.g.i.g.M.L.U.U.P.U.K.K.L.P.L.N.N.i.6.G ; ; k k & i o.3.3.1.1.X.X.X.X.( E E E T R T T Y U T R E R T T Y U K K V V N N V & w L - s s m m s 4 o . i L | G o i N A V A A K K A 1 R > g L R R R E R Z 3 / Z - M M 1 o > G O.9.d.d.q.d.b.d.d.d.q.9.O. . . . . .] ^ H z z i * @ & & > 9 s d B G L L L L K Z Z B B d i 4 3 1 ; - - - - - - < < ; < - O - 1 3 3 3 3 4 s s m M M M C M M N B Z A K K K K K ",
"| | / / | | / / L L L L L L K K K K Z V B B B B K K Z B B B g d 9 > ; ; - > i g H  .@.=.d.n.m.Z.W.Y.Z.m.B.N.M.f.g.b.L.I.E.E.E.E.E.E.P.p.w./ k a J &.v.F.G.C.=.J i L 9.N.E.W.~.W.E.U.P.P.P.E./.^.[.[.[.^.^.~.E.E.E.E.E.U.P.K.M.p.i.e.w.6.3.o.o.2.X.X.( R Y Y Y U U K V B C C M m s s s s s s s s m s s 0 s s s M 9 s B A A A V 0 - . 3 3.g d L L V m m C 9 d I d L X.6.X.R B 9 @ o 9 L O.0.0.q.r.e.9.0.9.O.O.G & ; M U T E ( Y B 1 - A U T K L R K 3 o o 3 K X.1.X.3.7.w.6.( B 1 o # 1 M R 5.X.( X.E E T T U K K V V C C m m s s 4 5 < o   o i H | #.9.9.9.q.s.d.b.b.d.l.d.s.s.k.C.C.Z.l.G > L 4.u.i.p.g.N.N.N.B.Y.E.Q.Q.W.W.W.W.N.9.g > I O...I 8 & k w.e.e.p.p.g.g.p.g.N.L.L.K.M.N.N.N.K.K.b.e.O.g > d | #. .G ; / 3.3.3.1.X.X.X.X.( E E E T R T T T T R E E T E E T T U U K V V V V s & L - 3 N m m s s - X - G | L o s B V V A A K K K 9 | 3 Z L R R R ( E Z > | G & M s @ o g | *.0.j.d.q.b.f.d.d.d.#...O.O.9.9.9.9.9.#. .^ ] J g i > ; > 3 9 d Z L L I / / | R R R L K B d d i 3 ; - & & - - ; - < < - O - 3 3 4 0 s s m m C V A K K U Y Y R R ( ( X.X.X.X.",
"6.6.6.6.6.6.3.3.3.3.O.O.O.X.| R R R L L K A F K V K L R R R L B i > & & ; 9 B L  .O.9.q.n.Z.I.Y.Q.W.Y.I.E.W.Y.N.b.b.L.E./.E.P.E.P.K.K.M.w.X.H 8 k @.x.F.)._.Z.s.H d Z 6.B.I.E.^.E.E.I.L.L.P.E.E.~.W.W.E.E.E.E.U.E.E.E.E.E.U.L.N.g.e.6.O.( L L X.X.X.( R R R Y Y K K A V B C M m m m m m s s s m s s M M s M s d s 4 B B V K m M 0 o . K L i N V m C M V A d B i d G X.X.X.Z s ; . @ d o.0.e.0.r.9.9.9.9.O.O.G & 0 A R ( X.X.E Y s - N U E U U Y U s O o - C X.X.3.6.w.e.u.7.R d 1 # o 1 A ( X.X.X.( E R T U K K K V B C C M m m 4 5 < O X . > G I O.#.9.0.q.d.f.M.b.d.d.0.%.-.k.D.D.Z.r.B i X.a.M.M.M.K.P.I.I.I.E.W.^.^.~.~.W.E.E.g.| i i  .*.*. .> > | 9.u.M.M.M.M.g.g.M.K.M.g.g.M.g.p.g.g.6.I 9 ; p ] =.=... .* L 3.4.3.X.X.X.X.X.( ( E E R T T T T T R E E R T T T R Y U K A A V N V - s g - C N M m s ; . o Z | L o s A V A A K L K K 9 | 3 Z L L L R E E A 3 o.L o s 9 o & I #.0.q.l.d.d.n.r.f.d.#. .O.9.e.9.O.| | o.O.9.9.O. .^ G 9 - - ; 3 s B G L R | | X.X.X.X.X.| I L G Z g i 3 ; - & o - O o - % - ; 1 3 4 0 s s s m M C A A U T E ( ( ( X.X.o.o.3.3.",
"6.w.w.w.w.w.w.w.r.t.e.e.e.w.9.9.6.3.3.o.X.E E E R E X.X.X.X.E L V s < O - 1 s g I O.r.b.m.B.Y.Q.Q.Q.Q.W.W.W.E.Y.N.b.K.E.E.P.N.L.L.M.N.M.w.o.J 9 a ` k.S.)._._.Z.d.^ d G 6.M.I.E.E.Y.I.L.L.L.P.P.U.P.L.K.K.L.L.P.E.E.I.I.L.N.p.e.3.L i - o o 3 G ( X.X.( R R R Y L K K K V V C C C m m m m m m M 0 0 m s s M s d B s 0 s B B M M m 3 o @ L G 1 s m V U T Y ( Z i 3 3 d G Y V s ; . o 9 / 0.t.0.r.r.0.q.0.O.| k & M K X.5.5.X.X.( V < 4 R ( E T T T B 1 . o s T X.4.6.w.w.i.i.3.R M 1 . o 0 K X.5.X.X.( E R R U K K A V B C C m s 4 2 < O . X - p L  .#.9.0.r.d.f.b.d.s.=.$.@.&.s.C.D.Z.*.i 3 X.u.M.N.K.K.U.E.U.E.E.Q.^.^./.~.W.~.E.K.w.g & I #.0.q.J = > | u.M.P.M.M.g.g.g.g.g.i.i.i.i.u.w.o.Z ; 8 H ..#.@.=.0.#.8 g o.3.5.1.1.X.X.X.X.X.X.( E E E E R Y T ( X.X.E E R T T Y K K N B V N s > L ; B N C m s 3 . . d R | - s A V K K K Y K A 9 | 9 g L K L Y Y T A ; | | - - o o d ] *.0.q.j.d.f.f.d.l.9.| O.0.O.H > ; - & & ; d G I | | I g ; o . # ; 4 s d B G L I R / | X.X.X.X.| | | I G k d i 3 1 - o o o o - ; 1 3 4 4 4 4 4 s m M B A K Y R R E ( X.o.O.3.6.",
"7.w.e.e.w.w.w.w.e.e.r.r.r.r.i.i.r.r.r.e.w.3.2.4.5.5.1.1.1.X.X._ E R K N m C C N Z | e.b.m.B.E.#X`..X].`.Q.Q.Q.Q.E.L.I.L.P.P.N.N.M.b.p.i.w.3.I d 8 x &.v.S._._.R.Z.s.^ d H e.B.B.I.I.I.I.I.L.L.N.L.K.N.N.N.N.N.N.M.M.g.i.7.X.L B 3 d G I I G i ; R X.X.X.( ( E T L L L K K V V V V M m m C C m m C m s 3 3 0 4 s M M 3 0 m M V M M M ; o d G g s B V T X.T o.| G Z d 3 9 s s 3 1 @ & 9 I 9.r.r.r.d.t.r.q.O.I p & Z ( o.5.5.5.X.( L 3 1 ( X.X.( E E U s o X 3 K 1.2.6.w.w.u.g.u.7.R M - . # 0 Y X.1.X.X.X.E E R U K K V V V C m s 4 2 , O .   o ; Z ^  .#.q.s.d.d.r.0.#. .` [ %.>.k.z.s.^ ; ; E a.g.M.M.K.U.E.E.E.W.^.^.^.^./.~.~.E.L.g.R ; i ] =.s.0.z = d | w.J.M.M.g.p.i.i.i.u.u.y.w.7.( B i i 6.9.s.q.$.' ..9.k 9 X.3.1.3.1.5.1.X.X.X.( ( E E ( E T U T E E E X.E R T T T U K K K K N N > g 3 C m C m m 4 o . ; G | ; 0 A K U K K Y L Z 3 | d d Z Z G A K Y K & G 3.B o   & G  .%.q.q.d.d.f.f.d.q. . .0. .i & & - - # o X o # i g L | ( Z 1 o . o - ; 1 3 9 i d g B Z G L L I R | | | ^ I I G B g 3 - - o o o - - < 2 3 5 4 4 0 s M B A K K L R R ( X.O.3.6.9.",
"w.w.u.e.w.9.9.w.e.r.r.r.r.r.r.r.f.i.i.i.u.w.w.w.w.w.w.4.3.2.2.1.X.1.1.X.X.X.X.E L L | 9.B.W.Q.#XOXOXOX`.OXOX#X#XOXQ.E.K.K.E.P.K.M.b.w.4.7.o.G k 8 j { s.x.G.|._.R.D.q.H p H 6.f.B.L.Y.Y.I.L.N.M.M.b.b.b.f.i.e.w.3.| L d 9 i Z L | O.9.9.6.o.G 9 L ( 5.o.X.X.( T R R T L K K A A A C m m C m s 4 2 # # # - 1 - 1 0 M M 4 0 M M V M N 9 3 o d X.s s X.K T 5.R X.O.o.R d s s K E o.R R / o.9.d.d.q.r.9.q.q...H p & L o.6.3.5.4.3.X.E 4 - X.X.X.X.E E E m o   ; A 1.3.w.u.e.u.g.p.u.5.Y 0 o   # B ( 5.5.1.1.X.E T U K K A V V C m s 4 < O O o   X & d H ^  .=.q.q.q.9.#. .J J ` @.-.s.q. .g & - R w.M.M.M.K.U.E.E.W.~.^.].^.^./.~.~.E.U.M.6.Z @ z =.l.z.=.k & i X.u.p.p.p.p.i.i.u.w.u.w.3.X.d ; Z e.f.z.d...x H ..9.I ; | 3.5.4.3.3.1.X.X.E E E E E E R R L L Y L L V B N N B V V V V K M V V d 1 V C m C m m 0 # . o g ( ; 3 A K K A K Y L Z 3 X.g 3 g B Z A A Y K 3 i O.R > o i G ..%.q.q.q.d.f.f.r.%.] ..#.i   - - - # - # o . o o & s L X.R N 1 # - ; 1 1 1 3 3 ; 3 3 3 9 i i d d g g B Z L L L L L G B g i ; - o O - - < 3 4 0 s s M V A K L L R R | X.O.3.6.6.",
"w.w.w.9.9.9.9.9.e.r.r.r.r.r.r.r.i.i.p.b.i.w.w.w.w.w.w.w.4.4.3.4.w.w.w.w.7.7.7.4.6.| I O.M.Y.].#X$X].#X$XOX1X#X#X#X].W.I.P.U.K.p.i.e.9.3.O.| G d & > z #.z.C.G.XX|.T.m.%.z 8 g  .0.f.N.N.N.B.B.N.M.g.e.e.#.O.H g i p G ..q.r.d.l.r.#.O.O.9.O.^ a Z | 3.o.1.X.E X.E L L L K L U V B N s : o o - > B M s 0 s M s 4 1 0 M M 0 0 M B B M M s 3 - s L s B K R ( ( X.3.3.w.7.( d 9 d Z / 9.9. .#.r.d.d.r.r.q.0. .J @ d o.6.6.3.7.6.3.3.X.s ; K 3.5.( 5.5.R V o   o M ( 3.w.u.u.u.g.g.g.w.X.K ; X X 1 U X.5.5.X.5.X.R T U K K K A V m 4 5 < O - O X   X ; g I  .$.=.=.@...` z c ! { @.@...^ g ; . o V 2.i.M.N.N.L.U.E.E.^./.^.].^.~.W.~.E.E.K.i.X.d @ ] j.x.s.=.a @ L 3.r.p.r.i.u.w.i.w.6.w.| 9 > H 0.b.d.l.O.k & o z q.#.* I 3.5.3.1.4.5.1.X.E ( ( ( E Y G g i > & & ; ; > > > ; * - ; B K Z K B B - Y M M M M M s 3 o   ; 5.s ; Z B K K K K K Z > R | - d G M A K M Y g & | O.I k G  .=.q.d.d.d.d.f.f.d.#.^ #.Z o o ; o - < < O # # o O o o ; Z X.( Z ; @ 3 3 3 s 4 m 4 4 3 3 3 3 3 1 1 ; 1 1 1 4 s s B B Z G G g p i > & @ - ; 1 3 s s s M B V A K K R R E ( X.o.4.6.",
"X.O.6.9.w.w.w.e.e.e.r.r.r.r.r.i.b.b.b.b.i.w.w.w.w.w.w.4.4.7.w.w.y.y.y.y.w.w.w.w.6.6.O.o.9.B.Q.].$XOX@X%XOX$X].].].W.B.g.M.N.M.p.w.9.O.O.X.R Z i ; ; t H =.m.G._.XX|.G.C.=.H y 7 H  .#.#.#.9.6.O.o.o.I G 8 i k ^ 0.d.n.B.m.n.0...J g 8 z ] q.| p g | 3.5.2.3.X.E E R R L Z Z N i ; - ; i B B d > : ; - # - 1 3 3 0 3 s M 0 3 s A A B s s 4 3 0 s s s s N K ( X.5.3.7.w.6.X.Z 9 & g 6.I G O.*.m.q.0.r.q.*.] k ; L w.i.u.w.w.w.3.3.o.Z - K X.2.X.R R X.E ;     4 E 5.4.w.i.p.g.g.g.u.2.R 4 o   O N ( 5.2.X.5.5.E T U U U K K V s 4 2 < O < O o X X o 9 G ^  .@.@.{ ^ ~ j x x ' { ] g d 1 @ o o s X.u.M.N.K.L.U.E.W.^.^.^.[.]./.E.E.U.U.P.g.3.Z & z s.z.C.j.#.a ; / 3.t.u.b.p.a.u.7.4./ 9 * H q.l.q.r.| d ; * * 9 9.#.p g o.3.3.5.5.1.X.E X.X.T V s - & & ; d G I ^ o.| | | | I Z i - ; K K M B s M 4 A m M M m 0 #   o ( K ; g L B V A V V B 3 B 3.; B N K A A A K V i > O.9. ...#.q.d.l.l.b.b.M.M.r...I O.; o . # - - < - - - < 3 % O o o 4 G / O.g & - 3 4 s s m m m m s s s 4 3 3 2 < < - - < < 4 9 s d g g k z d i > - - - - - 3 3 0 0 s s M M N B Z K L R ( X.",
"B K R ( ( X.o.3.w.w.e.r.i.g.g.g.p.b.M.M.h.p.u.a.w.w.w.4.w.w.a.i.i.i.y.y.w.w.e.e.w.r.w.o.O.M.W.].OX@X%X@XOXQ.].Q.I.B.M.r.r.i.i.e.9.O.o.X.X.R Z d 3 > > p ` q.D.G.XX|.).F.C.j.@.~ a y 8 * = p a t i i a I O.b.m.m.Z.m.d.9. .J g i p i > 8 I 0.#.a k | O.X.X.3.1.X.( Y L L M 1 ; ; K L K d - & > d N N N s s s 4 1 2 s 1 - M s 1 m N M s 0 s s s s B N d 9 1 3 M L o.O.7.7.R 9 9 Z O.o.> * k  .| #.O.q.0.#.J 8 i O.M.N.M.i.u.w.6.4.3.L @ Z R ( Y B K Y A - o . ; K X.3.w.i.g.b.M.M.i.w.X.N - X X < U X.3.5.5.5.X.R T R U U K B s 3 < < < < < - o X X - d J ] ] ` ` ~ x j z x [ ^ k * ; - # O X 1 E w.g.N.N.L.U.E.~./.^.^.[.[.^.E.E.L.K.K.g.7.R > > #.j.S.l.d...* 9 L 3.w.w.w.w.w.O.L 9 ; z =.z.s.9.I > - 3 g k * @.s.H ; / o.2.4.2.1.1.X.E A 0 - - 9 G o.6.6.O./ L d 9 ; - 3 g L I X.s 3 Z A A s 3 < A M M M M s 2 o   s X.- 9 R d B B d d s s 3 9.i d Z R K K U Y K g o L q.0.s.s.s.d.l.d.d.b.M.M.d... .I o @ o o O # O # - - O # 3 < # o o & g | / i - 1 4 s s m M C C C C C C m m s s 4 3 3 < ; - - ; 3 d Z L ^ / I G g s 3 - o . . . . o o o o - ; 1 3 4 s s d ",
"9 i d d d d B Z L R X.O.6.w.i.g.p.M.M.b.M.M.p.i.p.w.w.4.w.w.u.i.i.y.y.w.u.u.u.u.g.r.9.3.3.e.L.].OX%XOX].Q.W.OXW.I.B.N.r.w.w.w.w.6.O.| R L Z g d s i i 8 a ^ q.A.).|. X_.).).A.z.k.s.&.%.q.d.s.=.l.m.D.Q.R.Y.n.r.*.^ g d i i Z / I I L i I 9.q.G 9 G o.O.3.2.X.E R L s # - N R U V s ; 1 s V A V N N N N N s s 4 3 ; e s 1 s C 3 0 0 0 0 s M A K s s s s s 1 # o - ; 9 M d s d Z 9 & o o > k k ..] 9.9.O.G * Z r.N.L.K.M.i.u.w.6.3.G - s M s 3 - - 1 3 ; - . o Z ( o.w.w.r.g.M.M.b.u.7.R 4 o   O M ( 3.5.5.5.X.( R T T Y U B s 3 < < < < 2 2 < O X o 3 Z I ~ J J z j a z c ..H 8 * i 9 ; - X # K 3.i.N.K.L.U.E.~./.^.^.].].^.E.E.L.M.K.g.w.X.i @ J 0.z.l.l.q.I & 9 L o.O.o.o.R G ; * H q.l.q.@.x * > d L | I *  .n.^ & Z X.X.3.3.X.E L s - - d L | O.O.| Z i > ; 9 d g d 9 > ; ; s R s N K N L # 0 M B M B B B 0 < o o X.9 ; G d d M s d s d ; | L > R Y E R T ( R V i ; I 9.s.l.s.d.l.d.d.d.f.f.d.^ #.8 o . .   X - - O o o - ; - < - - o o 3 G / G > - 4 s s s M C B B V V V B m s 4 4 3 < - - o o - ; 9 d G L | | | R K d 1 # . . o o # # # # - - ; ; ; ; 1 3 ",
"B B g d s 9 9 9 9 s B Z L ( O.9.i.g.g.p.p.M.M.g.p.u.7.7.w.y.u.u.u.y.y.y.u.i.i.i.i.w.6.9.w.w.i.N.W.].W.Y.T.`.OXB.W.E.B.r.O.X.O.4.3.O.X.R V s s d Z Z g i ; t H %.j.S. X X X X|.).S.A.S.G.G.G._._._.R.T.D.m.q.| k 9 i L 3.e.6.6.w.6.9.L g G b.d.| p a H | o.| R L 9 3 9 Z X.X.A 3 1 0 m C B B V A V N s s s s s s 4 ; s V 3 ; s s 4 3 0 s s M B Y E L V M s 0 9 9 4 s 4 > s D N ; ; - ; o > & d 8 ] =.*. .d * / N.L.L.L.N.M.g.u.7.3.Z s - ; ; # # o o o - s d ; 9 Z / 3.3.9.f.M.M.M.p.u.X.C -   X 3 L 5.5.o.5.5.X.E R T T L B s 3 - < 2 2 3 4 3 - o o & i G G G H a 8 a x ~ ..a & i L Z 3 O   o s X.u.N.K.P.U.E.W./.^.^.^.^./.E.E.L.M.M.i.7.5.Z @ i ..=.z.m.d.0.k o 3 K / I g = & > H q.n.j...z & > L R o.o.I > G l...p > L | 5.( / G i & > G O.w.X.L d > > 3 B L | | | ( ( R K Z ; 3 X.9 N Y d M A 3 A M V V A s 3 - X B L - i d M s s M N d s d | > L L X.( ( X.X.L L & ; I #.d.d.l.l.d.d.d.f.b.d.] #.* 8 & ; 3 i 4 ; - ; ; > 4 0 0 4 3 - @ & & g / d - 4 s 0 s C C C M m m m s s 4 3 < < - - # # # - ; ; > 9 i g g Z K B 4 ; - < 2 0 m M M B B B B A A A B V A ",
"X.X.X.( R L Z B d d s s 9 d B K R X.6.e.p.g.p.i.u.w.7.4.7.w.u.u.w.u.u.i.p.p.i.u.6.6.w.i.g.g.i.r.f.m.n.m.B.OXQ.m.E.E.B.r.o.I R | X._ R L V s s B K K L G d > t a %.s.C.S.F.G._.G._.G.G.).G.S.F.R.C.m.z...H p p d / o.w.e.i.g.g.i.y.w.( g K r.N.0.k 9 i k G g 9 & 9 L 3.o.K 1 ; M B B M M C B V V C m s 4 3 ; ; ; ; s 1 ; N 4 - N s 0 0 M B A A K Z K R L Z s 0 s 3 1 > ; ; : 3 9 d 3 ; 9 3 3 ; * O.=.#.^ > i 6.B.L.L.L.L.N.N.g.w.( Z K - 9 B B B V s ; ; Z o.L 9 d L | O.9.f.M.M.M.b.p.2.K 1     - V X.o.o.5.5.5.( E T Y K C s 3 < < 3 5 4 4 4 2 O X . - s g a d 8 8 a J  . .t * G X.R s O   . 3 Y w.N.L.I.U.E.E.^.^.^././.W.E.I.L.g.p.w.3.X.Y 3 . H 9.q.m.m.q.#.Z - o o o o * x  .j.m.l.q.G * t H 9.o.O.o.| g 9 r.0.^ & > G R L g > & 9 / 9.O.L > : 3 d B K E o.| ( ( X.X.X.R L R d 9 A d V K K K 3 B M A A A M 0 ; - - o.9 > s M M B V Z B Z 3 / G s ( o.X.3.5.X.T Z 9 . 9 ^ *.d.l.l.d.d.f.M.b.d.*.@.k J ^ R o.9.O.6.6.L 3 - - < 2 < < 1 9 9 > 3 I L > 1 4 1 s s s s s s s s s s s s s s s m m s m M s s 9 9 3 > ; 3 9 4 ; - 1 # 2 s B A K Y R E ( X.5.5.5.5.3.",
"w.w.w.e.w.6.3.o.( R G d 9 3 3 > 3 s A ( 3.9.w.e.e.w.6.6.w.w.u.u.u.u.i.p.g.i.e.w.3.w.g.N.L.I.L.N.g.N.N.B.M.`.Y.B.Y.I.N.i.3.| R R T K V C s 4 s s L L / | I G a p t a J @.s.x.C.D.C.m.k.j.d.q.#.[ J k i = p G | o.6.e.i.e.u.i.i.u.u.w.4.B L O.B.B.r.J 8 & * 8 k G o.9.| 9 ; d d 4 s s 0 0 0 s s s 4 4 4 3 2 - O O ; ; 2 1 4 s s ; s 0 0 s B A K K R L K R X.X.X.( X.E E X.E f 4 s 3 3 s g > >   d 9.#. .J * G f.B.L.N.L.I.L.K.g.4.Z M K d L X.X.X.( X.R Z s L R R g g G ^ 3.r.b.M.b.b.p.w.E s X   o s I X.o.o.o.5.X.( T U K N 0 1 < 3 4 e m m 4 5 - o   o ; 3 > ; * = a ^ ..^ = i | 3.1.A < . o ; Z 3.M.L.I.E.E.W.^.^.^.~.W.E.U.K.N.e.w.3.1.E R s   i | #.l.D.z.r.9.I k k z J  .s.z.m.m.q.] > > ^ X.9.3.6.4.3.L ; O.d.#.i & > d i & & 8 ^ 9.#.G > - s G T L L T X.X.X.( E R R E ( K L s Z i V L B N N s B A V A V s 3 4 # K K 3 0 B A K K K K L d B L 3 L X.3.w.2.X.T N s o @ Z ..s.d.b.d.f.b.b.M.q.q.@.@.#.q.0.6./ 9 3 G / | Z o 3 3 < - < 1 > ; > g I g 1 1 1 4 4 s s m m C C C C V V K K U U T T Y Y Y K A B g 9 3 ; ; 1 ; ; 1 # < 0 M A Y E ( ( 5.3.7.7.7.w.w.",
"e.r.i.i.g.g.g.g.u.w.O.| L Z s 3 ; - ; s Z R 3.u.e.w.w.w.w.u.u.i.i.p.b.M.M.i.w.6.r.g.L.Y.E.I.E.^.Q.Q.W.Q.M.W.N.Y.W.I.M.r.w.3.O.X.X.E K C s 4 s N R E | / | | | ^ G a i i a k J ] ^ J k > = t t = t a I I  . .O.O.3.6.w.w.w.w.e.u.i.i.2.L B X.f.Z.n.0.#... .#.s.s.e.| 8 @ & ; & & o o @ @ @ - 1 3 3 2 < O +     X o O 3 N s 4 e s s s s 0 s B A A K K L R ( X.5.4.X.w.r.4.E V s 4 3 B d @ d - i | #. .] H & / N.N.L.N.L.P.K.N.i.o.s 3 s L X.( ( X.( ( X.R > 9 B / G i i G | 6.r.M.b.i.p.w.1.C O X . 3 G ( o.o.o.o.X.X.T L V M 4 1 3 5 e m m m 4 4 3 O   X o # @ o @ * a ^  .H & p 3.4.5.T 4 o . O d o.M.L.U.E.E.W.^.^.^.~.W.E.L.M.g.6.3.X.X.Y Y s ; . p 9.d.n.C.z.d.q.*. ...s.j.l.m.z.n.O.; - L | 3.3.7.w.3.2./ 9 L q.0...i o o @ > p ] 9.O.g ; ; N K L K F K U T E ( E R R R R Y R R K 9 | 9 G G 3 R 3 B A B A A B s s 1 ; O.9 9 A U R R Y E E L 3 B i s X.6.w.3.X.Y K 3 @ o g  .d.d.b.b.b.b.b.n.n.n.q.n.d.d.r.I a > & @ o g L d - < < 1 1 1 1 > > & L L 1 3 i 4 s M V K K U R R T E E E E E E E E E R T Y Y K A d s 3 - ; 1 ; - # < 3 m A Y R E X.5.7.w.w.w.w.w.",
"g.g.g.b.M.M.N.N.M.M.i.e.6.o.R K 9 ; & & ; 9 G X.3.9.w.7.w.u.i.u.p.r.r.r.e.9.w.i.L.Y.W.W.~.~.].#X].^.#XQ.L.Y.f.E.Y.I.N.e.3.3.3.2.X.E V s 3 ; s N R E | | X.O.O.O.X.| R G i ; * & ; * ; > d G L I | | | o.O.O.O.O.6.3.O.3.3.3.3.3.4.7.4.E B L 0.n.Z.Z.m.n.C.C.n.q.^ t @ @ * & & * ; & @ o . X . o o O +     X       X - 4 s s s m M s s s 0 s M B Z L K R ( ( 3.2.9.3.w.w.E s s s g 4 9 9 > 3 G O. .^ I i i 6.N.B.I.M.M.L.K.N.e.K ; d 1 K Y L L R Y R ( R s o - d X.^ i 8 I | r.r.i.b.u.t.4.K ; o @ ; > I | | X.X.X.| R L Z s 4 3 4 4 m C V C m s 4 < o     X o o . @ g ^  .k * G 6.w.7.( V - X o 9 E p.L.I.E.E.E.^.^.^.^.~.E.L.g.e.9.3.X.R Y K B - o & H 9.l.z.m.l.z.l.s.s.z.x.m.j.j.O.9 - K ( X.X.3.3.2.7.6.X.B > 9.d.r...a k a I ..9.0.L * > d B N N V V V U W E R T R U K L L K R K V N N K V B 9 B B M Y V K B A 0 9 - B o.# A Y ( R ( X.L X.L 3 B ; B w.3.3.X.T K s & o d  .q.f.n.f.M.n.b.n.m.n.b.n.n.b.0...H i @ & ; & 3 L s # 1 # - o o - - o s G g 9 i d N V K Y T T E E X.E E X.X.X.X.X.X.E E R E T T L V N 4 ; ; 1 ; - O < 3 0 V Y E X.X.3.7.7.w.u.u.w.",
"i.g.b.M.M.N.N.L.N.N.M.g.i.w.3.X.R M - o o & 3 d X.6.e.w.6.w.u.e.u.w.w.t.r.i.N.Y.W.^.].].[.#X<X<X1X,X,XQ.M.N.M.Q.E.B.i.w.w.w.3.X.X.E M 4 ; ; N L R E | | X.o.O.O.o.O.5.X.R G d s d g G L L R / | X.X.X.X.X.o.O.O.O.O.O.O.O.O.O.O.2.1.1.R i i | d.m.C.Z.C.n.d.=...x a h k H J J I I H Z d i ; o   X +         + .     X 3 m s s m M B N s 0 3 0 s s B Z R X.X.2.2.X.2.9.X.K N N s d i g 9 o g 3. .| O.I i g 9.B.N.L.M.N.K.M.M.2.M B s s A K Z V A A K Y R s o o @ i I I i d | O.r.r.r.t.w.4.K 1 - 9 9 ; Z I I R ( X.( R L Z d s 0 s m C V K F C m s 3 O . X X . X . @ k / | i ; I 9.u.w.5.U 3 o o - K u.L.I.E.E.E.^.^.^.^.W.E.L.g.w.3.X.R L L K V 1 # o ; L 0.l.q.C.C.z.z.z.j.s.s.j.] p - 9 K T X.X.o.o.X.5.3.X.L ; ^ r.l.0.....#.*.q.q...p @ > i 3 3 4 s s m C V L U U L K K L L L V T N N K d g B 9 ( - Y M B N B B 0 s 3 4 L B 1 R ( Y ( R 3.E | K - L 3 B 6.3.E K d 3 @ @ d / 6.d.f.d.b.n.n.n.n.n.n.n.n.d.q.@.I i @ @ - & & 9 Y 0     . o o o o o 4 X.K i > g s m V L R R E X.X.X.X.X.X.X.X.X.( E E E E E E T R V s 1 ; ; - O # < < 3 M K R X.5.4.7.w.w.u.i.u.",
"f.b.M.N.N.N.B.L.L.L.B.N.N.b.r.9.o.R d ; @ o & ; d L | o.X.X.X.X.O.o.O.9.r.M.E.OX#X#X$X$X,X1X1X1X1X2X1X].M.M.N.W.Y.N.g.e.w.2.( R R L N s 1 ; s B L R | | | X.o.o.X.2.4.7.4.X.R L K L E X.X._ | | ( ( ( ( ( | X.X.o.O.O.O.o.| | / E U R R d > k  .q.d.z.s.-.@.{ ~ ` [ @.=.q.s.d.q.*.#.O. .^ G i * . X           X o   o < s s s s s M B B M s 0 0 0 0 9 d V Z L R V B V V N s s 9 d d 9 ; d o.9.| | o.p > L w.L.N.K.K.K.N.M.g.R d R s d M s s s s m M B K M @ . . . g | G 9 L | 9.9.9.9.4.2.L 4 - L k 9 9 L G L I ( R L L Z M s s M B A L U K V C m e < O o o . . . o k / ] > i | w.i.u.7.E s O o @ V w.K.E.E.E.E.^.^.^./.E.I.N.i.4.X.R L G G G N 9 4 - o & G =.l.z.x.k.l.z.l.0.=.I > @ 3 K Y T ( X.X.X.( ( X.X.X.9 d 9.l.l.z.s.n.l.n.0.J * X o o o o o O - - 3 s C V K V V V B C m K s V V s V s K B B M 3 M V M M M 0 s s 3 s K 3 A K R ( o.R 5.2.2.K ; B - L R R K Z d - . ; H ..q.f.f.b.b.b.n.f.b.n.n.b.d.q.*.^ a & o & @ o - A M o - O - - # ; - ; E R K > ; 1 4 s B K T X.X.X.1.1.1.X.X.X.X.X.X.X.X.X.X.( E T A m 0 1 - O - # # # 1 N K R X.5.3.6.w.e.u.i.g.",
"f.b.M.N.N.B.L.L.L.L.L.L.B.N.b.r.6.X.B ; - d G I g d B I ( R R E | X.4.i.N.Y.].$X$X$X,X,X1X3X6X1X6X6X6X#Xb.r.b.B.I.M.e.6.o.R L L K V 4 ; - : d G L I | | | X.o.O.O.2.4.4.4.5.X.E T R R E R R E E E R R R E ( X.X.O.O.o.X.| / L L L N f B i & = a ^ [ { [ ` [ ..@.-.j.x.z.z.z.z.j.d.j.q.*. .I k 9 o X X X X X       o O O < 0 m s 0 s s M B V B M M s 3 ; ; ; 3 3 d d B L L N i 9 d > - d o.9. .| o.G * i | 9.g.B.N.K.K.N.M.i.Z Z R g s 9 1 3 3 1 3 4 0 M s # . .   & g | g g | | O.O.X.o.X.K 4 & / ^ g > Z G G K L L L K Z N M B A K Y T T Y K F C m 4 1 < - # # . o Z | I * Z 6.w.i.i.w.X.B ; o o d 3.N.U.E.W.~.^.^.^./.E.L.M.u.2.X.L L G Z g d 3 s s 3 o & z *.q.j.j.s.s.0.^ g @ @ 3 Z R R T ( ( ( R R T R E E B > ^ q.l.m.z.n.z.s...k & o & @ & & @ o o o o - 4 s C N M M s 4 4 4 N N N N N K K L - R 3 s B B s M s s N N s N R - Z L ( ( o.X.3.4.5.L - M ; d G d s d ;   @ Z / 0.d.d.d.f.b.b.f.f.n.n.d.r.q.*.| a & @ - ; 1 4 4 s 0 M s s m m N s s s L R i o ; < 3 4 M K E X.X.1.1.1.1.X.X.X.X.X.1.X.X.X.( ( E U V s 1 O o o o o o 1 M K Y X.5.2.6.w.w.e.i.g.",
"r.i.f.M.M.N.B.B.B.B.B.N.N.M.b.i.w.o.g > g 9.M.d.6.G i G | ( ( 2.O.4.i.N.E.^.#X$X$X%X,X1X1X3X6X6X7X7X6X#Xi.e.M.Z.B.e.o./ / J L L L B 9 - - i B L L I | o.o.o.o.O.3.3.2.2.2.X.X.X.X.R R L R R R R R R R R ( | X.X.X.| | / R L B d d > & & & o @ 7 k z x x ~ { &.q.j.z.z.z.l.l.d.d.d.d.r.9...I h ; o X   X X         X o o o ; 0 s s s 0 0 s N A K Z K K V V K Z d K R R A g g d s 3 - g O.O.....] ^ > ; Z / O.e.N.N.N.N.M.M.w.M L B G - - o - # # # , < 0 2 .   X . X ; L R g L R X._ E E R V 4 o / O.I ; p G G Z L G K G V B V A L R E ( ( R L L K V s s 4 3 3 3 @ o Z | H ; I 9.r.p.g.i.3.L 9 o . 9 X.g.P.E.W.~.].^.^./.U.K.g.w.X.E L L G Z g i 3 0 M B i & & 8 J ` ..%.#.J > o & i Z L K K R E R R R R T T U U K * i ..d.z.n.z.d.#.^ j 8 p k G Z k g i > & o o o ; 3 4 4 4 3 - < - 3 0 m B N V B Z Z 3 2.1 M M M M B s B Y Z s N Z ; B Z ( X.X.2.2.w.3.R 4 1 s 3 > 3 i &   o i I 6.d.d.d.b.f.b.f.d.b.f.d.d.r.9.| i & ; s s C V d 0 d s V U K K U K T e d R 9 - 4 1 ; ; 4 N L R X.X.2.2.2.X.X.1.X.X.X.X.X.X.X.X.T R K s 3 - - O o @ # 1 d V K ( X.o.3.6.6.6.w.w.",
"6.9.e.r.f.M.N.N.M.M.b.r.e.w.9.3.X.I s ; d #.b.d.r.H i L 6.w.w.i.e.i.M.P.E.^.].OX$X%X1X3X3X6X7X7X6X3X1XW.9.O.9.b.9.O.| / I Z a d g s 3 & ; d Z L / | o.O.O.o.o.O.6.3.6.3.O.X.| R | R I L R L L L L L I R R ( ( ( | R L G B s > & @ & & & * = t j x J ~ ' ..%.-.s.s.s.s.j.j.s.s.d.s.q.9.%. .z = o X X & > 3 3 > - ; - - - o X o 1 0 s M s s s s B d V L K L R L K G G N s d s 9 9 3 G o.#.O.O. .J > o i G L o.6.M.N.M.p.u.g.o.M L g K o o . o o .   . # 2 < . . . . o 3 9 | L d I R L L L K B 4 o I *.o.8 8 Z G Z G G G Z Z Z A L / ( X.X.( ( R L R K V N d s s s ; @ G I a t | 9.f.g.M.p.7.( d o . 1 L w.K.E.~.^.^.^.^./.I.N.i.4.E L K G G g d i 3 4 m A K g > * * & = d g > o - d Z A K K K L L L L L R T U K A K > & z #.q.l.s.=.[ ^ J H ^ [ .. . . .^ H g 8 - o o o O - - O o . O X 1 m M K m B K B N M Y 1 M N M A A Z Y Y Z 9 B d - B M L X.2.w.4.w.i.R 9 d | L d ; o o @ * J #.r.d.d.b.b.f.f.d.d.d.r.d.r.O.G > & 4 V K K V K s g s K T T T R R E A 9 K 3 s d s 3 2 4 N K K R X.o.2.4.2.2.2.X.X.X.1.1.1.X.X.R T K s < - O o . . o - 3 s B L L L R ( X.X.O.3.",
"/ | O.6.9.e.t.r.e.9.3.o.| | | I R L d ; ; a I  .| k a / i.N.K.K.N.K.L.Y.E.W.^.].].#X$X$X$X%X$X$X$X#XQ.r.^ ^ I 0.9.0.0.9...I G k G d i & & d G | | | |  .O. ...O.#.6.9.O.o.| / R / R I L L L L L L L L L I R / / ( L B 9 ; - - - - i k G ^ ] ] ..@.%.=.-.q.q.q.s.s.s.q.s.s.s.d.d.l.q.*...H t & o * i G I R I L L G g i i > @ o @ - 3 s M M m s s s 0 s 0 9 9 3 9 d s s A K s 3 s Z O.O. .*...k i o & d Z G I 3.e.M.p.7.X.w.( B K K d . . X o o .   . . , , . . . o 3 s > Z L d Z L K K K V B e o G O.O.a > k G G G G G K A K L E X.o.o.X.X.( R I R L K G G Z Z B > @ G H > p  .9.b.g.M.g.e.2.G - o - d X.u.K.E.^.^.^.^./.P.M.w.2.T K V D g d i 9 ; 0 M V K L G Z 9 - @ & @ o # s A K B K L G L G L L L L U K V C B d & * H ..#...' ~ [ [ ..*.#.%.=.=.=.*.#. .J z > O X X o X X X X   o o < C M V K d K M s B V s B B K L K U R R L > g Z - 9 s Z X.X.w.u.7.u.( s i I 9.O.Z > ; 9 ^ 6.d.d.f.b.g.f.r.r.d.r.t.t.*.] > - 3 V K U W K L B d B K T E X.X._ T T s B s 9 N N s s s K L L R E X.X.2.2.2.2.2.o.X.X.5.X.X.E X.T V s 1 - - O # ; ; - 3 s s d B V Z B Z L L L ",
"Z L / | o.o.o.o.| | I L L I I R | / | | / G p i p i p I 9.N.I.I.N.N.N.N.L.I.Y.E.E.W.Q.Q.W.W.Y.Z.B.b.r.I k ] ..D..XR.F.Z.C.m.l.s.d.0.9.I k G z J | ^ ^ | | | o.O.6.*.9.O. .| | | ^ ^ I I L L I I L L L I I | | X.R L d - o @ > d H  .O.*.s.s.s.l.k.k.z.z.l.s.s.s.d.s.s.q.s.d.d.d.q.=.#.] k 8 t k ] o.O.| G Z g g L Z d i d d 3 - o o # 3 s B B N K M A K A Z B L R X.I d ; - d ( o./ | O. .H 8 o & i i g G G ( 6.p.e.X.K 3.L Z B ( > o X X o o o O .   O O       # s s s 3 G L 9 L G G D B B s o i ^  .k > k Z G G G K K K K R X.O.3.3.o.X.X.| | R R L L L L K Z ; o G Z & a O.r.b.g.N.N.p.w.R 3 o o - N X.e.L.~.^.^.^./.L.g.w.o.R K B B g i i > - 3 M V K K L I L K d ; @ - 0 B A L Z K Z g G Z G L R K V V C m 0 d &   8 J ~ J ~ c [ { %.s.j.l.l.l.s.q.0.=...] G 4 o o X     X X O o o o < C K Z B V B K 3 L s N K K Y R Y R ( R R 9 i G - . ; s X.7.7.u.w.4.L 9 - > I 0.0... .| 0.d.d.l.b.f.r.r.d.d.r.0.9.| G @ > V R K U E T ( L 9 V K E X.X.X.1.X.( Z s Z 9 M N N N K E E R R R R E X.X.2.2.2.X.X.X.X._ T U V m 0 s s C V T Y ( R K K K B d N B g i 3 i i i ",
"d d d k G J I I L I L L | X.O.9.i.i.M.M.b.9.I i d g Z g | r.I.L.N.N.N.N.N.N.N.N.L.L.B.N.M.b.t.9.O...| i  .*.Z.+X`.R.`.`.R.R.R.R.`._.XXA.z.=.{ x z x ~ ^ o.X.3.6.w.9.9.O. .| | / / I L L L L L K G G L I R E | ) L d & o = z ] #.q.s.l.z.n.C.Z.S.D.A.C.n.z.l.s.s.q.d.d.d.s.s.s.s.j.@.[ J k x ..#.O.I d 9 3 - - ; i B L G a g z k d > & @ @ - 3 s d B Z K L K Z g d i 9 > i L | | X.X.o.| Z > @ & ; 4 9 s B Z L | e.9.Z Z R L G B X.o X X   O o X O O o X +     o 3 g Z Z g i L g g L G G B B B 3 & G | Z > Z G L L L K L L R ( o.3.4.4.6.3.O.X.| ( R R L L I I G ; o Z Z o K w.i.g.M.N.M.M.i.X.Z ; # o 1 s Y 7.M.U.^.].E.N.b.6.R K B B B N M s 1 O - s K L G L I L L K Z d s d Z A A G K G Z Z G L L L K A C n 2 - ; @ . @ t a a k J ' @.=.s.d.d.d.d.d.d.d.d.0.O.| G 9 @   X O X X + O o o o 3 N V L g s K V d K 1 V K T U T E E Y X.E s s Z s . X - d ( 6.6.X.L B d - @ Z 9.q.*.#...n.d.d.s.r.s.d.d.r.9.9. .| 9 @ g L L E R T X.( R V M B X.o.X.5.X.X.X.L s K 4 M B B A R X.X.5.( R R R E ( ( X.E U V M s 4 ; O - 1 s s V R E R ( ( R L L R R R I | o.| ^ I L G ",
"^ I H k d d Z K K | o.3.r.b.N.Y.E.E.E.E.P.M.3.L g G G L g 3.B.W.L.L.K.N.N.N.M.M.M.M.M.M.b.b.i.t.r.9.O.a | I O.l.r.9.0.q.n.Z.m.m.|._.XXoXXXS.k.-.' ~ z / / w.7.w.e.e.9.3.O.| | / I L L L L K K G G G G L R E _ R G 8 & = H @.=.s.z.z.C.C.S.F.R._.G.F.D.C.n.z.k.s.s.d.l.s.s.s.j.j.@.@.' J ` =.%.J i 9 s V K K K K s s d G L I L k k g d 9 > ; @ . & ; ; ; ; ; ; ; @ & * 8 d L  . .| / L g ; o o ; < 3 4 s f g B L 3.X.Z Z g s B L A X       o X X o O X X X   X o 9 B G L G d G G d G G L L K K d * i H g > Z L I L L L L R ( o.4.w.w.7.7.6.3.o.X.X.( ( R I / R G ; @ B d # R u.g.g.M.N.N.N.N.w.X.B 0 - # - 4 A X.7.M.I.I.M.r.O.R B g B N s 0 4 5 2 - e G L G G L L L L L K B M B Z Z Z Z Z Z Z Z L L L K V m 5 - # @ o o & t j k H ~ [ @.=.q.q.q.q.q.q.q.d.s.0.#. .I d ; o X X       o - O X o 4 V N K B K G K s V ; N K E U E T X.Y Y ( L 9 9 A 9 - . o 3 B G Z 0 1 o - I 9.#.[ ^ =.q.d.0.d.d.s.r.9.d.s...| G & 3 K R R X.X.E 1.X.( K M N X.o.o.X.X.X.X.R d K s M M M A ( 4.7.4.3.X.T A M 0 0 s 4 4 3 4 s m m C s N s e 4 4 3 < - 1 1 - @ # - ; ; 9 d a k G L I ",
"d G I I G g g B X.w.M.N.P.E.Q.^./.E.E.Q.W.Y.b.6.G G I o.G | b.Y.E.Y.L.I.I.I.L.L.Y.E.W.W.Q.Q.Q.W.W.E.b. .O.G L  .| ] ^ ^ O...G k q.n.Z.T.R._.R.F.l...^ z O.9.g.r.i.r.w.6.O.o.| I I L L G K K K G G G L L I R R L d * * g #.l.k.C.C.A.S.F.R._._._._._.R.D.C.m.z.k.j.j.j.s.j.j.q.=.@.` ~ $.s.#.H a Z K R X.X.X.R R R B 9 3 9 d G G k G Z a a k g i > > > ; - ; 3 9 g d Z G G L I I L g ; @ @ - 1 1 ; 1 1 4 s s d B | | Z g i s B ( 1         X   + X o o + +   + # s K L / L G B G d G L R X.E R L 9 ; i d ; Z | | ( R R ( X.o.6.w.e.w.w.w.w.9.3.O.o.o.X.| / | / L & - d 3 ; 5.i.g.M.M.N.K.L.I.N.r.O.R B 1 @ @ 1 3 B K L R R I G g g p i i s s 0 1 O O 3 B G G P L L Y R R R K V B A Z Z Z Z B Z G G G K V M 4 # o o @ * > p k H J ^ [ ..@.#.*.*.*.*.*.0.0.q.q.*.#.] L i @ . X X o # . X X X X o - K A m V s L L B i G 1 N V T T R Y R ( X.X.R B 3 1 s A V 3 & ; s s d G | 3.| a 8 H *.#.0.l.d.9.d.s.0.q.9.^ ^ 9 & B R X.( 1.1.1.3.3.o.L M d X.o.2.5.5.X.X.( B V s 3 M A Y 5.4.2.X.T K N 0 1 - - 1 m C K U T E E X.T U V s 1 - O o . o o .     o o @ - > > 3 i i d ",
"k H L G d 9 > > X.e.K.E.E.W.Q.Q.^.E.Q.^.].^.E.N.O.G / #.9.| 0.Z.Q.W.W.^.].OX#X#XOX$X,X3X3X6X3X3X3X3XY.f.r.L ^ / |  . .| O.^ i ; i L I  . .q.n.D.D.z. .^ | r.b.N.b.b.r.9.9.O. .| R I L L L K K G G G G L L R R L d * i ^ q.z.m.F.F.S.F.G._._._._.`.`._.F.D.C.m.z.j.j.s.s.j.s.%.[ ` ..=.q...a p ^ O.3.4.3.3.5.X.( ( K V d > ; > i k G G G G H G Z G Z Z g g g Z Z k d g Z Z G G G > & o o ; 9 3 - ; 1 1 4 s s i g L | Z B G L g L o X X         + X o + X X   . - d L R | | / B B d L X.X.3.o.5.X.G * ; 9 & Z O.X.X.X.| X.o.3.w.u.u.e.w.w.w.w.6.3.6.3.3.o.X.o.| L & 3 s - s 7.g.M.N.K.N.K.I.E.I.N.f.i.6.( Z d 9 3 o o o o & > d G t = ; > 9 s s ; o - 4 s g G L L R Y Y R R L K A Z V B B B Z Z G B B G V 0 - o o & > a G J ^ [ ....@.#.#.%.%.#.#.#.*.*.*.=.*.#...] H > o o . . # X X X   o & @ . s V K 4 V N K R L : N C s B L | R E E R ( X.X.X.Z 0 - @ - 3 d B K A B d > o . o g G 9.9.0.q.r.9.r.d.@.| | Z @ i L X.X.X.1.3.3.4.3.5.R N d o.3.6.3.3.X.5.o.A d s - s K Y R R Y L A A A V B B B A U E X.5.1.X.E R L K M 4 ; - O O o o o . . o - 3 9 d B B B B Z Z ",
"9.9.6.o.L g 3 - s L w.N.Y.^.].].OX/.^.#X#X#XQ.Y.M.| L O.b...O.D.OX].OX#X,X1X6X6X1X6X7X0X0X0X8X7X6X%Xn.B.r.G | | O.9.6.o.O./ d 9 1 s - d p G ^ 0.m.m.q...[ r.B.E.I.B.b.f.r.w.O.X.I I L L L G Z Z G G G L L I I G d > G *.l.m.C._.R.R.R._._.`._._._.`._.R.S.C.C.z.k.k.k.j.s.=.@.' ..s.0.H g L O.e.9.9.6.3.3.4.4.2.X.R Y L Z d 9 > & & ; 9 d g G L G Z Z Z G G Z g g d i 9 > ; & @ o @ ; 1 3 3 1 - ; 1 4 i d d d g Z I Z L 6.I > 9 X +           +   + X       X < s L R X.o.6.L B 3 L 6.6.e.w.w.6.( > @ - o Z 9.3.3.O.o.5.3.7.w.u.i.u.e.w.w.w.w.6.w.9.6.3.O.3.X.L @ s s @ V u.M.K.K.K.K.L.I.Y.I.L.L.I.L.M.r.9.2.| B g > o ; ] l.B.Z.d...g * & - & - - 4 d d B L L R L L L L K K K Z B B B B B B B B D G N 3 o o & i z ` [ ..#.*.#.0.=.=.=.=.%.%.%.#.#.#.*.*.*.$. .^ k & . o . . o X o .     & ; ; . s B Y B V s L L K i d G 9 Z L R Y E 5.2.o.2.7.6.3.X.L d ; @ & & o # ; ; - o . o G / I O.O.*.0.9.s...^ / > ; Z X.o.X.X.2.4.4.w.4.3.( B N 3.4.w.3.3.X.2.o.K 9 4 3 M A V V A K R X.X.5.X.( R L K K K K U U U K K B M s 1 - O O o o o . o @ ; 9 d Z K L R E X.5.3.",
"N.B.I.Z.M.9.L s - 3 K w.N.Q.#X#X^./.^.OX#XOX^.W.B.0.J *.m.q...m.Q.#X$X%X,X6X6X6X0X0X0X0XrXrX0X8X3XQ.r.B.3.g X.6.e.9.6.o.X.L 9 1 < s # s g G G ^ O.=.q.[  .O.B.R.Y.I.B.b.b.r.6.o./ / I L L G G G L G L L L R L Z > > J q.m.D.F.G._._._._.`.|.`.`._._._.R.F.C.m.z.z.x.c.s.&.@.@.#.d. .a d | f.M.r.r.r.e.w.7.7.3.1.2.( E R Y K Z d 9 ; & * & & - 3 > ; > > 9 9 > - & @ - > > 9 > ; - ; 3 4 4 1 < - ; 4 i i d d g B g L G O.r.B @ - X X           X   +         + - s K R X.6.u.O.L - B r.g.M.g.g.y.5.d o @ . B 9.w.w.6.4.6.7.w.e.u.i.u.u.e.e.e.w.w.w.w.9.6.3.6.o.G o 9 3 @ Y g.N.I.L.L.L.U.E.Y.I.I.Y.E.W.Y.Y.Y.Y.I.W.b.i.r.I ; g r.n.Z.R.W.b.O.g & o X - B K Z K E L R R R L L G Z Z B B B B B g B B G L B ; X o t H [ @.@.#.q.s.s.s.q.0.=.*.%.%.%.#.@.#.#.*.*...] H t o X @ - 3 s B s 9 - o o & i @ . 0 V L A K 0 L Z L K ; g d d L R R R ( 5.3.o.6.4.6.w.e.6.R Z g i 9 9 3 1 - . o B & g | I  .9.9.#.| J d @ Z | 6.6.4.4.4.w.w.w.7.4.X.B B 6.6.w.3.6.5.3.X.K 9 3 s B A K R ( X.3.3.4.3.X.E Y A M s s s m V V V C m s 3 - O o o o o o - > s d Z K R E ( X.o.4.y.i.",
"I.Y.Y.Y.I.N.w.( s ; 9 L 9.N.Q.^.].Q.^.#XOXOX].Q.Z.b.| #.m.D.0.0.Z.Q.$X%X1X3X7X6X0X0X0X0X0X0X7X3X#XB.N.M.I I 9.r.i.6.6.o.( Z 0 0 - m 2 B R X.| I ] ..] | z ] q.W.E.Y.I.N.b.r.9.o.| | R L L G K G G G L I / / L d ; 8  .l.C.F.G.F._._._._.`.`.`.`._.`._.R.S.C.x.z.k.k.s.&.@.@.%.=...k Z O.p.p.i.g.i.i.i.u.u.w.7.3.1.X.5.X.R Y K Z B g d d i > & & & & @ @ & & & & - - 4 s d Z B s 9 3 1 3 0 3 1 - 1 9 s s d d d B B B G O.O.3 9 ;               X + +           O 4 Z Y X.w.p.g.o.- 9 e.N.L.M.M.i.4.A o o . s 2.i.e.w.w.w.w.w.e.u.u.u.u.u.e.e.e.e.w.w.w.6.6.9.o.G . > - @ X.M.N.Y.I.I.I.E.E.E.Y.E.E.W.W.Q.Q.].OX#XOX#X].E.N.9.g o * p | r.D.Q.D.d.G 9 ; d G L L R L R ( ( R L K Z K Z B B B B B B V G L Z ; X * G [ ..=.q.s.d.n.n.l.s.q.=.%.@.@.@.$.....#.*.#. .^ x t * > d L | o.| | ( I Z 9 ; ; g & o 9 s Y K 0 B B Z G L > i d 4 M Y X.5.X.2.w.6.3.3.3.9.6.R d i 3 4 s 1 < 3 1 M o o d i G #...9.| I d @ 9 o.e.i.e.e.e.w.w.w.w.w.6.o.B B w.7.w.7.7.3.2.( K 3 ; 4 V R X.5.3.2.3.X.X.( R Y K B s < ; ; 1 4 s 4 3 2 < - O o . . o - - 4 d N V K R R | X.4.w.p.N.L.",
"B.I.I.I.E.E.B.i.R 9 - d / r.Y.Q.Q.Q.Q.^.Q.W.W.W.W.m.#.] m._.m...l.E.$X,X3X8X0X0X0X0X0X0XrXrX7X1XE.b.W.e.d 3.r.i.g.w.6.X.B 0 3 m - s 3 T O.O.O.9.O.| ^ G k z 9.Y.W.E.Y.I.B.b.9.O.| | I L G Z Z G Z G L I / / G i 8 g 0.C.C.G._._._._._._._.`.`.`.|.`._.F.D.C.x.z.j.-.@.{ @.%.*.*.p G O.i.g.M.J.p.g.f.g.i.e.w.7.7.3.2.5.( R R R Y L L K B N g N g d s 9 3 9 s d B A K K L L R L g 9 3 3 9 3 ; - - 3 i s s d d d g g d B L Z - R 4             + + X X X         o 3 N K X.e.p.I.e.3 > 7.N.L.g.K.M.w.Y # o o 3 ( i.e.w.w.w.w.w.e.u.e.u.u.u.e.e.e.e.w.w.w.6.6.9.o.G o ; @ @ O.N.I.E.E.E.Y.E.E.Y.Y.E.W.W./.^.^.].].OX#X#X#XW.N.9.G 9 i > * * d #.Z.Q.OXd.G > 9 G R K L R R ( ( R L K K Z Z B B B N N N G L Z ; . 8 ] ..@.=.s.z.l.n.m.m.l.q.=.*.@.@.@.$.....#.#.#.[ J k t a J |  .O.o.o.X.X.o.o./ k 8 G d ; o ; M K K 0 s M K K R B 4 s s 0 s L 5.4.3.2.3.3.4.w.6.( B s 1 4 4 < < 0 s - @ i   ; I ^ 9.O.| G > & I 6.f.M.g.p.p.u.w.w.7.w.6.o.N M w.w.e.w.7.2.X.K B ; @ - C R X.X.( R R R R Y K A M 0 1 - o X . O < 2 2 < < O O O O O # 1 3 s N N N K L L E O.9.r.i.b.V.",
"N.L.L.I.E.E.I.N.6.K 9 > g / r.I.B.Y.E.Q.Q.W.W.Q.Y.Z.q...d.R.T.d.q.m.$X%X3X8X7X7X0X8X0XrXrX0X1XQ.B.OXb.L | 9.r.b.g.i.3.B K s 1 A - N s R 3.3.t.b.M.b.9.G d g I f.E.^.Y.I.B.f.9.O.X.I L G Z Z G Z G G I / I | k i 8 ] l.D.G._._._._._._.`.|.XXXX`._.|._._.F.A.x.j.s.%.%.{ =.s.^ k | 6.i.g.M.J.J.M.M.g.i.i.u.w.w.w.7.7.3.1.( E Y T Y Y Y L K K L Y L L L L K K L Y Y Y R ( ( E L Z s s 0 0 3 - # - 1 9 i 9 3 9 d d g i d g ; Z R 3           X X o O o X           # s L X.e.N.N.N.G @ X.M.K.g.M.M.u.R 1 o # - ( w.i.u.e.u.u.e.e.e.e.w.w.u.e.w.w.e.e.w.w.w.9.w.O.Z o - @ > 3.I.E.W.E.E.E.W.W.E.E.W.W.Q.^.^.^.].OX#X$X#X^.E.L.6.Z 9 9 s 9 3 ; @ i  .Y.Q.Q.9.8 > k G G R | / | R L K K K V N d d d d Z N K Z 9 o p  .%.-.q.s.l.b.n.B.n.z.d.q.0.*.*.#.@.@.@.@.@.@.` H k k ^ .. .| / B g d i d G / | | d g d > & & s K V N s s B K Y R V 4 s 4 0 ; Z R X.o.2.3.3.3.R d s i 4 1 s s - 1 3 ; . . i  .*. .O.G g o B 9.t.b.e.M.N.g.p.u.w.w.3.w.X.9 L 6.w.3.6.X.R R L Z 9 . # s L R R Y Y K K A B M s 0 1 - O X     . o O - - # O O O O , < 3 3 4 s m C V K R | O.3.9.r.b.V.",
"M.N.L.I.I.Y.I.L.e./ g i d g | r.n.B.Y.Y.E.E.E.E.E.I.b.*.=.D.|.D.q.n.OX1X3X7X7XyX0XyXaXrX7X3X#XB.OXB.O.| 9.r.M.I.N.e.X.K A s M V e B B | 9.w.M.Y.Y.W.B.O.B 3 d w.Y.^.W.Y.B.f.9.6.X.I L G G G G G G D | L o.I a = H =.Z.R._._.|.|._._.`.`.XXXXXX`.`.|._._.S.C.z.k.-.%.{ -.d.J p o.w.r.g.M.N.J.J.J.M.g.g.g.i.i.u.u.w.7.2.1.( E T Y Y T T T Y Y R R E R R Y R T R R R R E X.X.X.R L B d s 0 1 # # - ; 3 i 9 3 9 i i 9 i 9 9 ; X.R O         X X . o # O o X         o 9 K X.w.M.N.N.( @ L i.K.N.M.g.i.( 3 o - - Y 7.i.u.e.u.u.e.w.e.w.w.u.u.i.e.e.i.r.e.e.e.w.e.O.Z o & @ 9 9.Y.E.W.W.W.W.Q.W.E.E.W.^.^.^.^.^.^.].].^.#X].^.I.o.s s 0 d 0 9 3 @ o & p q.Z.D.m.k @ G L G X.X.| / R Z K Z B d d s s s B N K Z i o i  .=.q.j.l.n.n.N.Z.m.n.z.d.q.q.=.#.$.@.@.@.@.[ ~ x x ^ #.*.I i > & o & - & & > B I z a a k i @ o ; Z A B M 0 0 M K R X.K B 9 4 - 1 3 1 3 B G B 3 ; B e e s 4 3 < 1 3 ; o > /  .] O.I G @ i L 9.f.r.g.M.M.g.g.i.w.w.e.5.E s K Y X.K N s 0 s d d 9 - ; 0 M B B A V M B M m s 0 0 3 ; - O X X X . o O O O O o o O O O - < < 3 3 0 N V L R X.O.8.9.r.d.",
"e.i.M.N.L.L.I.I.M.9.Z L a G a  .O.r.B.I.Z.Y.E.Y.W.W.W.n.*.z._.R.l.0.n.`.3X4X3XrXyX8X8X7X#XE.Y.Q.B.r.q.r.r.b.B.N.N.6.( X.M 9 K V g G R O.t.b.Y.Q.#X#X].M.R ; 1 X.L.^.Q.Y.B.f.w.9.X.R L L G G L G G L L | I L 8 p @.n.R._._.|.|.|.`.`.`.|..XXXXX`.XX`._.R.S.x.j.>.%.{ q.l.H a O.9.b.g.g.M.N.J.J.N.M.M.M.M.g.p.i.u.w.7.2.X.( E T Y T R R E R R ( ( ( ( R R E E ( ( T T E X.X.X._ R K B s 9 ; # # - ; > 9 9 3 3 3 3 9 3 ; d s 2.N #           X o @ - ; - o       X X ; Z | 6.i.M.N.3.& s w.N.K.N.g.p.o.s # - - B 3.u.u.u.u.u.e.w.w.w.w.u.i.i.i.i.i.i.e.e.e.w.e.O.Z . @ o d e.Y.E.Q.Q.W.Q.Q.^.W.W.^./.^.^.^.^.].OX#X#X$X].W.K.X.s 0 s N s s s 9 ; @ . ; G *.m.m.] > a X.I o.X./ I I K Z B d M d s s d B K K M @ >  .0.s.l.l.n.n.n.C.m.m.n.l.d.q.0.#.......$. .~ x z H ..#.I i * ; 9 N G L K g 9 ; - ] J G G J G i o - 9 A U V s 0 M 0 A Y R ( ( K d 3 s B M 9 s B K 1 1 9 s 0 s s o - o 9 R  .^ I I G d X L o.e.b.i.b.g.M.M.g.p.i.w.7.E K ( 0 d B N ; 1 1 1 ; ; 3 d 3 1 1 0 s 3 0 m s s s s s s 0 4 < O o X X X X o o o o X X   X + . . o O # 1 9 d Z L / | o.O.*.9.",
"3.w.i.g.M.N.L.I.B.9./ G O.^ H H G ..l.B.Y.Y.Y.E.W.Q.`.Y.q.0.Z._.Y.r.9.n.OX3X7X0XrX7X$XW.Z.W.Q.Y.D.B.B.b.q.M.Y.L.b.6.X.X.9 3 Z L G G O.9.b.B.Q.#X%X,X$XE.7.0 - K M.W.Q.Y.B.f.w.6.X.R L L G G G G L L / I ^ p t H q.Z._._._.|._.|.|.|.|.|.XXXXXX`.XX_.R.G.A.k.;.@...j.q.J a | f.f.g.p.g.K.P.J.N.N.N.N.N.N.M.g.u.u.w.7.3.X.( ( R T Y R ( ( ( ( ( E ( ( R R R E R R T R E X.X.X.X.E L K B s 1 - - 1 ; ; 3 9 9 9 3 > > > 9 B T X.3 -         X o # - > ; - o X   X o X & g ( 3.e.b.M.w.; 3 w.M.N.M.M.g.4.N - - # 9 o.u.e.e.u.e.w.w.w.w.w.e.i.i.i.i.i.i.e.e.e.e.e.O.B . o . g r.E.E.^.Q.Q.Q.^.^.^.^.^.].[.[.^.^.^.].].$X#X#X[.K.5.N - s V s 3 ; 1 1 @   o & * G d.n. .8 I O.6.9.O.I I L K Z B N M d s s B A K Z - ; | *.d.l.l.n.n.m.m.m.m.n.z.d.s.=.#.@...$.$.[ J z H ^ ..I > & d L ( E R R ( X.R K g > J ..^ G L G g - o - s U T V m m 1 M K Z R 3.( o.X.R R X.O.R d s 1 - s 3 @ 1 3 - 3 R O.L G I G G - 3 L 9.r.r.i.i.i.M.N.g.g.i.w.( K K 3.B L K Y Z K K V M 9 9 V B 3 # - 1 3 3 3 s s s s s s s 0 < # o X X . . X . o o X X   X + . o o o o @ - - i g G L I I  ...",
"X.O.w.r.f.M.N.N.M.e.L I O.q...] z J O.b.I.Y.Y.Y.W.Q.Q.Y.n.0.s.T.`.Y.l.q.r.n.Y.W.m.d.M.Y.D.n.m.D.Q.T.D.Z.n.b.n.n.9.6.o.B @ s G / L ^ w.r.N.Y.#X$X1X1X1X].p.C - m p.E.W.I.B.b.e.6. .^ I L G G G G G L | | ^ 8 p  .n.F.`._.|.|._.|.|.`.`.XXXXXX.X`._._.F.C.j.-.%.%.q.9.I a O.b.w.g.g.g.M.L.P.L.K.K.L.L.K.N.M.g.i.e.w.6.3.o.X.( E R R E X.X.X.X.E R T R E E T T T T T R ( X.X.X.X.X.R L Z d 4 1 1 3 3 3 3 9 9 9 3 3 - s s 1 L X.3         X . o ; > 3 > > & o X o & o o i R 3.e.g.b.w.i - 3.M.N.M.M.g.9.Z & @ & ; X.w.e.e.e.u.y.w.w.w.e.u.u.r.i.i.i.i.e.e.r.r.r.o.g . @ . B i.E.W.OX^.^.].].].^.^.^.[.[.[.].].OX#X$X].#X#X^.M.R 3 ; B L K s < < 3 - o . ; i > p O.n.| i 9.9.9.6.3.| R L G B B N d s s g B B Z ; @ I #.d.z.z.m.m.C.C.C.C.m.n.z.d.0.#.%.@.@...] H x J ..I i ; d L | X.X.X.E E T R T Y s ; i / O.I H I G i @ o ; 0 B K Y M 0 B o 3 9 - 9 d Z K d 3 9 d 1 M 0 3 9 3 - . g | O.I H I ^ I i o G R w.w.w.r.w.r.M.M.p.g.e.X.Z s B K X.X.o.R R R L ( X.K 3 - s M s - o - 1 1 4 0 s s s s 0 3 < # o X o O o X X X . X X . o # - ; ; ; ; ; & o ; > 9 d g G L / ",
"R | O.6.w.r.i.i.f.9...k #.=.d.=.^ G H O.b.Z.Y.Y.Y.Q.W.W.W.d.#.d.T.Q.W.n.r.r.d.r.b.b.d.0.9.l.Z.D.m.D.R.+X+XY.d.0.O.#.^ & o k L | / 6.f.M.I.W.$X$X1X6X7X<XK.Y 1 m e.E.W.Y.L.b.e.6.O.| | I L G L L L | I | a t z s.Z.R._._.|._._._.`.`.`.`.`.`.`.`._.R.C.s.&.%.;.s.9.d L 9.w.M.g.i.M.M.N.L.L.L.L.L.K.K.N.N.M.g.i.e.w.7.4.3.5.X.( ( R R | X.X.X.E R R E E E T T R T T E X.X.X.X.X.X.( R K B s 0 0 0 0 9 9 s d s 9 3 3 d 4 o K E 3         X o & > 9 i 9 9 > - o $ ; & o > L O.w.f.b.r.g o ( M.K.M.b.b.9.L - @ - - R w.w.w.w.w.w.w.w.e.u.u.u.e.i.i.i.i.e.i.i.r.r.o.d . - . K f.W.Q.#X^.].OX#X#X#X[.].#X].^.Q.Q.Q.^.OX#X%X^.E.L.R ; i B L G s # # 3 < o 1 1 d I k p I 9.G G r.r.e.e.6.X.R L Z V N d s d g g B Z 9 @ Z #.d.z.n.m.C.C.Z.C.C.m.n.n.d.0.#.*.@.$. .^ J J ^ | d - d / o.X.E R E ( X.X.X.( ( Y K 0 ; g o. .G I I G 9 @ o - 0 s Y R R L Y M 3 3 s d s 9 9 d B 3 0 1 - @ o 9  .|  .] I I ^ H p o - B X.4.w.w.w.w.w.e.u.i.i.5.A M s d d ( ( R V K A K R E B -   o - 3 s 1 o o - 1 4 s s 0 4 1 1 < O . X o O o X   X X . o O - > i i d d g B d 9 ; & & ; 3 s B L ",
"G L | o.3.9.e.r.r.r. .I J *.d.z.=. .J ^ #.b.I.W.E.Q.W.W.W.n.*.@.9.b.m.m.n.d.d.0.^ G I 9.n.B.m.b.l.D..X@X+XR.m.q.#.O.I p a z H / o.M.N.I.Y.].%X1X1X3X7X1XE.E 1 s 6.I.W.Y.N.f.e.6.#. .| I L L I I | | | g p t #.C.R._._._._._._._._.`.`.`.`.`.`._.F.Z.l.=.@.=.;.=.G L 9.p.p.M.p.N.M.N.L.L.L.I.L.L.K.K.N.N.M.g.i.r.e.w.w.7.4.2.X.X.E | | X.X.X.| _ R R R T R R R R T E X.1.X.X.X.X.X.R L Z B B M M M d M B B d i 3 M 3 . - U V O         X o > p d a a a d 3 - - > > o & G | 6.i.b.i.L o Z g.M.M.g.b.e.| > @ > - L 7.w.w.7.7.w.w.w.w.e.u.u.e.i.i.i.i.e.r.i.r.r.X.i X ; o L f.W.Q.#X^.].OXOX].^.~.E.W.E.L.M.r.e.e.e.t.r.r.r.6.G ; & P I L B ; - s s < - m K L X.| i G I ; 6.N.N.e.6.3.X.R K Z B d d d d g Z Z d @ p ..s.z.z.m.C.C.C.Z.Z.C.m.n.l.q.*.#.@.[ ^ c x ~ ] Z ; > L o.X.X.X.3.1.X.X.X.X.E E ( W U B ; @ p  .J J J G k s ; . o 1 s 4 R L R L R ( X.R R R G 0 1 - @ - d / | ^  .J J ~ H k i o @ i B | 2.9.w.w.w.w.7.w.u.3.L N K A d V V K B d B Z K K B 0 ; o .     - s 3 # o - 1 4 4 3 3 1 1 - O o . o # O o X o o - - ; 4 i d z G J ^ ] I G d 9 - # # ; 0 M ",
"g G R X.O.9.t.r.r.0.O.I H  .q.z.m.j.#.] | 9.n.Y.W.W.Y.m.n.m.d.#.G I I | L a G G | O.r.d.d.l.m.n.b.n.T.+X|.D.d...r.#. .*.9.k z ^ 6.I.B.Y.W.].%X1X3X1X6X6X^.| ; 3 o.L.W.I.M.r.w.3.O.| / I G G L I R O.I g 8 G d.D._.`._.R._._._._._._.`.`._._._.R.C.k.%.@.=.s.@.J G i.b.u.M.M.M.N.M.K.I.I.Y.Y.Y.L.I.P.L.L.N.M.g.g.i.i.u.e.w.4.5.X.| | | | X.X.| | E R L L L R R R T E X.1.2.2.O.O.X.( L K K K K A Z Z Z K K B s 9 s ;   1 K s   .   X X o & i k G G z G z i ; > i i o & B R O.r.f.i.| o d r.g.g.M.M.t.o.9 @ i - G 6.w.7.7.4.7.w.7.7.w.u.e.e.i.r.e.i.e.e.i.r.r.| 9   ; o L f.W.Q.].].].].Q.E.I.M.f.w.9.O.| I L I I | L X.L ; d | G t g L G 1 - s m 0 4 B R ( 3.w.9.G 3 d > 6.B.M.i.w.3.( L K V N d d d g Z Z B @ > ..s.z.z.x.C.C.C.D.D.Z.Z.m.n.d.=.@...` c z x ~ ] > ; N ( X.X.1.X.1.1.1.1.X.X.( ( ( E T Y K d > & a H I L G G Z B 3 o o @ @ - 9 9 s 9 9 s i 3 - @ ; ; G I L I ^ | J  .I k k > o o 9 g G L X.9.4.w.4.4.6.w.w.( B B R s 4 0 B s d 3 0 s B N 0 1 - X   o .   . 1 0 1 # - 1 1 ; ; ; ; - - @ o @ - ; ; - ; 3 9 9 i d g G J ^ ` ]  .] I I g > @ o @ < 0 ",
"G L | o.O.9.9.9.9.9.6.| G G o.r.d.x.l.s. ...r.I.Y.Y.m.f.d.q...H d d s d B Z G G I I  .9.r.b.Z.W.Z.q.l.j.=.q.[ | k g O.m.l...y ] r.Z.m.W.Q.#X$X1X6X7X8X1X^.O.@ - o.Y.Y.N.M.9.O.o.| R L G L L L / | | G t g r.n.T.R._.`._._.`.|._._._.`.`._.G.A.C.j.@.[ s.q...H I e.i.M.M.M.M.M.M.M.L.Y.I.I.Y.I.L.I.L.L.K.K.N.M.g.p.p.g.g.i.u.7.X.| / | | X.X.X.X.( R Y L Y Y Y Y R X.X.X.X.2.3.o.X.( Y L Y R Y L L L R ( L B ; B o o o 0 F - X   X   X - i a k z x x x H G i > i d > @ g K o.w.e.i.( - 9 w.i.M.p.g.r.o.d @ 9 ; Z 3.w.3.3.6.4.7.6.w.w.w.w.e.e.r.e.w.e.e.e.i.w.R 3 o & . / f.Q.].Q.Q.Y.I.B.M.e.6.O.X.O.O.R | | | | o.6.O.I t p B.n.O.> * i i & - B M A A E o.e.r.f.i.R & o K M.L.M.u.7.X.R K V g s d d s B K B i @  .j.z.C.C.C.C.C.C.Z.D.D.Z.C.n.s.&.@.[ J z ~ ] G @ N K Y X.2.X.5.5.1.5.X.X.X.X.( ( E E E Y K B i & - 9 B L I L K G G g 9 - o o o o o o o o @ > d G L I I I I ^ / I L G i @   . ; 9 d B Z I O.6.O.9.o.O.6.3.Z 0 L d K ; ; 1 ; < 1 1 4 3 - O - O X +       X o # < - # - > > ; ; 9 > ; ; ; > 8 d a k a k H G k z G H J ^ [ { ......| G d & o . ; 0 ",
"g G I | O.O.9.9.9.9.e.6.^ Z G | s.x.n.n.*. .#.M.B.b.t. .H p y p i d B K L / X.O.6.6.9.9.#.9.b.I.r.#.{ -.{ %.J g d i O.m.x.-.J x d.T.Y.W.].$X,X1X7X0X7X3XQ.o.; 9 | B.M.f.r.O.X.( R L G G G G L / | G d i O.d.T.T.T.R.R._.`.`.R.R.`.`.T.F.R._.C.>.@...q.d.@.k ^ i.i.g.g.M.b.M.N.N.N.L.Y.I.I.I.I.L.L.L.K.K.K.K.N.M.M.M.M.M.i.u.7.X.E R R ( X.X.X.X.( E R L L L Y Y R ( X.X.X.5.2.o.X.E Y Y R ( ( R ( ( R ( K 9 3 ; o   # m s o X       o : i k G G H J J J H a t p k t @ i Z X.7.w.u.( - 3 w.i.g.i.i.e.O.g - i ; B 3.w.3.3.6.6.7.6.9.w.w.w.w.e.e.e.w.e.w.e.e.w.R ; o & . / M.W.W.I.B.M.d.0.6.O.6.t.e.r.b.i.M.M.B.L.L.W.Y.B.*.a I b.#.H G p & . > Z L M R 5.4.i.N.N.L.b.L o - X.P.M.p.y.2.E L B d i s s s V K G d @ ] d.z.C.C.A.C.D.D.D.D.D.D.Z.n.l.-.%.{ J J ] ] 9 > A Y R X.5.X.5.5.5.5.X.X.X.X.X.( R ( ( R Y L Z B 0 - @ - 9 B L G G G Z g d p d i i i i i i a G G J I L L L L L G i @ o o o - ; 3 s d g G | O.3.X.| I O.R s s L s L @ @ - # 3 # o O O X X o o   +     X o O # # 1 - & ; 9 i 8 8 i p a k k k k G H x J ~ ~ J J H H J ^ [ { ...... .I i >   @ - 0 ",
"g G / O.O.9.9.0.e.r.f.r.O.G d k ..s.z.C.d.@.^ @.9.L i t a H J ^ / O.r.M.M.M.f.f.M.f.d.0.O.| O.9.O.#.0.-.%.J L d d Z I =.F.z...^ r.W.W.`.$X3X7X6X7X0X6X3XY./ i a | b.r.9.6.| / I L L G G G G L / ] g = I d.D.`.R._.R.R._.|.`._.R.R.`.`.R.C.k.-.@.@.s.l.^ H | r.i.M.M.M.g.g.M.N.L.L.I.Y.I.I.I.L.B.N.N.L.L.L.K.N.N.N.N.N.M.g.i.w.X.E R R R X.X.X.X.X.( R L K K L Y E ( X.X.X.o.o.X.( R R R ( X.X.X.X.X.X.E s - 1 o o   < m O o X     X - i g G H H J ~ ^ ^ J z a a z a & ; g R 5.w.e.X.- - 3.i.i.u.e.w.O.Z - s ; d o.6.3.6.7.6.6.4.6.w.w.w.w.w.w.w.w.w.w.e.e.6.R @ @ ; o ( M.I.B.M.r.e.0.0.0.r.b.I.W.Q.Y.Y.N.I.N.B.B.Y.B.Z.m.I & i * & i ^ ..r.> 9 L L X.w.e.g.I.L.Q.Q.p.N   s M.K.N.p.w.X.R V d d s s s V A K g o J q.z.C.C.D.D.F.F.F.T.Y.T.D.C.k.s.=.' J `  .^ & d Y R R X.X.X.5.5.5.5.X.X.X.X.X.X.( ( ( R R R L L K g s 3 - @ & d g g g g d g g d d d i d d d d g G I I L G g d - o X . o # - < ; 3 9 s d K | O./ G d L R 9 B d Z N o # - - 3 O . O O     X X       X O - - - - ; 3 9 9 i d k a k H I ] ] ^ ~ J ~ ~ ^ [ ] ^ ^ H J J ^ ] { ..#.%...I g - o o ; 9 ",
"G I | #.9.t.r.r.f.f.M.f.9./ g p H &.q.m.C.q.^ I d i a I #.9.q.s.n.N.N.N.b.f.f.f.M.f.r.9.| L G G Z | d.q. .a g 9 d B p I G.x.%...9.Y.`.$X1X7X7X6X7X8X3X1XB.G k G X.r.9.O.O.| / I L L L L G L R ^ z i i 0.Z.`.`._.`._.R.`..X`._._._._.R.S.z.-.%.%.z.=.~ I | r.f.f.M.M.N.M.M.M.M.N.Y.E.E.I.I.I.L.N.L.L.L.L.L.L.K.N.K.N.K.N.g.i.w.5.X.( R R ( X.X.X.X.X.R L K K Y R E ( ( ( X.X.X.X.E R R R ( X.X.X.X./ o.B ; # @ @ o o 1 3   O X     o 3 f G H J J J ` ] ^ J x k a H G * & d L ( 7.w.o.- @ ( e.u.u.e.w.O.G & i 3 s X.6.6.3.6.4.6.3.3.9.w.w.9.w.w.w.6.w.6.e.w.3.L o ; > @ L r.M.f.r.e.e.d.m.Y.W.W.Q.E.E.B.r.3.9.e.9.9.9.r.*. .k p k > G d > I 0.r.a g 3.O.e.M.M.Y.Y.E.^.E.w.2 o X.K.K.M.w.3.| L B g d s s B B K Z o G q.m.D.D.F.D.F.T.T.T.T.T.D.C.z.s.=.` ~ ....a ; K E ( R ( X.X.X.X.o.X.X.X.X.X.X.X.( ( ( R Y R Y L L L L Z d 3 - . o o @ - > d g d d d i d g g d d g Z g i ; @ .   . # - # o # - ; ; 3 3 9 s L X.L i s d L > B 3 R - o - 3 3 o - 2 2 - o   X         o - 3 3 4 9 > d g p d G I ~ ^ | ........ .^ ^ ^ ^ ] ] ] ^ H H H J ]  .@.%.*...I g @ o o 3 9 ",
"I | O.9.w.r.i.f.M.M.M.f.e.O.G 9 k %.q.z.m.d...^ a J O.r.l.n.n.m.Z.m.b.r.r.d.r.e.r.9.9.O.L Z g d 9 g  .0.G H @ # 1 - 8 J C.x.s.~ #.I.].1X3X3X1X3X6X3X3XOXb.G ^ H | 6.O.| | / R I I L L L L I | I i t  .l._._.|._.|._._._._._._._.G.G.S.z.s.q.q.d.*.J k O.r.f.i.N.M.M.N.N.N.N.K.L.E.E.E.I.I.I.L.B.P.I.I.I.L.L.K.N.K.N.K.N.M.g.u.4.o.( R R E ( X.X.X.( R Y Y R R R E ( ( ( ( X.( ( R R R E ( X.X.X.X.R Y ; - # o # o 3 < o   4 X   o ; i g G I ^ ^ ~ [ ] ^ J x k a H G > o s K R 3.6.5.3 o K w.w.u.e.9.O.G @ i 9 3 X.6.3.3.3.3.6.3.3.6.w.w.6.6.6.6.3.6.6.e.w.o.G o 9 9 @ g O.e.e.r.f.N.I.W.Q.E.Z.m.d.0.r.I G d / o.O. .#. .G > ^ n.G i Z G & O.Y.q.d / 6.r.B.B.E.W.Q.].^.E.( . 9 u.L.M.e.6.X.L G B g d d g g L G @ a 0.m.D.D.F.T.T.T.T.T.T.T.D.C.n.s.%.~ ` #. .* g L ( X.( ( X.X.X.X.X.X.X.X.X.X.( ( ( ( ( R Y R Y L K K L L K Z B s 9 ; & o o . o o @ o o o @ @ @ - - - o . . . . # # # # O O O # - - ; 3 ; 3 d L G 3 9 i i ; s N V X o O - - + - 4 4 < O           X O < 3 i d g Z G k d k ^  ...#.%.*.#.#.#.$...] ^ ] ^ ^ ] J z k G H ^  .@.*.*. .I 9 &   - 9 Z ",
"| O.9.9.w.t.r.f.M.N.M.f.f.0.I 8 k 0.d.d.d.d.0.*.9.9.q.d.n.Z.Z.m.d.r.r.r.b.b.0.O.O.O.O. .L Z Z Z s i ..*.H I   . . - 8 z C.S.z.~ O.I.].1X1X1X1X3X3X1X1XQ.r.^ *.^ | o.X.| | | / R I L L R I | | G > z s.A.R.|._.XX|._._._._._._._.S.S.z.s.d.n.q...a I 6.9.g.b.N.b.M.M.N.N.N.L.I.E.Y.Y.Y.I.I.I.I.I.E.E.I.I.I.L.L.K.K.K.K.K.M.M.i.w.o.( L L R E ( X.X.( R R R E E R E R R ( ( ( R R L L R R ( ( ( ( ( R 3 o - o o o o s O   o 0 X X $ > g G H ^ ] ] ` [ [ ^ J H k a G G i o 3 V L X.3.X.9 @ g 3.w.w.6.6.O.L & s i ; R 3.3.3.3.3.6.3.3.6.6.6.6.6.3.3.o.3.6.6.6.| d - g g ; d O.r.f.N.I.Y.Q.W.m.d.e.0.9.O.O.| > o i / | O. . . .p H n.d.> - Z g > n.B. .i 9.f.I.L.E.^.^.#X#X].f.3 o ( N.M.i.6.X.R G g g d s d g L G * 8 %.n.D.Z.F.T.T.T.T.T.T.T.T.Z.m.s.@.~ ..#.I & I R ( X.X.X.X.X.X.X.X.X.X.X.X.X.( X.( X.( R L L K L K K Y R L K Z L K Z d 0 3 ; - @ & # @ o @ # - # - # o o O # < # - # # o o O # - - ; 1 ; ; 9 g G i ; d > d 9 K - o X o X   < 2 4 2 O o           . - 1 9 d Z L ^ ] I G k I ..9.9.0.0.=.*.*.#... .^ ^ ^ J J H k a k G ~  .#.*.*. .G ; o o 3 Z I ",
"| O.6.9.9.t.i.f.n.N.n.b.b.9.L 8 x 9.d.l.q.d.d.d.l.n.m.m.m.m.n.n.n.b.d.l.n.n.d.9.| | O.| I L L L g > *...^ G . o # 9 8 a z.F.z.$.| B.].%X1X3X3X4X3X;X%XR.*.%.d. .^ | | | | | | | | R | o.O.6.o.z t ' j.G.F.|.). X X X_._._._._.G.F.c.>.s.m.z...k I O.i.i.M.i.M.b.M.M.N.N.M.N.L.I.L.L.L.I.I.I.Y.E.E.E.I.I.I.I.L.L.L.L.L.L.N.N.g.e.O.( L K L L R ( ( ( ( E E E E E R R R E ( E R L K L R R ( ( ( ( R A # o o . O o < 4   X < 3 X o : i G L I ] ] ] ]  .] ^ I z a a G G d . - M K ( 2.( 9 & 9 X.3.6.3.O.o.L @ s d ; L o.O.o.2.3.6.3.3.3.3.6.6.6.3.o.o.X.3.o.o.R 3 3 K G 9 p 6.N.I.W.W.W.Y.B.f.e.9.6.#.#.O.#.> * > H | 0.9... .H a m.r.d o @ * i k Z.n.g  .b.I.Y.^.^.OX#X$X#XY.L o g u.M.b.9.o.| L B g g i d B L K 8 > O.n.Z.Z.T.T.T.T.T.T.R.R.T.Z.m.s.@.` #.O.d d ( X.X.X.X.X.o.5.X.X.X.X.X.X.o.X.( X.X.( ( L K K A K Z Z K Y R R R R R R Y L A B N M d M d M s s M N B M 0 1 - # # # - - # o . O - - - ; 3 3 > 3 s B d ; K B N 1 s X O o o +   5 5 4 < O +         X o - 3 i g H ^  ...#. .I H | 0.9.0.0.=.*.=.#.$...] ^ ^ H z k p p p k J  .%.*.#.| p ; o i d I ^ ",
"| o.O.9.9.t.f.M.N.n.n.n.b.6.G 8 H *.d.m.d.l.n.z.C.n.n.l.l.n.n.n.j.b.m.m.Z.m.r.O. .| ^ I L I I I g 8 ..*.] I @ ; 0 ; 8 x s.A.v.@.^ I.$X1X%X3X=X=X3X;X@XQ...r.l. .I ^ | | | o.| X.O.| O.9.9.t.O.g a @.z.A._.S._.)._._._._.|.|._.A.c.z.C.D.s.^ J o.e.i.u.i.w.M.b.b.M.M.N.N.M.M.N.N.N.N.L.L.L.I.Y.Q.E.E.I.I.I.Y.I.I.I.L.P.L.K.K.M.u.3.| L G K L Y R E ( ( ( ( R R R R R R ( ( R L L L L R E ( E R R K 3 - #   O o < 3 <   - s -   o 3 d G I ^ | ] ^ ] ] ] ^ I z a a G G g . - s K ( 5.R 9 & 3 ( 2.O.3.O.| L o s B 3 Z X.o.o.2.3.4.3.3.3.3.3.6.6.O.X.X.X.O.( X.L - i L L i d 0.I.W.Q.Y.B.M.f.f.f.r.9.e.9.b.O.H i g i O.O.@.9. . .p n.N.Z o   o @ o #.B...p b.I.].#X].#X#X3X%XQ.O.@ > 6.f.M.e.O.X./ L G G g g K I L i > O.n.Z.Z.T.T.D.D.T.T.T.R.T.Z.m.q.{ ..*. .9 R ( o.X.X.X.X.o.3.o.o.o.X.X.X.o.X.X.( R R R L L L K A Z K L Y R R R R R R R Y L K A A B V K A V B A V V M 0 2 < < < 1 ; # o o o - ; ; ; ; 3 4 4 9 i 3 d d ( ( 3 @ o .   O o O + O 5 4 < O +           o - 4 d G ^ [  ...*.9.@.^ | #.0.0.0.*.*.0.=.#.@.[ ^ ^ H g p i 9 i k I ..*.*.#.I i o ; d L L I ",
"| X.O.3.9.9.t.r.M.N.B.m.d.O.L 8 G 9.n.l.d.d.z.C.m.z.d.d.l.n.n.n.m.m.m.Z.Z.m.d. .9.I G G I / | L g i  .=.%.k 9 d 0 d t y =.).x...9.I.#X,X6X3X=X3X;X3X@Xm...m.d.J H ^ | | | o.o.O.O.9.r.f.M.f.O.p x @.s.x.C.A.F.).).).)._._._.F.C.v.G.G.s.^ I 6.r.i.i.i.u.w.w.u.p.g.g.p.i.r.i.g.M.N.L.L.L.Y.W.W.Y.Y.I.I.I.Y.Y.E.E.U.I.L.L.K.K.M.g.w.o.R L K Z K L R R ( X.X.( E E R R ( X.( Y K K L Y Y R E R R Y N o ; O   o O s 1   o s s # o - i k L I | | | | [  .| ^ J k i i G L g o o s A R X.X.; > ; L R o.o.o./ Z ; 3 Z - Z ( X.X.5.2.6.4.3.3.6.6.3.3.X.| X.X.( | ( d o B R a 9 L f.W.I.I.N.M.f.f.f.r.r.e.e.9.r.9.I * O.; I *.#.#.O.^ 9 r.M.L o @       G b.n.z 0.E.^.#X#X$X%X%X#X#Xr.3 o L f.r.9.3.| L / L G g B G L I g & ..l.Z.D.D.T.R.R.T.R.R.R.R.D.z.%.` ..#.^ > X.o.3.2.o.o.X.o.2.3.5.o.X.X.( ( ( ( ( E R R L L K K K Z V Z K L R R T E R T U K K K V A K K V C B V K K V M s 4 < - ; ; - o o o - ; 1 3 3 1 > 4 i s 9 9 3 R M . d 3 + + + +     O < 4 % o X X X   X o . @ 9 Z J ] [ #.%.9.9.9.O.o.| 0.=.*.=.=.=.*.%.#. .I H k i > > 8 8 k ^  .#.*.| k ; - i B L I I ",
"| | o.O.6.9.r.f.b.N.B.m.b.9./ i a ..r.*.=.l.l.q.s.s.d.l.n.m.m.m.Z.D.Z.D.Z.n.0.^ 9.| G G | O./ H g d [ =.-.j k g g d a j } A.x.%.9.L.#X,X6X3X;X3X;X$XR.l.=.D.=.z G I / / | o.3.9.r.M.N.N.N.M.O.a x @.>.k.x.x.A.S.).). X X_.G.F.R.XXA.=.` J | 9.e.i.i.u.u.w.w.9.9.w.w.w.e.i.g.M.N.N.L.E.Q.Q.E.Y.L.L.L.L.L.I.I.Y.E.E.E.I.L.L.K.N.M.i.3.( L K Z Z K K R ( X.X.X.( ( ( ( ( X.( Y K A K Y Y Y L L K A s o 3 - X o 4 m O . 1 M 0 o o 3 d z J I | | ^ ] ] [ ^ ~ J k i i z L g o o 0 B Y ( R 9 - > Z ( ( | | R Z ; 9 Z - B ( X.X.5.3.6.3.3.3.3.6.6.3.o.X.X.X.| | R d o d G i > I d.N.M.f.r.r.e.r.r.e.e.e.9.6.9.#./ * #.9.i O.9.@.#.| p O.M.R - @ . . o 8 l.Z.I ..B.E.OX#X#X$X$X#XOXr.9 > i 6.6.O.| R G G Z B d g Z L L d & ..l.D.D.T.T.R.R.R.R.R.R.R.D.k.@...#.*.g g o.o.3.3.3.5.5.2.3.4.4.3.5.X.X.X.X.X.X.( E R R L L K K A V V Z K R R T T T T U U U U A A A V V B V K K K K B m s 4 1 ; ; % o o o - - ; 1 1 1 ; 3 9 9 > > d 3 ; 1 B s O + +     X % 2 < O O o . X   . o o ; 9 a G ^ ....%.=.0.0.*.../ ..*.0.0.=.0.=.%.@. .I G g i ; & & > G ^ ] ..O.| i & ; g G L I I ",
"/ | o.3.9.e.f.M.n.m.m.B.n.r.O.G g k  .....q.q.-.q.s.z.n.m.m.Z.Z.T.T.Y.Y.Z.b.0.^ ^ L p G o.6.I I G z ` -.j.j J G H k k j ` z.z...6.M.Q.$X1X1X=X=X=X.XD.l.d.Z. .k H / | | O.6.e.M.B.I.Y.I.Z.b.O.k x @.-.s.j.j.x.v.S.). X).A.C.R.XXF.%.x z I O.9.6.7.7.w.7.4.3.o.o.o.o.3.w.i.M.N.L.E.E.E.^.Q.I.M.b.b.M.M.N.L.I.E.E.E.E.I.L.L.L.L.K.M.w.X.R K Z B B Z L ( X.X.X.X.( X.X.X.X.E Y K K K Y Y K K K V M - - s o o ; V 3   # s B ; . - d a G I ^ ] ] ^ ^ ^ | ^ I I g i i g G g o . 3 m K R L i > > g ( R I R L Z ; 9 Z ; g R X.X.o.5.3.3.o.o.3.3.3.3.o.o.X.X.X.X.R d o i g > @ I 9.e.e.e.e.e.e.e.e.9.6.9.6.9.3.9.O.> G #.& o.d.#.6.O.Z J n.o.> ; # . @ . O.D.=.G r.Y.^.OX^.#X$XOXQ.M.i Z ; / | R L L G B g g d g Z L L g & ..l.D.F.F.R.R._.R.R.R.R.R.C.s.{ @.q.#.8 / 3.3.6.4.3.3.3.3.4.7.7.6.3.5.o.X.X.X.X.| ( R R R R Y L K A V A K Y R T R U U U U U K K V V V V B V A K L L A V N s 4 1 ; - o o o & - - 1 1 1 1 3 3 3 3 3 - s o Z Y 4 O O       o - < O o ; - o .   . @ ; 9 a a k I ..O.*.=.9.0.0.#.| ^ #.0.0.0.0.0.#.@...I Z d > & o @ > Z ^  .#.O.L > ; i G L L I I ",
"| o.O.9.e.r.M.B.Z.Y.Z.Z.m.b.0.^ g > G ] ] @.&.s.l.z.n.m.m.C.Z.T.W.R.T.T.Z.n.d.O.g i 8 H O.9.o.O.^ J [ -.x.x ~ ^ J H H a x =.9.^ X.i.Y.OX#X$X$X$X+XQ.l.z.n.d.^ z ^ o.O.#.9.r.N.I.Y.W.Q.W.E.n.| a x ..&.-.>.>.k.k.v.A.S.v.C.D.F.m. .J G I | o.O.o.X.o.3.3.5.o.X.X.X.X.5.w.g.N.L.E.W.W.W.E.M.e.9.9.w.r.g.M.L.I.E.E.E.E.Y.I.I.I.I.L.N.i.3.( L Z B B B K R ( X.X.X.( ( ( ( E R Y L K K Y Y K A A N 0 o s s o - s V o . 0 K M @ o > g z J I ^ | ^ ~ ^ ^ ^ ^ I L a 9 8 g G d o . 1 s A Y L 3 i & d L L L L L Z ; 9 Z ; d L ( | X.X.5.o.X.o.o.O.3.3.O.o.o.X.o.o.R B @ > d > o G o.O.9.9.e.e.e.9.9.6.6.9.9.i.r.i.b.| i > @ ^ n.b.b.e.| d b.9.9 9 1 o o . g m.b.g 9.B.E.^.Q.#X#X].Q.M.i | > G L L L L Z g g g d B Z L I k & ..l.D.F.F.R.T.R.G.R.R.R.G.C.s.{ ..q.[ i X.3.w.6.6.4.3.3.3.4.7.6.4.3.5.o.X.X.X.X.X.| ( ( E E R R R L K A A K Y T R Y U U U K K K V B C B B V K L L L K K V N s s 4 ; - o & - - ; 1 3 3 3 3 3 3 9 ; - R - K Y - O +       O - - o - 9 3 @ o o - ; 8 a k z z J  .#.*.*.*.9.r.9.O.~ ..*.0.0.*.#.$... .I g > & o   @ 8 H ..*.0. .k > 9 B L L L I | ",
"X.O.9.r.f.M.N.B.Y.E.Y.Y.B.n.d. .p & a J ^ %.-.s.k.z.z.m.m.Z.Y.W.E.R.W.W.Z.m.n.0.G i i G 6.r.f.e.e.| ..-.x.! ~ [ ~ ~ x p k I L L R 9.B.Q.^.Q.`..X`.Z.#.Z.T.@.J J | O.9.9.f.N.I.W.].].#X].Q.b.L i z [ @.&.;.;.s.s.j.>.s.s.C.n.=.I I R X.O.X.| X.| X.o.3.3.o.o.o.5.5.5.6.u.b.N.I.E.I.E.Y.i.X.L R o.3.9.r.b.N.I.I.I.E.E.E.Y.Y.Y.U.P.L.b.w.X.L B d d N V K Y R ( X.X.( ( R Y Y Y Y Y K K K A B B 0 1 o B 1 - s V 3   1 N K s o & i g H J I ^ ] ^ ~ ^ / / I I G d > > a G i . . 1 0 V K K 3 d - 9 L L L L L Z > 3 Z > 9 L R ( X.X.o.X.o.o.o.O.3.3.O.o.3.o.3.3.| Z @ > g i o p ^ O.e.9.e.9.9.9.9.9.e.f.M.L.Y.E.Q.L.I * o g N.Q.].Y.f.d 0.d.9 9 0 < o # ; e.n.a O.i.L.~.W.].].Q.W.b.d O.d a k k Z Z g g B B s N V G L k & ..l.D.F.F.R.R.R.G.G.G.G.F.x.-.@.%.s.z G o.3.y.7.6.6.3.3.3.3.6.3.3.3.o.X.X.X.X.X.X.| ( ( ( ( ( ( ( R Y A V V A K L U Y L K K K K V C C C C V A K K K K K K V N m s 4 < ; ; 1 < 1 1 3 3 9 9 9 3 3 - L s # N C 1 o       o - # o & 3 B d ; ; ; i i a k H I I I ~ ..#.9.*.9.q.0.#.^ ] ..*.=.#..... .] G i @ X X X @ d  .9.9.#.^ d 9 d G I I I ^ | ",
"O.9.r.f.M.N.B.I.Y.W.Y.Z.m.n.d. .i o i ] $.=.s.s.k.z.z.m.C.Z.Z.Y.Y.W.W.W.Y.m.B.e.| g d a | f.Y.M.Z.0.%.-.x.' ~ ..| G i t G L m V L X.M.E.W.W.Q.Q.T.b.0.R.C.k H  .O.9.r.f.B.I.W.Q.#X$X%X#XQ.d.Z i k ` [ @.@.%.;.;.&.} =.=.q.] J G X.2.9.4.O.X.X.R X.o.3.3.3.3.6.7.w.w.i.g.N.L.L.I.L.M.6.L d d Z L o.9.r.b.N.I.I.I.E.E.E.E.Y.I.I.L.L.M.r.o.L B s s d d B Z K R ( X.( ( R Y L Y Y Y K K V B M s 1 o ; s o s A m o o M A B ; o ; d k I I I ^ ] ^ ~ ^ ^ ^ I L G i > > g B 9   . 1 0 N A B 3 i i & G G L G G Z > 3 Z 3 3 G R ( ( X.o.X.o.o.O.3.3.3.3.3.3.3.3.6.X.Z @ 9 G G ; > I #.e.9.e.0.9.9.9.r.M.N.E.Q.#X%X$X].9.g & i 6.].1X%X].O.^ l.a ; 4 4 # # o L O.; G O.g.U.Y.E.W.W.Y.r.k 9.G i a a Z g B Z Z B M B V Z K g * #.l.D.G.R.R.R.R.G.R.G.F.S.x.-.%.s.=.p | 3.w.w.w.w.w.6.3.3.6.w.6.6.6.3.X.| ( ( | | | | ( ( X.X.X.X.( R K B M M C V K L L K K K K V C C C C B V K K K K L L K V B N s 4 4 4 4 4 3 0 0 s d d s 9 ; Z B   . d s - X     o - - @ o 3 g L g 9 9 i Z k z H ^ | | ^ I ^ ..#.*.*.0.9.#. .^ ] ..#.$.....^ L g > o   X o > H @.q.0...G 9 9 g K I ( / | O.",
"9.e.f.M.M.N.I.E.Y.W.Y.Z.m.b.9.L ; & g #.0.=.s.k.k.z.m.C.Z.D.Y.T.W.Q.W.E.Z.m.N.r.O.L a d ^ e.B.B.Q.I.=.>.c.} @...^ k p G R R V m V L 9.N.I.Y.W.D.b.l.m.Z...p J 6.q.b.B.Y.Q.Q.].#X$X%X3X$XW.e.a p k ~ ~ ' { } @.} { ' @.[  .J  .O.9.w.u.u.u.w.w.O.O.O.O.6.w.e.i.i.i.M.K.L.L.L.M.i.w.X.Z s 9 9 i g ( O.e.f.N.I.E.E.E.E.E.Y.I.I.I.P.L.N.i.3.E A M s s s s s B A Y R R R Y K K K K A A B M s 0 ; o o - & o N B < . 4 A V s - @ 9 Z G ^ I J I ] ] ~ ^ I I L H g 8 ; 9 Z g >   . 2 0 M V g ; i g @ g Z G Z Z B ; 3 Z 9 - B L R ( X.o.o.3.O.O.3.3.6.6.6.3.9.9.6.X.g o g I I i & I #.e.e.r.e.e.r.f.M.I.W.OX#X%X6X%XOXr.L > 9 G b.$X1X6XY.J q.L 1 m 5 < , . 3 9 o ; G 3.g.M.N.B.B.n.O.G 0.G i g g Z Z K K K K A L L L L Z = #.l.F.G.G.R.R._.G.G.G.S.C.k.=.-.j.` z O.9.y.w.e.e.e.w.6.6.6.w.6.9.6.3.o.X.( ( | X.| X.| ( X.X.X.X.X.E Y A N M s N B F K K K K V V N N N m N V K K K K U U U K A V C m m C C m M M B A K A d 9 i K o   . s s o X   X O - @ & > g G I a i d k H J J ^ ]  . .| / I /  .O.#.#.#.#...| ^ ] .... . .I k 9 & X   X < g ^ #.0.*.] a ; d G L R X.X.o.O.",
"e.r.b.M.N.B.Y.W.W.Q.W.Y.n.d.O.g o i I #.#.=.z.z.k.z.m.C.D.T._..X.X`.W.Y.m.m.m.d.6.| k G ^ o.0.Y.`.`.=.>.c.;.s.#.k Z | o.| X.E V s B o.f.N.B.Z.n.9.q.Z.9.a k | #.B.W.OX#X$X$X$X$X1X3X8X$XY.9.p a k ^ ~ ^ [ { { { ~ ` [ H ..0.b.r.u.i.M.N.M.p.p.u.9.9.9.e.i.M.M.M.M.L.I.I.I.L.i.O.Z B G G g 9 > i L | 6.r.M.L.E.E.E.E.E.I.I.Y.E.E.I.N.g.w.X.Y Z N s 0 9 9 s M V A A A A V A A V N m 0 0 3 ; o X . o   & s s o - C K B 9 & & i H I ^ J J J ] ] ^ ^ H J H G a > ; i G Z 3   o 3 0 M B B @ g d & i B B g g g ; 3 K s @ d K R ( X.o.o.O.2.O.3.3.6.6.6.3.w.w.6.X.d o G / ^ a o L O.9.r.e.e.r.M.B.E.].#X<X,X$X,X3X$XM.I ; > > O.].,X,XOX .0. .s A < 2 < - @ o   o 9 Y 4.e.r.f.M.r.^ G q.z t G g Z G I L R R R ( ( ( / L = %.l.D.F.G.G.G._.G.G.F.C.x.j.%.s.-.a ` O.w.u.i.u.r.e.w.6.6.9.w.6.6.6.3.o.X.X.X.X.X.X.X.| ( ( X.X.X.X.E R K B M s s N B V G V V V V N N m s N V K K K K K U U K K A V B V K A V K K K Y R L g 3 K @ o o o 1 3 o X X o - @ o ; d L L L d i k G J J ^ ^ ^ ^ ^ | | I ^ ^  . ...O.#... .^ ~ ]  .^ ~ L d ; @ X   o 1 G  .0.0.O.H i > Z R R R X.o.O.9.",
"r.b.N.B.I.W.Q.Q.`.W.Y.Z.n.q.^ 8 & d ^ #.=.-.j.z.m.C.Z.F.R.`.|.|..XQ.T.B.B.B.m.l.d.] ~ J k J #.R.XX_.z.%.C.=.n.#.o.9.9.2.X.X.3.X.K g L o.r.q.0...q.Z.q.k p H O.n.W.OX$X3X6X6X1X#X%X8X4XOXB.| d Z g G J J ^ ^ ` ^ J J ^  .B.I.L.N.i.p.N.I.I.N.N.L.M.M.g.i.g.N.K.N.L.P.I.I.L.g.o.Z p I  .I k p 8 * d L 3.w.M.L.P.I.P.U.E.U.U.U.E.U.L.K.M.u.3.( K Z d 9 1 3 4 3 9 s s s 0 m M m s 0 3 - - - - - - - o   1 s @ . s K K B - o ; g G I ~ H H ~ ^ ^ I I I G k k d - & i Z B - X o - 3 d B d - i d - 9 g B B g d 3 ; K s - d K L / X.o.o.3.2.O.O.3.6.w.w.6.w.3.6.R d o G I / d @ | o.t.e.r.M.B.E.Q.^.#X$X<X<X1X3X,X$XI.O.> 9 i g i.#X%X#Xq.I b.g 3.0 0 ; @ o o   X o m R 5.O.9.e.6.d | 9.p g z G G I | o.O.3.3.3.6.9.6./ 8 | d.m.S.G.G.G.).)._.F.A.c.=.s.l.[ k O.O.r.i.i.u.e.w.w.w.6.w.w.6.6.3.O.o.X.X.o.o.X.X.X.X.X.X.X.X.X.X._ E R K N m s s s M C V V V C m M C C C V K K K K K L L K K V V K K K K U R K E R X.V 3 s ; O o o O s o   - o o - o @ i G L I G d i Z L I ^ ]  .] J I ^ ] ^ I I ^ | |  .O. .] ` ^ ^ ^ I L g 9 & o     - d ^ #.%.#.^ a > d G I X.o.3.6.e.r.",
"b.N.B.Y.W.Q.Q.Q.`.W.Y.Z.b.9.H ; ; d ^ #.%.=.>.z.z.C.T._.XXXXXXXX_.R.T.D.B.m.n.m.d.#.~ z H H $.C._.F.z.=.m.*. .N.I.M.w.2.X.4.p.u.3.L / | .. .@.q.D.Z...p a ] s.Z.^.$X,X6X8X9X3X$X%X3X%XW.r.I d B g G L I I I J J J H O.r.B.I.E.L.N.N.N.I.Y.Y.I.I.L.P.L.N.p.i.M.L.K.K.L.N.e.| L L ..=.9...I z t & > B ( 3.u.M.K.L.U.E.E.E.U.U.U.I.L.K.M.i.w.o.E L V s 3 1 3 3 3 9 1 < < 2 2 1 - # # O - 3 9 0 0 3 o X ; - o 3 C K V s & @ 3 g H I H H H J ^ ~ J I I G k g i & & 9 Z B @   o - 3 s d d - 9 d ; 3 d B B B g 3 - Z d @ 9 G R ( X.X.X.O.O.2.2.4.4.6.6.4.w.7.O.L ; & L / / k o I O.w.f.M.L.W.].OX#X$X$X,X<X<X%X%X%XE.9.d > d ; R B.OX`.b.G O.Z f.o.Z s - @ - 3 #   # B R o.6.o.| i q...t g H I I | O.9.r.f.f.M.M.M.f.6.i ^ *.s.x.A.S.G.G.)._.).A.k.j.C.j.^ I O.9.i.i.p.u.u.u.e.w.6.3.6.O.O.O.O.o.X.X.o.o.X.X.X.X.X.X.X.X.X.X.X.X.E L F m s 4 s s m M C C m m m M N B V V V G G K L L K K K F K K L L R T R E R L 4 1 1 - O o O 4 1 X   3 # # @ @ > B K I I G i i g L I ^  . .I G G J ] | I H L I ^ / | ] ] ` ^ I I L Z s - . X X . ; d ] @.=.] J 8 i Z I | 3.6.9.w.r.f.",
"B.Y.W.Q.Q.^.].Q.Q.W.Y.B.f.#.Z * & s ~ $.%.-.j.x.m.D.`.XX+XXXXX|._.R.T.T.D.B.Z.D.l.0.H a ^ J [ q.j.x.s.=.*.k N.$X^.N.e.9.4.i.E.L.w./ ..O.#.#.s.D.`.q.k y H 9.m.Q.#X3X6X0XrX8X6X$X#X$XQ.b.o.G d g Z G H H H H H H H ~ r.Y.I.B.E.I.Y.B.N.L.E.W.E.Y.E.I.I.I.N.g.p.g.M.B.M.3.L H | #.n.n.d.q.%.] a * & 9 Z E 2.w.p.M.P.U.E.U.I.I.I.P.N.N.M.g.u.w.5.X.R A s 3 3 3 1 ; # # # # # # o o # - 0 B Z K B s o o ; X o V Z K M ; o & 9 g H I k k H I I J J J J G g p > @ @ 9 A N o   o - 4 9 s s & 4 B > - s d B B B 9 - B B - 3 Z ( ( X.o.X.X.X.2.3.3.3.4.3.4.3.6.| G o 9 I | / Z o L 6.9.N.Y.W.].#X#X#X#X<X,X<X,X%X$X$XW.w.g > L - d O.M.r./ 9 i i r.i.( g 3 @ - K B 2 O 0 g g L g 9 ..*.^ i k I ]  .6.e.g.N.I.I.Y.Y.I.B.e.d H ] @.-.j.x.A.G.)._._.A.x.C.A.0.x | | w.e.e.i.w.w.w.w.6.3.o.o.X.X.o.o.o.o.o.o.o.X.X.X._ _ X.X.X.X.X.X.X._ R L C s 4 4 4 0 s s m s s s m m N V V V V V K K K K L K F K K L R R R E R T N - 1 o - O o < V O X O M 1 @ o @ s L L I L Z i i g L I I ] ] J g a G ^  .^ G G L I ^ ^  .] ^ J J H g 9 - o . o o & 9 G  .#.#.~ i 9 g I o.6.w.r.i.g.M.N.",
"Y.E.Q.Q.^.^.].Q.Q.W.I.N.q.o.k * @ 9 J ..%.=.j.x.D.R..XXXXXXX|.|._.T.D.T.T.T.T.F.n.*.x a [ ~ [ [ =.C.C.n.H ] n.$X#XI.M.M.M.L.^.Y.f.0.#.6.d.D.`.`.l.H t H #.d.Y.OX,X6X8X0X8X7X3X$X`.W.Y.q.L g B g Z G G G G G H H H O.m.Q.Y.B.L.I.I.L.N.N.L.I.E.Y.I.L.L.I.I.L.M.i.i.9./ G L #.d.m.n.n.d.d.d.%.J p ; 1 s A R o.w.e.M.N.L.L.L.L.K.N.M.g.g.i.i.e.7.3.2.X.Y B s 0 3 ; - - - < - # - - 0 M K T R E K 0 - o - - s K Z Z s # o ; i Z L G a k H I J H H J H G a 9 - o @ i Z d o   @ 1 9 3 9 s @ 3 G 9 & 9 d d B B 9 & s Z ; ; B ( ( ( o.o.X.O.3.4.6.6.6.6.6.3.O.I g o d R | | g @ L 6.r.B.W.Q.#X#XOXOXOX#X#X#X,X,X$X$XW.r.L o s 3 L g I | r.6.i i O.N.g.R B s B 7.7.U 3 1 9 > > > H 9.9.p g G ^  .O.r.N.I.W.^.].OX].Q.Y.f.g g H ] %.-.>.k.C.F.F.G.A.C.R.m. .k ^ I 3.3.7.w.w.6.3.O.o.X.X.X.X.o.O.3.3.3.6.3.5.( E E E E _ _ X.X.X.X._ _ R R K B s 4 4 3 3 4 0 s s s s s s M N V V V G K K K K F V F K L L R R T T K 1 ; 4 o - O o 3 s X o 3 A 1 o o - B I L I L g i i g G H I ^ I z a p G ^  .] L G H I ^ ^ ] ] ^ J L G i @ o o - ; - ; d R  .@.] H ; i L o.6.e.g.M.M.N.L.I.",
"E.E.^.Q.^.^.^.^.^.E.B.M.9.X.Z ; & 9 G ] ..%.s.l.D.R.|..X|.|.`.|.R.R.T.D.T.R.F.m.l...~ ~ @.~ @.~ z.R.R.q.*.O.N.#X^.Y.I.Q.].#X%X^.I.b.o.0.Y.OXOXl.H t g #.n.Z.OX1X6X8X8X8X7X3X=X#XW.Z.M.#.G g Z g Z G G G G G H J ^ n.Q.Q.W.B.M.L.N.L.L.N.M.N.L.E.I.Y.I.L.L.L.N.b.3.G i G #.d.n.C.n.z.l.z.l.q...I g 9 s V L X.3.6.e.i.M.N.N.M.M.g.g.i.i.u.u.e.w.7.6.6.2.( K V d s 3 3 0 0 0 4 s m K T X.X.X.X.K 9 ; 1 ; s A A Z d 3 o o ; i G L a a k H I H G G H H G d > @ . @ s Z s o . - 3 s 9 3 9 @ ; K d & > s d d d s - 3 B ; @ i L R ( X.X.O.3.3.9.9.9.w.w.9.3.X.L 3 @ Z | o.o.9 ; I O.b.L.^.].#X#XOXOXOXOX#X#X$X$X$X$XW.e.g d G s I d 6.Y.E.L.K 3 R M.e.( 5.3.i.N.N.3.A 3 @ & > G 0.r.] p G I | #.e.N.E.^.].#X#X$X$X].W.g.g i p H [ ..%.=.q.C.D.D.C.D.T.d.H z G I ( ( X.X.o.X.X.| ( ( ( X.o.3.4.6.w.w.w.7.X.R Y R U R E E X.X.X._ E E E R T K C m 4 3 1 1 3 3 4 s s s s s M C C C V K K K V V V A K K L U R K T s % 3 1 o o o O s o   - 4 B # . - s K R L L G a i i d Z G ^ I G a t i k I  .] J z k G I I I ] | I G d ; o o - 9 9 ; ; g I ] I J 8 8 d | 6.r.b.N.L.L.I.E.E.",
"E.Q.^.^.^.^.^.^.Q.Y.N.f.9.o.G i ; > d G ` @.s.z.F.R.|.|.`._._.R.T.`._.F.D.D.C.z.-.` ..%.@.' =.[ q.D.n.Q.0.o.N.W.Y.Q.#X$X#XQ.Q.W.n.9.^ n.`.Q.d.z = g ..l.Z..X1X1X8X0X8X8X7X3X%X].Y.M.0. .G Z G Z G G L L G G H J #.R.`.Q.W.I.f.M.M.N.L.N.M.M.N.I.Y.Y.I.L.I.L.M.w.L G H  .#.*.q.z.n.n.n.n.n.d.q.*./ B M L ( 5.6.4.w.u.g.M.M.g.i.u.u.u.e.e.u.e.w.w.6.6.6.5.( L K K A A K K A A K R X.X.3.3.2.X.L 0 ; s 1 s B B A 9 @ o o ; d G Z p d k J I H G z G G G d ; o . - s Z 3 X . - 3 s s 3 3 @ - Z B - - i s d s d - - d ; @ > Z R | X.o.O.3.3.3.6.6.9.w.6.3.I d @ ; G o.O.| ; i I O.N.Y.Q.^.].OXOXOXOX#X#XOX#X$X$XOXM.L G 3.X.g g @ G i.W.N.3.9 B o.( 6.M.K.E.E.W.M.X.s ; p | d.d.q.p k z I o.e.M.Y.^.].#X$X$X,X%X#XE.i.g 9 > p z J [ ..&.s.s.s.z.m.d.] k G B L L Y R R R R R R R R ( X.2.6.w.w.w.w.7.3.R A B A V K U R X.X.X.E E E E E R Y K C s 3 < < ; ; 1 3 4 4 0 s s s m m C V V V C C C V K K K K K N V 3 o e 1 o o - 4 s   X 1 4 s . . s K L I L G g i 8 8 i g G I z i * * > a G I I H k a G I ^ |  ./ Z > @ & ; 9 s d s 3 3 d G L G p > 9 Z o.9.g.N.P.I.I.E.E.E.",
"E.E././.^.^.^.^.E.L.N.f.9.O.R G 9 9 8 i z  .q.m.F.R._._.R.R.R.F.R._.R.F.A.C.z.s.%.~ { @.' %.s.%.] *.%X%Xb.3.f.f.Q.%X1X$XQ.B.N.b.0.^ I r.b.9.z 8 a  .b.Y.Q.%X7X3XrXyX8X7X6X,X$XW.B.0. .^ L H L H G L I I L H ~  .n.`.`.Q.W.Y.b.g.g.g.N.K.M.b.M.N.L.B.B.L.L.M.9.| I #.r.*. ...#.=.d.z.m.m.m.n.d.0.X.Z K X.4.w.e.w.w.u.g.M.M.M.g.i.i.i.g.g.g.i.i.u.e.w.w.6.o.( R E X.X.5.5.X.( X.5.3.3.6.6.3.X.Z 1 ; 4 ; 1 s d M ; o . o > Z Z d 9 a G I I G k k k G G d - .   & d N -   @ 1 3 s d 9 9 - & d B > @ 3 s d 9 d - @ 9 3 & & s K ( X.O.O.O.O.3.3.3.3.3.X./ B ; @ a I O. .G - Z | e.I.Y.Q.Q.^.].#X#XOX{.#X#X$X#XW.N.o.9 L d - Z o.d 9 O.L.N.6.i d d | N.E.E.E.E.W.I.6.g | r.n.n.r.p a p G ^ #.r.B.W.#X$X1X3X1X3X1X#XE.w.d - & > i a H J ....[ [ =.0.] z G H L I L R K Y L L L R ( ( X.X.4.w.e.w.w.7.X.R M 3 1 4 s M A K R E X._ E E E E R T U K B s 3 3 < - - < 1 3 4 0 4 4 s s m m M m s s s m C C C N s s e ; o s s - 3 m K s o - 4 s 4 o o d K L L L g d 8 > > 8 d Z Z i ; & & * i g G L L G g G I I / L d > @ @ 3 B G Z B d > > i d g g * ; 3 L ( 9.i.b.N.L.K.L.Y.E.",
"E.E././.^.^.Q.W.Y.L.B.b.e.O.| L Z d > > p ^ =.l.Z.D.F.F.F.R.R.R._.T.Z.A.D.C.j.=.%.~ ~ ~ ~ -.j.q.k B.$X#XN.f.W.B.$X1XQ.Y.Q.Q.W.Y.b.^ H H a p & i  .q.Y.OX%X3X7X8X0XyX7X6X3X%XOXY.f.O.I L I I I I I R / I L I  .9.R.`.`.OXQ.Q.N.f.i.i.p.M.N.b.i.i.b.M.B.B.f.3.| / 6.0.q.0.=.#...[ %.s.z.m.C.C.l.9.| Z L 6.u.u.i.e.w.u.g.M.M.N.M.M.M.M.K.L.L.N.M.M.N.g.i.e.6.X.X.X.5.7.w.7.5.X.X.5.7.7.6.6.o.L 0 o - o - - 3 s 3 @ . . o 9 G g > > a G I I G k a a g B i &     @ s s # . 1 s 9 s s d 9 - @ s B 3 @ 3 s d 9 d ; @ 9 s - o - B L | O.3.3.3.3.6.3.3.o.I Z 9 o > I |  .I i - L O.M.I.E.W.Q./.].#X#X{.^.].#X#XE.f.9.R 9 - .   d X.L > L w.K.9.( w.L N.E.Q.^.E.W.L.N.o.B 9.0.r.O.a > i a I  .e.M.I.].,X1X3X3X1X1X,X^.N.X.9 @ o & ; i g k x H ] ^ ] ] H | I I o.( ( X.L R E R R ( | X.o.3.w.e.i.u.w.2.R B 1 o o - 1 0 M V K R E E E E E E R T T T K C s 4 3 < - - - < 1 3 3 4 4 4 0 s 0 4 3 3 3 4 s s s s 1 s ; ; - s F 3 C L E 3 - 3 s s s O @ s Z G G G i 9 > > > 8 i g i > - & ; > i a G L I G G G G Z d > @ & > i Z L R L G d ; & > i d 3 & o i Z R O.3.w.i.b.M.M.N.K.",
"L.U.E.E.E.E.E.E.L.I.M.M.r.9.9.X.| g 9 @ > G O.q.m.D.F.F.F.F.R.`.`.D.C.C.C.j.s.-.-.@.@.` ` %.s...b.B.#X].r.b.O.I.].Y.B.W.OX`.D.b.O.] z p t i H  .b.Y.$X=X3X7X8X8X0X8X8X3X,X$XQ.M.O.| G L | ^ | | / / | | I ^ 0.Z.OXOXOXOX`.W.B.M.i.e.i.f.g.N.N.g.e.r.f.d.6.^ | 0.e.0.0.*.#.#.=.-.&.=.q.s.d.d.l.9.G R 2.u.M.M.g.i.w.e.u.i.M.N.K.L.L.L.P.P.L.L.K.K.K.K.N.g.w.3.X.X.3.6.w.3.X.X.o.3.w.w.7.3.Y 0 - - 4 < o % ; ; - @ o X & g g ; & ; Z G H H G k g d g B 3 o     ; s s o @ 3 4 s s 0 d d 3   3 g s @ ; d d i 4 > & & s 1 o o i L | X.3.4.4.3.3.3.X.R G 9 & > G | | / i > d | r.B.W.W.Q.Q.^.].^.^.^.OX$X].W.b.9.9.3.R V ; . ; ( o.g i ( w.Y L ; Z N.N.W.W.Y.E.b.3.L * Z a t > i g G I | 9.M.I.Q.#X1X6X7X7X7X3X,X^.i.R 3 o   . @ ; 3 i a k k z I d O.O.t.e.9.6.6.3.5.5.X.X.X.3.3.6.w.w.i.e.g.u.6.( K 3 - # .   o ; 3 s N K R R E E E T R R T T U K B s 3 < - - - - ; < 3 3 4 4 4 4 3 3 2 2 3 3 3 3 4 4 3 s 4 ; 4 V V 4 V E K 3 4 m s m 4 o o ; 1 i d 3 > > ; - > 9 i d > ; - - 3 d B g I I L g 9 > > > @ o & s B Z K R / I G i - o - > 4 - o o - i B L L R | O.9.r.M.M.",
"g.M.N.N.L.L.I.I.Y.N.L.M.r.i.9.9.6.I g 9 > g I 0.l.C.F.F.G.G.R.R.R.D.C.C.x.s.>.s.-.z.@.%.`  ...|.`.N.N.L.Y.e.w.O.I.].OXQ.W.Z.t...| |  .....O.9.b.W.#X3X4X8XrXrXrXrX8X7X3X%X#XY.r.I L a L  .|  .| | o.o.| / O.n.`.$XOXOXOX`.W.Z.m.g.f.g.M.M.N.B.N.f.9.9.| L o.r.0.0.O.] ^ ..=.s.s.s.s.q.=.*.#.#.| K ( 7.M.L.L.N.M.e.w.w.w.e.p.M.K.L.I.U.U.I.L.K.K.K.K.N.M.i.w.6.3.o.3.4.3.5.o.3.w.e.w.2.Y M 3 4 s m 4 - o ; 9 3 - o o ; d 9 @ o > Z G H H G g d d d g 3 o   . 3 d 4 o - 4 9 s s 0 s d 3 o ; d d & & 4 i 3 3 > & o ; > - o & 3 V E _ X.O.X.X.R K g > o @ g | | G a ; 9 L 9.N.Y.E.W.Q.^.].].OX^.OXOX#XE.N.r.9.r.r.3.A - X - E w.I > B s R K ; Z w.N.L.E.L.L.9.R G g i i a k J ^ | O.9.r.B.W.OX%X6X7X7X7X7X3X$XW.e.L 3 @     o @ - ; i t 8 H i / 9.r.M.M.b.g.p.i.u.e.w.w.w.w.e.e.e.i.i.M.i.i.E K 3 @ 3 9 > @ . . @ 1 s N K L R T T T T T T T R U K B s 4 1 < < - - ; < < 3 3 4 3 3 3 2 3 3 3 3 4 4 s 4 4 1 ; 1 s 4 ; K R s - 3 4 3 s 1 o . # - > s i d d d g L L G g 3 ; ; s B d s i s i 9 ; @ o o o @ - 9 B L L R R | R L s - o $ ; 1 ; o o @ & > i d g G G I X.6.9.",
"X.O.6.e.r.f.M.N.B.b.L.M.f.M.r.r.O.| L G d d g O.r.m.D.S.F.G.T.R.F.D.C.m.j.s.s.k.j.s.=.[ [ p m.@XOXY.].M.].f./ | M.Y.N.r.r.e.O.| ..0.m.W.W.Y.E.Q.%X3X8XrXrXyXyXrXyX8X4X=X$X].B.9.Z d i G  ...O. .O.O.O. .o.r.W.%X$X+XOXOX`.W.Y.B.N.N.B.m.N.m.B.B.n.b.| i G #.0.#.o.I k z ] 0.d.z.z.m.z.s.%. .~ i s L 7.N.E.E.L.K.M.i.w.6.6.w.g.M.K.L.I.U.I.P.L.P.I.L.K.M.g.i.w.w.3.3.7.w.w.3.6.w.7.5.L s 3 s V K V s ; o 3 B d > o & > > ; o @ i Z G G G Z g d i s s - .   o s B 1 o ; 9 0 s s s s s 9 @ @ 9 d - o 1 4 1 1 ; o X ; 4 4 - X X ; N B L L K Z M i 3   - d G G g > @ i L 6.f.B.Y.Y.Q.Q.^.].OXOXOXOX#XQ.N.r.r.f.B.M.w.B # . # K r.6.g o.d e.X.9 g | i.b.N.M.i.| Z G | O.9.6.O.O.3.9.e.b.B.W.].$X1X6X7X8X7X7X1X#XI.6.Z 1 @ .   X . o o - & > i d 3.M.N.I.L.L.N.K.N.N.N.g.g.g.g.i.i.i.i.i.g.g.o.R 9 > * d Z Z i & . . @ ; 9 M Z K U Y R T T T T T T U K C m 4 4 3 < - - - < < 3 3 3 3 < 2 3 3 3 3 3 3 4 s 4 e s V N s e C C - # 4 0 m C s - - 1 ; 1 d g g g Z L R I Z i ; ; ; 1 3 ; o o o o o X X X X   @ 9 B K L ( | I R R K s % X o ; ; ; ; ; ; - - ; ; > i i d k L I ",
"g G L I | #.w.t.r.M.b.N.b.i.b.r.9.9.O.| L g i I =.z.m.m.A.F.T.T.F.C.C.z.s.s.j.x.z.l.....a 9.OX@X$XI.I.E.I.9.6.| r.N.M.f.B.M.w.9.d.D.$X4X3X%X$X%X7X8XrXrXyXyXyXrX8X7X6X%X#XW.f.o.d 9 9 G | ..@.O.O.6.#.O.e.I.OX@X$X+XOX.XQ.W.T.D.Z.D.Y.Y.B.m.B.B.n.b.^ p I  .^ L Z B g G | *.s.l.z.C.C.n.d.*.^ i ; N X.u.M.K.L.L.N.g.w.3.5.3.w.u.g.M.K.L.L.L.P.I.U.L.K.M.M.p.u.e.w.6.w.u.e.6.o.5.E K s s N Y R R C s < - 9 K G i > i > & - @ & i k k G Z g d i 9 9 9 @     & g B - o 1 9 0 s s s s 9 9 - o 3 d ; o 1 4 1 < ; O X   - 3 3 < o o o o o o o . o o o s s B Z 8 o & d ^ 9.M.N.I.Y.Y.Q.Q.Q.^.].^.^.^.^.I.i.e.b.B.I.g.o.s #   # B 3.O.G L Z e.o.s 9 L O.9.i.9.O.L g G 3.N.B.N.b.r.t.i.M.I.E.].$X,X6X7X7X8X7X3X%XQ.b.X.B 1 - o .     X o o @ > & | e.N.E.E.Y.I.L.L.L.L.K.N.M.M.M.g.i.i.i.i.f.6./ g i 3 d G L H Z d > @ o o - 3 s M V K U Y R R R R R U K V C m s s 4 3 < < < < < < < - - - - < < < < < 1 s s V R X.R V s ; 1 X - m C K K s 3 3 3 < ; 1 1 > i d g d d i 3 4 s 1 o X X X     X . X   X . o ; d K L R X.X./ L L V e o X o - 1 1 9 d d i i i i i i i i i d a ",
"p a a k z J ^ | O.#.9.i.i.r.M.i.r.b.r.O.O.L Z H | =.j.z.m.D.F.F.Z.C.z.l.s.j.x.C.z.s.=.g ..Y.].$XI.Y.d.q.n.m.9.G O.b.B.B.L.p.w.u.B.Q.3XyXyX8X8X8XyXyXaXiXiXiXyXrX8X5X6X%XW.N.9./ d > i H  .O.#.#.*.9.9.0.m.OX=X@X+X+X.X`.Q.R.T.T.T.T.Q.W.D.Z.Z.m.b.O.|  .^ G a 8 9 s B L | 9.d.l.z.m.n.n.n.l.9.L d K X.3.7.u.g.N.M.g.e.7.3.3.3.6.w.i.g.M.N.K.L.P.L.N.M.g.g.p.u.w.6.3.3.6.6.( K Z s s s K X.X.( Y m s < - 9 K L g g B 9 & & & - i k k k g g d i 3 3 ; o   X ; N g - @ 3 9 9 s s d d 9 9 ; . ; d 1 o - 3 1 < < < -   X o - 3 3 2 < 1 1 1 < 3 9 s s s s > o o > G ^ O.f.B.I.W.W.E.W.W.Q.Q.^.^.^.Q.E.M.e.r.N.Y.I.e.R 4 o   - K L G d o 3 L X.g i d L / O.o.R Z Z L 9.N.E.W.Y.B.N.N.I.W.^.#X,X3X7X8X7X7X3X%X].N.6.L d 3 ; # o X   X X   o o s 4.N.P./.E.E.Y.I.L.L.L.L.K.N.N.M.b.g.g.i.f.r.| G d p d H I I H G G g > & o o # ; 3 s C V K K U K L U K K V V V V B C m s 4 3 1 < < ; - O O O # - < 3 0 s K L E X.X.R N 1 - 4 - 4 K Y T V 4 2 # - - - - o . @ ; > 3 3 s d s s 1 o   X X     o O X     o O s B L R ( X.X.| L K N 4 - o o - 3 9 s d g B g a G z k k k a a a ",
"k k k a a a k k L G / | | 9.9.r.9.r.r.w.e.( K g z ] %.q.z.C.Z.C.C.z.s.s.j.z.m.m.l.q.H ^ m.W.W.Y.n.`.m.k b.Z.I / 9.B.Y.N.M.i.u.p.L.^.6XaXiXiXyXyXpXiXpXpXpXpXyXrX8X4X3XOXI.r.O.I i ; d / O.#.*.*.9.9.0.b.Q.%X=X@X+X+X.X`.Q.R.T.T.R.R.Q.Q.T.T.D.m.0. .O.0. .i * & 1 3 s G | 9.s.l.l.z.l.n.n.b.r./ ( 5.w.w.w.w.w.w.w.w.w.6.4.3.o.X.o.2.6.w.i.g.M.N.M.g.i.e.w.w.4.2.X.( R ( R Z 0 3 3 s Z ( 5.X.Y A 0 1 o o ; d B g g B i - - ; 9 Z G z Z Z g d 9 3 ; - o . o 1 B s @ - 3 3 4 s s d d 9 3 ; . ; s 3 o o # - o o O o o X     . # 2 4 4 3 3 3 3 3 1 1 - o o > d G | e.r.n.I.Y.Q.^.Q.Q.W.Q.Q.Q.^.^.E.N.i.r.M.Y.E.B.7.K - .   1 N s d G ; > Z | g g - G G R ( L d Z R e.Y.].#X].^.W.W.^.OX$X,X3X6X8X8X7X7X=X#XY.e./ Z s 4 3 < O o X     X X - X.w.P.^././.E.E.I.L.L.B.B.K.L.K.N.M.M.g.f.f.O./ p k d L I ] ^ J H J G d i - & o o - 1 4 s C V V A V A V V V V K K K K A C m m s s 4 4 3 < - < 3 4 m B K U E X.E R L K s ; 3 N s N K L K s 2 O + + O O o o   o & ; 9 d d d 4 # . o o X       . O +     O 3 M V L R X.X.| | L G s 3 - o o O ; 1 3 9 i d a a H H H J J J H x ",
"^ ^ ~ J H H H H I z I L L | | O.O.6.3.6.5.A s ; a H ' =.l.m.n.m.z.l.s.j.z.C.C.x.l...J n.W.W.^.M.].Z.0.[ O.| 6.b.e.b.N.M.M.p.a.w.L.].6XaXpXpXpXpXdXdXdXfXdXpXyXrX8X4X$XW.M.e.o.I d > k  .#.q.q.q.0.q.b.W.@X=X=X%X+XXX.X.XQ.R.R.R._.R.`.`.R.T.Z.z.#.#.0.q. .p & & # < 9 B I o.*.9.q.s.l.m.n.d.9.I o.w.g.M.N.M.i.w.6.4.3.3.5.X.E Y L L Y R ( o.2.3.3.5.X.X.( ( R L L L K L K Z B N Z K R ( ( R A M 4 - X X o ; 9 i 3 3 > ; > 9 B L G G G k g d 3 ; @ o X o o 4 B 3 o - 3 3 4 0 9 d g s 3 ; . - 9 4 - . X .                           X X X . X . . - 9 Z L | 6.0.t.n.B.I.E.E.Q.].^.Q.Q.Q.Q.{.^.(.b.i.f.L.W.E.N.5.M o   . 2 1 ; G | G > i Z i L 9 Z G G L K s Z ( e.I.^.#X#X#X#X#X<X,X1X6X7X7X7X7X7X3X$XW.b.O.L g s 0 9 1 - O .   X o X V w.K.~.#X^.^./.E.P.L.L.B.B.K.L.K.N.M.b.f.i.9.| g G d L L ] ^ ` J J J I G L g 3 - o o - 3 s m M C C C C M m m N B V K L K A V V A V V C m s s m C V K L Y T L K V N N N s 1 4 C C s s s 4 < O +     X X     X o ; 9 s s 0 1 < o X # - X         . +   + 5 m B A L R / | R R R G s 4 - o o O o - - - ; 8 i i a j z J ^ ^ ^ [ ",
"..$.#.$.@.#.$...O...^ ] ^ H ^ J I J G / G d d i g x ` @.s.z.z.n.s.s.s.k.C.S.Z.z.=.k n.Y.B.Q.B.N.T.q.s.| | d.9.r.b.f.p.b.p.w.u.M.B.^.6XaXpXdXdXfXfXfXfXgXfXpXyXyX7X=X].Z.f.9.o.I G 8 k  .*.d.d.d.r.d.Z.@X4X;X=X%X+X+XOX.X`.Q.Q.`..X`.`._.T.F.m.s.#. .d.l.^ k a & X - i B G I ^  .#.0.q.b.l.r.9./ o.w.g.K.P.E.I.K.g.i.e.w.7.3.X.R K Z B M M N N N B B N B B B N d B B A K L ( 5.4.3.3.X.R R T K M 4 O   X o @ - > - o @ - > s Z G G G G Z g s 3 - o . X o o s B > o - 3 3 9 s 9 s g s 3 ; . - 3 9 < X   X                       X X X o o # 1 s B A K I | o.o.#.0.b.b.B.W.Y.E.Q.Q.Q.Q.Q.^.OX^.Y.f.i.M.Y.Q.Y.g.( 3 .   . 1 @ ; L I R i > i ; L G i / B Z Z d Z I 9.L.^.$X$X,X,X,X,X1X6X7X8X7X7X6X6X%XQ.n.9./ Z d i s 9 3 - # o . + O < 1.M.~.#X/.#X^./.E.Y.L.L.L.B.L.L.K.N.b.b.i.r.O.G g d Z G I G G J H H I ^ I I L d - @ # < 4 s s m N M m s s 0 0 s s m C K K V K K L U L K V V V A K K K V V V N N N B K K N s V K L m 3 3 < < O o     X X   X   o 1 s s 4 ; o O O O O X         X o + + O 5 m A L R R R | | | E L N s 1 # O - o @ & @ @ & * * > > p z H ^ [ ..",
"]  .....%.=.q.0.q.q.=.=.%.{ { [ c ` ` ] ^ ^ J ^ ^  ...0.s.d.n.n.s.s.k.x.D.Z.m.d.H r.W.B.Q.L.b.Y.b.d.O...9.i.r.b.N.9.g.g.p.e.i.g.B.].7XiXpXpXgXgXgXgXgXdXpXaXwX8X3X$XW.n.t.9.O.] G i z [ =.z.s.l.d.Y.@X3X4X4X=X@X$X+X`.`.`.`.`.`.`..X`.R.F.Z.s.@.' -.s.@.J G g i o & i G I H H J ^ ..0.s.d.r.O.I o.9.f.M.L.Y.U.L.L.L.L.K.M.i.w.w.X.( L K Z B d s 9 9 i s d g V Z K T X.2.w.u.i.u.w.9.O.X.L V N m 4 - o ; 1 o X o o 1 4 1 ; s N N s g N g s 1 @ o   X # o - s f & @ ; 3 3 0 s s s d B s @ . - 3 ; ; - o     . o o . .                   X o - 1 4 s d G L I I | O.e.f.N.Z.I.Y.E.W.Q.Q.Q.W.].E.i.g.f.B.Y.Y.N.6.B -     o o - 9 K R R d - & o G L i / i G B d G H 9.B.E.#X$X,X1X3X3X7X8X7X7X7X7X1X#XW.N.9.| L g d d i d 9 ; - @ o o 1 R p.E.[.#X#X].^.^.E.I.L.L.L.L.P.K.J.N.M.h.r.9.L G g g G L Z i g B Z G I | ] I H k > o @ 1 s M N N N M M M s s 4 4 4 4 s s m m M B V A V B M M d d M M d s s s B K E ( Y B N N _ E U C 3 % % < < - - - o X   X O 2 e e 3 < - O O O O O .             o # 1 s Z K L R R ( X.X.| / L g i 9 9 4 3 > 3 3 3 3 3 > > i > > i g G I | ",
"k z ^ I ^ [ ..=.-.=.s.-.;.-.&.-.-.-.q.-.l.q.q.q.*.0.0.q.d.d.n.z.s.k.z.z.D.m.m./ 0.I.I.I.Y.n.Y.9.0.r.t.b.b.i.r.N.L.6.e.i.g.r.r.r.I.Q.6XaXpXdXgXgXgXgXgXdXpXaXwX4X@X].Y.n.r.0.#. .H p H ..s.x.k.x.Z.`.=X4X4X4X=X%X@X+XOX`.`.`.`.OX`._.R.T.Z.l.&.{ @.-.=.[ H z z a i i p a G H H H J ^ ..#.9.9.O.^ | 6.r.b.N.L.P.K.L.P.U.U.U.P.L.K.g.i.w.6.3.X.( R K L L R | o.3.3.7.w.u.p.h.M.p.u.w.4.X.R B e 2 - 1 - : 3 1 o o o 3 m C e - - 1 1 2 1 1 ; - o .   . o ; o 1 i s o - 3 9 9 s s s s d d s - o o ; 9 9 1 - o o o @ @ @ o o o # # # O X X             @ - > i g Z L | 6.9.r.M.N.B.Y.Y.Y.W.Q.W.^.I.e.u.g.N.B.b.6.L 3 o     o o ; s Z L R s & & o G I a / g G Z g G H O.b.Y.OX$X%X1X3X3X6X7X7X6X3X=X#XW.M.e.o.I L G Z Z g Z g i > & @ - Z 6.P.^.#X#XOX].^.^.E.E.I.I.I.U.P.L.K.M.b.b.9.| G G G G G g > @ - 3 d Z I ^ I H G g > & - 3 s C K K V C m s s 0 s s s s s 4 3 3 0 0 s 0 0 3 3 1 1 3 4 s s B K L ( ( R L B M K E R L F s < o     o o O O O O O - 3 4 4 3 - % O o O O O o       +     o - 3 i g G L L R / ( | | ( R L Z g g B B B B Z Z Z Z Z B B d 9 3 9 i d g Z ",
"8 k a G G k ] ] ] $...#.%.@.q.=.j.z.q.z.l.m.l.z.d.d.s.d.z.z.m.z.z.j.C.C.m.m.O.| B.W.Y.W.B.B.9.r.o.e.b.B.b.f.f.I.B.6.9.t.f.r.r.r.Z.Q.3XyXiXpXgXgXgXgXpXpXaXyX4X%XOX`.Y.N.d.r.9.O.J i H #.s.m.z.D.`.=X4X4X4X3X=X%X$X$XOX`.`.`.`.+X.XR.T.D.z.@.' ' =.%.{ J G G H G H J H k a k H H z H I ^ |  .| L I O.w.g.M.K.K.N.K.L.P.I.E.E.Y.I.E.I.L.L.N.M.g.i.e.u.i.p.g.M.M.M.J.K.K.K.N.M.u.w.4.X.R V s - X   X X o - o o O ; 3 s e < o X o o o o . X     . o - @ 1 - i 3 e o ; 3 9 0 s d d B g d d 9 @ . @ s s 3 ; ; - # & ; ; ; ; ; 1 1 1 1 < < - O o o X X     . o - 3 g L | o.#.0.r.b.N.m.B.I.Y.Y.Y.N.w.e.i.M.N.e.R s o     o o - 1 N d Z V s - - & G | G ^ Z Z L Z k L | r.B.W.#X%X1X3X3X3X3X3X,X$XOXY.b.9.o./ L L H G G G L G g 9 ; 3 d 4.K.[.<X<X#X#X#X#X].~.E.E.I.U.I.P.L.K.N.b.r.o.G L G G G d - .   . @ 3 g H H H G z k i ; - 1 0 C U U L K C m s 4 4 s s s s 0 3 3 3 4 0 3 3 1 1 3 9 s Z L L R ( X.( L Z V K L T T K C 4 < o         X o O - < < < 2 - O O o o o o o o X         +   X - s d g Z G L R R R ( ( ( R R L L K L L R / ( ( ( ( X.( ( R L Z d s i 9 i i ",
"G Z L Z G I G J ~ H ^ H J ] ^ ..%.%.-.%.d.=.q.0.q.l.d.l.n.n.C.z.z.k.C.Z.n.=.~ C.I.W.Y.Y.E.0.O.r.w.M.N.M.i.N.L.Y.Y.9.O.#.#.O.9.d.B.W.%XrXaXiXdXhXhXdXiXyXwX7X=X+XOX`.E.m.f.r.9.O.J t H %.d.m.C._.@X=X4X4X3X3X=X@X+X+X+X`.`.`.`..X`.R.D.n.*.~ ~ [ #.[ J x G H J ]  ... .J a p a k z H H H L H G B G R 3.e.g.M.M.M.K.L.L.P.I.I.I.Y.U.E.E.E.E.U.L.K.L.P.I.I.I.P.L.L.K.K.K.K.M.p.w.4.X.R V s < o         X o o ; 4 s 2 % X                     o - 3 1 - 1 ; s > 3 o ; 3 9 s d B B A Z B B d ; . o ; 0 4 3 3 1 ; - ; 3 3 3 3 3 3 3 1 1 2 1 3 3 1 1 ; o o . . . o 3 d L I | O.#.9.r.d.b.n.N.B.B.g.e.e.r.i.w.X.s - X     - - 1 1 N 9 s 3 4 o 3 i I #.I J H g L G Z I I #.r.B.W.#X$X%X1X%X$X#X].W.B.b.9.O.| / I L L H G L L L G d s A X.K.^.<X,X,X$X#X#X#X[.^.W.E.E.U.U.E.K.K.N.b.O.I L L H G d > o X . . o ; d z G z z k k d > - @ 1 M K U T R K V m s s s s s s s s s 0 s M M m m M B K R X.X.X.E R L Z B B K R R K B N 4 - X       +   . O - 2 4 3 < o X         X o X       X +       O 4 N Z B Z G L L R R R ( ( / R R R R ( ( X.o.o.o.o.o.3.3.3.5.2.X.R K Z B B Z ",
"o.3.| o.O.X.O./ o.O.I | ^ H ^ H `  .` ..] ..^  .0.l.n.m.n.m.C.z.j.C.m.n.0.J d.Q.Y.I.I.Y.9.r.O.3.K.L.M.g.i.B.m.b.l.O.^  ... .#.q.n.Y.$X8XrXyXaXpXpXpXiXrX7X3X%X$X`.Q.W.m.f.r.9.O.I t H =.d.m.G.XX;X4X4X4X4X3X=X+X`..X.X.X.X`.`.`.R.T.m.q.^ x H ^ ^ H k H J J ]  .#.*.*...H a y p a k G G G g g d i B R o.w.u.i.p.M.M.N.K.L.L.I.I.I.U.E.E.E.U.L.K.L.P.U.U.U.U.L.L.N.N.N.M.p.w.4.X.R F s ; o X     o . X o < s m s 2 o     X X             X # 3 s 0 ; ; - 4 - : - 1 0 s s N B V Z Z Z Z B 9 - o o 1 4 9 3 3 3 3 ; 3 3 3 3 3 3 1 - < ; 1 4 s s 4 4 3 1 - @ .   @ 3 d Z L / |  .#.9.t.r.f.M.b.e.9.6.w.3.R s -       o 3 2 s - s - ; o o X 3 a ] 0.| z H i H G Z I L  .9.d.m.Y.Q.].].Q.W.I.N.b.r.9.O. .| ^ I L G G H L L L G G L 3.M.^.<X,X,X,X<X#X#X].^.^.~.W.E.E.E.E.L.N.M.w./ G L G H G i - o X   o o ; i g k g k k z g i & . # s V L R E R K V C B C m s s s s s s M B B B B A K L R R L K K K K K K Y Y K B M m 3 < o X       X o # < 3 4 4 3 - X     X X     X         X X X X # < s N Z B Z L L R R E ( X.X.X.X.X.X.X.X.o.o.5.3.3.3.4.7.w.7.7.7.3.X.X.( ( | | ",
"w.w.g.i.i.M.i.g.g.e.i.9.9.0.o.O.O...#.]  .J ~ J #.l.m.m.m.C.C.z.k.D.z.d.H 9.Q.Y.W.I.Y.B.| b.| b.N.g.u.M.f.b.r.0.j.0.@.s.z.s.*.@.d.m.OX4X8X8XyXaXaXaXyX8X3X%X$X$X`.`.W.Z.b.r.0.#.I t J 0.d.D._.*X4X4X4X4X4X;X*X+X`.`..X.X.X.X`.`.T.Z.d...H k H H a p p x ~ ] { ..*.*.*.*...J a t t i a g g g g g 3 3 d L X.3.7.w.i.p.g.M.M.N.N.L.P.I.U.U.U.I.L.L.K.L.L.P.P.L.L.K.N.M.g.i.w.4.X.R F s < o         X X o - 0 N s 3 O o X X X             X O < 0 m d 3 - o - & $ - 0 M B B V B B Z B Z Z B d 9 - o o ; 3 1 ; 1 ; - - ; 1 3 3 1 1 - 2 1 4 s s s s s 0 9 4 ; O   . o ; 9 g Z G L | O.O.9.9.r.0.o./ L K M 1 o       o ; e 3 V o 4   .       - a ] =...z J 8 Z Z G L L | O.9.r.M.N.B.B.N.M.r.9.9.O. .| / ^ I L G G G H H L L L ( O.b.W.<X2X2X,X,X<X#X#X[.^.^.~.W.E.E.U.L.B.M.w.| L G H L H g > o o X   o & > i a a p p a k B i - X o s B K T T U L U U U L K V C M m m s M M M s s M M B A K Z A K Y R R R Y A M s 4 4 - o X     X o O 3 3 4 4 3 - o X   X X o X X                 o - 3 4 s N B Z G L R R R E E X.X.X.X.X.o.o.5.5.2.2.3.4.6.6.7.w.w.w.7.4.3.3.3.4.w.w.",
"y.M.M.J.K.N.E.I.L.I.N.I.Y.B.I.N.m.B.l.l.q.*.^ J %.l.m.m.n.C.C.z.x.z.s.$.^ R.W.Z.Y.W.N.r.M.O.M.L.M.g.g.N.e.q.q.z.F.D.z.A.Z.m.s.#.0.b.Q.3X7X7X8XrXyXyX8X7X3X%X$XOX].`.Q.Y.n.b.r.9.I t J q.z.R.XX;X4X4X4X4X;X=X@X+X`.`.`.`..X`.`.R.Z.l.#.^ H G k p ; * 8 k I [ ..@.%.=.=.%.%...J a 8 8 > i d g f d 3 1 3 s K R X.5.w.e.i.i.g.M.M.N.N.N.K.K.K.K.K.N.N.N.K.N.N.N.M.M.i.r.w.3.X.E L V s 1 O X       +   o < s V C 4 - X   X X               o < 4 M C B s - o o o o $ s Z K K K K A K K L K Z B d 3 @   o - - - - - - - - ; ; 1 1 ; ; ; > 3 i s s s 0 0 3 3 1 # .     . o - 3 s B L I | | o.6.X.G d > o X         X - e s 3 T o 4     X   o - a ] %.#.H J > g B G L L |  .#.9.0.t.t.e.0.9.#.O.O. .| | ^ I H H G G G H L I R | 9.M.E.#X,X6X2X,X,X<X#X#X#X[.^.~.W.E.P.L.N.M.9.| L H L G L g > o X X o o * > p a p i t t a a g d ; . . 1 m V U U K K U Y T R R U U U U K A Z V B N N B V K R R R E ( ( R L A C s 0 4 < O O X     o - 1 4 4 3 3 < O o       X X o X X             X o - 4 m s s N B Z K L R R R R E ( ( ( X.X.X.o.5.5.5.5.5.3.4.3.3.4.7.7.7.7.7.6.w.w.e.r.",
"p.p.M.N.K.P.U.E.^.Q.^.^.^.OXOX#XOXQ.W.Y.Z.d.] z q.m.C.m.z.C.C.k.m.d.=.H Z.T.Q.Y.W.W.r.M.O.n.Y.M.M.N.N.r.]  .q.m.z.l...#.#.s.n.n.9.r.W.=X7X7X8X8XyXyX8X7X3X3X%X#X].`.Q.Y.n.b.r.9.] i ~ s.C.XX*X;X4X4X4X4X=X=X=X=X`.`.`.`.`.`.T.D.m.=.^ H H G p ; @ @ * p J [ ..@.@.=.=.%.#.%. .H p > * ; 3 i i i 0 ; - 1 s B K R ( X.3.6.9.r.r.b.M.M.M.M.M.b.b.b.g.b.b.b.g.i.i.u.w.6.O.X.R L N s < O . X     + + . - m A V m < O X X X                 O 3 m B A K N - o X o   o s Z L L L L L R R R L K Z g 9 -   X o ; ; - - ; - - - - ; ; 1 3 1 1 4 s s s s 4 0 1 1 < # .         . @ 1 s B G L I L | L i > o o X       X < s m s 3 E o s . . # o - > k [ %.*.J I > d g K K L /  .O.O.6.9.6.O.O.O.o.O. . .| | | ^ J H G G H H I | o.6.M.W.#X1X,X6X2X,X,X<X#X$X[.^.^.~.E.E.I.L.N.0.| J L H H L k 8 o . X o o - i g G k p t t 8 a a d d > .   # 0 C L U K K K U T T T T T E E E X.X.( R R R ( X.o.2.5.X.( ( Y A N M s 4 1 - O . X   X O < 3 4 4 < - - O o . o O o O o X                 O < 4 s B N N V Z Z G L R R R R R X.X.X.X.X.X.o.5.2.5.o.5.3.3.3.2.2.3.3.7.7.7.7.w.w.w.w.",
"p.M.N.K.K.P.E.E.W.Q.^.OX$X$X%X,X1X#X#XQ.T.l.^ J d.C.l.m.D.z.C.m.Z.d.H r.R.W.W.Q.Q.d.r.e.O.W.W.N.n.b.d.9.0.0...%.#. .^ ^  .0.f.n.9.q.n.%X8X6X8X8XyXyX0X7X6X3X%X$X`.+XQ.Y.D.m.d.q.] p ~ l.R.XX*X=X;X4X4X3X;X=X@X@X+X`.`.`.`.R.D.C.s...J H H d ; @ @ @ ; i z I  ...#.@.$.@.#.#... .I a * o & > 3 3 4 ; @ @ < 0 M B K L R | o.O.9.w.e.e.r.t.e.e.r.r.r.r.r.w.9.9.9.6.O.X.R L V N s 3 O .     + O o + < C K V C 4 o X   o o               . < 0 m B A A B 1 o   o X   ; N R E ( X.( E | ( R L Z d 9 3 O     # - - - - - ; > > > > 3 3 9 3 3 9 s d s 3 3 3 2 < < O X           . O 3 s N V B g > d d i 1 #     o < 4 s 3 - - V 9 B ; @ - ; & > a H ....J I 8 d B B K R |  .O.#.#.#.#.#.O...| |  . .| / ^ I I I H H I ^ | | 9.B.^.$X,X1X,X,X,X,X,X,X$X#X[.[.^.~.E.E.L.M.q.| J H G G H z i & o o $ & 3 d k G G z a i t > i 8 9 9 > o X X 1 m K K K K U U U Y T T T E E X.( ( ( ( ( ( ( ( X.X.( E R K V N s 4 3 < O . X X O O < 5 4 4 3 1 - O o o o O O O O o X X             X o ; 4 s M V V V B V V V V K Y T E E E E X.X.X.1.1.1.1.X.X.( X.X.1.3.3.3.3.3.4.4.4.w.w.w.r.",
"p.p.M.M.N.L.E.E.^.^.OX#X$X%X,X,X%X$X$X].Z.q.k ..z.l.m.z.z.C.c.D.D.] O.Z.Q.Q.Q.W.m.L n.o.n.#XE.B.b.b.] ..l.%.*.j.l.*. ...#.O.6.6.Y.b.0.`.$X8X0X8XyXyXrX8X7X6X1X%X$X+XW.Z.Z.m.b.r.] a  .m._.+X*X;X;X;X;X;X=X=X@X@X.X`.R.R.R.T.C.l.@.{ ^ H a 8 - @ @ & ; 9 a G I [ ............ . .I G i ; & & ; > ; - @ o # - 1 4 d B Z K L / | o.O.O.O.O.O.O.O.3.O.6.6.O.O.o.| R L K B d s 4 < - o     o o   O 2 C U U V s ; . X X o o               O 3 m C V K Z B s o X X X X . 3 Z R R ( X.X.X.X.( R L B s 3 #     # ; 1 3 3 > 3 9 9 3 3 3 9 3 9 9 s d d s 3 3 3 2 < < O .               + o O O o o X 3 s s 2 o   o < 3 3 < o X o B d G i ; - > - > p z [  .G I 9 i Z Z K R |  .O.#.#.O.O.#.#.O. . . .| | / | ^ I I ^ ^ ^ ]  .9.N.Q.$X1X3X1X1X1X1X1X,X,X<X<X#X]./.E.E.P.g.w.| ^ ^ J G H H a > & @ * > i g G J J J G k a t 8 i 8 > 3 ; o X X - 4 C V V A K K L U Y T R E E ( E ( E R E ( ( E E R L K Z B s s 4 < O o o O O < 2 2 3 4 0 3 - o o O # - - # o o o X X X             o - 3 s N V K K V V V V V V K U T E E E X.X.X.X.X.X.X.X.X.X.X.X.X.1.1.1.5.3.3.3.3.4.w.w.w.r.",
"p.p.h.b.N.L.Y.W.^.OX#X$X%X%X%X%X%X$X$X`.m...k d.z.l.m.z.z.C.x.D.0. .m.W.Q.W.Y.Z. .r.| n.Y.W.W.Z.d.=.=.*.O.%.q.n.b.9.O.6.e.9.6.6.m.n.q.Z.Q.5X8X8XyXyXrX8X8X7X4X=X%X`.Y.m.m.m.b.r. .z @.D.`.+X*X=X=X=X=X=X=X=X@X+X`.`.T.T.T.Z.l.0.{ { ` z i > & @ @ ; 3 i i a G J ^ ^ / ] ] ] | | I I G i * o o - - - # o . . o @ ; 3 0 d g Z G L L I I I I I I R I / | / I L G B B d s 0 4 1 - O X   X o o o 3 V T T K m 3 o X o o o o X           X < 0 C V A K Z B s ; X   X o   . - s L ( X.( | ( R L L Z d 3 -     o ; 3 9 9 9 i i i i i s s i d d d d d s 3 3 1 < - - O o X                           1 s 4 < o X o - - o X   X o g Z G Z 8 > i 8 8 p z ^ ` k H > i Z L L |  .O.#.*.#.#.#.#.#.#.O... .| | | | / ^ ^ | | |  .r.B.#X3X7X7X6X1X,X,X,X,X,X$X$X$X].^.W.E.L.b.6./ / H k k z H k 8 * * > i g G L | ] ] I H z a i 8 8 > > > ; o . . O 1 s N V K K K L U Y T E ( ( ( E R R L L I L L K Z B M d s 9 3 - O o O < 2 4 m 4 4 3 3 < # o X o - ; 1 < # o o X X X X           o - 4 s C V K L K K V V B Z A V K U T R E E ( X.X.X.X.X.X.X.X.( X.X.X.X.1.1.1.1.1.3.3.4.w.w.r.",
"i.p.b.M.N.(.E.Q.^.OX#X$X$X$X$X$X%X].#XY.n.H ^ n.z.m.z.m.C.C.C.d.^ b.Q.W.W.Y.B.r.#.t.0.I.I.Y.Q.m.@.%.m.0.] 9.b.d.e.w.6.w.i.M.g.e.O.n.n.q.W.%X7XwXyXyXyXrX8X8X4X1X+XR.B.b.d.n.m.r.#.H #.T..XXX+X*X@X@X@X@X@X@X+X.X`.R.Z.m.m.n.q.#...' J k i > * & - > 9 i i i a k G H J I J I I I L L L g > @ o o ; ; ; - @ o . . o # ; 1 9 s d g g B Z Z Z Z G G G G G G Z g g d s 9 3 1 < - o .   X X X O s K T W U M 3 O X o O % o o             o 3 M V K K K L K N 1 o   X O - .   o 0 A R ( X.X.( R L L Z d 1 .   . - 3 i 9 3 3 9 9 i i d d g g B B g d 0 3 1 < - - O O . X       + +         X X X X 3 s ; - o X . X       o & & B L H J p 8 i i i h z G z a g > g K R X.O.O.*.0.0.9.*.*.9.*.*.*.#.O.O. . .| |  .| |  .9.r.W.$X6X8X8X8X6X1X1X1X1X1X,X,X$X#X^.W.I.N.i.6.X.I I a i p k a t * * 8 d G L I ^ |  .] ^ H z a i > > ; ; ; - o . . O < 4 m C K K L U U Y T E E R R L L L K G G Z g B d s s 0 3 ; - o O < 3 m m m m 4 4 2 # o . o - 1 1 1 ; - O o o X X             o - 4 m N C V K K L K K V V A K V K K U U T R E E E E E E E ( ( E E E ( X.X.X.X.X.1.1.3.4.w.w.r.",
"r.f.M.N.L.Y.W.Q.^.].#X#X#X#X#X#X$X].].Z.9.z q.n.n.C.m.C.F.D.s. .r.L.W.W.I.Y.B.9.b.| E.I.m.W.Q.d.*.s.*.9.r.d.M.e.w.w.w.w.u.M.M.r.0.d.l.*.b.Q.4X8XyXiXiXrX8X8X4X=X`.D.l.#. .r.m.m.0.I #.T..XXXXX+X+X.X.X.X.X.X`.R.T.D.n.d.d.s.=.....` J z p > * ; ; > 9 9 i i i i d a Z k k k G G G G G g i - @ o - 3 9 i 9 ; o X . o @ - ; ; 3 9 9 i i d d d g B g B g g d d d i 9 3 1 - O o X     + o - s K R T U C 4 O X . o - % o X             - s F L L L L I L F s - X   X 1 - @ o o - d R | X.| ( R L G d 4 o   X @ 1 9 3 3 3 > > 9 i i d g g B B g d i 3 1 < - - o o X X     X + +           X     - 4 ; ; o         X & - > > k I J ^ k i p p p a a a p g 9 i L L R O.O.#.9.0.0.0.9.=.0.q.0.0.9.9.#.@.O. .o.O.O.6.r.B.Q.%X6X0X8X8X0X0X6X3X1X,X,X,X$X].^.I.N.e.3.X.| R L i i a k a > * = > p G ^ ] ]  . ... .^ H z a i > > ; - - - o . X # ; 3 4 s C B B K K K K K K A V B B B g d d d s s s 9 3 ; - o o - 1 s C C m 4 5 2 < # . . o ; 9 s 4 ; - O o o . X X           o - 3 m N C V V K K L K A V B A A K K K K U U T T T E E E E E E R T R R E E E X.X.X.X.2.3.4.w.w.r.",
"r.i.M.N.L.Y.E.W.Q.^.].].].].].#X].].W.B.~ ^ m.Z.Z.m.F.C.F.C.[  .W.E.E.W.Y.L.9.B.9.N.Z.Q.B.Z.b.d.Z.*. .q.M.M.g.u.w.4.4.y.p.p.M.M.n.*.0.q.O.n.$X6XyXiXiXyXrX8X3X$XT.n.O.I J O.b.Z.d.^ @.Z.`.XXXXXX.X`._.R.R.T.D.Z.m.n.s.*.*.0.#...` ~ J H a > = > > 3 9 i s s 0 9 9 i i i i i i i d d d d 9 ; @ o & > d B V d 1 o o o o @ # - - - ; ; ; > > 3 9 s 9 s s s s i 9 3 1 1 - o . X     + O 4 V T T U U V m - X   o - - % o X           o 2 m K L P L L L L K B 4 O X   . # 1 1 @ o - 0 L R X.X.( R G d 0 - .   . - 3 > 9 3 3 3 3 9 i i i d d d d d s 9 3 2 - # o o X X X X X + +       X         o s s 9 - X X o o - > > i i a H ~ [ ~ j h a a h a i 9 g 9 B ( L | O.O.#.#.9.9.*.*.=.0.q.q.0.9.9.#.@.O.O.O.O.e.M.Y.OX=X6X8X0X0X0X0X0X7X6X1X,X$X#X^.Y.N.i.4.( L L G d i > g z p > & * > i k ^  . ....... . .^ H k a i > ; - & - # o . X - ; 1 4 4 0 0 0 s s s m s s 0 4 3 9 9 9 9 9 9 9 3 1 - # @ # ; 1 N B V C m 4 5 2 # o . o - 3 9 i 3 1 - o o o . X X           o O 3 4 m C C V K K L K K A Z B V A K A V V V K K U T T E E E T T Y R R R R R E X.X.X.X.2.3.4.w.w.r.",
"i.i.M.N.L.I.Y.E.W.W.^.^.^.^.^.].Q.Q.B.9.H 0.D.D.D.m.T.Z.Z.s.~ d.].OXQ.Y.E.b.O.N.0.Q.Q.B.Y.d.#.Z.m...r.n.f.g.u.u.4.4.y.p.M.M.V.L.m.q.d.q...0.Y.$X8XyXiXyXwX7X@XR.n.*.^ ^  .O.q.m.b.I  .m.R.`._._.R.T.D.Z.m.n.z.l.s.q.=.$.$.#.#. .^ ^ ~ x a t t i i i 9 9 0 0 0 9 3 3 3 > > ; ; ; > > > > ; & @ o o ; d B Z Z d 4 ; - - - - - - - - - - # @ # - ; 1 3 3 3 1 1 ; - # O o . X . O - 5 m K T E T F B m < o o o - 2 - o o X           O 1 N G L L L L L L L K M 4 < O X . @ ; 3 ; # o s Z R | X.( L Z s 2 # X   o ; > 9 9 3 3 9 9 9 9 9 i i i d d i 3 1 1 ; o o o X X X X X o o X X X o   X   X o s f g 3 - @ - > 3 3 i d p a x ^ [ [ ~ z k a a p 8 d d A R X.| O.O.#.#.#.#.9.9.0.0.q.q.q.q.9.#.#.#.9.e.e.f.B.Q.$X1X3X8X8X8X8X7X6X1X,X1X%X$XOXW.B.i.9.R G g d d 9 > - a g i * = > > 8 k I ..#.@.@.@.#. . .^ H k p 9 ; - & @ o o o X X O - 1 4 3 3 < < < < 1 1 < ; - - - ; > ; ; ; ; ; - - # - ; 4 M C K K V m 4 3 < # O o # ; 9 i 9 3 > ; o o o o X X X         O O < 4 m N B V V K K K K K K A A V V V V B B V V V V U U U W T U U U Y T T R T E E X.X.X.X.2.3.4.9.w.",
"i.g.M.N.N.L.I.Y.E.E.W.W.W.W.Q.^.Q.I.b.I ^ m.F.F.Z.D.D.T.Z. .^ T.Q.].W.E.B.t.b. .B.W.W.I.B.t.r.D. .l.M.M.M.i.i.w.4.i.M.M.M.N.N.N.Z.Z.m. .9.*.r.Q.6XwXyXrX8X1X`.Z.d...^ #.d.9.*.b.b.I | n.D.F.F.D.D.Z.n.l.d.q.=.*.*.*.#.....#.$.[ [ ` J k a a p i i w 9 4 4 3 3 3 3 > 3 > - & & & & & & & @ o @ @ @ > i d B G K B 0 9 4 3 1 ; ; - - - # o o o o - 1 1 < - # - - - # # # # - 1 s C K T E U U T K m 3 X X - ; > > - o o X X       X - 4 N K L L L L L R R L V C m 4 - o   . ; 0 9 ; . ; g G K L L A M 0 1 .     - ; 9 3 3 3 9 i i i i i i i i i 9 3 1 ; - o o X X X X X o o o X         X X o $ s f g i > - ; > i i p a a a k ` ' { [ x z g h i 8 g d X.3.4.w.r.9.t.9.9.9.9.0.q.s.r.d.d.s.t.0.9.q.d.N.I.^.$X1X3X7X8X8X7X3X3X,X#X].^.Q.W.Y.B.i.3.R G d s > & o & > d d i * & 8 t 8 a I ..*.*.#.$.$...| ] I G a i > ; & @ o o o o X X o o ; 3 3 < - - O - - - - O O O - - ; - - @ @ @ - - ; 3 s B K K V V N e 3 < O o o - 3 s s i 9 3 > ; O o o o o X         + O < 2 m m C V V V F K V V K K K A A V V B V V V V V V A K K K U U T R T T U R R T E E X.X.X.1.2.3.9.9.",
"e.i.g.M.N.B.L.Y.Y.Y.E.W.E.W.Q.E.E.I.e.t 0._.A.F.D.F.T.m.0.I B.E.^.^.Q.Y.d.l.*.l.W.I.I.Q.e.O.R.0.r.B.N.f.g.i.w.w.y.u.g.N.N.K.L.I.I.E.Z.r.t.#.| b.OX4XrX8X4X=XW.n.#.] ..r.m.b.O.6.0...G q.Z.m.m.m.z.j.s.0.#.........@...[ [ ..#...` J x x x z g a i 9 3 3 1 1 1 3 4 4 4 > - - $ o $ o o o . o o o ; ; 3 i d B K K G Z M 9 i s 9 4 3 1 - - # # # - - ; ; - - ; ; ; 1 2 3 0 m A T E E E T U K V s 3 o o & > 3 > - - - o X .       o 1 s Z L R R ( / R E E R T U A A B 0 ; @ o o ; d 3 o o 3 B Z K L V M 0 ; .     # 3 3 3 3 9 i d p d d p d i 9 3 ; - - - O o o o o o o o o o X       X o o o * i g g d i ; > i t i a j k j k J ' { ..[ x a t ; i g K 2.u.p.M.M.N.B.b.r.r.r.f.l.l.b.b.b.b.b.N.B.Y.W.#X#X<XqX6X6X7X8X0X7X3X#XW.Z.n.r.9.9.#. .I g i > - o     o ; 9 9 ; ; 9 a a 9 a J  .#.0.0.9.#.....| ] J z p 9 > - o @ @ o o o @ @ - & - ; ; ; < O O O O O o X X o O O O O o o # < ; 1 s N K L K K B m s 4 - o . o ; 9 d d d i > ; - O O O O o X         + O < 2 4 s N V V V A K A V V K K A V V V K F V B C C V V V V K K K L L L Y Y Y Y Y R R ( ( X.X.o.3.6.w.e.",
"e.i.g.b.M.M.B.B.I.I.Y.W.E.E.E.Y.L.i.H ] m.D.F.F.F.R.m.n.L e.Y.E.~.~.W.n.q.n.=.D.Y.Y.L.N.O.m.0.0.b.L.N.b.i.e.6.w.u.i.g.M.N.K.P.I.I.E.$XW.9.9.0.#.m.%X4X8X3X`.m.#.^ =.q.m.Y.B.d.I 0.| a ..l.z.d.q.l.j.l.d.q.#. .` ` [ { ] ]  ... .^ ~ J ~ J H k a i 9 3 > 1 < < 1 3 1 1 ; - - % % o o O o o o O - - ; > 9 s d B Z K L K B B g d d s s 0 3 1 1 1 1 3 3 3 3 9 s s s M B A Y T ( X.1.X.T F V B s 2 O o & > w i 3 > ; # o o o X   X O 9 d G L R E ( ( E E ( ( E R R R T K B s 3 # o @ V B 3 . o i Z Z V B M 0 - .     # 1 4 9 i i d a a a d p i 9 > ; ; - - o o X X X o X X o o X + + X X o o & - w g B g d i i i i p a k z z j z ~ { ....J a > ; i N X.u.N.K.L.E.Y.E.Y.Z.B.I.Y.Y.Y.Y.Y.E.W.Q.^.#X$X,X3X6X6X6X6X6X7X7X1X1XOXW.m.0.....#. .I a > - & -   X + o # - - - 9 g Z k p a H ..@.=.q.0.=.#.@.@.] I G g i 3 ; - o # o o o - > 3 - o & - ; ; < - - O o X     X . O o . o o o - 3 s M V L L K A A V m 3 - O o & > i d g d i 9 > - - - O O O o +         o O - 2 3 s m C C B V V V V K K K K K K K V B B N V V V V A A A K K L T R L L Y L L Y R R ( ( X.X.5.3.7.w.",
"w.e.i.g.M.M.N.L.B.L.Y.E.Y.E.E.L.M.X.i l.G.F.G.F.G.R.m...R L.^.E.~.I.].O.m.0.B.W.E.W.B.6.r.Z...d.N.B.N.g.e.6.3.7.w.u.p.g.M.N.L.I.Y.E.%X$Xd.r.b. .9.Y.$X=XOXZ.d.@.*.j.l.b.n.m.Z.9.^ H p ~ *.q.s.s.l.j.d.q.*...] ` ~ ` ` ~ J ^ ] ] ` ^ ] ] ^ H k a i 3 ; ; < < < - < < < - - - - - o o - - - - - ; - ; > 3 9 s d d A R R L K Z B Z V B B M s s m M M B B B Z K L L E ( 5.3.3.3.1.1.X.K C m s < o X o ; i i i 9 > - O o o o     + - s B K L R ( ( ( E ( ( ( ( ( ( ( ( E R L Z s ; o - 0 d 9 @ o ; s K Z B s 4 - .     o 1 9 i d g g g a g d d i > ; ; - - O o o o o o o o o o o o o o o o & - - 9 d Z G k a p p p k j k x H x k z ~ ..*.] g ; * g R 6.g.N.K.I.W.Q.^.OX`.`.OXOX#X#X#X$X$X%X1X3X6X7X8X6X6X6X3X6X6X6X6X3X].W.N.#...@...~ ^ ] I g 3 o   X X       o 3 d H J L k a x  .*.*.q.q.q.*.#.@.O.^ J z a i > - & @ o o @ ; e d g > o o - ; ; < ; 1 # X         X X X X o O < 4 m V U T T U K K A B 0 - o @ - 3 d g g g d i > ; & - - - o o o X       X o O O % - 3 4 0 s m C V V V K K K A V A K L K K K K V B N K A A A V K K K K L L L L L Y R E ( X.X.5.3.4.7.",
"6.w.r.i.b.M.B.L.N.B.I.Y.I.I.I.N.r.G L D.F._.G.G.R.D.r.H b.Y./.E.E.Q.N.b.q.l.Y.W.T.W.b.9.m.9.r.B.M.M.g.i.w.o.5.4.3.7.u.i.g.M.N.L.Y.W.Q.%XQ.d.r.9.9.b.W.Q.Y.r. . .l.s.m.r.0.B.B.b.Z p = k ..0.d.l.l.s.=.#... .] ] ~ ~ J x z G I | [ ] ^ ^ J H g d 9 3 ; ; < < - # - - - - - - - - % - - ; ; ; ; ; > 3 3 3 9 i s s d K L Y L K Z K K K K K K L Y T R E ( ( X.o.2.2.7.7.7.4.3.1.X.E T V m e ; o o o ; i d i i 9 ; @ o o o X     + 2 s B L I ( ( ( ( ( ( ( ( ( ( ( ( ( ( ( R R Y B 0 o @ s K Z ; o @ ; d A V s 3 - #     o - 3 i d d g a g g d i 9 3 3 > ; - - - - - o o $ % - - - - O o o - > ; i d z G G k a p a k z z x J x x x H `  .^ H g d L 2.u.M.K.K.I.W.].#X$X$X$X$X%X,X3X3X3X6X8X8X8X8X8X8X8X8X9X6X6X6X6X,X].W.f.6.9...H k I ^  . .^ Z 4 -     X o # 1 g G I J G a k ] #.*.=.s.d.q.9.#... .^ H g i i > - @ o o o - i g B B > o o & ; ; ; ; < O o         X   X o < 4 C K R T E E T U L K B 3 ; @ & ; 9 d g g g d i > ; & & ; - - % o o X         X X   X o o o - ; 3 s M V C V K K V V V K V V V V V V V B N B V V V V V V K L L L L L Y R R ( X.X.o.5.3.3.",
"6.w.e.r.i.g.M.M.N.L.I.I.P.I.L.b.X.g 0.T.F.|.R.R.R.z.^ O.I.W.I.E.Y.Y.d.Y.O.Y.I.W.Y.T.#.n.9.O.M.N.g.e.w.w.o.R E X.X.2.w.i.g.M.N.N.L.W.Q.1X%Xf.9.b.#.O.l.b.d.#.J ..l.r.l...| l.m.b.^ 8 o t ..q.s.q.q.q.=.*.#... .] ^ ~ x a p a G ^ ] ^ J H G G a i 3 ; ; ; < < - O O O # # # - - < - - - ; 1 4 3 1 3 3 9 9 9 9 9 9 9 d Z K Y K K K Y R E ( X.X.5.5.3.3.4.4.6.w.w.w.w.w.7.4.5.X.R T F C 4 % X X @ ; i a a p i 9 > @ o o o X     O 5 d Z L / X.X.X.X.X.X.( ( ( ( ( ( ( X.X.( ( X.R K s ; o ; M A d - . & 3 s N N 0 - o     . - 3 i i i d d d d d i i i 9 3 ; - - O o & - - ; < < ; - O o @ - > > 8 i k H J H z j j x H H H H ~ ^ ~ H H k i d B Z X.u.M.K.K.K.I.E.^.#X$X%X%X,X3X3X6X7X6X7X8X0X0X0X0X0X0X0X0X8X7X3X%X#XQ.f.t.r.^ a k ~  .@.9.9.O.L 4 o     o < 0 d B G G k k z ^ #.0.q.s.l.l.s.0.#... .^ G a i i > - @ o o @ 3 g G G g : o X o - - - - # O o X       o o - 3 m K T X.X.X.X.E Y L K N 9 @ & ; > i d g k g p i > ; & & ; - - - @ o o X X       X     o o o o @ @ # - 1 3 4 i s d N B B Z B V V V V V V V m N B V V V V V K K L L U U U Y R T E ( X.X.1.1.",
"3.6.w.w.e.i.g.b.N.N.L.L.L.L.M.w.Z I n._._.G.|.R.F.#.I N.I.Y.E.E.Y.9.Y.f.M.I.Y.Y.Y.m.0.n.O.e.N.g.e.4.5.X.L Z A A Y X.7.u.i.g.M.N.I.Y.Q.,X%XZ.r.9.#.^  . . . ./ r.b.0.] ^ H ^ d.n. .i o = [ =.q.s.j.s.s.q.0.0.#...[ ~ x a 8 > i g G k k k k g i > > ; - 1 < - - O O O O O O - - < - - - ; 4 s 4 4 3 9 9 9 9 9 9 3 3 s d V L K K K R ( X.5.3.3.7.7.w.w.w.w.w.w.w.w.7.7.4.4.5.X.T K B e o     o ; 9 a a a p i 9 > & & % o X   X < 4 N G R ( X.o.X.X.X.X.X.X.X.X.X.X.X.X.X.( ( X.( R L B ; o @ 9 g B d 3 o @ 3 M M 0 3 #     . - 3 i 9 i i s d d d d i i 3 > 1 ; ; - ; ; ; 2 1 ; - - % o & ; > 9 i i a x J J H z k H H J ~ ~ ~ ~ x a i 3 * > s d X.u.M.K.L.K.L.E.W.].%X,X,X%X,X3X6X6X6X7X8X0XrX0X0X0X0X0X0X8X6X1X#XW.N.I.0.G k ^ *.d.q.9.O.^ G g 4 ; O o o O 1 9 d a a k H ] $.=.q.l.l.l.d.0.#.O. .| I z d i 9 ; @ o o & > d G L G g ; o X o o o O o o o . X     o - 3 s V R E X.1.1.1.X.T U A M 3 # & ; 9 i d a g k a i > ; ; ; ; * & & - & # @ o o o o o o o % ; 1 > ; ; ; - @ @ - @ - ; ; > 3 3 3 s s s s s s s N C C B B C C V A V V K K K K L U R T E E X.X.X.1.",
"o.O.6.9.w.u.i.g.M.M.N.N.N.M.w.| g 9.D.|.|.G.R.D.r.^ 9.I.E.E.Q.Y.m.0.n.M.I.I.Y.Y.Z.q.Z.0.9.g.M.w.6.X.I K B d d s B L X.7.e.i.M.M.I.L.E.#X1X#Xb. .0.#.| I I I o.9.9.| H O. .G | 0.O.k * * J #.s.z.x.z.d.s.q.q.0.*...` H a ; o o * > 8 9 9 i s 9 ; - - - ; < - - # O O O o O O - ; ; ; ; ; > 3 3 4 9 9 9 i 9 9 4 3 3 4 0 M A A B A Y R X.5.3.4.7.7.w.w.e.e.e.e.w.w.7.7.4.3.X.T K B s - X X o - 3 d k k a a i 8 ; - - - O X   + < s V K R ( X.X.X.X.X.X.X.X.X.X.X.X.X.X.X.( ( ( ( ( ( R L M ; o - 9 g g s 1 @ o 3 B 0 3 # o   . # 3 3 9 i i i i i i i i i i i i i 3 > > : ; ; - - @ - ; ; > 9 i i i p k H ~ ~ H z H H J ~ J z a p 8 ; g L ( ( L R X.u.g.N.L.I.E.Q.OX%X%X%X$X$X,X3X3X7X8X8X8X0X0X0X0X0X0X7X3X%X#XW.N.M.I a ^ *.0.q.q.^ | o. ./ L g 4 - O o # - - > i k J ..*.=.q.s.z.l.l.q.*.@...| / H k p i 9 ; @ o & > d G L G g d > o o o X o o . X X o o o - 1 s C K E X.X.X.1.X.X.R K A s 1 - & 9 i d a k k a a p 8 ; ; > ; ; & ; ; - - - - - - ; ; ; 1 1 1 4 s d s i s 9 3 3 3 1 > ; ; ; - - - o o & - ; 3 3 3 s s m m m m C B B C V V V K K U Y R T R E X.X.1.",
"o.3.3.6.w.w.e.u.i.p.g.M.g.i.2.G G n.|.T.R.|.D.D.^ ^ N.Y.I.Q.Y.Y.r.m.#.B.W.I.E.I.d.*.D...r.f.w.7.5.R K Z d g N i 9 B R 5.w.u.g.M.N.I.E.Q.6X3Xb.9.9.r. . .| / 9.#. .I | O...I G  .q.H = & J 0.z.z.z.z.l.d.d.d.0.#...^ G p * . . @ @ & & ; > 3 3 ; - - - ; < - # # O O O O o O - - < 2 : ; ; ; > 3 9 9 i s i 9 9 4 1 3 3 0 M M s M K Y ( X.2.3.6.7.w.w.e.u.e.e.w.w.w.7.3.X.T K N s - o o & 3 > i g H z k k p 8 ; ; - & o X   + 2 s K K L R ( X.X.X.X.X.X.X.X.X.X.X.X.X.( ( ( ( E ( R R R R K M 3 - - 3 M Z s - o o 3 0 0 1 .     # 3 3 9 9 3 9 9 i d d d d d i i i e 3 1 ; - - & & ; > > > i d a i a z J ` [ ~ H J ~ J H k i 8 i k / 6.w.u.i.w.3.X.( 3.e.g.N.I.E.^.$X%X$X$X$X,X3X6X6X6X7X8X8X8X0X8X7X6X%XOXW.B.f.9.G I |  .9.t.#.| e.d.b.r.9.| L V s 3 # o o & 9 g ] @.q.d.l.z.z.z.l.d.q.0.#.O.| ^ G g p i 9 ; @ @ > i G L G G a d > - o X   X . X X o O < 1 3 s C L E X.5.X.X.1.X.R K B s ; # - 3 p a k k k k a p i > * ; > > ; & ; ; > > 3 3 3 3 3 3 3 4 3 3 3 4 d s s d B B B B Z B d d s d s s 3 1 > > ; - & o - ; 4 s s s m C C C B V V K K U K L U Y T R ( X.",
"X.X.2.4.4.7.w.u.u.i.e.i.g.3.K Z #.R._.R.|.F.T.q.| e.I.I.I.Q.E.f.d.n.9.W.E.U.E.B.#.B...%.b.e.u.7./ g 9 i d Z K Z B d B R o.w.p.M.N.N.Y.#X1X3XQ.r.| ..O. .#.0.O.L H k O.e.e.| t H 9. .H 8 ^ q.l.m.m.m.z.l.d.q.0.*.$.` J a @ . # @ @ @ @ & ; ; ; ; - - < - - # O O O O O O o o O # < < 1 2 ; ; ; : ; > 9 s d s 9 3 1 ; 1 1 1 1 4 s N A L E X.3.6.7.w.w.w.w.e.e.e.w.4.3.X.E U V s <   o - 3 i i d G H k k a p 8 > > ; - - X   X < s V L R R X.X.X.X.X.X.X.o.5.X.X.X.X.X.X.( ( ( ( ( ( ( ( E R L K A 3 - @ 3 Z K s @ o o 1 0 3 @     # ; 3 9 9 s d d d d d i i i i i 3 > > ; - - - ; > > 9 i i i p a y k J ^ ]  .^ H G a 8 > i G o.9.i.g.M.M.M.g.i.i.3.X.X.2.w.g.L.W.].$X,X,X%X,X3X3X6X7X8X8X8X7X3X,X#XQ.Y.B.i.O.L Z Z / O.O.| | #.r.B.W.Q.Y.M.r.2.E A s -     ; g ] %.q.l.z.z.z.n.l.d.d.s.0.#.O.^ J G g d a i * ; > d Z L G G G a i 4 ; o X X     . o - 3 3 4 m K U E | X.X.X.X.( T A V 0 @ o ; s g k k k k j a a a > > > > > ; ; > > > 3 9 i i 9 3 9 1 - o o o o & o - 3 9 s d d d B Z G Z Z Z K K Z Z B g d i > & o o o ; 3 4 s M s N V V V A K K K K U Y T R E X.",
"X.X.X.2.3.4.7.w.w.u.u.w.3.L Z L m.T._.R.T.|.m.H #.M.I.W.Y.Y.Y.o.D.q.B.I.L.E.I.r.9.d.] d.b.r.w.( S g Z L I / / L G g B L ( o.w.w.M.M.I.].%X3X#XB.L ]  .] |  .I d G I 0.M.N.9.k g #.#.[ k H *.l.C.m.m.n.z.l.d.q.*...[ J a @ o - ; - & & & - & # # - - - - - # O O O O O O o o O - ; < ; ; - & - - ; ; 3 9 s s 0 9 1 ; - - - - 3 0 s M Z L R X.o.3.6.w.w.w.e.e.w.6.2.1.E U V s < o X - 9 d a a a z z x k a p 8 8 > > ; & o X X - s V L R ( X.X.X.X.o.X.X.X.X.X.X.X.X.X.X.( X.( ( ( ( E E E E R Y L K B 3 & @ 1 d Z 0 - . . - 1 @     o ; 4 s d g g g d d d i i i i 9 9 3 > > > > > > > i i i i p a k k H ^  . .J g * 9 g I O.e.f.M.M.M.N.K.K.K.K.K.K.g.w.5.X.X.3.e.N.E.^.].#X$X,X3X3X3X1X,X%X#XOXQ.B.f.9.| L d i i Z L I I ^ O.d.Z.Q.#X#XQ.I.M.u.4.T C 1 o o i I *.s.z.x.x.z.x.n.l.s.d.q.*.@. .^ H G k a p i > 9 d Z G H G G k d i i ; o X   X o O - 3 s M C K T | | X.X.| E E Y K M 0 ; @ - 9 d g k k k k k j p 8 > 8 8 9 > > > > > 9 i i 9 3 ; - o o o o o o o & o @ & & - ; > > ; 3 3 3 9 s d B Z Z G L L G g i > - o o # - 3 s s N B V V V V V K K U U Y T E E ",
"X.X.1.3.3.3.7.7.w.w.w.6.I g I d.R.T.`.`.T.R...z i.Y.L.E.Y.Y.n.0.l.d.Y.I.I.L.N.O.m...9.b.n.r.2.G i k ^ @.#.#.O./ L g g G L X.6.w.p.b.L.Q.$X3X$XW.#.^ L | | G d a G 6.N.I.W.N.| i  .s.*.J H ..l.m.m.m.m.n.z.d.q.=.....] k ; o ; 0 3 3 > ; - - # @ # # # # # # # # O O o o o o O - < < ; - - % - - - ; 1 3 0 s s s 3 ; - - - - 1 9 9 s d B K Y ( X.3.6.w.w.w.w.9.6.2.X.T K m 3 o   o > d g Z k k x z z k a p t 9 9 > ; - $ X   o 4 s Z L R X.o.X.o.X.X.X.X.X.X.X.X.( ( ( X.X.X.( E R R R R E R R R L R Y B 3 ; ; 3 s d 9 @   . @ - X o o o ; 9 d g g g d i i 9 i i i i i i 9 9 9 8 i i i i i p p a z G J I J G k d a L O.w.i.M.M.M.K.K.K.N.M.M.M.N.M.M.N.M.u.6.3.3.w.i.M.N.N.L.Y.E.Q.Q.W.E.Y.B.M.r.#.| H p > & > i g Z L / O.r.Z.W.#X$X#X^.E.(.N.i.3.U s o @ a | 0.l.x.m.z.z.z.z.l.d.q.0.#...] I H G k a i t i d G H H G G Z g d d s ; o     o - < 3 s B K U T _ X.| | X.E R K A M 3 - o & 9 d g a k k k k k a t = > > > > > > 3 1 > 3 3 > - # o o o o - ; 1 1 1 1 ; ; ; - - - - - o @ # @ o # 1 4 s g G L I I L G g i > - O O - 3 s m C C C C B B V K K L U T T E ",
"E X.1.1.1.5.3.3.4.4.o.L d k 9.W.R.R._.`.R.d.G #.M.E.N.Y.Y.Z.9.T.O.Z.I.Y.I.N.6.b.Y.^ B.f.f.6.K d a J #.q.q.s.0.#.^ Z d g L | 7.e.p.M.L.W.#X,X%X#XB.| a G G p i G | M.Y.Q.].W.q.g I s.0. .H  .d.l.n.m.m.m.n.l.s.q.%.@. .H 9 @ ; s s d s 9 3 ; ; - # # # # # # # # O O o o O O O - ; ; - - O % - - - - 1 2 3 0 0 s 9 3 1 ; ; ; 3 9 9 9 s d B A L R X.o.3.6.6.6.6.3.5.X.Y V s < o   o 3 g g k g k x x x z a p t i i > ; - - o   X o 3 d Z L ( X.( X.X.X.X.X.X.X.X.X.( ( ( ( X.( ( E R R R R R R R R R R ( R L B 3 - o - 9 s s 3 o           o ; 9 9 d d d i i 9 9 i i i i i i i 9 9 d p p p a a k z G G z a i > i g | 6.t.i.f.M.N.N.M.M.N.N.M.N.N.K.N.K.L.K.K.K.N.M.b.N.B.B.B.L.I.Y.Y.Y.Y.Y.I.N.r.#.] I G a 9 > i g g G / 6.f.B.W.Q.#X#XOXQ.E.E.K.M.w.X.B # @ a | 0.s.l.z.z.l.l.l.d.d.q.0.#...] J G k k a i i a G L L G G G k a d d s ; o   X O < 1 m C K U R E E _ _ E E R K V s 3 # . o > d a a a k k G k a 8 > > > > > > > > 1 > - - @ o o o o - 3 4 s m m s s s s s s s 0 9 4 3 1 ; - # o o o # ; 9 g G L I I I L Z d 1 - o O < 4 s m m M N C C V V K K U T T E ",
"T E X.( X.1.5.5.o.X.G 9 p O.C.D.R.R.R.T.Z.] L b.N.I.I.E.Y.r.0.n.e.I.Y.B.n.n.^ Q.r.6.N.M.6.| d k ^ %.s.k.n.m.l.q.O.H p d B R 2.w.p.N.L.E.#X,X%X$XE.9.G i i d H | e.E.].$X$X].B.| k *.q.*.H ^ 0.s.z.m.m.m.m.n.l.s.-.%...] a @ # s s N V N s 4 1 1 ; < < - - - - - O O O O O O O - - - - # O O O - # < < 2 3 0 0 s 0 0 0 9 3 3 3 9 s 9 0 s d N Z L R ( X.X.X.X.o.o.E R K N 4 - X   ; d Z k k k k H H H z a i i i i > > > > - & o X   @ 3 d K Y ( o.( X.X.X.X.X.1.1.X.( ( ( ( ( ( ( E E R R R R R R E R Y T ( ( L Z i - . @ 9 d s 9 - o X     o & ; 9 i d d d i p d d i i i i i i i p p a k k z H H H a 8 > i g G I X.3.t.p.M.N.N.N.M.M.M.M.M.M.M.M.M.M.g.g.M.K.L.L.Y.W.Q.].].OX#XOX^.Q.Q.E.Y.n.t.#.| ^ I G Z g Z G L R O.r.N.E.].#X$X#X^.E.E.E.P.N.w.1.K - @ d ^ *.q.q.d.l.l.l.l.d.d.q.9.#. .^ J z k k a a a G H H G G k Z Z g d d s < X   o - 4 s V K U T R E X.| E R Y K A M 1 #   . - d a a a g k k Z a i > > 8 3 3 3 > > - - % o o o o - 1 s m m m C B B C C C V B C C C M m m m s 4 3 - o . o & 8 a G J I I ] L G g 3 - o o O 3 4 m m N C V V V V K K K U T T ",
"T T E E X.1.X.X.E B 9 g ..m.R.F.R._.R.m.O.k 6.M.L.L.E.Y.B.#.m.O.M.K.B.B.m.q.0.m.O.M.M.i.o.a k H =.z.C.C.F.D.x.j.0.^ a i d L X.w.u.M.K.E.#X%X%X%XOXB.O.G a k | 0.N.Q.$X1X=X$XQ.0.a  .q.q.^ J ..q.d.z.m.m.C.m.n.z.j.=.%...L ; o 3 s V L L V N s 4 3 3 3 3 1 1 1 1 - O O O O O O # - - # # O O O O # - < 2 3 4 0 0 s s d s s s s s s s 0 s s s N Z K L L L R R ( R T K V s 1 o X X ; g G G z z z z H G k a p p i i 3 i i i i i > & o o . o - 9 B E X.2.3.X.X.X.5.5.1.X.( ( ( ( ( ( E E E R R R R R T R ( E R R R R ( G i - o o 3 B s s 4 ; o X o @ ; 3 9 i s d d d d i i i i i p p a a k z z z k k i i d G / o.o.X.X.2.w.i.M.M.h.p.N.N.M.M.M.M.b.b.p.g.M.N.N.N.N.K.L.Y.Q.#X$X$X$X$X#XOXW.L.M.t.#.| | ^ H G Z G L I | O.r.N.Y.^.#X$X$X$X^.E.E.E.K.M.w.1.K ; @ 8 H ..#.*.q.q.d.d.d.s.d.q.#...] J H z k k a k G J H G G G G k g g d s s - X   o 2 m V K U T T E X.X.X.E R K V M 3 # .   & i g a a a k Z k d p i 8 8 > 3 > > - - o X   o o ; 1 s m N M C C C C B B V V V C C M C M C C C s 0 4 3 O o o @ 8 k J ^ ] ] I I G g i - X X o < 3 m m N C V V F K K K K K U U ",
"U R R E ( X.R L N > i ..l.Z.D.F.T.T.m.*.H ^ f.N.L.P.I.B.0.d.l.#.g.P.M.I.Z.#.D.O.6.M.i.o.L 8 H [ z.S.G.G._.G.x.z.q. .z p i B X.4.w.i.M.L.^.#X#X$X@XW.l.O.I I #.n.W.#X,X3X1X%X`.b.H J *.q. .H ^ @.0.q.l.n.m.C.C.m.z.j.-.*. .d @ # 4 B R E R K V s s s s s 0 3 1 1 < - # - - O O # # # # # O O O O O # - < 1 2 3 0 s s d d d d g g M s s d M d g Z K L L L R R R L L V N 4 - X X o 3 g G G z x x z z G k a p a p i i i i i d g d i g s ; @ - - ; 9 L ( 5.o.X.X.5.5.1.X.( ( ( ( ( ( ( ( ( E R R R R E ( ( T K L R ( L R ( R B > o . - ; 4 s 4 ; # @ - ; > 3 9 i i i p i i i i p a a k k z z k a p i 9 B / 3.w.w.4.X.X.X.1.w.i.p.M.J.M.M.M.M.M.M.b.g.g.i.e.w.w.w.w.u.e.f.N.L.E.Q.Q.W.Y.Z.b.t.#. .] I G G k k G I | o.6.i.N.W.].#X$X#X$X#X^.E.P.K.M.i.7.X.A - . & p ~ ..$.#.=.q.q.q.q.d.0.#. .^ J z z z k k H J J H z k z G g d d d s 4 O   . - 3 m A A U U T E _ X.E R L V M 4 # .   o 3 g a a a k a k d i i i i i 3 3 > * o X X X o < 3 s m N C N N C C V B F F F F V C M C C M M C m m s 0 5 O O o @ 8 k H ^ ] I J I J G d ; o X o - 3 e m m N V V V V F F K K K K ",
"K U T T T T A s 3 g  .d.m.D.T.D.D.m...G I e.M.L.M.P.L.N.O.T.I d.K.L.I.B.b.0.Z.^ f.M.e.X.d H ^ x.A.).|.|. XR.C.x.s. .G p 3 i L X.4.y.u.N.!.{.^.OXOXOXY.r.9.t.m.Y.#X$X3X3X1X3X#Xm.| k ..*.#.J H ^ #.=.s.l.n.m.C.C.C.x.j.0.#.G - o - d R E E L K N m N M M s s 4 3 1 ; - - - O O O O O O O O o o X . O O # # < 2 4 0 s s 0 s d B B B N B V V B B G L R R R ( ( R L L V s 1 o   X o 9 Z H G z H H x k z g p a a d i i 8 > i d d g Z B B B G K d 3 ; - d R X.X.o.o.o.X.X.X.X.X.X.( ( ( ( ( E R R R R T Y Y R R ( ( ( X.| ( R | | I Z 1 O o o - ; 1 ; ; ; ; > > 9 9 9 i i i i p a a g k k k k a p p i R 3.e.i.u.u.w.7.2.X.X.4.y.i.p.N.M.M.f.r.e.6.X.I G g i g Z G G G G L I | O.9.e.t.9.9.O.| L G k g p p g G I O.9.e.M.L.W.].#X$X$X$X#X].^.E.K.M.i.w.2.T N & . @ i J  .....#.0.q.q.d.d.0.@. .^ H z k z k z J ^ J G k a k k d s d d s - X   o 3 4 m V A U Y T E _ E E U K B s 1 o . . 1 d Z d p k k p p p i i i i i i i > o X   X - 4 s s M M m N V F V V V F F K F V V C C V V C m m C m m m 3 O o o @ > d G I ^ I I J J G g > o X X O < 4 s s m C B C B V V F K K U ",
"K T W U Y B 3 > d | d.n.m.Z.Z.m.r./ Z R e.M.N.N.K.L.L.r.O.N.| m.L.P.I.N...Z.l.| N.e.3.L t ^ z.x.R.|.XX|._._.F.x.j.=.~ a i i V ( 3.w.i.M.U./.^.Q.OX].Q.Y.B.m.W.OX1X1X3X3X3X1X#XW.9.d | ..#.^ a H ^ ..=.s.k.z.z.z.v.C.z.l.0.^ i @ & & K X.X.Y R V C N m s s s i 3 1 1 < - # o O O X + O X +     X   X X . o O < < 3 3 4 4 0 s m N B M d Z Z B Z L I I R | | / R L K C m ;     o 3 g G H H H J ~ H G g a a a k g i i 9 > > 9 d g g Z B B B G L L L 3 > > d G | | | X.( ( X.1.E E E E E E R R R L L Y R R R R E E ( X.X.| X.o.o.o.X.R K d ; o . @ > 3 > i 9 > i i i i d d d a g k a g G g a g i p | 6.e.i.e.e.i.r.w.3.3.o.O.3.9.r.r.9...J g a k G G |  .@.*.#.#.#.O...^ H a p i p a L G Z B d i 3 > i p k I O.r.N.B.Y.^.#X%X,X,X$X#X#X].W.I.N.f.w.4.E U 0 o . @ i H  ...$.#.9.q.s.d.r.*...] J G z z k H J ~ J H k k a k g i i d s 1 X     O < 0 M B A K U T E E R T K C s < o   . - g d a k k k a a a y p a a i i i 1 @ X . # 1 s s m M N C V V A V V V K K K K A V V V V V V B B C C m m 4 3 - o o @ > d Z L I I I L G Z d > @ . X o - 3 4 s m N m C N C V V V V K ",
"U U K A B 3 ; i I 9.b.b.n.m.n.9.G G R 9.g.M.M.M.N.N.g.w.f.o.M.B.L.I.L.b.| D.9.w.f.9.R g g @.x.S.|.XXXX|.|._.G.C.s.;.` j 9 > s T X.4.y.p.P.~.^./.#X#X#X].Q.Q.#X=X3X3X3X1X3X1X$XQ.f.L g | O.^ p p x ^ $.%.-.s.k.k.z.z.z.z.d...k ; ; > 9 X.( ( T K V B C C N g s s s 4 3 ; # o X o X + + +         . o X X X o o o # - < < 3 3 0 s d M g B B Z G L R R / | | R L L K C s #   X @ i k J J J I ~ / I J G z k k k k i i 9 > ; - & & - * - & & - i Z L / G d ; * 9 g L ( X.( ( 1.5.( W E E ( E T L L L Y Y R R R R R R ( ( / | X.o.O.o.o.X.R Z s > - & 3 > i i i i i i p d d d a g Z Z G g k a i G o.3.e.e.u.i.i.i.w.6.r.w.6.o.| L G d a k J  .#.*.#... . . .] ^ I J J J ~ I H p > & & * ; 3 > - & ; 3 9 g I O.r.m.W.Q.#X$X,X1X,X%X$X#X].^.Y.N.f.e.4.X.U V 3 . . @ 9 H  ...@.*.0.q.s.s.0.O. .^ H z z z k H ~ ~ H k a a a a d 9 9 i 3 #     . # 2 4 m B A K U T R T U K C s 3 O X   @ 9 a a k k Z k d d j j j a p i 9 3 # o o # 3 s m C C C C C V V A A K K K K K K A V V V V V C C C B C m s 4 1 # o o o ; d G L I R I I L G g i ; & o o O < 3 s s m m N N N V C N B V ",
"V V M s 1 - i I 9.r.d.d.l.r. .k d L 6.i.g.i.g.M.M.L.3.e.b.X.N.Y.L.L.L.0.9.b.| b.e.o.d 9 ] l.S.|.XX+X+XXXXX|._.S.k.>.@.J p ; 0 K X.4.w.p.L.W.^.^.OX#X$X$X$X$X=X6X3X3X1X1X1X1X$X].B.o.8 H  .^ a = i z ^ ..#.=.s.s.l.l.z.z.d.*.I p i g > L ( X.E Y K A V V V B B g s 4 3 - o X X X X X X X X X X X o o o o # # o . . o o o o @ & - 3 i d d g G L L / | | | X.( L K K N 0 O   . - d G ^ ^ ] ^ | o./ ~ J H H G G Z d d 9 ; @ . X X o   o - - - & @ @ i G | | G 9 ; ; 3 g L Y R ( ( ( R R T T E E R R Y Y Y R R R R R E R R R / | | X.X.X.X.( L B 3 @ 3 > d d p d p a d a g a g k G G g g d i G O.e.e.w.w.w.w.w.w.e.e.6.6.o.L B Z / 9.O.| L G g g k g g g g g G H I I I I I L k i > ; & & @ @ & - > i g I #.d.B.Q.$X1X1X3X3X1X,X$X#X].^.W.L.M.r.9.O.| A m - . . & i H  ...#.*.q.s.s.s.9...] ^ H z z z H I ^ I k a i p d p i 3 3 1 @ X   X O - 3 4 s C V K L U Y L V C 4 3 # X   o > g a k k k Z k g a j k k a p i ; o . o - 4 m C V V V V B V V A K K K K K K K K A V V V V C C B B V C m s 4 < # o o o ; s g Z G L L I I L G Z d 3 - o o o - 4 s s s m M C C C N C V ",
"M M 4 - - i I 6.r.e.q.r.9.^ a i ( 3.e.i.i.i.b.M.N.w.O.r.9.f.N.I.L.L.B.O.B...| r.9.L 3 d 9.D.G.XXoX+X+X+XXX|._.S.c.j.=.[ k > 3 V E 3.w.u.K.W.^.].].#X$X,X1X1X1X3X3X3X1X%X%X%X$X].I.9.i d I ^ g * * i G ^ ..#.=.q.s.s.s.q.q.#.] H G I Z g X.( ( Y U K V V V V V B m 0 < - o X X o o o o o O o % % - ; > 3 9 9 > - o o o o . . . X o & 3 i g Z L L / | | | | ( L L A M s - . X @ i G ^ ] ] ]  ...| ^ J J J G G G g d > o X   o - 1 s d B G L K Z d & > g I o.o.L Z 9 ; & 3 d V K L R R T T T T T T Y Y Y Y Y L L L R L L L L I I R R R R R R G i - 3 > d g a g d g g k k k G G G k g i i G O.e.e.e.w.w.w.6.6.e.e.9.o.L Z L o.6.o.L d B L | 3.9.9.9.w.9.9.9.9.6.3.3.6.O.o.o.o.| / / L Z d 9 i d B G  .9.b.Z.W.#X1X7X3X3X1X1X%X$X#X].^.W.B.f.9.O.X.R C 4 # . o * d J  ...#.0.q.s.s.r.#. .] I G z z z J ~ ~ H p 8 8 i p 9 > > ; o     X + O - 1 4 s m B A A K K V m s 5 - X   . - i g k k z G Z k k g k k k k i > @   o - 4 m V V V V V V V A K K K K L K K K K K A K V V V V V V V V C m s 4 1 # o o o - 3 9 s g G L L I I L L G g i ; O o O < 4 s s m M C C N N C V ",
"s 3 - @ 9 L 3.9.e.0.9.O.G i a I 2.w.u.r.i.M.M.M.b.I f.9.3.N.E.M.L.Y.r.6.W.H 9.9.O.d 9 / b.R.XX@X+X@X*X+XXX|.G.A.c.s.=...G 9 ; M U X.4.w.M.E.W.^.].OX$X1X3X1X=X3X1X1X,X%X%X$X#X].Y.r.H > G ^ z ; o & i k I  .@.#.=.0.0.*.#...] ^ ^  .O.g | ( E R U K V V V V V V M s 1 - o o o o o - 1 > 3 1 3 9 i i d d B g g d 3 > > ; - * & @ . . o & > 9 g L L R ( ( ( R Y K V M m 1 o   o > G I ^ ] ] | .. .^ J J J H H G k d - X   o ; s B A K K Y ( X.X.( K s - & s L o.O. .| L g > & > d B K R R Y U U T Y Y Y Y Y L L K K K L Y R R R R L L R L L A s > 9 > d g g k g z z z G G G G Z g g 9 K 6.6.w.i.6.w.9.6.9.9.3.| G d K R L B s g K X.2.4.w.p.M.p.p.u.u.u.u.u.u.u.u.g.r.r.f.b.M.M.M.f.r.9.o./ / o.6.d.n.Y.Q.#X%X3X3X3X1X1X%X%X#X].Q.W.Y.M.t.3.| R K M 3 o . o ; g I  ...*.0.q.r.q.0.O.| I I z k z z I I G p > * ; i i > - - o X     O o o - < 3 0 s B B C C C m s 4 < O     @ 9 d g k G H H z k k k k k k d > o . o 1 0 m B V V B B V V K K K K K K K K K K A A K K V V K K K K V V C m s 4 2 - O O . o # - ; 3 s d g Z G G K L K Z s 1 o o - 4 s s s m m M m m m m ",
"; o o i L o.9.9.9.O.I d i g / 6.6.w.i.r.i.M.M.f.O.O.r.O.i.K.L.L.N.I.| r.b.L 0.O.I i Z r.D.|.@X@X@X@X@X+XXX_.G.C.c.s.=...I i ; 3 K E 2.w.g.L.E.Q.Q.^.#X%X1X1X=X=X1X%X%X$X$X$X#X].W.f.o.* p ^ z ; o o - 3 g H | ....#.#.#. .] ^ ^ ] O.r.I L | R ( U K V V V V V B m 4 ; O o o o - ; > i d d d d d g g g a g B B B g d d d a a d p 3 & o . . o - i Z L R ( ( ( R Y K C m 3 o   . ; Z I ^ ] ] ] .. .^ J J J H H G g 9 @   X - 4 C F K R X.X.X.X.X.| X.X.L d 3 ; 9 g | ....|  .I d * ; > 0 B U Y T U K K K K K K K K L K Y Y R R Y L Y L L L K A d 3 9 > i g g G z G G H H H H G Z d s G o.w.6.6.w.w.9.3.3.3.X.L B Z ( K d B ( 3.6.4.5.3.4.w.y.i.i.i.i.i.i.u.y.y.y.u.g.g.M.M.M.N.I.Q.W.E.I.B.N.f.M.N.Z.W.OX$X1X3X3X3X3X1X1X1X%X#X^.W.E.I.b.9.O.| L V s ; o o o > k I  .$.*.0.q.q.0.9.O.^ I H z k G H | L g > & & ; 3 > - @ o X     . O O o # ; 1 4 0 M M m m m s 4 2 O     o 3 d g a k H H H z k k k G Z g 9 o   . 1 0 M B V V V V V V V K K K K K K K K A A A K K A V A K K K K V V C m s s 4 2 < < o # # @ @ @ @ @ @ & > 9 s B G K D s - o - 4 s m s m m m m m s 4 ",
"o o > G | O.6.O.| G 9 > g / O.6.w.u.e.e.r.r.0.9.] d.O.6.N.L.g.E.N.f.I b.| | 9.| a d | B.`.XX+X+X*X+X+X.X`._.F.C.x.z.q.#.^ d ; ; N Y X.2.u.N.I.W.E.W.].#X%X%X%X%X%X$X#X#X#X].].].W.N.6.i 8 L k > o o o - > d G / ]  ... .] ^ ^ ~ ] *.r.O.g L L Y L K V B V V C C s 3 - o o o - > i i d g g g g a g g a d d a g g g g a k G G G G Z d > * @ o o @ 9 g L R ( X.( R L V C 0 - . X & g J I ^ ^ ^ | ] ^ J H H G G k i - o   o 3 m C K Y R E R R ( X.o.X.X.X.X.R Z 0 ; & > g I  .#. .I d 8 ; > M K K K K K K K K K K K K K K K K K L L L L K K K K s ; 9 > d B G G G H H J I J H G g s g o.6.3.w.6.2.w.6.6.O.| L G L L d G | 3.w.w.e.u.u.w.4.2.3.7.w.u.y.u.u.u.w.w.u.p.u.u.p.p.p.M.I.^.#X].].].OX].`.W.].#X%X1X3X3X3X3X3X1X=X%X$X].W.Y.Y.B.b.9.O.| L V s - o o o > G ^ ..@.=.0.q.q.9.#. .^ J H z z J I I G 9 & o o - > - o X       + O O o O - ; 1 4 s d s s s s 4 2 % X   . 1 d g g k G H H z z z z k Z g 3 @   . - 0 m B A V V V F F K K K K K K K K A K K K K K K V V K K K K K V V B C m m m s s s 4 3 1 1 1 - # @ o o o @ - 1 s B V f 1 & - 4 s s m m m s m s 5 < ",
"o ; g I | O.O.I d > > g R o.2.3.7.7.w.e.r.0.O.^ 9.*.| i.M.K.K.K.B.9.| M.G O.O.^ i G 9.D.XX+X+XoX+XoX.X_._.R.F.C.C.m.d.*.^ d ; - s A R X.w.M.L.Y.Y.E.Q.#X$X$X$X$X$X#X].].^.Q.^.].E.I.e.G ; k Z d o X X o o ; d G I ^ ^ ^ ~ ~ ~ ~ | #.q.#.d g G B K A B C C C M m 4 1 O o o - 3 i d d a g k g a d d d d p d d d d i i i d Z Z Z Z g B g d i 3 & o o > B L ( X.X.R R V V m 2 o   o i Z H J J I ^ I ^ H H z k k d 9 o     O 4 m V U R R R ( X.o.X.X.X.X.2.3.5.X.R L Z > o ; g ^ O.*.#./ a ; @ 1 d K Y Y U K K A A V B B V V A K L L Y L K A K A s - s 3 g G L L J I J I ^ I G Z d s / o.6.9.6.6.6.3.o.o.I g G / I d X.O.6.6.7.7.w.e.e.w.w.6.6.3.3.3.6.w.w.w.w.w.w.e.u.u.u.p.g.M.L.Y.].#X$X%X@X$X$X@X$X%X1X1X1X1X3X3X1X%X%X$X$XQ.W.Y.B.N.r.9.O./ L V s # o @ @ 3 G ] ..#.=.0.q.0.9.#.| I G G k z J ^ G d & X X o & ; o X         + O X o O - - < 4 s s s s s 4 3 - o     - d B g g G H H H z k z z Z B 0 @   . 1 0 0 C V K V V V K K U K K K V V K K A K K K K K V V K K K K K K A V V V C V V C C V B M s s s s s s 0 3 - - @ @ - 3 N d 3 & - 4 s 4 s s s 4 4 4 < o ",
"o i G ^ O.o.G > - 9 B L | X.3.4.3.w.7.w.r.^ | #.*.L t.M.M.M.L.K.M.| 9.0.Z o.| G 8 | l.R.+X@X*X@X-XoX|.R.T.D.D.F.D.m.n.0. .g @ & 1 N L E 3.i.M.L.L.Y.W.Q.#X#X$X#X$X#X^.Q.Q.Q.Q.Q.E.B.r.I > > B i - o X X . o - 3 B G I J J J J J ] ..*.O.G d B 3 s N B M M M m 4 ; - o o # 3 i d g k Z k k k a d s i 9 9 3 > 3 > ; & @ & ; i d d d g G G Z G d ; . o 9 K R X.X.( R R K B 0 - o   - i G G G G L I H H G g k k i & X X o 1 m C U R ( ( ( X.X.X.X.X.5.5.5.5.5.o.X.X.( R B > & > G  .O.*.O.I i @ & 9 Z A K K K K V V V V V V V A K K K K K K V M 9 ; s ; G I ^ I I ^ I ^ ^ I Z g 9 R 5.3.3.6.w.3.7.o.X.| Z L | G G o.w.3.3.6.3.6.w.w.r.e.e.e.9.3.o.o.o.o.O.6.6.6.9.e.w.y.u.i.i.g.M.L.W.].$X$X%X=X=X=X%X1X3X3X3X3X3X3X1X%X%X$X#XQ.Y.I.N.M.t.#.o./ L V s - . o * i H ] ..%.0.0.0.0.#.../ I G k k L I G d ; o X X X o o X       X O O O X o - - - 1 9 s s s s s 4 3 O     o 9 g Z Z G H J z k z G k g g 9 #   . 1 s C C V V A A A K K L K K V V A K K K K K K K K K K K K K K K A V V V V V V A K K K A V V V B C C M M N s s 3 < - o : s B 1 & 3 4 4 4 4 4 4 4 3 - o   ",
"> g I | | G i > 9 d K R X.X.o.2.7.1.w.w.L O.O.O.| O.M.M.g.M.L.K.e.H b.O.d 6.| 9 p O.m.`.+X+X@X@XXXXXR.D.F.T.R._.F.D.C.d.*.H ; ; - s V L X.w.g.N.N.I.E.Q.].#XOXOXOX^.Q.E.Y.Y.E.E.I.L.b.| > - g g ; o X X X X o - i d G G H H J J ] ..*.#.G p g 3 ; 3 0 s s m 0 4 - o o o ; i g g g k Z k k g p 9 3 ; - & @ @ @ @ o o o . o o o o @ & i Z G G Z d 3 o o B R X.X.5.E E Y A M 0 - . o ; d g G G G Z G G k d i 9 - o   . - 0 C K U T E E ( ( X.X.X.X.5.5.5.5.5.o.X.X.5.E Y A 9 & > G  .#.*.#.] k = o 3 m K K K V V B V V V C B B B V V V V V B m 9 ; s ; K / / ^ ^ ] | ] ^ G Z > L ( 6.2.3.3.6.6.o.6./ d | / d L 6.r.6.6.3.O.3.6.7.w.6.6.O.| I G L I / / / / | o.O.o.w.w.u.u.u.e.g.N.Y.Q.#X$X@X=X=X=X%X1X3X3X3X3X3X1X%X%X$X#X].W.I.B.N.f.0.O.| R L V s - . o - d I [ $.=.q.0.0.*.@. .I G k g k H I G 3 $ X X   X X X         . O O o o O - - ; 1 0 s s s s 0 3 - X   X - d g Z G H J z z k k g g p i - o . - 0 M B V V A K K K K K K K V V V A K K K K K K K K V K K K K K K A V V V V A K K K K K K A V V V C C C M m s s s 4 < o ; s g 1 - 4 0 4 4 4 4 4 3 < O o X ",
"d G | | G > - 3 N K L R E X.X.X.5.o.5.L R O.|  .O.r.b.i.b.M.M.i.O.I b.| L o.H > z q.F.|.+X+X@X+X|.|.F.C.F.R.R.`.R.T.F.n.q.^ 9 - # 3 s V R 3.e.g.M.N.Y.W.Q.].`.Q.Q.Q.E.Y.I.I.I.I.N.L.M.o.3 & d g 3 % . X X   X o ; 9 a k z H J ~  .O.*.*.J a g d @ o - 1 0 4 2 1 # o @ ; s B G Z g g g g d s > @ @ @ o o o @ - - > 3 9 3 1 - - - o o @ > d G G Z g o   ; A E X.5.X.( R K A M 3 o   o - 9 d B g d g d i > - o .   X o 3 M A U T T ( ( ( X.X.o.o.o.5.5.2.2.5.5.o.X.1.E E E Z - & 8 I  .9.q.0...k & . 1 N V V V V B V V B C C C C C M C C C C m 9 ; 9 ; L | | | | |  .| H G 9 i | 5.3.5.6.5.3.2.O.Z d X.R G | 9.9.6.3.o.6.w.3.3.3./ I H H I | O.O...| | / I ^ | | / | X.3.6.w.e.b.N.I.Q.#X$X$X%X%X%X%X1X1X3X3X3X1X%X%X%X$X#XQ.E.B.n.b.r.9.O.| I L V m - . o - d ^  .@.=.q.0.*.*.O.^ I G g g G I H g - X                 X + O # O o % - ; ; ; 1 s s d s s 4 < o     o 3 g B Z G H J k k a a a g 9 - X . - 4 N V V V K K K L L L K K V V V V K K K K K K K K K V A A V V A K A A K K K K K K K K K K A A V V V C C M m m N m s 3 - ; s g > ; e s s 0 4 4 3 3 - o o O ",
"a L I G i - ; d V K U R T E X.X.X.o.K Z 9.I I o.t.f.r.i.b.p.p.6.I 0.#.k o.I p i ] z.R.|.+X+X@X.X|._.C.C.R.`.T.T.R.R.T.Z.l...a ; - < s V L X.9.e.i.M.B.Y.W.Q.Q.W.W.E.Y.L.L.N.N.N.N.M.i.3.d ; d g 9 - o o o X X X & > d k z H ~ ~ ..O.*.#.I g G G ; o . @ - - # # o o - 3 g G G Z g d i 9 3 ; # o o # - 1 4 s d g G L R R K B M s 9 ; @ o @ i Z G Z > o o 3 K ( X.X.X.R L Q V 0 #     X o ; s s 9 3 > - & o       o 1 m V K T E E ( ( X.X.X.o.5.5.5.5.3.3.2.5.5.1.1.<.( E Y N > & g ^ *.q.0.%.[ z o O 3 s C V V V V B C C C C C C C C C C M s 3 ; 3 ; I | | | | | | I G d > L ( 3.o.2.7.o.6.o.L d o.R g | e.3.6.3.w.6.o.o.o.K B L I | o. .| / | ..0.q.r.q.e.6.o.I G L / O.6.w.r.r.B.E.].$X$X$X%X%X,X1X1X3X3X3X1X%X%X%X$X#XQ.Y.m.n.b.r.9. ./ L K V m -   . ; g ] ..@.*.0.0.*.*.O.^ I G k G L I Z i o                   + O - - - O - < ; ; 1 4 s d M s 0 3 -       - i Z k k G H H k a d d g d - X X O 4 C V K K K K K K L U K K V V V V V A K K K K K K K K K K A V V V V V V K K K K K K K K K A K K A V V C C M M m m s s 3 - 1 d d > 1 s s m 0 0 4 3 1 o   o ; ",
"g L L i & - s B V V K U T E E X.( L g o.I L | O.e.r.e.g.i.r.i.o.G b.| i | I 8 g *.Z._.`.XX@X@X.X_.A.n.D.`.R.Z.Z.Z.T.T.T.C.0.J > - - 1 s Z R 3.6.e.i.b.B.Y.W.W.Y.Y.I.L.N.M.M.M.M.g.p.e.3.B ; 9 d i > @ o @ o . . @ ; i g G J ^ ` ....#.O.I k Z L g > o . o o o o o @ ; i g Z Z g d i > - @ o O O - 3 s B K L L L ( X.5.o.X.R Y L K B s ; . o 3 B g g > o o 9 K ( X.o.X.R U A m < o X     o - - - # o o X     X o 3 s Z K Y E X.X.| | X.X.o.5.5.5.5.5.2.3.2.5.5.5.1.1.1.E E U s o ; Z O.q.0.=...` i - o ; s B V V V B C C C C N N N C m m m s 4 ; ; ; R o. . . . .| L Z ; B / X.o.o.5.2.5.5./ s 6.X.d ( w.3.6.3.9.O.3.9.I i G O.X.o./ L L R / I L s d Z I o.6.e.r.6.O.o.| / o.6.e.i.B.Q.#X#X$X%X1X1X1X1X1X3X6X1X,X%X$X#X].W.Y.m.b.d.r.6.| / L K V s #   . ; k ]  .@.=.0.9.*.#...^ H k Z L I G d - o                   o O - ; - - - < 1 2 3 s d g d s 4 1 O     o > d G G Z G G z Z a d d i - o   - 3 m V K K U U L L K K K K V V V V V A A K K K K K K K K K K A K K K V V V K K U U U U U K K K K K K V V C C M M s m s s 4 ; 4 s s 1 4 m m m s s 4 3 < o   o 3 ",
"G L g - @ 3 M N V V K K Y T T R L d / | g L O.w.w.e.e.g.e.i.w.L ..9.^ k L G ; J d.F._._.XX@X@X`.R.x.m.R.`.Z.l.d.l.m.D.T.D.d. .i @ o - s M L X.O.6.w.i.b.B.I.Y.Z.L.B.N.M.g.g.i.i.e.e.w.3.B & > d a 9 ; & & & @ o @ > d Z H I ]  ...O.9...I G k H I d - o . X . o @ ; i d g g g d > ; $ o o O - 2 0 N K E X.X.o.o.3.6.w.4.2.X.X.( X.L L K 3 o o & d d i - o o 9 L | o.o.( Y A m 4 - o       X X   X           o < s B L R ( ( | X.o.o.o.o.2.3.3.3.5.5.5.2.5.5.5.1.X.X.1.1.1.T C 1 o > L *.0.0.*...I s o o 3 s C V V B C N M m s s m m m m m m 0 1 - ; / o.o..... .| / 9 > L ( 5.( 3.o.o.2./ d O./ 9 X.9.O.9.e.6.3.3.| B g O.r.o.G B K R ( ( X.3.6.6.o.R L Z Z K / |  .| L G G I o.e.M.Y.].#X$X%X,X1X1X1X1X3X3X3X1X%X$XOX`.W.I.n.M.d.r.9. ./ L G N 0 O   o > z ] ..%.=.0.*.*.#. .~ G Z G I I Z 9 @ X                   o - 1 ; ; < < 2 1 1 i s g B s 9 1 - .     o i a G G G G z k g a d i -     o 4 m V K K U R T U L K K K V V V V V A K A A V K K K K K K K K A K K K A V A K K U U U U U K K K K K K V V C C M m m m m s 4 ; 4 f i 1 s m m m s s 4 3 - X   o 4 ",
"G Z 9 & ; s M M V V V U U U U L B G | B L ( 3.w.w.w.w.u.e.e.| G d.] k I G > > O.m.R._.|.XX+XOX`.D.z.Z.R.n.#. .^ ] *.l.D.D.n.#.a - o - 4 s V ( X.O.6.e.i.M.B.m.m.N.N.M.b.i.r.u.u.w.6.3.5.B @ ; g k p 8 9 9 9 ; ; ; i B G I ]  ...#.#.9. .I H k H I G i ; @ o o # ; i g Z Z g i > o o o o O 2 4 m V L E X.2.3.4.9.3.9.w.4.2.X.X.X.2.( ( | L s @   ; 9 i i > o @ s L / X.( T U C 0 < - o X                   o < 4 B A L | X.X.X.X.O.o.o.o.2.3.3.2.o.o.5.5.5.5.5.1.X.X.X.1.1.E K C - o 9 / #.9.0.*.O.L 1 o % 1 s N B C C N m s s s s s s s m m s 3 o - / o...O.$...^ Z & g L X.X.X.3.1.o.X.K Z r.9 ( 3.X.6.6.o.w.3.| g L w.O.g d G ( X.5.3.7.w.4.1.5.1.o.X.( R Y L G ^  .O.O. .| I O.9.b.E.OX#X#X$X,X1X1X3X3X3X1X1X%X$XOXQ.W.I.B.b.l.r.9. ./ L D N 3 o   o 9 G  ...%.0.0.*.#.$.| J H G L / L d ; o                   + # < 2 1 1 1 1 3 4 4 s g B g 0 3 < O     X - d a k k z z k a d i 9 ; .   o 3 N V K L L R R T L L K K V V V V V V K K K V A K K K K K K K K A K K K K A K K U U U U U U K K K K K K V V C C m m m N M s s > i f i 3 s m s m s 4 4 2 O   X - i ",
"G i & * 0 s M M C V V K U U K F g | G Z L o.3.o.3.6.w.u.w.3.G O.0.I > G Z @ k 0.C.R._.|..X`.`.Q.C.z.D.Z...k p 8 i J %.m.D.Z.d.I ; o - 4 s B R R X.O.9.t.f.M.N.n.M.b.f.r.e.w.w.w.w.3.X.X.B @ - d k k a a g d s 9 s g L I ^  ...#.#.#.#.^ J H Z L / I G d 3 ; 1 3 s g G L G d > & o o o - 5 m C U T E X.X.2.3.3.9.3.9.w.4.2.X.1.1.X.2.3.o.| R g @ o > d B g ; o & d L ( E R T V n 2 < # o         O + o o O 2 0 m K K L | X.| X.o.o.o.X.X.X.o.o.X.o.o.5.5.5.5.5.X.X.X.X._ X.X.T V 0 o - G  .#.9.*.O.| g o X - s s C C C N N m m m s s s s m m s 3 . & / o...O.#...I & > B ( ( ( 5.1.6.5.( 9 w.g G 3.o.6.3.6.w.X.( i | e.X.Z G | X.1.3.3.3.1.2.3.3.3.3.1.( ( X.X.( | J H H ] O. .| L / 9.N./.#X$X$X%X1X1X3X3X3X1X%X%X$X#X`.W.Y.m.n.l.r.9.../ L V N 3 o X # i H  ...%.=.0.*.#...^ H L G I I Z > @                     o - 3 3 3 3 3 3 3 4 s s B B g 0 3 ; o     o - g a a g k k g a d 9 & .   o 1 s V K L R R R T K L L U K V V V V V V K K K K K K K K K K K K A V K K A K A K U U U U U U U U U K K K K V V C C m M m N m s 4 1 d g i 4 m m s m m 4 4 < o   X - i "
};
