/* XPM */
static const char *ceiling[] = {
/* columns rows colors chars-per-pixel */
"512 512 226 2 ",
"   c #0B0B0A",
".  c #141414",
"X  c #1C1C1C",
"o  c #181717",
"O  c #10100F",
"+  c #211E1C",
"@  c #1E201F",
"#  c #22211E",
"$  c #29231D",
"%  c #1C1E21",
"&  c #1E2123",
"*  c #242424",
"=  c #292624",
"-  c #2B2926",
";  c #242629",
":  c #26292B",
">  c #2C2C2C",
",  c #272727",
"<  c #312E2C",
"1  c #32312E",
"2  c #39322F",
"3  c #2D2E31",
"4  c #272F32",
"5  c #2E3133",
"6  c #2E353A",
"7  c #343434",
"8  c #393634",
"9  c #3B3936",
"0  c #343639",
"q  c #36393B",
"w  c #3C3C3B",
"e  c #373738",
"r  c #2F2F2F",
"t  c #211F21",
"y  c #413E3B",
"u  c #403B37",
"i  c #3E403E",
"p  c #44413E",
"a  c #49433F",
"s  c #3C3E41",
"d  c #373D41",
"f  c #413F40",
"g  c #3E4244",
"h  c #3D4448",
"j  c #444443",
"k  c #4A4643",
"l  c #4D4946",
"z  c #434649",
"x  c #464A4C",
"c  c #4C4C4B",
"v  c #484748",
"b  c #524E4B",
"n  c #524C47",
"m  c #55514E",
"M  c #59524E",
"N  c #4A4E51",
"B  c #474C50",
"V  c #4E5255",
"C  c #4E5459",
"Z  c #535453",
"A  c #5A5653",
"S  c #5D5956",
"D  c #525659",
"F  c #55595C",
"G  c #5C5B5B",
"H  c #575757",
"J  c #504F50",
"K  c #625D5B",
"L  c #615A57",
"P  c #5E605E",
"I  c #65615E",
"U  c #69625E",
"Y  c #5A5E61",
"T  c #565D61",
"R  c #645F60",
"E  c #5E6264",
"W  c #5E6568",
"Q  c #646363",
"!  c #6A6562",
"~  c #6D6966",
"^  c #626669",
"/  c #656A6C",
"(  c #6C6B6B",
")  c #686867",
"_  c #716B66",
"`  c #726D6A",
"'  c #766D69",
"]  c #75716E",
"[  c #79736E",
"{  c #7C786F",
"}  c #666C71",
"|  c #6A6E71",
" . c #6B6F78",
".. c #6D7175",
"X. c #6E7479",
"o. c #6E777C",
"O. c #737373",
"+. c #7A7572",
"@. c #7E7975",
"#. c #727679",
"$. c #757A7D",
"%. c #7B7B7B",
"&. c #787778",
"*. c #716F70",
"=. c #817B76",
"-. c #827D7A",
";. c #837975",
":. c #7E807E",
">. c #86817E",
",. c #89837E",
"<. c #8B867D",
"1. c #90857F",
"2. c #767C81",
"3. c #797E82",
"4. c #767C85",
"5. c #827F81",
"6. c #7D8285",
"7. c #7E8489",
"8. c #7B8589",
"9. c #7F8991",
"0. c #848383",
"q. c #8A8582",
"w. c #8D8986",
"e. c #82868A",
"r. c #85898D",
"t. c #8B8C8C",
"y. c #878887",
"u. c #918B86",
"i. c #928D8A",
"p. c #948A87",
"a. c #8C908F",
"s. c #95918E",
"d. c #99938E",
"f. c #979087",
"g. c #868C91",
"h. c #8A8E91",
"j. c #858F98",
"k. c #8D9295",
"l. c #8E9499",
"z. c #8D9798",
"x. c #939494",
"c. c #9A9592",
"v. c #9D9996",
"b. c #929699",
"n. c #95999C",
"m. c #9B9C9C",
"M. c #959897",
"N. c #928F91",
"B. c #A19B96",
"V. c #A29D9A",
"C. c #A09797",
"Z. c #9BA09E",
"A. c #A5A19E",
"S. c #A9A39E",
"D. c #B1A79E",
"F. c #969CA1",
"G. c #9A9EA1",
"H. c #9DA1A4",
"J. c #9EA4A8",
"K. c #98A2A3",
"L. c #A3A4A4",
"P. c #AAA6A3",
"I. c #ADA9A6",
"U. c #A2A6A9",
"Y. c #A5A9AC",
"T. c #ADABAA",
"R. c #A6A8A7",
"E. c #B2AEAB",
"W. c #B1AAA5",
"Q. c #B5B1AE",
"!. c #B9B3AE",
"~. c #AAAEB1",
"^. c #A6ACB0",
"/. c #ADB1B4",
"(. c #AEB5B9",
"). c #B6B3B2",
"_. c #BAB6B3",
"`. c #BCB9B6",
"'. c #B2B6B9",
"]. c #B5B9BC",
"[. c #BDBCBA",
"{. c #B7B8B8",
"}. c #B0B0AF",
"|. c #A39FA0",
" X c #C1BEBB",
".X c #C1BAB5",
"XX c #C2C1BE",
"oX c #CAC3BE",
"OX c #BBBEC1",
"+X c #BDC1C4",
"@X c #BEC5C9",
"#X c #C5C4C2",
"$X c #C9C6C4",
"%X c #CAC9C6",
"&X c #CCCCCA",
"*X c #C4C8CA",
"=X c #D1CECB",
"-X c #D0CAC6",
";X c #D3D1CE",
":X c #DCD4CF",
">X c #CBCED1",
",X c #CED2D4",
"<X c #D4D3D3",
"1X c #DBDCDB",
"2X c #D8D8D7",
"3X c #D1CFD0",
"4X c #E2DDDB",
"5X c #E5E1DE",
"6X c #DBDEE1",
"7X c #DDE2E4",
"8X c #E3E4E4",
"9X c #EBECEB",
"0X c #E8E8E7",
"qX c #F2EDEB",
"wX c #F4F1EE",
"eX c #EBEEF1",
"rX c #EEF2F4",
"tX c #F4F4F4",
"yX c #FAF6F3",
"uX c #FCF9F6",
"iX c #F5FAFC",
"pX c #FDFEFD",
"aX c #F4F7F9",
"sX c #EFF0EF",
"dX c #DEE0DF",
"fX c #BDC0BF",
/* pixels */
"-.@.+.+.+.+.O.] +.@.~ k 7 A -.t.r.8.r.z.r.7.h.k.r.r.g.h.h.l.l.b.h.k.k.k.k.k.k.k.k.k.k.k.h.h.h.h.h.h.h.h.h.k.k.k.k.k.k.k.k.k.k.k.k.k.k.h.h.k.k.k.k.k.k.k.k.k.k.b.k.k.k.k.h.h.h.h.r.r.r.e.e.e.r.r.r.e.e.e.8.8.8.8.6.e.e.e.e.8.e.e.8.8.e.e.e.e.e.8.e.8.8.6.6.8.8.e.r.r.r.r.r.r.r.r.e.e.e.e.r.r.e.e.r.t.t.t.h.h.g.g.r.r.r.r.r.r.r.g.g.g.h.g.r.r.e.e.h.r.r.e.#.#.O.Q I ! K ! y < s.yXuX;XV.i.s.c.i.i.i.i.i.i.w.w.i.i.s.i.w.w.i.s.i.w.s.s.i.i.w.w.w.w.0.>.>.>.>.0.q.q.w.w.q.q.q.q.q.q.w.w.q.q.q.q.q.q.q.q.>.>.>.>.>.>.>.>.>.>.>.-.-.@.@.@.@.@.+.+.+.+.+.+.+.+.+.+.+.+.] [ @.-.-.-.@.@.=.@.+.+.@.=.@.+.` ] ` ` ] K Z c o &XpX7XG.g.e.l.k.k.k.k.k.k.h.h.h.h.h.k.k.k.k.k.h.h.h.k.k.k.b.b.b.b.b.k.k.k.k.k.k.k.h.r.r.r.r.r.r.r.r.e.e.6.3.3.2.2.$.$.#.#.X.X.#.#.X.X.........| ........| | ( / / / / / / / / / ( | | | | | | / / ^ ^ ^ E E E Y Y Y Y Y Y G G D D D D D D D D D D D D D D V V V D D D V V D D D D D D D D D D V V V V N N N N x x N N N N x x x x v v x x c c k k Z c j j > X c w k c w e c c $.F * H G ( c c X c O.q.v.c.s.V.V.v.v.c.s.i.i.i.i.i.i.w.q.>.>.=.",
"-.@.@.@.@.@.@.+.@.-.@.A < 1 m Q 6.r.k.r.e.k.k.$.r.r.g.h.h.h.h.g.h.k.k.k.k.k.k.k.k.k.k.h.h.h.h.t.t.h.h.h.h.h.h.h.k.k.k.k.k.k.k.k.k.h.h.h.h.h.h.k.k.k.k.k.k.k.k.k.k.k.k.h.h.h.h.t.r.r.r.e.e.e.e.e.e.e.8.6.6.6.6.6.6.6.e.e.8.8.e.e.8.e.e.e.e.e.e.e.8.8.6.6.6.6.8.8.r.r.e.r.e.e.e.e.e.e.e.e.e.e.e.e.r.r.r.r.r.r.e.e.r.r.r.e.7.9.r.r.r.r.r.r.r.e.e.e.6.r.0.&...Y c j < 9 = = l s.wXuX:X).c.w.i.i.w.w.q.q.w.w.w.w.i.i.s.s.s.c.v.V.v.v.v.c.s.i.w.q.q.0.q.q.0.0.0.q.q.q.q.q.q.q.q.q.q.w.w.w.q.q.q.q.q.0.>.>.>.>.>.>.,.,.,.,.>.>.>.-.@.@.@.@.=.@.@.+.@.@.@.@.@.@.=.=.=.-.-.-.>.>.>.-.@.+.-.@.+.@.=.-.@.+.-.` ` ] ! ! G 9 > 2XpX/.h.h.b.g.k.k.k.k.h.h.h.h.h.h.h.h.h.k.k.k.h.h.h.k.k.k.k.b.b.k.k.k.k.k.k.k.k.k.h.r.r.r.r.r.r.r.e.e.e.6.3.3.2.2.$.$.#.#.X.X.#.#.X.....................| ( / / / / / / / / / / / / ( | | ( ( / / ^ ^ ^ E E E Y Y Y Y Y Y G F D D D D D D D D D D D D V V V V V V D D V V D D V D D D F F F F C V V V N N N c x c N N N N N c x x x x x N N V Z j c j w > : M.uX8X2X2X<X1XaXuXpXE > Z x.&.G c e e c q.v.V.s.v.v.v.c.c.s.i.i.i.i.i.i.w.q.,.>.=.",
"-.-.-.-.-.-.@.@.-.-.-.~ p < 9 v F $.k.e.%.r.h.e.e.r.g.h.h.g.g.r.h.h.k.k.k.k.k.k.h.h.h.h.h.t.t.r.r.r.r.r.t.t.t.h.h.h.h.h.h.h.h.h.h.h.h.t.t.h.h.h.h.h.h.h.h.k.k.k.h.h.h.h.h.t.t.r.e.r.r.r.e.e.e.e.6.6.6.6.3.3.3.3.3.6.6.6.6.6.e.e.e.e.e.e.e.e.e.e.8.6.6.6.6.6.6.8.e.e.e.e.e.e.e.8.8.8.8.8.8.8.8.8.e.e.r.e.e.e.e.8.e.e.e.7.7.7.7.r.e.e.r.r.r.e.e.e.h.x.O.( ( 7 , O.! -.>.s.$XuXuX;XA.c.i.i.w.q.q.w.q.q.q.w.i.i.s.s.i.s.c.v.V.V.v.v.v.v.s.i.q.q.>.>.q.0.0.0.0.q.q.q.q.q.q.q.q.q.w.w.w.w.q.q.q.0.>.>.-.-.>.>.,.q.q.q.q.q.,.>.>.-.@.@.@.-.-.-.@.@.@.-.@.@.=.=.-.-.-.-.-.>.,.q.q.q.>.>.>.-.@.=.-.-.@.+.>._ ` +.I ! Z * $.aXiXk.r.r.b.e.h.h.h.h.h.h.h.h.t.h.h.h.h.h.h.h.t.h.h.h.k.k.k.k.k.k.k.k.h.h.k.k.k.k.h.r.r.r.r.r.e.e.e.e.6.6.3.%.2.2.$.$.#.#.X.X.X.X...................| | ( / / / / / / / / / / / / / / / / / / / / / ^ E E Y Y Y Y Y Y Y F F F D D D D D D D D V V V V V V N N N V C D D D D C V D F F G Y G F D D V V N N N c x N N V V V N N x x x x N N V V N j Z j Z e 7 8XaXpXpX2XM.&.%.y.( $.; Y 9X( Z Q Z 7 : O.v.P.s.c.v.v.c.c.i.i.i.i.i.i.i.w.w.<.,.>.",
"-.-.>.>.>.-.-.@.-.+.+.+.! K A v > c ( 3.e.e.r.k.e.r.g.g.g.g.g.g.h.h.h.h.k.k.h.h.h.h.h.t.t.r.r.r.r.r.r.r.r.t.t.t.t.t.t.t.t.t.t.t.t.t.r.r.r.r.t.t.h.h.h.h.h.h.h.h.h.h.h.t.r.r.r.r.e.e.e.r.e.e.6.6.6.6.3.3.3.3.3.3.3.6.6.6.6.6.8.e.e.e.e.e.e.e.e.e.6.6.6.6.6.6.6.6.8.8.6.6.6.6.6.6.6.6.6.6.6.6.6.6.e.e.e.e.e.e.e.e.e.e.e.7.7.7.7.7.e.e.e.e.e.e.e.e.0.%.#.Q j k x.sXuXuXwXuXuXuX:XP.i.w.w.i.w.>.>.q.i.w.w.i.s.c.c.s.c.c.v.v.v.c.c.c.c.c.i.w.w.q.q.q.0.0.>.>.0.0.0.0.q.q.q.q.q.q.w.w.w.w.q.q.q.>.>.>.>.>.q.w.w.w.w.w.q.q.,.>.>.-.-.-.-.-.-.-.-.-.-.>.=.-.-.>.>.>.>.>.-.>.q.w.w.w.w.q.>.>.-.-.-.-.@.+.+.` ` +.! K 9 : 2XpX<Xh.k.e.r.h.h.h.h.h.h.t.t.t.r.r.r.r.t.t.t.t.r.t.t.h.h.h.k.k.k.k.h.h.h.h.k.k.k.k.h.r.r.r.e.e.e.e.e.e.6.6.3.3.2.2.$.$.#.#.X.X...............| ....| | ( / / / / / / / / / / / / / / / / / / / / / ^ ^ E E Y Y T Y Y Y F F F F D D D D V V V V V V V N N N N N N V D F F D D D D F G Y Y Y G F D D D V V N N c x N V V V V V N x x x c N N N V z c Z g c 7 o ( 0.y.0.( G Z Z c j 5 O OX9XO.( Z G w , G T.`.v.v.v.v.c.c.s.i.i.i.i.i.i.w.w.q.q.<.",
">.>.q.0.>.-.@.@.@.+.+.@.@.>.+.S > e j G 0.h.0.6.r.t.h.r.r.r.g.k.r.t.h.h.h.h.h.h.r.r.r.r.r.r.r.r.r.r.r.r.r.t.t.t.r.r.t.t.r.r.r.r.r.r.r.r.r.r.r.r.h.h.t.t.r.r.h.h.t.t.r.r.r.r.r.r.e.e.e.e.e.e.6.6.6.6.3.3.3.3.3.3.3.6.6.6.6.6.6.e.e.e.e.e.e.e.8.8.6.6.6.6.6.6.6.6.6.6.6.6.6.6.6.6.6.6.6.6.6.6.6.6.8.8.e.e.e.r.r.r.e.e.e.e.e.e.e.e.6.e.e.e.e.e.0.0.0.( &.Z t c.pXuX4X XE.W.P.v.u.i.i.i.w.i.w.q.w.w.i.i.i.s.v.v.v.c.V.V.V.v.c.c.c.v.s.s.i.w.w.w.w.w.q.q.q.q.q.q.q.q.,.,.0.0.q.q.q.w.q.q.q.q.0.>.>.>.q.q.w.w.w.w.w.q.q.,.>.>.>.>.>.>.-.>.>.>.>.-.>.>.,.q.q.w.w.w.w.w.q.w.w.w.q.q.>.-.,.>.>.>.>.-.@.@.` @.~ ] ` m = G pXeXG.r.h.r.6.k.t.t.t.r.r.r.r.r.r.r.r.r.r.r.r.r.r.r.r.t.h.h.h.h.h.h.h.h.h.h.h.k.k.h.h.r.r.r.e.e.e.e.8.6.6.3.3.3.2.2.$.$.#.#.X.X...........| | | ....| ( / / ^ ^ / / / / / / / / / / / / / / / / / / ^ E E Y Y G G G G Y F F F D D D D V V V V V N N N c c c N N N D F F F F D D F G Y Y Y G F D D D D V V N N N x N V D D V V N c c x x B x x v j Z c c c e , o e c k 7 * o o o > 5 ].pXx.) F F G Z > c <X0XE.m.v.v.c.c.c.c.s.s.s.s.f.i.w.w.w.w.",
"0.q.q.q.>.-.@.@.+.@.-.@.+.-.@.! S K f > c ( &.0.r.h.h.g.r.e.r.g.r.r.r.t.h.h.t.t.r.r.r.r.r.r.r.r.r.r.r.r.r.r.r.r.r.r.r.t.r.r.r.r.r.r.r.r.r.r.r.r.h.t.t.t.t.r.r.r.r.r.r.r.r.e.e.e.e.e.e.e.6.6.6.6.6.3.3.3.3.3.3.6.6.6.6.6.6.6.6.8.e.e.e.e.e.8.6.6.6.6.3.3.3.3.6.6.6.6.6.6.3.3.3.3.3.3.3.3.3.3.3.3.3.6.6.6.e.e.e.e.e.e.e.e.e.e.e.e.e.6.6.6.6.%.$.&.&.G e 9 q.tXpXQ.c.q.q.w.w.i.>.i.i.i.w.w.i.i.i.i.i.i.s.c.v.V.V.v.V.v.v.c.c.c.v.v.s.s.i.i.w.w.w.w.w.w.w.w.w.w.q.q.q.0.0.0.0.q.q.q.q.q.q.0.>.>.>.>.q.q.w.w.w.w.q.q.q.,.>.>.>.>.,.q.>.,.q.,.>.>.>.,.q.q.w.w.w.w.q.q.q.q.q.q.q.,.>.>.>.,.,.,.>.-.=.@.] >.~ ` ` m - c.pX2Xe.e.6.k.r.r.r.r.r.r.r.r.r.r.r.r.r.r.r.r.r.r.r.r.r.r.r.r.t.t.h.t.t.t.t.h.h.h.h.h.t.r.r.r.r.e.e.e.6.6.3.3.3.3.2.2.$.$.#.#.X.X.........| | | | | | ( / / / ^ ^ / / / / / / / / / / / / / / / / / ^ ^ E E Y Y G G G G F F F D D D D V V V V N N N c x x x c N N V D G Y G F F D F F Y G F F D V D D V V V V N N N V D D D D V N N N N N x x x v z c w Z Z c G w 7 X O > %.`.#X[.OXeXrXb.Q ( H H Z Z , S sXpX{.v.m.m.v.v.c.c.c.c.c.s.s.i.i.w.w.w.",
"q.q.q.q.>.-.-.>.-.-.>.>.+.+.@.+.@.0.K 8 8 w Z %.%.6.r.r.e.7.7.r.r.r.r.r.r.r.r.r.e.e.e.e.r.r.r.r.r.r.r.r.r.r.r.r.r.r.t.t.r.r.r.r.r.r.r.r.r.r.r.r.h.h.h.t.t.r.r.r.r.r.r.r.e.e.e.e.e.e.e.6.6.6.6.6.3.3.3.3.3.3.3.3.6.8.8.8.6.6.6.6.e.e.e.e.8.6.6.6.3.3.3.3.3.3.3.3.6.6.6.3.3.3.3.3.3.3.3.3.3.3.3.3.2.2.6.6.6.6.6.6.e.e.e.e.e.e.e.e.6.3.&.O.( Q G G v c 7 O.uXuX[.c.s.q.w.-.-.i.q.u.i.i.i.i.i.s.s.s.s.c.v.v.v.v.V.V.c.c.s.s.c.v.v.c.i.i.i.i.i.w.w.q.w.w.w.w.w.w.q.q.q.,.0.>.0.0.q.q.>.>.>.>.>.>.>.>.w.w.w.w.w.w.w.w.q.q.,.>.>.>.>.,.,.q.q.q.>.>.>.>.>.>.q.q.q.q.>.-.-.-.>.>.,.q.q.q.>.>.q.q.>.-.-.@.+.-.` [ ! A - c.uX].6.r.e.e.k.6.r.r.r.r.r.r.r.e.r.r.r.r.r.r.r.r.r.r.r.r.r.r.r.r.r.r.r.r.r.r.r.r.r.r.r.r.r.r.r.r.e.e.6.6.3.3.%.%.2.2.$.$.#.#.X.X.........| | | | | ( / / / ^ / / / / / / / / / / / / / / / / ^ ^ ^ ^ ^ E E Y Y Y G G F F F F D D D V V V V N N N x x x x x N N V D F G Y F F D D F F F F D D D V V V V V V V V V V D F F F D V N N N N N N c x x V v j c k z G H r.U.[.<X8X#Xx.6.r.6.^ F ^ D / H N j , x.tXpXI.v.|.V.V.m.v.M.M.M.v.c.c.i.i.w.w.w.",
"q.q.q.q.>.>.0.q.w.@.@.q.>.-.-.>.5.5.` ! K w > Z ( #.6.r.r.e.r.r.e.r.r.r.r.r.r.r.e.e.e.e.e.e.e.e.e.e.e.e.e.e.r.r.r.r.r.r.r.r.r.r.r.r.r.r.r.r.r.r.h.h.h.t.r.r.r.r.r.r.r.e.e.e.e.e.e.e.6.6.3.3.6.6.3.3.$.$.$.3.3.3.e.e.e.8.6.6.6.6.e.e.e.8.6.6.6.6.3.3.3.3.3.3.3.3.6.6.6.3.3.3.3.3.3.3.3.3.3.3.3.3.6.6.6.6.6.6.6.6.6.6.e.e.e.e.0.0.#.O.( G c j 7 7 1 G P.qXuX:XP.q.i.q.s.q.q.i.q.c.i.i.s.s.s.s.i.i.v.V.V.V.V.v.v.v.v.c.s.c.v.v.c.s.w.i.i.i.i.i.w.w.q.q.q.q.q.q.0.>.q.q.0.>.>.>.0.0.>.>.>.>.>.>.0.0.w.w.i.i.i.i.i.i.w.q.q.>.>.>.>.>.q.q.q.q.>.>.>.>.,.q.q.w.q.q.>.-.q.q.,.>.>.-.-.-.-.>.q.q.>.-.-.=.+.+.[ =.K S - O.0Xx.3.h.h.X.z.e.r.r.r.r.r.e.e.e.r.r.r.r.r.r.r.r.r.r.r.r.r.r.r.r.e.e.e.e.e.e.r.r.r.r.r.r.r.r.r.r.e.e.6.3.3.%.%.%.2.2.$.$.#.#.X.X.......| | | | | ( / / / ^ ^ / / / / / / / / / / ^ / / / ^ ^ ^ ^ ^ ^ E E E Y Y Y G G F F F D D D V V V V N N N c x x v x x N V V D F G G F D D D D D D D D D C C V V V V V V V V D F G Y Y F D V c N N V V N N c z v Z c Z G F ( #.r.r.e.0.) H / E z / / D Y Z E D w 7 2X9XuXm.L.L.L.L.V.m.m.m.m.v.c.c.s.i.w.w.w.",
"w.w.w.q.q.q.q.q.-.q.0.-.>.w.w.>.+.-.-.>.-.S 9 9 7 P ( ^ $.e.e.e.e.e.6.r.h.e.6.r.e.e.e.e.e.e.e.e.r.r.r.r.r.r.r.r.r.r.r.r.r.r.r.r.r.r.r.r.r.r.r.r.r.r.r.r.r.r.r.r.r.r.e.e.e.6.6.6.6.6.6.6.6.3.3.3.3.3.3.3.3.3.3.3.6.6.6.3.3.6.6.6.6.6.6.6.6.6.6.6.3.3.3.3.3.3.3.3.6.6.6.6.6.3.3.3.6.3.3.3.3.3.3.$.7.7.e.7.$.3.e.3.e.3.e.k.0.%.y.&.! ( Z g : G &.&.E.5XuXuX%XA.i.u.w.q.q.q.w.w.i.i.i.i.s.c.c.c.c.c.c.v.V.V.B.v.v.v.c.c.c.v.v.c.s.i.w.i.i.i.i.i.w.w.w.w.w.w.q.q.q.q.q.q.>.>.-.-.>.>.>.>.>.>.>.>.>.>.w.i.i.i.w.q.q.q.q.q.q.q.q.q.q.q.q.q.q.>.>.>.>.>.q.q.q.,.>.>.>.>.>.>.,.q.q.,.>.>.q.q.q.,.>.-.-.=.@.[ @.+.] A 7 c #Xx.$.6.g.6.e.g.e.e.e.e.e.e.e.e.r.r.r.r.r.r.r.r.e.e.e.e.e.r.r.r.e.e.e.e.e.e.r.r.r.r.r.r.r.r.r.r.e.e.6.6.3.3.%.%.2.$.$.#.#.X...............| | | | | ( / / / / / / / / / / ( ( / / ^ ^ ^ E ^ ^ ^ E Y Y Y Y Y Y Y F F F F D D D V N N N N x x x v x v z z x N D F F F F F F D D D D D D D D D D D V V V V V D D F Y Y Y Y G F D V N V V V D V V V c c c Z F E Q Q / ) Q Q E Y G G D F F F F F F F j c s $XpX&XL.x.m.M.M.M.b.b.v.v.v.c.s.s.i.i.i.w.",
"w.w.w.w.w.w.q.q.>.q.q.>.0.w.q.-.=.-.@.=.-.` K ! G * > / #.^ ..e.e.r.r.e.e.e.r.r.e.e.e.e.e.e.e.e.e.e.e.e.r.r.r.r.r.r.r.r.r.r.r.r.r.r.r.r.r.r.r.r.r.r.r.r.r.r.r.e.r.e.e.e.e.6.6.6.6.6.6.6.6.6.3.3.3.3.3.3.3.3.3.3.6.6.3.3.3.3.3.6.6.6.6.6.6.6.6.6.3.3.3.3.3.3.3.3.3.3.3.3.3.3.3.3.6.3.3.3.3.3.3.3.8.6.7.8.2.6.e.3.e.6.0.e.%.%.%.( &.k > ] T.9XtXqXuXyX:XI.i.w.s.c.w.w.q.q.w.i.i.i.i.s.s.c.c.c.c.c.c.v.v.v.v.v.v.v.s.s.i.s.s.s.i.i.i.i.i.i.i.i.w.w.w.w.w.y.q.q.q.q.q.,.>.>.-.-.>.>.>.>.0.0.q.q.q.q.i.i.i.w.w.q.q.w.>.>.,.,.,.,.,.,.q.q.q.>.>.>.,.,.q.q.q.q.,.,.q.q.,.q.q.q.q.q.q.,.w.w.w.q.q.,.>.-.-.+.+.=.@.! k 7 L.T.r.6.6.6.7.6.e.e.e.e.e.e.r.r.r.r.r.r.r.r.r.r.e.e.e.e.e.e.e.e.e.e.e.e.e.e.r.r.r.r.r.r.r.r.r.r.e.e.6.6.3.%.$.$.2.$.$.#.#.X.X.............| | | | | / / / / / / / / / / / / / / / ^ ^ ^ E E E E Y Y Y Y Y Y Y Y F F F F D D V V N N N N x x x x z v x c V D F Y D F F D D D D V D D D D D D D D V V V V D F F G Y Y Y F F D V N N N V V V V V V N N Z F E ^ ) / Q ^ Q E Y G F F D D F F F F F F G j > OXpX[.M.m.&.6.3...O.y.x.t.v.c.c.c.i.i.w.i.",
"q.w.w.w.w.w.w.w.q.w.w.q.q.w.0.@.,.-.@.=.>.=.@.w.&.Q m 7 , w E #.3.e.h.r.6.r.h.e.e.e.e.e.e.6.6.6.e.e.e.e.e.r.r.r.e.r.r.r.r.r.r.r.r.r.r.r.r.r.r.r.r.r.r.e.e.e.e.e.e.e.e.e.6.6.6.6.6.6.6.6.6.6.6.6.3.3.3.3.3.3.3.3.3.3.%.%.3.3.3.3.3.6.6.6.6.6.6.3.3.3.3.3.3.3.3.3.3.3.3.3.3.3.$.$.3.3.$.$.$.3.3.3.6.4.7.7.3.7.e.3.3.$.#.O.O.&.( K k - q.uXuXuX9XW.P.V.d.u.p.d.d.q.w.w.w.w.i.i.i.i.i.s.s.c.c.c.c.v.c.v.v.v.c.c.c.c.s.i.i.i.i.i.i.w.i.i.i.i.i.i.i.w.w.w.w.y.q.q.q.q.>.>.>.-.-.-.>.>.>.>.>.0.q.w.w.i.i.i.w.w.q.q.w.w.,.q.q.q.y.q.q.q.q.q.q.,.,.q.q.q.q.w.w.w.q.q.q.w.q.q.q.q.q.q.q.q.w.w.w.w.q.q.,.>.>.@.@.>.@.] S * y.2XG.6.2.r.e.3.e.e.e.e.e.r.r.r.r.r.r.r.r.r.r.r.r.e.e.e.e.e.e.e.6.6.e.e.e.e.r.r.e.r.r.r.r.r.r.r.e.e.6.6.3.$.$.$.2.$.$.#.#.X.X.X...........| | | | } / / / / / / ^ ^ ^ ^ ^ ^ ^ ^ ^ ^ ^ ^ ^ E E Y Y G G F G G Y Y G F F D D V V V N N N N c x x x x x N V D F F G D D D D D V V V D D V D D D D D V V V D F F Y Y G F F D D V V N N V V V D D D V V D F Y ^ / / / E E Y Y F F F D D D F F F F F F V 5 > [.0Xr.) 6.( G j z G G Q %.t.c.c.c.c.i.w.s.",
"w.w.i.i.i.i.i.w.q.w.w.q.q.q.>.@.-.-.=.-.>.-.-.>.%.c.q.] ( 7 * Q $.%.r.t.e.r.t.3.e.e.e.6.6.6.6.6.6.6.e.e.e.r.r.r.r.r.r.r.r.r.r.r.r.r.r.r.r.r.r.r.r.r.e.e.e.e.e.e.e.e.e.6.6.6.6.6.6.6.6.6.6.6.6.6.3.3.3.3.3.3.$.$.$.$.$.$.$.$.3.3.3.3.6.6.6.6.3.3.3.3.3.3.3.3.3.3.3.$.$.$.$.$.$.$.$.$.$.$.$.$.3.6.8.4.7.7.7.e.e.$.O.( ( ( Q S j k - s.qXuX:XP.q.q.-.q.p.p.d.d.d.i.u.w.i.i.i.s.i.i.i.s.s.s.s.s.c.v.c.c.v.v.c.s.s.s.c.s.i.i.i.i.i.i.i.i.i.i.i.i.i.i.w.w.w.y.q.q.q.q.-.-.-.-.-.>.>.>.-.-.>.>.q.w.w.i.w.w.w.w.q.q.q.w.q.q.w.w.t.w.w.w.q.q.q.,.q.q.q.q.q.w.w.w.w.q.w.w.q.q.w.w.w.w.q.q.q.q.q.q.q.>.>.>.-.>.>.q.O.~ G * h.iXU.e.3.r.e.6.e.e.e.e.r.r.r.r.r.r.r.r.r.r.e.e.r.e.e.e.e.6.6.6.6.6.6.e.e.e.r.r.r.r.r.r.r.r.r.r.e.e.6.6.3.$.$.$.$.$.$.#.#.#.X.X.............| | | ( / / / ^ ^ ^ ^ ^ ^ ^ ^ ^ ^ ^ ^ ^ ^ ^ E E Y G F F F F F F G G F F F D D V V N N N N N c x x x N N V V D D D D V V V V V V V V V D V C V D D D V V D D F F F G D D V V V V D D V V D D D D D D V D F E ^ ^ ^ ^ G F F F D D D C D C D D F D D D F N X s ( / Y g 5 : O O % o , Z ! y.c.c.c.i.i.c.",
"i.i.s.s.s.s.i.i.w.w.q.q.q.q.0.-.-.@.-.>.-.=.@.@.@.q.q.I.[.Q # c 3.6.e.r.e.e.e.6.6.6.6.6.6.6.6.6.6.6.6.e.e.e.e.r.r.r.r.r.r.r.r.r.r.r.r.r.r.r.r.r.r.r.r.e.e.e.e.e.e.e.6.6.6.6.3.3.6.6.6.6.6.3.3.3.3.3.3.3.3.$.$.$.$.$.$.$.$.$.3.3.3.3.3.3.3.3.3.3.3.3.3.3.3.3.3.3.$.$.$.$.$.$.$.3.$.$.3.$.$.$.6.8.7.8.8.7.7.7.3.| Q j f 7 - - u ` _.0XuX;Xw.>.c.q.d.B.C.p.<.1.d.B.i.i.i.i.i.i.i.i.s.s.s.s.s.s.c.c.s.c.c.c.s.s.i.i.c.s.s.i.s.s.i.i.i.i.i.i.i.i.i.i.w.w.w.w.q.q.q.q.-.-.>.>.>.>.>.>.>.>.>.q.q.w.w.w.w.w.i.i.w.w.w.w.q.q.w.w.w.w.q.q.q.q.q.,.q.q.q.q.q.w.w.w.w.q.q.q.q.q.w.w.w.w.q.q.q.q.q.>.>.>.>.>.-.-.>.>.] I l - [.pXH.e.6.e.3.6.6.e.e.e.r.r.r.r.r.r.r.r.r.e.e.e.e.e.e.e.6.6.6.3.6.6.6.6.e.e.e.e.r.r.r.r.r.r.r.r.e.e.6.3.3.$.$.$.$.$.$.#.#.#.#.#............. .| | ( / / ^ ^ ^ ^ ^ ^ ^ ^ ^ ^ ^ ^ ^ ^ ^ ^ E Y Y F F F F F F F F F F F F D D V V N N N N N N c x x N N V D D D V V V V N N N V V V D D D D D D D D V D D D D D D D V V V V V D D D D D F F F F F F V D F E ^ ^ E Y F D D D D D V V D C C C D D D C c N 5 4 7 * > & : r.@XOXT.3.j , w ( i.c.i.c.c.i.",
"s.s.c.c.c.s.s.i.w.w.q.q.q.q.q.>.-.@.=.>.=.-.,.-.-.-.q.i.w.@.A < 3.k.h.6.6.3.3.e.3.3.3.3.6.6.6.6.6.6.6.6.e.e.e.e.r.r.e.e.e.e.e.e.r.r.r.r.r.r.r.r.r.r.r.e.e.e.e.e.6.6.6.6.6.3.3.3.3.3.3.3.3.3.3.3.3.3.3.3.$.$.$.$.$.$.$.$.$.$.3.3.3.3.3.3.3.3.3.3.3.3.3.3.2.3.2.2.3.$.$.$.$.$.3.3.$.3.3.$.$.$.6.e.7.4.8.8.4.7.$.^ Z w ! @.( 0.E.qXyXuX=Xq.V.s.@.<.,.q.p.d.d.d.p.u.i.i.w.i.i.i.i.i.s.s.s.i.i.i.s.c.s.s.c.c.s.i.i.i.s.s.i.i.s.i.i.i.i.i.i.w.w.w.w.i.w.w.w.w.q.q.q.q.>.>.>.>.>.>.>.>.q.q.q.q.w.w.w.i.w.i.f.s.f.i.i.i.w.w.i.i.w.w.w.q.q.q.q.,.,.q.q.q.q.w.u.w.w.q.q.q.q.q.q.q.q.q.q.q.q.q.q.>.>.>.>.>.>.=.@.+.@.S 1 c eXpXn.t.h.7.2.e.6.6.e.e.r.r.r.t.r.r.r.r.r.e.e.e.e.e.e.6.6.6.3.3.3.6.6.6.6.e.e.e.e.e.e.e.e.e.e.e.e.6.6.3.3.$.$.$.$.$.$.#.#.#.#.#.X...X...........| / / / ^ ^ ^ ^ ^ ^ ^ ^ ^ ^ E E E E E E E Y Y G F F F D D D D D F D D D V V V V N N N N N N N x B N V D F F D D N N N N N N V V D D D D V V V V V V D D D D V V D D D D D D D D F G Y Y Y G F F F F Y E E E E G D D D D D V V V C C C C C C V V ^ V g g z z 0.T.>X6XOXr.$.%.$.&., c @.c.i.c.c.w.",
"c.c.c.s.s.s.i.i.i.i.w.w.w.w.q.>.>.@.>.<.=.,.i.,.,.@.w.c.-._ A 7 G b.G.3.3.6.$.e.3.3.3.3.3.3.6.6.6.6.6.6.6.6.e.e.e.e.e.e.e.6.6.6.e.e.e.e.e.e.e.e.e.e.e.e.e.e.e.e.6.6.6.6.3.3.3.%.3.3.3.3.3.%.%.%.3.3.3.$.$.$.$.$.$.$.$.$.$.3.3.3.$.3.3.3.3.3.3.$.3.3.3.3.3.3.3.3.3.$.$.$.$.$.3.6.$.3.6.3.$.3.8.r.7.4.8.7.7.7.$.E f H <XpXyXyXuXuX=XS.i.@.w.q.d.u.c.d.d.d.d.d.f.p.i.i.w.w.w.i.i.i.i.i.i.i.i.i.s.c.i.s.c.c.s.s.s.s.s.s.i.s.s.s.i.u.i.i.w.w.w.w.w.w.w.w.w.w.q.q.q.q.0.0.q.q.0.>.>.-.q.q.q.q.q.w.w.i.w.w.i.i.i.i.i.i.d.s.s.f.i.w.w.w.q.q.q.>.>.>.,.,.w.u.i.i.w.q.q.,.,.q.q.q.q.q.q.,.q.q.,.>.>.>.>.>.-.-.-.! ] l - A.pX2Xh.r.k.e.6.7.6.6.e.e.r.r.t.h.r.r.r.e.e.e.e.e.e.e.6.6.6.6.3.3.6.6.6.6.6.6.6.6.e.e.e.e.e.e.e.e.6.6.6.3.3.%.%.%.$.$.$.#.#.#.#.#.X.X.X...........| / / ^ ^ ^ ^ ^ ^ ^ ^ ^ ^ E E E E E E Y Y Y Y Y F F F D D D C C D D D D V V V V N N N N N N N N c N V D D D D V N N N c N N V D D D D D V V V V V V V D D D D D D D F F F F F F Y Y Y Y Y F F D Y Y Y E E E T F C C C C C V V V C C C C C C V V z D D x t.<X9XY.6./ D F E E G H 7 > ! P.V.c.v.w.",
"c.c.s.s.i.i.i.i.s.i.i.s.i.w.q.>.q.>.w.i.>.q.i.-.>.s.i.q.d.q.! A > k.Y.3.6.r.$.3.3.3.3.3.3.3.3.3.6.6.6.6.6.6.6.6.6.6.6.6.6.6.6.6.6.6.6.6.6.6.6.6.e.e.e.e.e.6.6.6.6.6.6.3.3.3.%.%.3.3.%.%.%.$.$.$.3.3.3.$.2.$.$.$.$.$.$.$.2.3.3.3.$.3.3.3.3.3.3.$.3.3.3.3.3.3.3.3.3.3.$.$.$.3.3.6.$.3.6.3.$.3.e.g.e.8.8.e.e.e.2.) w J &X8XW.E.P.B.w.@.q.w.c.>.i.u.d.f.i.p.p.p.d.c.i.w.w.q.w.w.i.i.i.i.i.i.i.i.i.s.i.s.c.c.s.s.s.s.s.s.s.s.c.s.i.w.i.w.w.w.w.w.w.w.w.w.w.w.q.q.q.q.q.q.q.q.q.>.>.-.>.>.>.0.q.w.w.w.w.w.w.q.q.w.w.i.s.s.f.w.w.q.q.q.q.q.q.>.>.>.>.>.u.i.i.i.w.q.,.,.>.>.,.q.q.,.>.>.q.,.>.-.-.-.>.>.@.>.q.I ! 9 1 aXiX~.$.6.h.6.6.3.6.6.e.e.r.r.t.h.r.r.r.r.e.e.e.e.6.6.6.6.6.6.3.3.6.6.6.6.6.6.6.6.6.6.6.6.6.6.6.6.6.6.3.3.3.%.%.3.$.$.$.#.#.#.#.#.X.X.X...........( / / ^ ^ ^ E E ^ ^ ^ E E E E E E E Y Y Y Y Y Y F F F D D V V V D D D V V V V V N N N N N N N N N N V V V N N x N N c c N V V C D D D C V V V N N V V D D D D D V D F G Y Y Y Y Y Y Y Y Y F D D Y Y Y Y Y T F D C C C C C C C C C C C C C V V V D N D N Q Q O.D N D E Y D Y Q G c * S }.E.v.V.i.",
"v.c.s.i.i.i.i.i.s.s.i.i.i.w.q.q.q.q.q.q.w.i.i.w.w.w.w.w.q.>.+.S > #.0X8.3.6.3.3.$.$.2.2.2.2.3.3.3.3.3.3.6.e.6.$.r.3.3.6.6.7.6.$.6.6.6.6.6.6.7.7.e.e.e.e.7.6.6.6.6.6.3.3.3.$.$.$.$.$.$.$.$.$.$.$.$.$.2.$.2.$.$.$.2.$.$.$.2.2.6.6.$.3.3.3.3.3.3.%.$.$.%.3.3.3.%.%.6.3.$.3.6.e.8.6.3.3.3.%.$.3.e.h.e.7.e.e.e.e.3.| G , @.3Xi.w.i.-.>.>.>.q.w.u.w.w.s.s.d.d.d.s.i.i.w.w.i.i.i.i.w.w.i.i.w.w.w.i.i.s.c.c.c.c.c.s.s.s.c.s.s.c.s.i.w.i.s.i.w.w.w.w.w.w.w.w.w.w.w.w.q.q.q.q.q.>.>.>.-.-.>.>.-.-.q.q.w.w.w.q.w.w.w.q.w.i.c.s.i.w.w.w.w.w.0.0.0.0.0.>.>.>.s.w.q.>.0.q.q.0.>.q.q.q.q.q.q.>.q.q.>.>.>.-.-.-.-.@.+.! b - }.iX2XG.$.r.k.3.#.6.6.8.6.6.e.r.r.e.r.e.e.e.8.6.6.6.6.6.6.6.6.6.3.3.6.6.6.6.6.6.6.6.6.6.6.6.6.6.6.6.6.6.3.3.3.3.%.%.$.$.$.#.#.#.#.#...........| ( / ^ ^ ^ ^ ^ ^ E E E E E E E E E E E E E E Y Y Y Y G F D D V V D D D D D D D D D D V V N N N c c x N V V V V V N N c c N N V V D D V V V V V V V N V V V D D F D D V D D F Y E ^ ^ / / ^ ^ Y F F D F F F F D D D D D V V V V V D D D C D V V V V V N N N V D D D D D D D F F G G G v j k ).0XL.c.V.",
"c.s.i.i.s.s.s.s.c.s.i.i.i.i.w.q.w.q.q.w.i.i.i.i.w.w.i.i.q.q.@.G : #.eXk.6.#...$.$.2.3.3.3.3.3.3.6.6.6.3.$.$.7.k.$.#.3.6.$.$.6.6.6.6.6.6.6.7.e.e.e.e.e.7.6.6.6.6.3.3.3.3.%.$.$.$.$.$.$.$.$.$.$.$.2.2.2.2.2.2.$.$.2.$.$.$.2.2.4.6.2.$.3.3.3.3.%.%.$.$.%.3.3.%.%.%.3.%.$.%.6.6.6.3.3.3.3.%.$.3.e.r.7.4.7.e.6.6.$.( G * 0.0XP.q.-.q.>.>.,.q.w.u.u.w.s.s.s.s.i.i.u.w.w.w.w.i.i.w.w.w.i.i.w.w.w.i.s.s.c.c.c.c.s.s.s.s.c.s.i.c.s.i.w.i.i.i.w.w.w.i.i.i.w.w.w.w.w.w.w.w.w.q.q.q.q.>.>.>.>.>.-.>.>.q.q.q.w.w.w.i.i.w.i.c.s.s.i.w.w.w.w.w.q.0.>.>.>.0.q.q.s.w.q.q.q.q.q.0.q.q.q.q.q.>.>.>.-.-.>.>.-.-.-.-.=.-.+.~ 9 w <XiXY.r.$.6.r.7.6.e.6.6.6.6.e.h.h.e.r.e.e.8.6.6.6.6.6.6.6.6.6.6.3.3.6.6.6.6.6.6.6.6.3.6.6.6.6.6.6.6.6.6.3.3.3.3.%.%.$.$.#.#.#.#.#.#...........| ( / ^ ^ ^ ^ ^ ^ E E E E E E E E E E E E E Y Y Y Y Y F F D D V V D D D D C D D D Z D V V N N N N N N N N V V V V N N N c N N N V V D V V V V V V N N V V D D F F F D D D G E E ^ ^ ^ E ^ ^ E Y F F F F F F F D D D D V V V V V V V D D D V V V V V N N N N V D D D D D D D F F F F G c j j {.tXT.M.M.",
"c.s.i.i.s.s.c.s.c.s.s.s.s.i.i.w.i.w.w.w.i.i.w.w.i.w.i.i.q.q.@.Q r ..9Xn.8.#...3.2.2.2.3.3.3.2.2.$.X.#.7.r.3.$.$.r.3.3.6.3.3.6.$.3.6.6.6.6.e.e.e.e.e.7.6.6.6.6.6.3.3.2.$.$.$.#.#.$.$.$.$.$.$.$.$.$.$.$.2.2.2.$.$.$.$.$.$.$.2.2.4.$.$.2.2.2.2.$.$.2.2.2.2.2.2.2.2.3.$.$.$.2.3.2.$.3.3.3.3.$.3.8.r.7.2.6.7.3.3.#.) Z f _.pXQ.w.=.w.q.q.,.q.w.i.i.i.s.s.i.i.u.w.w.q.q.q.q.q.q.q.q.q.w.w.w.w.i.i.s.s.c.s.s.s.s.s.s.s.s.i.i.s.s.i.i.i.i.i.w.w.w.i.i.i.w.i.i.i.i.w.w.w.w.w.w.q.q.q.q.>.>.>.-.>.q.q.q.q.w.w.w.i.i.i.i.c.s.i.i.w.w.w.w.w.q.0.>.>.>.q.w.u.i.w.q.q.q.q.q.q.q.q.q.>.>.>.>.>.-.-.-.-.-.-.-.-.=.>.` ( - G uX0Xe.e.7.2.3.7.7.3.3.6.6.7.r.h.h.r.e.e.e.8.6.6.6.6.6.6.6.6.6.3.3.3.3.3.3.3.3.3.3.3.3.3.3.6.6.6.6.6.6.6.3.3.3.3.%.%.$.$.#.#.#.#.#.#.........| | / / ^ ^ ^ ^ ^ E E E E E E E E E E E E E Y Y Y Y G G F F D D D D D D V C C D V V Z V V V N N N N N N N V V V V V V V B B c c N N V V V V V V N N N N N V D F F F F F F G E ^ ^ ^ E E Y E E E Y Y Y Y F F F F D D D D V V V V V V V V V V V V V V N N N N V V D D D D C C D D F F F F V g w `.pX{.n.x.",
"c.c.s.s.s.s.s.i.s.s.s.s.s.s.i.i.c.s.s.i.i.w.w.w.w.w.i.i.q.q.@.Q r / 8Xk.6.$.%.3.$.$.$.$.2.2.2.2.6.$.#.$.2.3.2.$.$.X.$.3.$.6.7.3.3.3.6.6.6.e.e.e.7.6.6.6.6.6.6.6.2.2.$.$.$.$.#.#.#.#.#.#.#.#.#.#.o.#.$.$.2.2.$.$.$.$.#.#.$.2.2.2.$.$.$.$.$.$.$.$.3.3.2.2.2.2.2.3.3.2.$.$.2.3.$.$.2.3.3.3.2.3.6.7.6.2.3.6.$.2.#.Q w ( yXuXV.i.q.w.q.q.q.q.w.i.i.i.s.i.i.i.u.w.w.w.w.w.q.q.q.q.w.w.w.w.w.w.i.i.s.s.s.s.s.s.s.s.i.i.i.i.i.i.i.i.i.i.i.i.w.w.w.w.w.w.i.i.i.i.i.w.w.w.w.w.w.w.q.q.q.q.q.>.>.q.q.w.w.q.i.w.w.i.i.i.i.s.i.i.i.w.w.w.w.w.q.0.q.q.q.w.i.i.w.w.w.q.q.q.q.0.q.q.q.>.>.>.>.-.-.-.-.-.-.-.-.=.,.=.~ ) - ( pX/.6.r.g.6.3.6.3.$.3.6.e.e.r.h.h.r.e.e.8.6.6.6.6.6.6.6.6.6.6.3.3.3.3.3.3.3.3.3.3.3.3.3.3.3.3.3.3.3.3.3.3.3.3.%.$.$.$.$.#.#.#.#.#.#.........| ( / / ^ ^ ^ ^ ^ E E E E E E E E E E E Y Y Y Y Y G G F F F D D D D D D V V C D V V V V V V V V V V V V D D D D D V V V N N c x x c N N N N N N N N N N N V F G Y G F F Y Y E ^ ^ E E E G Y E Y Y G G Y F F F D D D D D V V V V V V V V V V V V N N N N V N V V D D D D C C D D D F F G Z s w [.pX`.M.x.",
"c.c.c.c.c.c.c.s.c.s.s.s.c.s.s.i.c.c.c.s.i.i.i.i.w.w.w.w.q.q.@.Q : / 9XM.%.$.3.#.$.$.#.#.$.2.2.2...3.6.$.#.3.3.$.#.$.6.6.#.#.6.6.3.3.6.6.6.7.e.e.6.6.6.6.6.3.3.3.2.2.2.$.$.#.o.o.X.X.X.X.X.X.X.X.#.#.#.$.$.$.$.$.#.#.#.$.$.$.$.2.2.2.2.2.2.2.2.2.6.4.4.2.2.2.2.2.3.4.2.2.2.2.4.2.2.2.2.2.2.2.4.6.3.2.3.3.$.2.#.Q > &.pX1Xq.i.w.q.w.q.q.q.w.i.i.i.i.i.i.i.i.i.i.i.i.i.i.i.i.i.i.i.w.w.w.w.i.i.s.s.s.s.s.s.i.i.i.i.i.i.i.i.i.i.i.i.i.w.w.w.i.i.i.i.c.s.s.s.i.w.w.q.w.w.w.w.q.q.q.q.q.q.q.q.w.w.w.q.i.w.w.i.i.w.w.i.i.i.w.w.w.q.q.q.>.q.q.w.i.i.i.i.q.w.w.q.q.q.0.>.q.q.>.>.>.>.>.>.q.q.q.>.>.-.-.=.q.+.] G 7 G 9Xk.e.7.7.8.7.7.7.6.6.e.r.e.e.r.r.e.8.6.6.6.6.6.6.6.6.6.6.6.3.3.3.3.%.%.%.%.%.%.%.%.3.3.3.3.3.3.3.3.3.3.%.%.$.$.$.$.$.#.#.#.#.#.#.........| | ( / / ^ ^ ^ ^ E E E E E E E E E E E E Y Y Y Y G F F F F F D D D D D D D C V V C D D D V V V V V V V V F F F F D V V N N N x x x x x x N N N N N V V V N D F Y Y Y Y Y E Y Y Y Y Y E E Y Y Y Y G F F F F D F F D D D D V V V V V N V V N N N N N N N N N N V V D D D D D D D D F F Y Y Z s w [.pX{.M.M.",
"c.c.c.c.v.V.V.v.c.c.c.c.c.c.s.s.s.s.c.c.s.s.c.c.i.w.i.w.q.q.@.I r / eXm.$...$.#.3.$.$.$.$.$.$.#./ E D D E ..| E E D D F E ..$.#.3.3.3.6.6.6.6.6.6.6.6.6.3.3.3.3.2.2.2.$.$.#.o.o.X.X.X.X.X.X.X.X.#.#.#.#.#.$.#.#.#.#.#.$.$.$.3.3.2.2.2.2.2.2.2.4.6.6.4.2.2.2.2.2.3.4.4.2.2.2.2.2.2.2.2.2.2.2.2.2.3.2.3.3.$.$.O.Q r O.qX Xq.s.q.q.w.q.q.q.w.i.i.i.i.i.i.s.s.s.i.i.i.i.i.i.i.i.i.i.w.w.w.w.i.i.i.i.i.i.i.i.i.i.i.i.i.s.s.i.i.i.i.w.w.w.w.i.c.c.c.c.c.c.s.s.i.w.w.q.w.w.w.w.q.q.q.q.q.q.q.q.w.w.w.q.i.w.w.w.w.w.q.w.w.w.w.w.w.q.w.q.0.q.w.i.i.i.w.w.q.q.w.w.q.q.0.0.q.q.>.>.>.q.q.q.w.w.q.q.0.-.-.=.-.+.-.G e w '.n.h.7.6.6.7.3.3.6.6.e.r.e.e.e.8.6.6.6.6.6.6.3.3.6.6.6.6.6.3.3.3.3.%.%.%.%.%.%.%.%.%.%.3.%.2.2.%.$.$.$.$.$.$.#.#.#.#.#.#.#.#.#...........| | / / / ^ ^ ^ ^ E E E E E E E E E E E Y Y Y Y G F F F F D D D D D D D D D C C V C C D D V V V V V V V V F F F F D V N N N N x x x x x x N N N N V V V V V D Y Y Y Y Y Y Y Y F F F G Y E G Y Y Y F D F F F F F F D D D D V V V N N N N N N N N N N N N N N N N V D D D D D D D D D F Y Q Z s w [.pX).M.m.",
"c.c.c.v.v.V.V.V.v.v.v.v.v.v.c.c.c.c.c.c.c.s.c.c.s.i.s.i.q.q.-.Q e v [.%...( #.#.$.$.$.$.$.#.| ^ / c 7 7 g v Z F w 7 3 0 j F O.$.3.3.3.3.3.3.3.3.6.6.6.3.3.3.3.2.2.4.2.2.2.2.o.o.o.o.o.o.o.o.o.o.#.#.#.#.#.#.X.X...X.#.$.$.3.3.3.4.4.4.2.2.4.4.6.8.8.6.4.4.4.4.4.4.4.4.4.4.4.4.4.4.4.4.4.4.4.4.2.3.$.2.3.$.$.O.Y 7 O.qX).q.i.>.i.q.q.q.w.w.i.u.w.u.i.s.s.s.s.i.u.w.w.w.i.i.w.w.w.w.w.w.w.i.i.i.i.i.i.i.i.i.i.i.i.i.c.c.i.i.s.i.w.i.i.i.i.s.c.c.s.s.s.s.i.i.w.w.w.i.i.w.w.w.w.q.q.q.q.q.q.w.w.q.q.i.w.q.w.w.w.q.w.w.w.w.w.w.w.q.q.q.q.q.w.w.w.q.q.q.w.i.i.w.q.q.q.q.q.>.>.q.q.w.w.q.q.q.q.>.>.-.-.=.@.>.) c r #.U.k.r.7.3.3.3.2.$.6.r.r.e.8.8.6.3.6.6.3.3.3.6.3.3.6.6.6.6.3.3.3.3.3.3.3.3.3.3.3.3.%.%.%.%.$.$.$.$.$.$.$.#.#.#.#.#.#.#.#.#.#.#.......| | | ( / / ^ ^ ^ ^ ^ E E E E E E E E E E Y Y Y Y G G F F F F D D D D D D D D D D V V D D D D D D D D V V V V D D D D V V N N N N B x x x x c N N N V V V V D D F Y E Y G Y E F F F F F G Y Y F G Y G F F F F F F F D D D D D V V V N N N N N B B x x c c c N N N N V V D D V C V V V D F G Q D w w #XpX{.M.M.",
"c.c.c.c.v.v.c.c.V.V.v.v.v.v.v.c.v.v.v.v.c.i.s.s.c.c.c.s.w.w.-.! w o ( v Y ) O.O.O.#.#.$.$.| E D > w Q &.G > : v | &.0.Q 7 5 F 0.3.3.3.3.3.3.3.3.6.6.3.3.3.3.2.2.2.4.4.2.2.2.o.o.o.o.o.o.o.o.o.o.#.#.#.#.#.X.X.....X.#.$.2.3.6.6.6.4.4.4.4.4.4.8.8.8.4.4.4.4.4.4.4.4.4.4.4.4.4.4.4.4.4.4.4.4.4.$.3.#.2.2.#.#.| G , %.pXQ.@.w.-.u.q.q.q.w.u.i.w.w.i.i.s.c.d.i.w.q.i.i.s.s.s.s.i.i.w.w.w.w.i.i.i.i.i.i.i.i.i.i.i.i.s.c.c.i.i.s.i.w.s.i.i.i.i.i.w.w.i.i.i.i.i.i.i.w.i.i.i.i.w.w.w.w.>.>.>.q.q.q.q.>.i.w.q.w.i.w.w.w.q.w.w.w.w.w.q.q.q.q.q.q.q.q.q.q.q.w.i.i.i.w.q.q.q.q.>.>.q.q.w.i.q.q.q.q.>.>.>.-.-.-.@.@.Q 7 z H.r.r.e.2.3.e.e.3.3.e.r.e.8.6.6.3.6.6.3.3.3.3.3.3.6.6.6.3.3.3.3.3.3.3.3.3.3.3.3.3.%.%.%.$.$.$.$.$.$.#.#.#.#.#.#.#.#.#.#.#.#.#.....| | | | ( / / ^ ^ ^ ^ E E E E E E E E E E Y Y Y Y Y Y F F F F F D D D D D D D D D D Z D D D D D D D D D D V V V N N V V V V N N N N c x x c c N N N N V V V D D D F E E G F Y E D D F F Y Y Y Y F F G F F F F F F F F F D D D D V V V N N N N N x N x x c c c c c c c N V D V V V V V V D F G Y Z w e #XpX`.M.M.",
"v.v.V.A.A.A.V.V.V.v.v.c.c.v.v.V.A.V.v.c.c.c.s.s.c.s.i.i.i.w.q.-.Z p w , : c G ) ) %.#.#.| ^ E 5 ( #XtX9X{.&.i.[.tXuX9X1XQ # &.M.e.2.7.$.3.6...6.3.3.6.6.3.2.2.2.2.o.2.$. . .$.2.2.$.X.X....... ...#.#.#.$.$.$.$.#.#.#.6.r.e.6.3.8.$.o.2.$.X.2.r.8.3.7. .4.2.e.2.6.2.o.$.4.4.2.X.2.7.7.$.o.2.4.$.8...3.6...%.%.V > -.yXV.w.i.-.q.q.>.q.i.w.,.q.i.i.s.c.v.c.c.s.s.c.c.c.c.s.i.i.w.i.w.w.i.i.w.w.i.i.i.i.i.i.i.i.i.v.v.c.c.s.s.i.i.i.i.i.i.i.i.i.i.i.i.i.i.i.i.i.i.i.i.i.w.w.w.w.w.q.q.>.>.>.q.q.q.w.w.q.q.q.q.,.q.q.w.w.w.w.q.q.w.q.0.>.0.q.q.w.q.q.w.w.w.w.w.q.q.q.q.q.q.q.q.q.q.q.q.q.q.q.>.-.-.w.@.@.&.&.k > #.h.k.7.6.g.3.2.7.7.6.6.6.6.6.3.3.$.3.3.3.3.2.$.$.3.3.3.3.3.6.6.6.3.3.3.%.%.%.$.$.$.$.$.$.#.#.#.#.#.#.........#.#.#.#.#.#.#...............| ( / / ^ ^ ^ E E E E E ^ E E E E E Y G T F F F F F D D F D D D D D D D D D D D D F F F D D D D V V V V V V V V V V N N N N c c N N V D V V D D D D V V D F F F F F G Y D D F F F G Y Y G F F F F F F F F F F F F F D D V V V N c c x x x x v v v x x x x x N N V D D D V V V V D D H H V j 7 $XpX[.M.P.",
"A.P.P.P.I.I.T.E.V.V.v.v.v.v.V.V.V.V.v.c.c.c.c.c.c.c.i.i.s.i.w.q.@.( y.>.Z 7 > c ( &.#...$.D x q %XpXuX<X[.#X9XpXpX2XE.t.H 1 m y.6...2.2.3.6...3.3.3.3.3.3.$.$.$.#.$.$.X.2.6.$.W  .X.2.$.#.X.#.$...#.#.#.......#.#.#.3.6.6.3.3.6.e.6.2.6.3.$.$.6.7.$.2.7.e.#.X.$.#.2.6.6.$.X.X.X...#.6.7.2.X.$.6.| e.$./ $.#.P G = c.uXA.q.q.>.w.q.q.q.w.w.q.w.i.u.i.c.c.c.s.i.i.i.i.i.i.i.w.w.q.i.w.w.i.i.w.w.i.i.i.s.s.i.i.s.c.v.c.c.s.s.s.s.s.i.i.i.i.i.s.s.c.i.i.i.i.i.i.i.i.i.i.i.w.w.w.w.w.q.q.q.q.>.>.q.q.q.q.q.q.q.q.q.q.q.q.w.w.q.q.q.q.0.q.q.q.q.q.q.q.q.w.w.w.w.w.q.q.q.q.q.q.q.q.q.q.q.q.q.q.q.>.-.-.-.@.-.&.&.H 5 c ~.J.#.$.6.e.e.3.6.6.6.6.6.6.3.3.$.%.3.3.3.3.$.$.3.3.3.3.3.3.6.6.3.3.%.%.%.$.$.$.$.$.$.#.#.#.#.#.....................#.#.................| ( / / ^ ^ ^ E E E E E E E E E ^ ^ E E Y T F F F D D D D D D D D F D D D D D D D D D D D D D V V V V V V V V V V V V V N N N N V V D D V V D D D D V V D D F F F F F F D D F F F G G Y F F F F F F F F F F F F F F D D V V V N c x x x x v v v v x x x x x N V V D D D V V V V D D H H N j e $XpX#XM.L.",
"A.A.V.A.A.P.P.P.V.V.V.V.V.V.V.V.V.v.c.c.c.v.v.v.v.c.s.s.c.s.i.w.c.i.`.<XQ.( 7 , D ( / ( $.V 0 ^ tXyX Xq.>.c.P.V.V.w.s.-.=.S 1 @.G.$.$.3.3.2.#.3.2.2.2.$.$.$.$.$.X.6.2.| / / } X.} | ..............O.&.#.O.O.#.#.#.&.0.y.0.3.3.e.#.X.#.$.2.3.3.6.e...../ } F } 3.3.$.$.#.#.#.$.3.3.$.$.$.2.$.$.$.e.$.#.3.$.^ Z Z v #XuXP.q.>.w.w.q.w.w.q.q.w.i.i.i.s.c.c.c.s.s.i.s.s.s.s.s.i.i.i.s.i.i.s.s.i.i.s.i.s.c.s.i.i.c.v.c.c.c.s.s.s.s.s.i.i.i.i.s.c.c.v.i.i.i.i.i.i.i.i.i.i.i.w.w.w.q.q.q.q.q.q.q.q.>.>.q.q.q.q.q.q.>.q.q.q.w.q.q.q.q.q.>.q.w.w.q.q.q.q.w.w.w.w.w.q.q.q.q.q.q.q.>.,.>.q.q.q.q.q.q.>.-.-.=.@.>.@.&.( j : G.+Xr.r.2.3.e.2.6.6.6.6.6.6.6.6.3.3.3.3.3.3.3.3.3.3.3.3.3.3.3.6.3.3.2.%.$.$.$.$.$.$.$.#.#.#...........................................| | / / / ^ ^ E E E E E E E E E ^ / / ^ E Y Y G F F D D D D D D D F F D D D D D D D D D D D D D V V V V V V V V D D D V V N N V V D D D D V V D D D D V V D D F F F F D D D D D F F F F G F F F F F F F F F F F F F F F D D D V N c x x x z v z z v x x x x c N V D D D V V V V V D D Z H c j w $XpX$Xm.m.",
"A.V.V.V.V.V.v.v.V.V.V.V.V.V.V.V.v.v.c.c.c.v.v.v.v.c.c.c.c.s.i.w.v.i.v.P.P.s.Q 7 q ( ....^ F 4 k.pX:Xv.w.s.i.q.-.>.>.v.q.-.S - I +Xh.$.$.$.$.$.3.2.$.$.$.$.$.$.$.$...Q ^ ( Y Z F F F F ^ O.$...) O.O.O.O.&.#.&.#...O.&.6.3.$.&.#.#.%.6.$.$.$.$.#.#.( #.c F j F D Z G ^ / Q F Z V E ( #.#.$.6.3.#.X.#.$.X.^ G v * A.tXyXV.q.=.w.q.q.i.u.q.q.i.s.i.s.c.v.v.c.c.s.s.c.c.c.c.c.s.s.s.s.s.s.c.c.c.c.c.i.s.c.c.i.i.c.v.c.c.s.s.s.s.s.s.s.s.s.s.c.c.v.v.i.i.i.i.i.i.i.i.s.i.i.w.w.w.q.q.q.q.q.q.q.q.q.q.>.>.q.q.q.q.>.>.q.q.w.w.q.q.q.q.>.q.w.w.q.>.0.q.w.w.q.q.q.q.q.q.q.q.q.q.>.>.>.q.q.q.q.q.>.>.-.-.-.=.-.&.O.&.G ; #.7XK.k.2.2.3.3.6.6.6.6.6.6.6.6.3.3.3.3.3.3.3.3.%.3.3.3.3.3.3.3.3.3.$.%.$.$.$.$.$.#.#.#.#.........| | | | | | ....................| | | ( / / / ^ ^ E E E E E E E E ^ / / ^ E E E Y Y F F D D D V V D F F F F D F F F F F F F F D D D V V V V V V V D D D D D D V V D D D D D D V V D D D D V V D F G G F D D D D D D D F F F F F F F F F D D D F F F F F F F D D D V N N x x x z v v z v x x x x N V V D V V V V V V V D D Z Z c j w $XpX$XP.m.",
"P.P.P.P.P.P.V.v.v.V.V.V.V.V.V.v.v.v.c.c.c.v.v.v.V.v.v.c.c.s.i.w.w.i.i.q.q.t.%.Z r O.H.#.E V : k.uX!.q.q.s.w.q.s.c.i.i.q.@.! p < '.z.#...#.$.3.$.2.$.$.$.2.$.$.#.) ) Q D z 7 > > 7 > 7 i Z ( O.#.&.O.| ..#.#.| ( ..( ( O.O.( Y H V G ( ( | O.O.*.G G Z w : @ , : 7 w N Z c w 7 7 7 j F O.$.$.&.%.| 3.( / / 0 0 0.tXuX&Xw.q.-.w.,.w.i.u.q.q.i.s.u.s.c.c.v.c.d.s.s.i.i.i.i.i.i.i.i.s.s.s.s.s.c.c.s.s.c.c.s.i.i.s.c.c.s.s.s.s.s.s.s.s.s.s.s.c.c.c.c.i.i.i.i.i.i.i.i.i.i.i.w.w.w.w.q.q.q.w.w.w.w.w.w.>.>.q.q.q.q.q.>.q.w.w.w.w.q.q.w.>.q.i.w.q.0.q.q.w.w.q.q.q.q.q.q.q.q.q.>.>.q.q.q.q.q.q.>.>.>.-.-.,.@.=.%.O.O.Q 5 W eXH.$.2.7.3.6.3.3.3.6.6.6.6.6.3.3.3.3.3.3.3.3.3.3.3.3.3.3.3.3.3.3.%.$.$.$.$.$.#.#.#.#.........| | | ( ( | | | | | ........| | | | | ( / / / / ^ ^ E E E E E E ^ / ( | / ^ E E E Y Y F F D D D V D D F F F F D F F F F F F F F D D D V V V V V D D D F F F F F D D F F F D V V V V V V V V V V D F G Y F D D D D D D D D D F F D D D D D D D D F F F F F F F D D D V V N x x x x x v v x x x x c N V V V V V N N N V V V V Z Z c s j %XuX$XY.G.",
"A.A.A.P.P.P.A.V.v.v.V.V.V.V.v.v.V.v.c.c.c.v.v.v.V.v.v.c.c.i.w.w.,.u.i.v.c.i.0.Q r D +X#.#.v : r.uX_.d.w.q.w.q.i.>.q.,.s.q.+.K X #.r.#...$.$.2.#.$.$.$.$.2.$...| Q Z c w j ( t.y.y.&.G w > e Z ( O.O.O...| ( ^ E E F F F H V c c e g c Z G G G G ( j X 0.T.2XM.%.&.Z 7 > c ( &.&.Q e > Z O.O.O.%.6.| G D w 5 y.pXuX1XB.@.>.>.w.<.w.w.w.q.w.i.i.u.i.d.c.c.s.i.i.i.i.i.i.w.w.i.i.i.i.s.s.i.i.s.c.s.c.c.c.s.i.s.s.c.s.c.c.c.c.c.s.s.i.s.s.s.s.s.i.i.i.i.i.i.i.i.i.i.i.i.i.w.w.w.w.w.w.w.w.i.i.i.w.w.q.q.q.q.q.q.q.>.q.w.w.w.w.q.w.w.0.q.w.w.q.q.q.w.q.q.q.q.q.q.q.q.q.q.q.>.q.q.q.q.q.q.>.>.-.-.-.-.-.@.@.>.&.( Q 0 g *XJ.6.6.7.#.6.6.6.6.3.3.3.3.3.$.2.3.3.3.3.3.3.%.3.3.3.3.3.3.3.3.3.%.$.$.$.$.$.#.#.#.........| ( / / / / / / ( | | | | | | | | | | ( / / / / / ^ ^ ^ ^ ^ ^ ^ ^ | ......( ^ ^ E Y Y Y G F F D D D D D F F F F D D D D D D D D D D D D V V V D D D F F F F F F F D F F F D V V N V V V V V V V V D D F F F D D D D D D D D D D D D D D D D D D D F F F F F F D D D D V V N c x x x x x x x x B N N N N N N N N N B B N N V V Z Z z w k 2XuX#XY.L.",
"V.V.v.V.A.A.V.v.v.v.V.V.V.V.v.v.V.v.v.v.v.V.V.V.v.v.v.v.c.s.i.i.d.u.@.>.q.0.w.] j > Z.6.X.V : k.tXW.s.w.w.s.q.w.s.s.q.q.-.] ~ w q e.r.X.$.#.#.#.$.#.#.$.$.#.| ^ ( 7 9 &.[.pXpX9XpX8XE.&.c e 9 w Z E ( ) F V N Z > > 3 > ; > k Y ( Z 9 1 7 > - , o b s.pXpXpX1X9X0X).q.t.#XtXuX0XP.) 1 > c Q ( / F C D q 7 b.tXuX&XV.<.-.=.<.w.q.u.q.q.w.i.u.w.u.i.s.d.d.s.i.i.i.s.i.i.i.i.s.s.s.s.c.c.s.s.c.c.c.v.c.s.s.c.c.c.c.s.c.c.v.v.c.s.i.i.s.c.c.c.c.s.i.i.i.i.i.i.i.i.i.i.i.w.w.w.w.w.w.i.i.i.i.i.i.w.w.q.q.q.q.q.q.q.q.q.q.w.w.q.q.q.w.q.q.q.q.q.w.w.w.q.q.q.w.q.q.q.q.q.q.q.>.q.q.q.q.q.>.>.-.-.-.-.-.=.-.+.%.&.*.( z & $.k.k.6.2.3.3.6.6.6.3.3.3.3.3.$.%.3.3.3.2.$.%.%.%.3.3.3.3.3.3.3.3.%.$.$.$.#.#.#.#.........| | / / / / / / / / / ( | | | | | | | ( / / / / / / ^ ^ ^ ^ ^ ^ ^ ^ | ....| / ^ E E Y Y Y G F F F D F D D D F F F D D D D D D D D D D D D D D D D F F F F F F F F F D D D D D V V N V V N N N N V V V D D D D V V D V D D D D D D D V V D D D D D D D D F F D D D D D D V V N N c c B B x x c N N N V N N c x x x N x x x x N N N N j 0 c 8XpX[.R.U.",
"I.P.V.V.A.P.A.V.V.V.V.V.V.V.V.V.V.V.v.v.V.V.A.A.v.v.v.v.c.s.s.s.u.v.i.c.i.w.c.O.I X *.M.G G o Z.uXE.i.i.s.c.u.c.i.w.>.q.c.i.] S & k.n.$.#...X.$.#.X.#.$.$.X./ E j > y.pXpXyX4XXX`.T.V.c.i.+.b 1 > j Z Z w 7 e k O.0.t.y.0.M.%XpXtX[.y.&.>.q.y.t.M.%XpXpX0XE.I.I.L.I.XX0XpXuX1X).v.i.I > - b K Z c 7 7 O.&XpXyX1Xc.O.>.w.@.<.w.w.u.,.>.u.i.w.q.u.s.d.c.c.s.i.i.i.s.i.i.i.i.s.s.c.c.v.v.c.c.V.V.v.v.c.i.s.c.v.v.v.s.c.v.v.v.c.s.i.s.c.v.V.V.v.c.c.i.i.i.i.i.i.i.i.i.w.w.w.w.w.w.i.s.s.s.s.i.i.w.q.w.w.w.q.q.q.q.q.q.q.w.w.q.q.q.q.q.q.q.q.q.w.w.w.q.q.w.w.w.q.q.>.q.q.q.q.q.q.q.q.>.>.-.-.-.=.-.-.@.q.] O.&.O.&.G 5 5 Y 3.$.6.l.3.6.6.6.3.3.3.3.$.$.$.3.3.3.3.$.$.%.%.%.3.3.3.3.3.%.%.%.$.$.$.#.#.#.#.......| | | / / / / / / / / / / ( | | | | | | ( / / / / / / / ^ ^ ^ ^ ^ / / / | | / ^ E E E Y Y G G F F F F F F D D F F F D F F F D D D D D D D D D D D F F T Y G G G F F F D D D D V V V V V N N N N N N V V V V V V V V V V V D D D D D D V V V D D D D D D D D D D D D D D V V V N N N N N N N B N N N N V N c x x x x c x x x x c N c N s 7 Z tXpXOXP.P.",
"P.P.P.P.A.A.V.V.V.A.A.V.v.V.V.v.V.v.v.V.A.P.P.A.P.P.A.V.v.c.s.s.w.s.c.s.s.s.i.q.~ 8 p V.! j > I.uXW.s.d.w.i.i.i.d.q.q.w.w.w.-.Q > E ,Xr.#.$.| $.$...#.$...| / G 7 %.uXpXyXT.c.q.s.i.i.c.V.V.u.@.A 9 + 1 S ( v.1XpXuXyXyXuXpXpXpX;X_. XqXuXyXwXuXuXuXuX:XI.s.w.w.q.i.c.A.P.V.i.,.w.q.+.S b k 8 = l -.XXyXuXuX$Xd.>.-.-.-.>.w.w.q.w.w.w.w.w.w.i.i.c.c.c.c.s.s.c.c.c.c.c.v.v.v.c.c.c.c.c.c.v.V.V.c.c.c.c.c.c.c.s.s.V.V.v.c.c.s.s.s.v.v.v.v.c.c.s.s.s.s.i.i.i.w.w.w.i.w.w.w.q.q.q.q.w.s.s.i.i.i.w.w.w.w.q.q.0.,.,.,.>.>.>.0.0.q.q.q.>.q.q.q.q.q.q.q.q.q.q.q.q.q.q.q.>.,.>.>.>.>.>.>.-.-.-.-.-.@.@.@.=.@.+.@.@.@.+.` b + Z &.r.r.r.e.r.e.7.6.3.2.3.3.$.$.2.2.$.$.$.$.$.$.$.2.3.6.6.7.$.$.$.$.$.#.X...........| | / / ^ ^ / / / / / / | | | | | | | | / / / / / / / / ^ ^ E ^ ^ / | | ..( ^ ^ / ^ E Y Y Y Y G F F F F F F D D D D F F D D D D D D V V D V V F G F F F F F D D D D D D D D D D V V V N V V V N N N N N N V V V V V V N N N V V V V V V V V D D D D D D D D D D D D D D V V V V N N N N N N x x x c N N N N N c x x x x x z z x N N c z w X ).aXpX).m.R.",
"P.P.P.A.A.A.V.V.v.V.V.V.V.A.A.A.V.v.v.v.V.A.V.V.A.A.V.V.v.c.c.c.s.c.s.i.i.s.s.i.` p - S 9 k ` 0XuX!.d.c.d.c.c.d.d.i.i.s.f.i.-.Q s F 2Xb.#.../ 3.$...#.#...| E z Z %XpX4Xv.0.A.q.s.i.w.w.i.d.d.d.V.V.s.A.:XuXuXuXwX4XXXE.I.P.A.v.c.w.c.E.`._.Q.`.Q._._.P.s.w.w.w.,.,.q.q.w.w.q.>.>.>.@.~ ~ @.w.i.oX9XuXuX=XS.q.@.-.>.>.>.,.w.u.w.w.w.i.i.i.i.s.c.c.v.v.c.c.c.c.v.s.c.c.c.c.c.c.c.s.c.v.v.v.v.V.v.c.c.c.c.c.c.c.v.V.v.v.c.c.c.s.s.v.v.c.c.c.c.s.s.s.s.i.i.i.w.w.w.w.w.w.w.w.q.q.q.w.s.s.i.i.i.w.w.w.w.q.q.0.0.,.,.>.>.>.0.0.0.q.q.0.q.q.q.q.q.q.q.q.q.q.q.q.q.q.q.>.>.>.>.>.>.>.>.-.-.-.-.=.@.@.@.@.&.+.@.;.@.+.] K l < -.w.L.$.h.r.e.6.6.3.3.3.3.$.$.2.2.$.$.$.$.$.$.$.$.3.6.6.6.2.2.$.$.$.#.X...........| ( / / / / / / / | | | | | | | | | | | / / / / / / / / ^ ^ / ( ....#.$.#.../ / / ^ E F Y Y Y Y G F F F F F F F F F F F D D D D D D D V D V D F F F F G G G F F F F F F D D D D V V N N V V N N N N N N N N V V V V N N N N N V V V V V V V V D D D D D D D D D D D D D V V V V N N N N N N x x x c c N N N N x x x x z x x v x c N c z e 7 [.aX0XT.G.T.",
"P.P.A.A.A.V.V.V.v.V.V.V.V.P.I.P.A.A.V.V.V.A.A.V.V.v.v.v.c.c.c.c.c.c.c.s.s.c.c.c.>.Q 8 j j ` Q.yXuXE.d.c.c.A.c.c.c.s.c.c.s.i.>.) > V eXn.| | ....#...#...| | D 7 G pXyXI.x.y.q.q.q.w.i.i.i.s.d.d.I.-XqXuXuXuX0XE.I.v.>.=.>.q.q.>.@.>.w.w.w.i.i.w.w.w.w.q.q.q.w.q.q.,.-.-.-.>.>.>.>.q.w.w.B.XX5XyXuXyX:XP.-.+.=.,.-.,.q.q.q.u.i.i.i.i.i.i.i.s.c.v.v.v.v.v.c.c.v.v.s.s.s.s.s.s.s.s.s.v.V.V.v.v.V.v.v.c.c.c.c.c.v.V.v.v.c.c.c.c.c.c.c.c.c.c.c.s.s.i.s.s.i.i.i.w.w.w.w.w.w.w.w.w.w.w.w.i.s.i.w.i.w.w.w.w.q.q.q.0.0.0.>.>.>.>.,.0.0.q.0.0.q.q.q.q.q.q.q.q.q.q.q.q.0.0.>.>.>.>.>.>.-.-.-.-.-.=.@.@.@.@.@.@.@.@.@.@.;.;.@.S 2 c m.M.0.r.e.e.6.6.3.3.3.3.$.$.$.$.$.$.$.$.$.$.$.$.3.3.6.6.3.3.2.$.$.#.X.........| ( / / / ( / / / / | | ..( | | | | | | | / / / / / / / / / / | ..#.$.$.$.#.| / / ^ ^ E G Y Y Y Y Y Y G G G G G Y Y Y Y Y F F D D D D D D V V D D D D F E Y Y Y G G F F F D D D V V V N N V N N N N N N N N N N V V N N N N N N N V V V V V V V V D D D D D D D D D D D D V V V V V N N N N N x x x x x B N N c x x x v z x x x x x x v z 0 * ( M.L.T.L.m.",
"A.A.A.A.V.V.V.V.v.V.V.v.V.P.I.I.P.P.P.P.P.P.P.P.V.V.V.v.v.v.c.c.c.c.v.V.V.v.c.s.i.q.] s. X5XuXuX:XA.f.d.d.c.d.d.d.s.c.c.s.w.>.( 5 N 9Xb.| ..#./ ....#...| ..D ; &.uX`.&.c.y.+.i.q.u.s.c.d.s.i.s.i.B._. XP.V.V.i.i.q.-.>.w.w.w.>.q.i.c.i.w.i.i.w.i.w.w.q.q.w.w.q.w.w.q.q.q.q.>.>.@.-.-.=.>.d.S.W.P.v.q.@.-.q.q.=.-.q.u.w.w.i.i.i.i.i.i.i.s.c.v.V.v.v.V.V.v.v.V.V.v.v.v.v.v.v.v.v.c.v.v.v.v.v.V.v.v.v.c.c.c.c.v.v.c.c.c.c.c.c.s.s.i.s.s.s.s.s.s.i.s.s.i.i.i.w.w.w.q.q.w.w.w.w.w.w.w.i.s.i.w.w.w.w.w.w.q.q.q.q.0.0.>.>.>.>.>.q.0.0.>.0.q.q.q.q.q.q.q.q.q.q.0.0.0.>.>.>.>.>.-.-.-.-.-.-.-.@.@.@.@.@.@.@.@.+.@.@.=.;.-.S b * t.x.M.3.e.6.6.6.3.3.3.3.$.$.$.$.$.$.$.$.$.$.$.2.2.3.3.3.3.3.2.$.$.#.........| ( / / / / ^ / / / / / ( | ( ( | | | | | | / / / / / / / / / ( ....#.#...../ / ^ ^ ^ ^ E Y Y Y Y Y Y Y Y Y G G Y Y Y Y E E F F F D D D D D V V D F D V F E F F F F F F F F D D D V V V N N N N N N N N N N N N N N N N N N N N N N N V V V V V V V V D D D D D D D C C D C V V V V V N N N N c x x x x x x c x x x x v z z x x x x x x c v k * : j y.`.~.G.",
"A.A.A.A.V.V.V.V.V.V.V.v.V.P.P.P.A.P.P.P.P.P.P.P.P.P.P.A.V.V.V.V.c.v.V.A.A.V.v.c.v.P.P.=XuXuXuX2X!.d.s.d.d.d.w.d.c.s.c.c.i.q.@.) g Y 6Xb.#./ ....| ........#.G 5 j G ] Q ` %.i.s.c.d.i.i.p.i.d.d.c.-.-.w.>.q.i.i.w.i.i.i.w.q.>.-.w.w.i.i.i.i.i.w.q.q.q.q.q.q.w.i.q.q.w.q.q.,.>.-.w.q.q.>.,.,.-.@.@.=.-.-.-.-.-.@.>.w.i.i.u.i.s.i.i.i.s.s.s.c.v.V.v.v.V.V.V.V.V.V.P.P.P.P.A.A.A.A.v.v.c.s.c.V.V.v.c.v.v.v.v.c.c.s.i.s.s.s.s.s.s.s.i.i.i.s.s.s.s.s.s.s.i.i.i.w.w.w.q.q.w.w.w.w.w.q.w.i.i.w.w.w.w.w.w.w.w.q.q.q.0.0.>.>.>.>.>.>.0.0.>.0.q.q.q.q.q.q.q.0.0.0.>.>.>.>.>.-.-.-.-.-.-.-.-.-.-.@.@.@.@.@.@.@.@.@.@.@.;.-.-.` K 9 j R.M.6.6.6.6.6.6.3.3.3.$.$.$.$.$.$.#.#.#.$.$.$.$.2.3.3.2.2.$.$.#.#.........| / / / / / ^ ^ ( | ( / / / / / | ( ( ( / / / / / / / / / / ^ / | ......| / / / ^ ^ ^ E E E Y Y Y Y Y Y Y Y G G Y Y Y Y Y Y F F F F D D D D V V D F D V F E F F D D D D D D D D D V V N N N N N N N N N N N c c N N N N c c x x N N N N N N N V V V V V V V D D D D C D D D V V V V N N N N N c x x x x x x x x x x v v z z x B x x x x c c v s 7 : y.T.T.P.",
"A.A.A.A.A.A.V.V.V.V.V.V.A.P.P.V.v.V.A.A.A.A.A.A.A.A.A.V.V.V.v.v.V.V.v.V.V.V.V.A.P.P.I.`.$X`.Q.V.A.s.c.c.c.c.f.v.v.c.v.c.q.-.` S . k.iXn./ / #.| | | ....| ..^ z * X 9 > w G -.w.d.s.s.s.d.d.d.p.c.i.i.i.c.v.s.>.q.q.w.w.q.q.w.i.i.q.q.i.i.i.w.i.0.0.q.q.q.q.w.s.w.w.q.>.-.-.>.q.@.@.@.=.>.q.>.-.q.q.>.@.[ +.-.q.q.w.i.u.w.i.i.i.i.i.s.c.c.c.v.V.v.v.v.V.V.A.V.V.V.V.V.A.A.V.V.V.V.v.s.s.v.A.V.c.c.c.v.v.v.c.s.i.i.i.s.s.s.s.i.i.i.i.s.s.s.s.s.s.s.s.i.i.i.w.w.w.w.w.w.w.w.w.w.q.q.i.i.w.q.w.w.w.w.w.w.w.q.q.q.0.>.>.>.>.>.>.>.>.>.>.0.q.q.q.q.q.0.0.>.>.>.>.>.>.-.-.-.-.-.-.-.-.-.-.-.=.@.@.@.@.@.@.@.@.=.=.;.-.@.@.` Z o r.b.e.3.6.6.6.6.3.3.3.$.$.$.$.#.#.#.#.#.#.$.$.$.$.$.$.$.$.$.$.#.X.........| / / / / / ^ / ......( / ( / / / } ( / / / / / / / / / / / ^ / | ..#...| / | | / / ^ ^ E E E E Y Y Y Y Y Y G Y Y E E Y Y G G G F F D D D D D D D F D D F Y F F F D D D D D D D D V V N N N N N N N N N N c x x c N c c x x x x x c N N N N N N N V V V V V V V V V V V V V V V V V N N N N N c x x x x x x x x x v v z z z x x N N x N N Z V N e o ( m.{.P.",
"A.A.A.A.A.A.A.A.A.A.A.A.P.I.P.V.v.V.P.P.A.V.V.V.V.V.V.V.V.v.v.v.A.V.v.V.V.V.V.P.V.v.V.V.v.P.v.A.A.c.B.c.V.V.d.A.v.c.v.s.>.` Z 7 w 6XiXt.^ | ../ | / ....| | | G Q @.G 9 # 7 ~ A.i.s.c.v.B.d.i.<.w.i.w.>.w.c.v.V.i.i.i.w.q.w.w.i.i.i.i.s.s.s.s.i.i.w.w.t.w.q.w.i.w.w.q.,.>.>.q.w.w.q.>.>.>.>.-.-.+.@.@.>.q.,.>.-.w.u.w.w.w.i.i.w.i.s.c.c.c.v.v.v.v.v.v.v.V.A.V.V.c.c.v.V.V.v.c.c.v.v.c.c.V.A.V.c.c.c.v.v.c.c.s.s.i.s.s.c.c.s.i.i.s.s.s.s.s.s.s.s.s.s.i.i.i.w.w.w.i.i.i.s.i.i.w.w.q.w.i.w.q.w.w.w.w.w.w.w.w.q.q.>.>.>.>.>.>.>.>.>.>.>.0.q.q.q.q.0.>.>.>.>.>.>.>.>.-.-.-.-.-.-.-.-.-.-.-.-.=.@.@.@.@.@.+.@.=.-.;.=.[ @.+.S 7 z m.b.3.3.6.6.6.3.3.3.$.$.$.$.#.#.#.#.#.#.$.$.$.$.$.$.#.#.#.#.#.X.........| / / / / / / | ....| / / ( / / / / / / / / / / / / / / / / | | ..#.#...| / | | ( / ^ ^ ^ E E E E E Y Y Y Y Y E E E E Y G F Y G F F F D D D D D D F F D D F F F D D D D D D D D V V V N N N N N N N N N c c x x x x x x x x x x x x c N N N N N N N V V V V V V V V V V V V V V V V N N N N N x x x x x x x x v v z z z z z x B N N N N Z H Q H e * c `.0XT.",
"P.P.P.A.A.A.A.A.A.A.A.A.P.T.P.V.A.P.T.T.I.P.A.A.V.V.V.A.A.A.A.A.v.v.V.P.P.A.V.V.P.V.A.A.v.E.s.v.S.B.B.d.A.A.d.A.v.c.c.i.@.K y o 2XpX]...3...E ..| / | ../ / ..( G L.{.%Xb j c.%Xv.c.d.i.u.u.i.i.w.i.w.s.V.s.-.w.w.w.w.w.i.i.i.i.q.s.c.i.w.i.i.w.i.q.>.q.w.q.q.w.,.q.w.q.q.>.>.,.-.-.>.>.-.=.-.q.-.-.-.-.@.@.,.i.i.i.w.q.w.i.i.q.i.s.c.v.v.v.v.v.c.c.c.v.V.A.V.v.c.v.V.A.A.V.v.v.c.v.V.V.V.A.v.c.c.c.c.c.c.c.c.c.s.s.c.c.c.c.s.i.s.s.s.c.c.c.s.s.s.s.i.i.i.w.w.w.s.s.c.c.s.s.i.w.q.w.w.q.q.w.w.w.w.w.w.w.w.q.q.>.>.>.>.>.>.>.>.>.>.>.0.q.q.q.q.0.>.>.>.>.>.>.>.>.-.-.-.-.-.-.-.-.-.-.-.-.-.@.@.@.@.@.+.@.-.>.;.@.[ >.~ ] J , m.~.3.3.6.6.6.6.3.3.$.$.$.#.#.#.#.X.#.#.$.$.$.$.$.$.X.X.#.#.X.......#...| ( / / / / / | ..| / ^ / ( / / / / / / / / / / / / / / / / #.#.#.#.#.../ / / / / / ^ ^ ^ ^ E E E E E Y Y Y E E E E E Y G F Y Y G F F D D D F D D F F F D D D D D D D D D D D D V V V N N N N N N N N c c c x x x x x x x x x x x x x c N N N N N N N V V V V V V V V V V V V V V V N N N N N x x x x v v v z z z z z z z z x B N N N V Z G D V c j 7 %XpXP.",
"A.V.P.P.V.A.P.P.P.P.A.V.V.V.A.P.E.E.T.I.P.P.A.A.V.A.A.V.V.V.A.P.v.v.V.V.V.A.P.P.A.A.A.A.V.V.V.V.v.v.c.v.v.v.V.V.c.v.i.0.-.v * #XpX].e./ / ../ ..| ( | ....| | ( ( ` &.( k < V.wXI.B.s.c.B.c.d.p.i.i.i.i.i.i.i.i.w.w.w.i.i.i.i.i.i.i.i.i.w.w.w.q.w.w.w.w.q.q.w.w.q.q.q.q.q.q.>.>.q.q.,.>.>.-.-.-.-.-.-.@.@.-.q.w.q.q.q.q.q.w.w.w.w.i.c.v.v.v.v.v.c.v.v.v.v.V.v.c.c.v.A.V.v.c.c.v.v.c.c.c.v.v.c.c.c.c.v.v.c.c.c.s.s.c.c.v.v.v.c.s.s.s.s.s.s.s.s.s.i.i.i.i.i.i.i.i.w.i.i.i.i.w.w.w.w.w.w.w.w.w.q.q.w.q.q.q.q.q.0.>.@.w.>.` ~ ! ~ 0.0.>.q.-.>.q.-.q.>.>.>.-.-.>.>.>.-.-.-.-.-.=.@.@.@.=.-.-.=.=.-.-.-.@.@.@.@.@.[ [ ] w.` +.Z > G ,Xr.$.e.6.#.6.3.$.$.$.$.#.#.#.#.#.$.$.#.#.#.#.#.#.X.X.#.X.........| | ( / / / / / / / / / / / / / / / / / / / / / / / / / / / ..#.$.$.$.#...| / / / / / / / ^ ^ ^ E E E E E E E E Y E ^ ^ E Y Y Y F F F F F F D D D D D V V V V D D D D D D D D D V V V N N N N N x x x x x x x x x x x x x x x x x x x x x x x x x x x c N N N N V V V V V V D D D D V V V N N N c N x x x x z z x x v z z z z v x x N N V D H G F ^ w j : {.pX{.",
"P.A.P.P.V.A.P.A.P.P.A.A.P.I.I.I.P.P.P.P.P.A.A.V.V.V.A.V.v.v.V.A.V.V.V.V.V.V.V.V.V.V.V.A.A.A.V.V.v.v.c.c.c.v.v.v.c.V.c.w.@.y * <X&Xh...( | #.( | | ( | | ..| | ( ( Q Q G k j _.pXI.V.d.d.d.d.p.p.i.i.i.i.i.i.i.i.i.i.i.i.i.i.i.i.i.i.w.w.w.w.w.q.w.w.w.q.q.q.q.w.q.q.q.q.q.q.,.,.q.q.,.>.>.-.-.-.-.-.-.-.-.-.q.w.q.w.q.q.q.w.u.w.i.s.c.v.v.v.v.v.c.v.v.v.v.V.v.s.c.v.V.V.v.c.c.v.c.c.c.c.c.v.c.c.c.c.v.v.c.c.c.c.s.c.c.c.v.c.c.s.s.s.s.s.s.s.s.s.i.i.i.i.i.i.i.i.w.w.i.i.w.w.w.w.w.w.w.w.w.q.q.q.q.q.q.q.q.q.0.0.-.-.` ! K m S @.>.-.q.-.-.q.>.0.>.>.>.-.-.>.>.>.-.-.-.-.-.=.@.@.@.=.-.-.-.=.-.-.-.%.@.@.@.@.=.=.] =.` +.G 9 c ].b.#.3.3.#.6.3.3.$.$.$.#.#.X.X.X.#.#.#.#.X.X.#.#.X.X.#.X.........| | ( / / / / / / / / / / / / / / / / / / / / / / / ( / / ( ..$.$.$.#.....| / / / / / / / ^ ^ ^ ^ ^ E E E E E E Y E E ^ E E Y Y F F F F F F F F D D D V V V V D D D D D D D D D V V V N N c N c x x x x x x x v z z v x x x x x x x x x x x x x x x x c c N N N N N V V D D D D D D V V V V N N N N x x x z z z x x x x x x x x N N V V D F G F N Z j w , &.`.[.",
"E.A.A.P.V.A.P.V.P.A.V.P.E.Q.E.I.P.P.P.P.A.A.V.V.P.P.P.A.V.V.V.A.V.V.A.A.A.A.V.V.V.A.A.A.A.V.V.V.V.v.v.v.v.v.v.v.c.V.v.i.@.w - 2XM.| / | ..../ ( | ( / ( | | ( / Q G Q l e G <XuXP.B.d.s.p.u.u.p.w.i.i.i.i.i.i.w.i.i.i.w.i.i.i.s.w.w.w.w.w.w.w.w.q.q.q.q.q.q.q.q.q.q.q.q.q.q.q.q.q.q.,.>.>.>.-.-.-.-.-.-.-.>.q.w.q.w.q.q.q.w.i.w.s.c.v.v.v.c.c.c.v.v.v.v.v.V.v.c.c.v.V.V.v.c.c.v.c.c.c.c.c.v.c.c.v.v.v.v.c.c.c.c.s.s.c.c.c.c.c.s.s.s.s.s.s.s.s.s.i.i.i.i.i.i.i.w.w.w.w.w.w.w.w.w.w.w.w.q.q.q.q.q.q.q.q.q.q.q.q.q.w.@.! m 8 o < ! v.-.q.0.@.q.0.-.>.>.-.-.-.-.>.>.-.-.-.-.-.=.@.@.@.=.-.-.-.-.-.-.-.-.@.@.=.=.;.-.,.>.-.%.) v 7 k.'.6.$.2.$.3.3.3.$.$.#.#.#.X.X.X.#.#.X.......X.X.X.X.#.X.........| | / / / / / / / / / / / / / / / / / / / / / / / / ( / / | #.$.$.#.#...| | ( ( / / / / / ^ ^ ^ ^ ^ E E E E E ^ Y E E E E E E E Y G G F F F F F D D D V V V V D D D D D V V V V V V N N x x x x c c x x x z z z g z z z v x x x x x x x x x x x x x x x x x c c N N V D F F D D D D D V V V N N c c x x x z z z x x x x x c N N N N V D F F F F D E G k , k T.tX",
"Q.A.V.A.A.P.P.V.A.A.A.P.E.Q.E.T.T.I.I.P.P.P.A.A.I.I.I.I.P.P.P.I.V.A.P.P.P.P.P.P.P.P.P.A.A.V.v.v.A.V.V.V.V.V.V.V.c.c.c.i.@.y - 3Xh.| | | / / ^ / / ( / / / | / ^ ( S H w Z T.uXuXB.c.d.i.u.w.u.i.w.w.w.w.w.w.w.w.w.i.i.i.w.w.i.i.i.i.i.w.w.w.w.w.q.q.q.q.w.w.q.q.q.q.q.q.q.q.q.q.q.q.,.>.>.>.>.-.-.>.>.,.,.,.q.w.q.w.w.q.q.u.i.i.c.c.v.v.v.c.c.c.v.V.v.v.V.v.v.c.c.v.v.v.v.c.c.v.v.c.c.c.v.v.v.c.v.v.v.c.c.c.c.c.c.c.c.c.c.c.c.c.s.s.s.s.s.s.i.i.i.i.i.i.i.w.w.w.w.w.w.w.w.w.w.w.q.q.q.q.q.q.q.q.0.>.0.0.q.q.q.q.>.@.` b $ o b V.%Xw.-.q.-.0.>.-.>.>.-.-.-.-.>.>.-.-.-.-.-.=.@.@.@.=.-.-.-.-.-.-.-.@.@.@.=.=.-.-.p.>.u.,.O.H * $.1Xk.$.3.3.3.$.3.$.$.#.#.X.X.....X.X...........X.X.X.#.X.........| } / / / / / / / / / / / / / / / / / / / / / / ^ / / / / | #.$.#.#...| ( ( | | ( ( ( / / / ^ ^ / ^ E E E E ^ ^ E ^ ^ ^ E E E E Y Y Y G F F F F D D D V V V V D D D D V V V V V N N N x x x x x c c x x z z z z g g z z v x x x v v v v x v v v v v x x x x c c N V D F F F F D D D D V V V V N c c x x v z z z x x x c N N N N B N V D F F H H Z G Z k > j %XpX",
"`.P.V.A.A.A.P.V.A.P.P.I.T.E.E.E.Q.E.E.I.P.P.P.P.P.P.P.I.I.T.I.T.P.P.P.I.I.I.P.P.P.P.P.P.A.V.V.v.V.V.V.V.V.A.P.A.v.c.c.N.O.w > &Xh.....| ^ ^ E ( / / / ^ / | ^ G Q e 7 k A.uXuX%Xs.s.d.i.i.u.u.u.w.w.w.w.w.w.w.w.w.i.s.s.i.i.i.w.i.i.w.w.w.q.q.q.w.q.q.w.w.i.w.q.q.q.q.q.q.q.q.w.q.q.,.,.>.>.>.>.>.,.q.q.q.q.q.w.q.w.w.q.q.i.i.i.c.v.v.v.c.c.c.c.V.V.v.V.V.v.v.c.c.c.v.v.v.c.c.v.v.v.c.v.v.v.v.v.v.v.c.c.c.c.c.c.c.c.c.c.c.c.c.c.s.s.s.s.s.i.i.i.i.i.i.i.i.w.w.w.w.w.w.w.w.w.q.q.q.q.q.q.q.q.q.q.>.>.>.>.0.0.0.0.-.>.+.m 1 l c.1XyXc.+.>.>.>.-.>.>.-.-.-.-.-.-.>.-.-.-.-.-.=.@.@.@.=.-.-.-.-.-.-.=.@.=.=.=.-.-.>.,.{ w.>.O.Q , $.aXG.3.6.3.3.#.2.$.$.#.#.#.X.X.X...............X.X.X.X.X.........| ( / / / / / / / / / / / / / / / / / / / / ^ ^ ^ ^ / ( / | ..#.....| ( / ( | | | | | ( / / ^ ^ / ^ ^ E E ^ ^ / / / / / ^ E E E Y Y Y G F F F F D D D V V V V D D D D V V V V V N N c x x v z v x x x x z z j j g h z z x x x x v v v v v x z z v z z x x x N N V V D F F F F D D D D V V V N N c x x z v z x v x x N N V V V V N V D F F F H D H Z j Z w c 9XtX",
" XI.A.P.A.V.A.V.P.I.E.E.E.E.E.E.Q.E.T.I.P.P.P.P.P.P.P.P.I.T.I.I.E.E.E.E.T.I.P.P.P.P.P.P.P.P.P.A.V.V.V.V.V.V.V.V.v.V.|.N.` w > +X3.^ / / ^ / ^ ( ^ / / ^ / | ^ H j 7 ( I.uXpX;Xc.i.s.s.i.p.p.i.u.i.w.w.w.w.w.w.i.w.s.c.v.c.i.i.i.w.w.w.w.q.q.q.q.w.w.w.w.i.s.i.w.w.w.q.q.q.q.q.w.q.q.,.,.>.>.>.>.q.q.q.q.q.q.w.w.w.w.w.q.q.i.s.s.v.v.v.v.c.c.c.c.V.v.v.v.v.v.c.c.c.c.c.c.c.c.v.v.v.v.c.v.v.v.v.v.c.c.c.c.c.c.c.c.c.c.c.c.c.c.c.c.s.s.s.s.i.i.i.i.i.i.i.i.i.w.w.w.w.w.w.w.w.w.q.q.q.q.q.q.q.q.q.q.>.>.>.>.>.>.>.>.q.q.-.~ ~ V.5XuXwXv.+.-.0.>.@.0.-.-.-.-.-.-.-.-.-.-.-.-.-.=.@.@.@.@.-.-.-.-.-.-.@.@.@.=.=.-.-.>.,.=.u.>.O.Q : #.aXG.2.3.3.3.$.2.$.$.$.#.#.#.#.#.............X.#.X.X.#.X.........( ( / / / / / / / / / ^ ^ / / / / / / / / / ^ ^ ^ / | | | ( | ..| | | ( ( | | | | | | | / / / ^ / ^ ^ ^ ^ ^ / / ( ( / / ^ E E E Y Y Y F F F D D D D D V V V V D D D D D V V V V N N c x x v z z x x x z z z j j g h z z v x x x z z z z z z z z z z z v x N V V D D F F F F D D D D V V V N N N c x x z v x x c N N V D D D D D C D F F F F H D F N k Z > w tXpX",
"`.P.A.P.A.V.P.P.E.E.E.E.Q.Q.Q.E.E.E.I.I.P.P.I.I.P.P.P.I.E.E.E.I.Q.E.E.E.T.I.I.P.P.P.P.P.P.P.P.P.V.A.A.A.A.A.V.V.|.V.|.c.%.b * M.3.^ / ^ ^ | ^ / E / / ^ / | E Z > O.5XpXpX1XA.c.s.d.s.i.i.i.p.u.i.i.w.w.w.w.i.i.i.s.c.c.s.i.i.i.q.w.w.w.w.w.w.w.i.w.w.i.c.c.s.i.u.w.q.q.q.q.q.q.q.q.,.,.,.>.>.>.q.q.w.w.q.w.w.i.w.w.w.q.q.i.s.s.c.v.v.c.c.c.c.c.v.c.c.c.v.c.c.c.c.c.c.c.c.c.v.c.v.c.c.c.v.v.c.c.c.c.s.s.s.s.s.s.s.c.c.c.c.c.c.s.s.s.s.i.i.i.i.i.i.i.i.i.w.w.w.w.q.w.w.w.w.q.q.q.q.q.q.q.q.q.0.0.0.0.>.>.>.>.>.>.>.-.>.q.c.$XyXuX_.i.-.@.-.0.@.0.-.-.-.-.-.-.-.-.-.-.-.-.-.=.@.@.@.@.-.>.-.-.=.=.@.@.@.@.=.;.;.-.u.w.w.>.O.I > ( eXG.2.$.$.3.$.3.2.$.$.$.#.#.#.#...........X.#.#.X.X.#.X.X.......( / / / / / / / / ^ ^ ^ ^ ^ ^ / / / / / / ^ ^ ^ ^ / ......( / / / / / ( | | | | | | | | ( / / / ^ ^ ^ ^ ^ / / / / / / ^ E E Y E Y Y G F F D D D D D D V V V V D F D D D D V V V N N c x x x z x x z z z z z z z g j z z z z z z z z z z z z z z z z z v x N V D F F F F D D V V V V V V N N N N x x x x x B N V D D F F F F F F F F F F F D Z Z c z k 7 , ( tXpX",
").V.V.P.A.A.T.E.Q.E.I.E.Q._.Q.E.E.E.I.I.I.T.E.E.Q.E.E.Q._._.Q.E.E.E.T.T.I.I.T.T.I.I.I.I.I.P.P.P.P.P.P.P.P.A.V.V.P.c.v.v.N.! X Q k...( ^ ^ / ^ ^ E ^ / ^ / | E N * M.pXtX2XP.w.v.c.c.s.u.u.i.i.w.i.i.w.w.w.w.i.i.w.i.s.i.w.w.w.i.w.w.w.i.i.s.s.c.i.i.i.s.c.c.s.i.i.w.w.q.q.q.q.q.q.q.,.,.,.,.>.>.w.w.w.w.q.w.u.i.w.w.w.q.q.i.s.s.c.c.v.c.c.s.s.c.c.s.i.c.c.s.s.c.c.c.c.c.c.c.v.c.c.c.c.c.c.c.c.c.c.c.s.s.s.s.s.s.s.s.c.c.c.c.s.s.s.s.s.f.i.i.i.i.i.i.i.i.w.w.w.q.q.q.w.w.w.q.q.q.q.q.q.q.q.0.0.0.q.0.>.>.>.>.>.-.>.@.0.0.@.w.V.d.@.>.q.+.@.q.@.0.-.-.-.-.-.-.-.-.-.-.-.-.-.=.@.@.@.@.-.>.-.-.=.=.@.@.@.@.=.;.-.-.,.<.-.@.O.G 1 / 9XG.6.2.$.3.$.$.3.2.$.$.$.#.#.#.X.......X.#.#.#.X.X.#.X.X.......( / / / / ^ / / ^ ^ ^ ^ ^ ^ ^ ^ / / / / / ^ ^ ^ ^ | #.#...| / / / / / ( | | | | | | | | ( / / / ^ ^ ^ / / / / / ^ ^ ^ ^ E Y Y E Y Y F F F D D D D D D V V V V D F D D D D V V V N N c x x x x x z z z z z z z z g g j z z g j j z z z z z z z z z z z z x V D D G F F D D V V V V V V N N N c c x x x x x N V V F F Y Y Y Y Y G F F F D D V V N c z j , Q 8XpXtX",
"P.P.P.P.I.E.E.Q.Q.Q.Q.Q.E.T.I.P.I.P.P.P.P.I.I.T.I.I.E.E.Q.Q.Q.Q._._.Q.E.E.I.I.I.I.I.I.I.I.I.P.A.P.P.I.I.I.P.P.P.P.P.P.v.i.@.v X '.#.E / E ( #.F / E E E / / E F 1 l XX#Xw.c.s.c.w.i.i.i.i.i.i.i.w.i.s.i.i.w.w.w.w.i.i.i.i.w.w.w.w.w.i.s.c.c.c.v.c.v.V.V.v.c.c.c.i.w.q.q.q.q.q.0.q.w.w.w.w.q.q.0.>.,.>.>.,.w.w.q.q.>.>.w.i.i.i.i.c.c.c.c.c.c.c.s.s.s.s.s.s.s.s.s.s.s.c.c.c.c.c.c.c.c.c.v.v.c.c.c.c.c.s.s.i.i.i.i.s.s.s.s.s.s.s.s.i.i.i.i.i.i.i.i.i.i.u.q.q.q.q.q.q.q.q.q.q.q.w.q.q.q.q.q.q.>.>.>.@.q.q.>.&.O.( Q O.q.%.] -.>.=.,.=.-.-.-.@.@.-.>.>.-.@.@.@.-.-.>.-.-.-.@.@.@.@.@.@.-.-.-.-.@.@.@.@.=.=.@.@.@.=.-.w.+.@.>.O.G k 7 *XY.$.#.6.2.$.6.6.3.3.2.$.$.#.#.#.#.#.#.#.$.$.$.X.X.X.......| | ( / / ^ ^ ^ ^ ^ ^ ^ ^ ^ ^ ^ ^ ^ / / / / / / / / ^ / ....| / / / / / / ( | | | | | | | | | | | | | | | ( ^ ^ ^ / ^ ^ E Y E E Y Y Y Y G F F D D D D D D D D D D D D D D D D V V V N N N x x v z z z z z z z z z h h g z z z h g g g g g g z z z z z z x x N V D F F F D D V V V N N V V N N N x x x x z x V D D V D F G Y G F D D D D D D C V V V V j 0 7 &XpXuX8X",
"I.P.P.I.E.Q._._.E.E.E.E.T.I.P.P.Q.Q.Q.Q.Q.E.E.T.E.E.E.Q.)._._._.).Q.Q.E.E.I.I.I.I.P.P.I.I.I.P.P.P.I.I.I.I.P.P.P.V.A.A.V.v.>.b # ( E | / E D ^ E E E ^ / / E D c y 8 >.I.V.A.w.>.i.i.i.i.i.i.i.i.i.i.s.s.i.i.i.i.c.c.c.c.s.i.i.i.i.s.s.c.c.c.c.c.c.c.c.c.c.s.s.s.i.w.w.q.q.q.q.q.q.q.q.w.w.q.q.q.>.,.>.>.q.w.w.q.u.q.q.w.i.i.i.s.c.c.c.c.s.s.s.i.s.s.s.s.s.s.s.s.s.s.s.s.c.c.c.c.c.c.c.v.v.c.c.c.c.c.s.s.s.i.i.i.s.s.s.s.s.s.s.s.i.i.i.i.p.p.p.p.i.u.u.q.q.q.q.q.q.q.q.q.q.q.q.q.q.q.q.q.q.>.>.>.w.q.>.) ( Q Z z Z O.>.-.>.q.-.=.-.>.>.>.-.-.-.-.@.-.>.-.-.@.@.-.-.-.-.@.%.@.@.@.@.@.@.@.@.@.@.@.@.@.@.@.@.@.-.-.w.@.&.0.%.) c > k.].r.3.3.$.6.e.3.3.3.2.$.$.#.#.#.#.#.#.#.#.$.$.X.X.X.......| | ( / / ^ ^ ^ ^ ^ ^ ^ ^ ^ ^ ^ ^ ^ ^ ^ ^ ^ ^ ^ ^ ^ ^ / | | ( / / / / / / / / ( ( ( | | | | | | | | | | | / ^ ^ ^ / ^ ^ E Y Y Y Y Y Y G F F F D D D D D D D D D D D D D D D D V V V N N x x x x z z z z z z z z z h j j j j g g g g g g g j j z z z z z x x N V D F D D D V V V N N V V V V N N c x N x x N D F D D D D F F F D D V V C D C V V V N j > w H uXaXtX`.",
"P.P.P.P.E.Q.).)._._.).Q.E.E.E.E._._._.Q.Q.Q.E.E.Q.Q.).)._._.).).E.E.E.E.E.I.I.I.I.I.I.E.E.E.E.I.I.I.I.I.I.P.P.A.A.V.V.V.V.i.! w : q D G / G ^ / G G G E ^ / ( ( p = b v._.V.s.c.i.i.i.i.i.i.i.i.i.s.c.c.s.s.s.s.c.c.c.s.i.i.i.i.s.s.c.c.c.c.c.c.v.c.c.c.c.c.c.c.i.i.i.w.q.q.w.w.q.q.q.w.w.q.q.q.>.q.,.>.q.u.i.w.i.w.q.w.i.i.i.s.c.c.c.c.c.s.i.i.s.s.s.s.s.s.s.s.i.i.i.s.s.c.c.v.c.c.c.c.c.c.c.c.c.c.c.s.s.s.s.s.s.s.s.s.s.s.s.s.i.s.i.p.p.p.u.u.u.u.u.q.q.q.q.q.q.q.q.q.q.q.q.q.q.q.q.q.,.,.,.,.>.+.>.( Q e 5 * 7 Z &.q.>.q.w.-.-.>.,.>.-.-.=.=.@.-.>.-.=.@.@.=.-.%.@.@.%.@.@.@.@.@.@.@.@.@.@.+.@.[ @.@.@.-.-.>.q.@.@.>.>.O.Z : #.7XF.6.3.3.r.6.3.3.3.2.$.$.$.#.#.#.#.X.X.#.#.#.X.X.X.X.....| | ( / / ^ ^ ^ ^ ^ ^ ^ ^ E E ^ ^ ^ ^ ^ ^ ^ ^ ^ ^ ^ ^ ^ / / / / / / / / / / / / / / / ( ( | | | | | ( | | / / ^ ^ ^ ^ E Y Y Y Y Y Y F F F F F F D D D D D D D D D D D D D D V V V N N N c x x v z z z z z z z z z j j j g g g g s s g g g j j z j j z x B N V V D F V V V V V N N N V V V V V N N N N c x N D D D D D D D D V V V V V V V V V V N N z g j #XpXuX$XM.",
"P.P.P.I.E.Q.Q.).`._._.Q.Q.Q.Q.Q.).Q.T.I.I.T.Q.).).).).Q.Q.E.E.T.E.E.E.T.T.I.I.I.E.T.E.E.E.E.E.I.I.I.T.T.I.P.P.A.P.A.v.v.V.v.q.` 7 > g ^ E F D D F F G Y Y G D V G y b Q.2XV.i.V.i.i.i.i.i.i.i.i.i.i.i.s.s.s.s.s.i.i.s.i.i.i.i.s.i.i.s.c.c.c.c.v.v.c.c.c.c.v.v.c.i.i.i.i.w.q.w.i.w.w.w.w.w.q.q.0.>.q.q.,.q.i.i.w.i.w.q.w.i.i.s.c.v.v.v.v.c.c.s.i.s.s.s.s.s.s.s.s.i.i.i.i.s.c.v.V.c.c.c.c.c.c.c.c.s.s.s.c.s.s.s.s.s.s.s.s.s.s.s.s.s.s.i.p.p.u.u.u.u.w.u.q.q.q.q.q.q.q.q.q.q.q.q.q.q.q.q.,.,.,.>.>.s.+.@.I w X 6.y.3 w ( w.q.q.u.,.=.-.-.-.-.=.-.-.-.-.@.@.@.-.-.-.-.-.-.@.@.@.@.@.@.@.@.@.@.@.@.+.@.[ [ @.-.-.>.>.>.@.%.%.%.&.H > / 9Xn.2.6.6.h.3.3.3.3.2.$.$.$.$.#.#.X.X.......X.X.X.X.X.....| | ( / / ^ ^ ^ ^ ^ ^ E E E E E E ^ ^ ^ ^ ^ ^ ^ ^ ^ ^ ^ ^ ^ ^ ^ / / / / / / / / / / / / / ( | | | | ( ( ( / / ^ ^ ^ ^ E Y Y Y Y Y G F F F F F F F D D D D D D D D D D D D D V V N N N N c x x v z z z z z z z z z j j j g g s s s s s g g h z z z z z x N V V V D D N N N N N N N N V V V V V V N N c x x N V V V V V V V V V V V V V V V V V V N x 7 7 Z pXaXaXP.L.",
"E.T.T.E.Q._._._.Q.E.E.T.T.T.E.E.E.E.T.I.I.T.E.E.E.E.E.E.E.I.I.I.T.T.T.T.T.T.T.I.T.T.I.T.E.I.P.P.I.I.T.T.I.P.P.A.P.P.V.v.V.V.v.x.G w j e.Y Q F F D c j g j c c c w < k $XuXE.w.i.i.i.i.i.i.i.i.i.i.i.i.i.i.i.i.i.c.c.c.c.s.s.c.c.i.i.s.c.c.c.c.c.c.s.s.c.v.v.c.s.i.i.s.i.w.w.w.i.i.i.i.i.w.q.q.0.,.q.q.,.q.i.i.w.w.q.q.w.i.i.d.v.V.v.v.v.c.c.s.s.s.s.s.s.s.s.s.s.s.s.s.s.c.v.V.V.c.c.c.c.c.c.c.c.s.s.c.c.c.s.s.s.s.s.s.s.s.s.s.s.s.s.i.i.i.w.w.w.q.q.q.q.q.q.q.q.<.q.q.q.<.<.<.<.<.<.,.,.,.,.,.,.q.-.@.! 8 j iX8Xc w Q c.c.q.>.>.,.,.-.-.=.=.=.-.,.=.@.=.,.<.,.-.-.-.-.-.-.@.@.@.@.@.@.@.@.@.+.+.@.@.@.=.-.,.<.,.>.-.>.%.&.&.Q w g +Xz.$.3.6.r.6.3.3.3.2.$.$.$.$.#.#.X.....................| | | ( / / ^ ^ ^ ^ ^ E E E E E E E E ^ ^ ^ ^ ^ ^ ^ ^ ^ ^ ^ ^ ^ / / / / / / / / / / / / / / / ( | | | / / / / / / ^ ^ ^ E Y Y Y Y Y G F F F F F F D D D D D D D D D D D D D V V V N N N N c x x z z z z z z z z z z j g g g s s s s s w s g z z z x v z x N V V V V V N N N N N V V V V V V V V V N N c c B N V V V V V V N N N V V V V V V V V V c z s > ).pXpX$XI.T.",
"E.E.E.E.Q._._._.E.E.E.E.T.E.E.E.Q.)._._._.Q.T.P.I.I.I.T.T.E.T.T.T.T.T.T.T.T.T.T.Q.E.E.E.E.E.I.P.T.T.I.I.I.P.P.P.A.A.P.A.V.V.v.v.%.j 7 ( Z F c j w 7 3 3 3 5 7 7 7 l >.qXuX).i.s.i.i.i.i.i.i.s.s.c.c.c.c.c.c.c.c.v.v.v.c.c.c.c.c.c.c.c.c.c.c.c.c.s.c.c.v.v.v.c.i.i.i.i.i.w.w.i.i.s.s.s.i.i.w.q.q.q.q.q.,.q.u.i.w.q.q.q.i.i.i.c.V.v.v.v.c.c.s.s.i.s.s.s.s.s.s.s.s.s.s.s.c.c.v.V.V.c.c.c.c.c.c.c.c.c.c.c.c.c.c.s.s.s.s.s.s.s.s.s.s.i.i.i.i.i.w.w.w.q.q.q.q.q.q.q.q.<.<.<.<.<.<.<.<.,.,.,.,.,.,.,.,.+.q.-.) 8 c 9XT.F j Z y.m.w.-.>.,.,.,.-.=.=.=.-.-.=.=.-.<.q.,.=.>.0.>.-.-.-.@.@.@.@.@.@.@.@.@.+.=.@.@.=.>.<.,.>.>.>.0.%.@.&.( Z & k.'.r.$.$.3.6.3.3.2.$.$.$.$.$.#.#.X.....................| | } / / / ^ ^ ^ ^ ^ ^ E E E E E E ^ ^ ^ ^ ^ ^ ^ ^ ^ / ^ ^ ^ / / / / / / / / / / / / / / / / / ( ( | / / / / / / ^ E ^ E Y Y Y Y Y Y F F F F F F D D D D D D D D D D V V V V V N N N N N c x x v z z z z z z z z z j g g g s s s s s s g g z x x x x z x N V V N N N N N N N N N N N N N V V V V N N N N V V V V V D V V N N N V V V V V N V V N v j g g pXuXpXT.T.E.",
"E.E.E.E.Q.Q.Q.Q.Q.).Q._._._.).)._._.`._._.Q.E.T.E.E.E.E.E.E.E.E.E.E.E.E.E.T.W.T.Q.Q.Q.Q.Q.Q.E.T.E.T.I.I.P.I.I.I.A.A.A.P.A.V.V.v.M.G > > j w : , w G q.T.`.[.{.).I.#XwXuXwXP.i.v.s.i.i.i.i.s.c.c.V.v.c.c.v.v.v.v.c.c.v.c.c.s.s.s.c.c.c.c.c.c.s.s.s.c.v.V.v.c.c.s.s.i.i.w.i.i.i.i.i.i.i.i.i.w.w.q.q.q.q.,.q.w.w.q.w.w.u.s.s.s.c.B.v.v.v.c.c.c.s.s.s.s.s.s.s.s.s.s.i.s.s.c.c.v.v.v.c.c.c.c.c.c.c.c.c.c.v.v.c.c.c.s.s.s.s.s.s.s.s.s.i.i.i.i.i.u.w.w.q.q.q.q.w.q.q.q.,.,.,.,.,.,.,.,.,.,.,.,.,.,.,.,.w.i.+.S > > %.( E z w G %.%.O.-.@.=.-.,.-.-.=.=.=.=.@.@.[ @.=.=.q.q.q.>.-.-.@.@.@.@.@.@.@.@.@.+.@.[ [ =.-.,.>.-.q.-.-.%.&.@.O.G : $.7Xn.#.$.$.3.3.3.2.$.$.$.$.$.#.#.#.X.X.X.X.#...........| | } ( / / ^ ^ ^ ^ ^ ^ ^ E E E E ^ ^ ^ ^ ^ ^ ^ ^ ^ ^ / ^ ^ ^ / / / ^ / / / / / / / / / / / / / / / / / / / / / / ^ E ^ ^ E Y Y Y Y Y Y G F F F D D D D D D D D D D D V V V V V N N c N N x x x v z z z z z z z z z j g g g s s s s g g j z x x x v z z x N V V N c x x x x c c c c c N N N N N N N N N V V V V V V V N N N N N N V V V V N N N c j w * Y iXuX&X).).{.",
").Q.Q.)._._._.Q._._.`.`.`.`._._.`._.Q.E.E.E.)._._._._._.Q.Q.E.E.E.E.E.E.E.E.T.T.I.I.I.I.E.E.I.I.E.I.I.P.P.I.I.T.P.A.V.V.P.P.P.P.c.y.S X S c K 0.1X9XpXpXpXuXpXpXpXuXuXyX$Xv.s.v.s.s.s.s.s.c.v.v.c.c.s.i.s.c.s.s.s.c.v.v.v.c.c.c.i.i.s.s.s.s.s.s.i.c.c.c.c.i.i.i.s.i.w.w.i.i.i.i.w.w.i.i.i.w.w.w.q.q.q.,.q.w.w.q.u.u.i.d.d.s.c.v.v.v.v.v.v.c.c.c.s.s.s.s.s.s.s.s.i.i.s.c.c.c.v.v.c.c.c.c.c.c.c.c.v.v.v.v.v.c.c.s.s.s.s.s.s.s.s.s.i.i.i.i.i.i.i.u.<.q.q.q.w.q.q.q.,.,.,.,.,.,.,.,.,.,.,.,.,.,.,.,.=.=.@.>.G : * D / D 3 5 Z Q R ( ! ` @.-.-.>.-.=.-.@.[ ! K U [ >.w.w.q.0.>.-.@.@.@.@.@.@.@.@.@.+.@.[ [ =.-.>.-.=.>.@.&.%.%.%.O.G 0 / aXb.| e.3.$.3.2.2.$.$.$.$.$.#.#.#.X.X.#.#.#...........| | } ( / / ^ ^ ^ ^ ^ ^ ^ ^ E E ^ ^ ^ / / / / / / / / / ^ ^ ^ / / ^ E ^ ^ ^ ^ / / / / / / / / / / / / / / / / / / ^ E ^ ^ E Y E E Y Y Y Y G F F D D D D D D D V V C D V V V V V N N c N N x x x x z z z z z z z z z j g g s s s s g g z z x c x x z z z x N V V N x x x x x x x x x x N N N N N N N N N N N N N N V V x c c N N N N N V N N N c v j e c T.pXpX`.Q.).L.",
"E.E.I.I.E.Q._.`._._.Q.E.E.E.E.E.Q.Q.Q.Q.Q.Q.Q.Q._._._._._._._._._.Q.E.E.E.E.I.P.E.E.E.E.E.E.T.T.T.E.E.)._.Q.E.I.I.P.P.P.P.A.A.A.P.q.@.w.}.<XqXpXpXpXpX9X$XE.E._.[.`._.T.A.v.c.c.v.c.i.i.s.c.c.s.s.c.v.v.v.c.s.s.v.v.v.v.v.v.v.v.s.s.s.s.s.s.s.s.c.c.c.c.c.s.s.s.i.i.w.w.i.s.s.s.i.i.w.w.w.w.q.q.u.q.q.q.q.w.w.q.q.u.s.c.c.v.B.V.A.A.V.v.v.c.c.v.c.c.v.v.v.v.c.s.i.i.s.c.c.v.v.v.v.v.c.c.c.c.c.c.c.c.c.c.c.c.c.c.s.s.s.s.s.s.i.i.s.s.i.i.w.w.w.w.w.w.w.w.w.q.0.>.-.,.q.<.,.,.,.,.-.>.<.w.w.,.,.,.@.s.] q.O.c X Y #...V 7 0 : : w y b ! +.-.>.-.@.-.+.S K 8 8 A ] -.q.q.>.-.>.-.+.-.-.-.-.%.@.@.+.@.@.@.@.@.>.>.-.+.@.0.>.%.>.O.G : 2.eXk.2.e.3.e.2.3.3.3.3.3.2.$.$.#.X.X.#.#.X...........| | } / ^ / / ^ ^ ^ ^ / ^ ^ ^ ^ ^ ^ ^ ^ / / / ^ ^ ^ ^ ^ ^ ^ ^ ^ ^ ^ ^ / ^ ^ ^ / / / ^ ^ ^ ^ / / / / / / / / / / ^ ^ ^ ^ ^ E E Y Y Y Y G Y Y F F D D D V D D D V V V V V V V V V V N N N B B x x x x v v z z z z z j z z g g g g g h z g z x N N N x z j v x N N N c x z x x x x x x x x z x x x B N N N N c x x c N V D V N N N N N N N D c c c w z k * ( 8XpX8X XE.I.E.",
"Q.E.E.E.Q.)._.`._.).Q.E.E.E.E.E.Q.Q.Q.Q.Q.Q.Q.Q.Q.Q.Q.Q.Q.Q.Q.Q.Q.E.E.T.E.E.I.I.I.I.I.T.I.I.I.I.E.E.E.E.Q.Q.E.E.I.I.P.P.P.A.A.A.P.|.T.3XtXpXpXpX8X$XR.v.v.|.V.c.c.v.v.v.v.v.v.V.c.c.c.c.c.c.c.c.v.v.v.v.v.c.c.c.V.V.v.v.c.c.s.i.c.c.s.c.c.c.c.c.v.v.V.v.c.c.s.s.s.i.w.i.i.i.i.i.i.i.i.w.i.w.w.q.w.q.,.q.w.u.u.w.i.s.c.v.v.B.V.A.V.A.A.V.v.v.c.c.v.v.v.v.v.v.c.c.v.v.v.v.v.v.v.v.v.c.c.c.c.c.c.c.c.c.c.c.c.c.c.c.s.s.s.s.i.i.i.i.w.q.w.s.i.q.q.s.w.0.>.q.i.s.w.>.<.,.,.,.,.>.q.q.q.,.-.@.@.@.-.-.<.=.i.@.c.&.Y o 6.].| F $...G c - - w A ] -.>.>.` [ A o 7 < = K @.0.q.>.-.0.>.@.-.%.-.-.%.@.@.+.@.=.@.[ @.=.-.@.>.-.%.@.&.@.O.Q 4 | 0XU.r.6.$.$.2.3.3.3.3.3.$.$.$.#.X.X.#.#.X...........| | } } / / / ^ ^ ^ ^ / ^ ^ ^ ^ ^ ^ ^ ^ / / / ^ ^ ^ ^ ^ ^ ^ ^ ^ ^ ^ ^ ^ ^ ^ ^ ^ / ^ ^ ^ ^ ^ ^ ^ ^ ^ ^ ^ / / ^ ^ ^ ^ ^ ^ ^ E E Y E E Y Y Y Y F F D D D V D D D V V V V V V V V V N N N N x x x x x v v z z z v z z z h z j g g g z z x x c N N x x z z z z v x N N N N x x x x x x x x x z x x x x x x x c c c c N V V V N N N N N N N N j V j G N g O Q 9XpXuX[.T.Q.Q._.",
"Q.Q.Q.)._._.`.`.Q.Q.Q.Q.Q.E.E.E.Q.Q.Q.Q.Q.Q.Q.Q.E.E.E.E.E.E.E.E.E.E.I.T.E.E.E.I.I.I.I.I.I.I.I.I.E.E.I.I.T.E.E.E.I.I.P.P.P.A.A.A.v.c.V.W.`.).P.P.I.V.i.w.i.c.c.i.i.s.c.c.c.c.v.V.c.v.V.V.v.v.v.V.v.v.v.c.c.c.c.v.v.v.v.v.v.v.v.c.c.c.c.c.c.v.v.v.v.v.v.v.c.s.s.s.s.i.i.i.i.i.i.i.s.i.i.w.i.w.w.q.w.q.q.q.w.w.u.u.s.c.v.v.B.V.V.A.A.A.A.A.V.v.c.s.c.c.c.c.c.c.c.c.v.v.v.V.V.V.V.V.c.c.c.c.c.c.c.c.c.c.c.c.c.c.c.c.s.s.s.s.s.i.i.i.A.s.q.y.c.s.q.@.q.y.y.q.q.0.0.>.q.=.=.>.>.-.-.q.-.q.w.w.w.i.w.-.<.=.s.0.&./ Q 0 / 9X6.#.Y.>XeXeX).) , # l ] 5.>.( G 7 w 2Xt.- > ] q.i.>.-.>.>.@.-.-.-.-.@.@.@.@.@.=.=.[ [ @.@.@.` >.&.] y.-.Q Q 4 6.rX^.3.6.e.6.2.2.3.3.2.$.$.$.$.#.X.X.#.#.X.........| | | / / / / / / ^ ^ ^ / ^ ^ ^ ^ ^ ^ ^ ^ / / ^ ^ ^ ^ ^ ^ / / ^ ^ ^ ^ ^ ^ ^ ^ ^ ^ ^ ^ ^ ^ E E ^ ^ ^ ^ ^ ^ ^ ^ ^ ^ ^ ^ ^ ^ ^ ^ E E E E Y Y Y G F F D D D V D D D V V V V V V V V V N N N N x x x x v z z z z z z z j g g h g g g z x N N N V V N x z g z z z z x N N V N N x x x x x v v v x x v v v x x x x x N N V V V V N N c c x N N N k F c e e o K uXtXpX0XXXXXXX_.`.",
"Q.Q.Q._._._._._.E.E.Q.Q.Q.Q.Q.E.Q.Q.Q.Q.Q.Q.Q.Q.Q.Q.Q.Q.Q.Q.Q.Q.E.E.T.T.T.T.I.I.I.I.I.I.I.T.E.E.E.T.I.I.I.E.E.E.I.I.I.P.P.A.A.A.W.V.v.v.V.v.V.V.i.v.|.|.v.c.c.v.v.v.v.v.c.c.c.c.c.v.V.V.V.V.A.P.v.v.v.v.c.c.c.v.v.v.v.V.V.V.V.V.c.c.c.v.v.v.V.V.c.c.v.v.c.c.c.c.s.i.i.i.i.i.i.i.s.i.w.w.w.w.w.q.w.q.q.q.q.w.w.w.c.c.v.v.v.B.V.V.P.A.V.V.V.v.c.c.s.s.s.s.s.s.s.c.c.c.v.v.V.V.V.V.c.c.c.c.c.c.c.c.c.c.c.c.c.c.c.c.s.s.s.s.s.s.i.i.%.s.c.w.0.y.s.c.w.t.t.y.0.%.>.q.q.%.-.q.w.>.-.q.-.>.@.] O.>.q.>.u.V.>.` ( | z : z.iXh.X.X.3.k.k.6.a.( > > Q O.Z Q Z > t.pX$.Z G Q -.i.0.@.-.>.@.-.-.-.@.@.@.@.@.@.=.=.@.[ +.@.@.>.q.%.] O.O.Q Z & /.iXH.#.e.k.7.2.2.2.2.$.$.$.$.$.#.X.X.#.#.X.........| | } / / / / / / ^ ^ ^ / ^ ^ ^ ^ ^ ^ ^ ^ / / ^ ^ ^ ^ / / / / ^ ^ ^ E E E ^ ^ ^ ^ ^ ^ ^ E ^ ^ ^ ^ ^ ^ ^ ^ E ^ E E E ^ ^ ^ ^ ^ E E E E Y Y Y F F D D D D D D D D V V V V V V V V N N N c c x x v z z z z z g z z z z g g j z j z z x N N N V N c z g g z v z x x N N N N N x x x v z z z z z z z z z z z z x x N V V V V V N c c c x N N N c Z e 7 w Q 0XpXuX0X$X)._.Q.I.).",
"E.E.Q.Q.Q.Q.Q.Q.E.E.Q.Q.Q.Q.Q.E.Q.Q.Q.Q.Q.Q.Q.Q.Q.Q.Q.Q.Q.Q.Q.Q.Q.E.E.E.I.I.I.I.I.I.I.I.I.E.E.E.E.E.E.E.Q.Q.E.E.T.I.I.P.P.A.A.A.V.C.C.C.C.C.C.V.C.c.s.s.c.v.v.c.c.c.c.c.c.c.c.c.c.c.c.c.c.v.V.V.V.V.V.V.v.v.v.v.V.V.V.V.v.c.c.c.c.c.v.v.v.v.v.v.v.V.V.V.V.v.v.V.s.s.i.i.s.s.i.i.s.i.w.w.w.w.w.q.q.q.q.q.q.w.i.i.c.v.B.v.B.B.V.V.P.A.v.v.v.v.c.c.c.c.c.c.c.c.c.v.V.V.V.V.V.v.c.c.c.c.c.c.c.c.c.v.c.c.c.c.c.c.c.c.c.c.c.c.c.c.s.i.y.i.t.%.( Q ) ` -.%.@.&.&.` ! I Q Q Q ( ( Q Q Q Q ( ( Q ( &.0.0.w.=.@.( Q 3 : x rXeX6...W $...( 3./ Y F j % ; j & 5 Q 9XpX6.Y : w K @.>.-.>.>.-.-.-.@.@.@.@.@.@.@.=.=.@.+.@.@.@.~ m ( ] Z Q ( > j 7XiXn.e.h.6.#.3.3.2.$.$.$.$.$.$.#.X.X.#.#.X.........| | | / / / / / / ^ ^ ^ / ^ ^ ^ ^ ^ ^ ^ ^ / / / / / / / / / / ^ ^ E E E E ^ ^ ^ ^ ^ E E E E E E E ^ ^ ^ ^ E E E ^ ^ ^ ^ ^ ^ ^ E E E E Y Y F F F D D D D D D D D V V V V V V V V N N c x x x v v z z z z z j z x x z z z z z z z x x c c x x x x z z j z v x c N N N x x x z z z z z z z z z z j z j z z z x x N V V V V N N N N N N N N N c Z > j 7 &XpXtXyX=XP.P.!.!.I.W.",
"E.E.E.E.E.E.E.E.E.E.Q.Q.Q.Q.Q.E.E.E.Q.Q.E.E.E.E.E.E.E.E.E.E.E.E.Q.Q.Q.E.T.I.I.E.I.I.I.I.T.E.E.Q._._._._._._.Q.E.E.T.I.P.P.A.A.A.V.A.A.V.V.C.c.c.V.v.c.s.v.V.V.v.c.c.c.c.v.v.c.c.v.v.v.v.v.v.v.v.v.v.V.V.v.v.v.v.A.A.A.A.V.V.V.v.v.v.v.V.V.v.v.v.v.V.V.V.v.c.c.c.s.s.s.s.c.c.s.i.s.i.w.w.w.w.w.w.>.q.q.w.w.i.s.c.v.v.V.V.B.V.V.A.P.V.v.c.c.c.c.c.c.c.c.c.s.c.v.V.V.V.V.A.V.V.v.v.v.c.c.c.c.c.c.c.c.c.c.c.c.c.c.c.c.c.v.v.c.c.s.s.c.>.O.( G c m Q Q ] @.) c 9 7 9 e w w e e 7 e e > 7 7 w k Z ( &.@.' ~ K o > t.eXiX(.} W T X.| ..^ $.3...X.6.X.C #.G.iXiXU.X.| Z , 9 A ` -.q.>.-.-.-.@.@.@.@.@.@.@.=.=.@.@.-.@.+.+.~ k > 7 1 = : '.iX6Xh.b.h.2.6.3.3.3.$.$.$.$.$.$.#.X.X.#.#.X........... .| } / / ( / / ^ ^ ^ / ^ ^ ^ ^ ^ ^ ^ ^ / / ^ ^ ^ / / / / / ^ ^ E E E E E E ^ E E E E E Y Y Y Y E E E E E E E E ^ ^ ^ ^ ^ E E Y Y Y Y G F F F D D D D D D D V V V V V V V V N N c x x x x x v z z z z z z x x N x v z z x z x x x x x v z z z v z z v x N N N c x x z z z z z z z z h j j g g g g z z x x N N V V N N N N N N N x x c c c k c : G aXaXpX_.I.P._.`.!.E.!.",
"Q.Q.E.E.E.E.E.E.Q.Q.Q.Q.Q.Q.E.E.E.E.E.E.E.E.E.E.E.E.E.E.E.E.E.E.E.Q.Q.E.E.T.E.Q.E.E.E.E.E.Q._._._._._._._.).E.E.E.T.I.P.P.A.A.V.C.C.C.c.v.V.V.P.v.V.P.W.P.V.V.V.V.v.v.v.v.c.s.i.c.v.A.A.A.V.V.V.V.V.V.V.V.V.V.A.A.P.P.P.P.P.P.P.V.V.V.V.V.v.v.c.c.c.v.c.c.s.s.c.s.s.s.c.c.c.c.s.c.s.i.i.i.i.i.i.w.w.i.i.i.i.d.v.c.v.v.v.v.B.V.A.A.v.c.c.c.v.c.c.s.c.c.c.s.s.v.V.v.v.V.A.A.A.V.V.v.v.c.c.c.c.c.c.c.c.c.c.c.c.c.c.c.c.v.v.c.c.s.i.%.@.I y * o + = 1 9 w 7 - : e c c c j 7 > 0 j v G Z k e > , w Z K =.n - 7 >XiXiXJ.o.} o.^ ^ W ^ / ..X...3.J.,XaXiXeXiX@Xe.7.#.D j 7 8 m ] -.-.-.-.@.@.@.+.+.@.@.@.@.@.@.-.-.+.` S b # - ] &.0.&XpXiX~.r.k.e.r.h.6.6.3.2.$.$.$.$.$.#.X.X.#.#.X............. .| } ( ( ( / ^ ^ ^ / ^ ^ ^ ^ ^ ^ ^ ^ ^ ^ ^ ^ ^ ^ ^ / / ^ ^ ^ E E E E E E E E E E Y Y Y Y Y Y Y Y Y Y Y Y E E E ^ ^ ^ ^ E Y Y Y Y Y F F F D D D D D D C C V V V V V V V V N N x x x z x x x v z z z z x c V V N c x x x z x x N c x v z x x x v v x N N N B x x v z z z z z z j j g g g g g g g z x x c N N N N N x x v z z j g g g g z > w > <XpXtX$XQ.E.Q.E.S.V.E._.",
").Q.Q.Q.Q.Q.Q.Q.Q.Q.Q.Q.Q.E.E.E.E.E.E.E.E.E.E.E.Q.Q.Q.Q.Q.Q.Q.Q.E.E.Q.E.E.E.Q.)._._.).)._.`. X X_.).Q.Q.E.E.I.I.E.E.I.P.P.A.A.V.V.A.V.V.B.V.V.v.V.V.V.A.V.V.B.v.v.c.c.c.c.c.i.w.q.c.A.P.P.V.A.P.I.I.P.P.P.P.T.E.I.I.P.P.P.A.A.V.A.A.A.A.V.v.c.c.c.c.c.c.c.c.c.v.s.s.c.c.c.c.c.c.c.c.s.i.i.i.i.i.s.d.c.s.i.i.s.c.d.c.c.c.c.v.B.V.V.v.c.c.v.v.c.s.c.v.v.c.c.c.V.P.V.V.A.A.V.V.v.c.v.v.v.c.c.c.c.c.c.c.c.c.c.c.c.c.c.c.c.v.c.c.s.i.@.G > , O.%X`.O.Q c w Z x.$X8X9X0X9X1XOX{.%X7X0X8X8X0X1XR.Y 5 = 8 < + 9 8XpX*X$.} W W } } W ..X.2. .} o.6.7.g.n.F.n.8.o.3.W #.3.&.k = 9 G O.%.>.-.@.@.@.@.@.@.@.=.@.[ @.-.-.] ! m - O.8XpXtXpXpXiX2Xk.k.r.6.h.3.6.6.3.2.$.$.$.$.$.#.X.X.#.#.X...............| | ( | ( / ^ ^ ^ / ^ ^ ^ ^ ^ ^ ^ ^ E E E E E ^ ^ ^ ^ ^ ^ ^ E E E E E E E E E E Y Y Y Y Y E E E E E G G Y Y E E E ^ E E Y Y Y Y G F F F H D D V Z D Z V Z V Z V Z V V V N N x x z z x x x x v z z z x N V V V N c x x v x x N N c x B B x x v x N V x x x x v z z z z z g j j g g g g g g g j z x N N N N N c x x x s s w w q 0 0 0 1 e , I yXuXuXI.Q.P.I.E.E._._.E.",
"Q.Q.E.E.E.E.Q.Q.E.Q.Q.Q.Q.Q.E.E.E.E.E.E.E.E.E.E.E.E.E.Q.Q.Q.Q.E.E.Q.Q.E.E.Q._.[._._._._._._.Q.Q.Q.Q.Q.E.E.E.I.I.E.E.T.I.I.P.P.A.V.V.V.A.A.A.P.P.V.V.V.v.V.V.V.V.P.V.v.V.A.v.q.] ! c.P.A.E.P.v.P.P.P.P.A.A.P.P.P.V.P.A.V.V.V.V.c.V.V.V.V.V.V.v.v.c.c.v.v.v.c.c.c.c.c.c.c.c.v.v.c.s.s.s.s.s.s.s.c.c.c.s.i.i.s.s.s.s.c.c.c.c.v.v.V.v.c.c.c.V.P.V.c.v.c.c.c.v.V.V.v.v.V.A.V.v.v.c.c.d.v.B.v.c.d.c.c.c.c.c.v.v.c.d.d.d.c.c.v.c.s.s.t.O.D o 2XpXaX].L.<X1X0XaXpXtX%XG.G.k.r.H.>X7X*Xb.k.h.t.e.3.3.6.r.F c y.9XpX].#.( / ^ ^ / } / | #.....X.#.$.$.#.X.#.#.#.#.X.....#...| Z 3 7 G &.&.@.-.-.=.[ [ =.-.[ -.-.[ ] ] ( G 7 w eXiXeX~.(.(.F.b.h.g.e.3.2.3.3.3.3.3.2.$.$.$.$.#.#.#.#.#.#.#.#.#.#.......| | ( / / / ^ ^ ^ ^ / / ^ ^ ^ ^ ^ ^ E E E E E E E E E E E E E E E E E E E E E E E E G G E Y G G G Y E D E T / F E E E Y Y E Y F F Y F G F Z Z Z Z Z G Z Z c c c N N N x N V N v z N x x x z z v v x N N V D V V N N x x x N c x x x x x x N N V V V N c x v z z z g g g g g g g g g g g g g z x c N z V D g j Z s s 7 g * 7 Z w 9 k 9 j S tXpXuX)._.I.W.W.W.W.W.!._.",
"Q.Q.E.E.E.E.Q.Q.Q.Q.Q.Q.Q.E.E.E.E.E.E.E.E.E.E.E.E.E.E.Q.Q.Q.Q.Q.E.Q.).Q.E.E.E.E.E.E.Q.Q._._._._.`.`._._._.Q.Q.Q.E.E.E.I.I.P.P.A.A.A.A.P.P.P.P.P.A.A.A.A.A.A.V.V.v.v.V.I.I.V.>.( w.4X9XE.s.c.V.P.V.v.v.v.v.v.v.v.v.A.P.A.A.P.P.P.A.A.V.V.V.v.v.v.V.V.V.V.V.V.v.v.v.c.c.v.v.V.v.v.s.s.s.s.c.c.s.c.c.s.s.i.i.i.s.s.c.c.c.c.c.c.v.V.V.v.v.V.P.P.A.v.v.c.c.c.v.v.v.v.V.A.A.A.V.V.V.v.c.c.d.c.c.c.c.c.v.c.c.c.c.c.v.v.c.A.c.c.s.f.c.y.O.s % 0X1Xb.X.e.e.r.t.t.k.k.3./ #.#.#.#.3.6.#.E | ......| ..$.6.,X9XiX9XY.( F / / ^ ^ / / / / | | ..X.#.$.$.#.X...X.#.#.X.#.#.$.2.$.| N 3 : k Q ( ` +.=.-.-.;.=.=.` ] >.>.] G Z : U.iX0Xl.h.8.h.k.g.r.r.r.6.6.6.3.3.3.3.2.$.$.$.$.$.#.#.#.#.#.#.#.#.#.#.....| | ( / / / ^ ^ ^ ^ / / ^ ^ ^ ^ E E E E E E E E E E E E E E E E E E E E E E E E E E G Y Y Y F G G G Y E ^ C T T / E ^ Y F T E E T F Z c c c Z Z Z Z c c Z Z Z Z Z Z N N N V N z v c z v z z z v x x N V V V V N N N c c N x c x x x x x x N N V N N N c x v z z z g g g g g g g g g g g g g z z x x V h g V k 0 q 7 , k G P.qXqX5X5XqXsX9XpXuX4XI.I.I.W.W.W.W.W.E.!.",
"Q.Q.Q.E.E.Q.Q.Q.Q.Q.Q.Q.Q.E.E.E.T.T.T.T.E.E.E.Q.E.E.E.Q.Q.Q.Q.Q.E.)._.`.`.`._._._._._._.`.`. X X`._._._.).Q.Q.E.E.E.E.E.I.P.P.P.P.P.P.P.P.P.P.I.P.P.P.I.I.P.A.A.P.A.V.A.P.V.c.w.=XuXuXQ.c.V.P.V.I.I.P.P.P.P.P.P.A.P.T.P.A.P.I.I.A.A.V.V.v.v.v.v.A.A.A.A.V.v.v.c.v.v.c.v.v.V.V.v.s.c.c.c.c.c.c.c.c.s.s.i.i.i.s.s.c.c.c.c.c.c.v.V.v.c.c.A.P.V.v.V.v.v.c.c.c.v.c.c.A.A.V.A.P.A.V.v.B.c.c.c.v.V.B.v.v.c.s.s.c.v.v.c.f.V.f.c.v.c.V.q.O.s 4 6XG.E E | | | / ^ ^ ( | / ..%.6.#./ ^ / / ^ ^ / ^ ^ / | ..#.e.6.| E / | / ^ ^ ^ / / / / / | ..X.#.$.$.#.#.$.$.$.$.$.$.3.3.4.2.$./ V w 0 e H Q ] @.+.[ [ [ [ [ ` ~ ` ( Z 7 z 0XiXH.g.k.g.g.e.e.e.r.r.6.6.6.3.3.3.3.2.$.$.$.$.$.#.#.#.#.#.#.#.#.#.#.....| | / / / ^ ^ ^ ^ ^ / ^ ^ ^ ^ E E E E Y Y Y Y Y Y E E E E E E E E E E E E E E E E E E E Y G F F G G F D E Y ^ F T F F Y E Y T F F D Z c w w j w w e V c c Z Z G Z v V N N N x z v c z z z z z v x x V V V V N N N N N N N c x x x x v x c N N N N N c x x v z z z h g g g g g g g g s g g z z v v v g z V 4 j * , c Z $XpXpXuXuXuXuXuXpXpXaX2X`.T.P.I.I.I.I.W.E.!._.",
"Q.Q.Q.Q.Q.Q.Q.Q.Q.Q.Q.E.E.E.T.I.I.I.I.T.E.E.Q.Q.E.E.Q.Q.E.Q.Q.)._.`. X X X X X X X X[.`.`.[. X X).Q.Q.Q.E.E.E.E.Q.E.E.E.T.I.P.P.P.P.P.P.P.I.I.I.A.P.P.I.I.I.I.P.E.I.A.V.A.P.E.Q.0X9X=XI.P.I.P.A.I.I.P.P.P.P.P.P.P.P.I.P.A.P.P.I.P.A.V.V.v.v.v.v.V.A.A.V.V.v.c.c.c.c.c.c.v.v.v.c.c.c.c.c.c.c.c.c.s.s.s.i.i.i.i.s.c.c.c.c.c.v.V.V.v.c.c.A.A.c.v.P.V.v.v.c.c.c.c.c.A.v.v.V.A.A.V.v.V.B.v.v.v.V.B.v.A.A.A.A.P.P.S.v.d.A.s.w.+.! -.q.| g : 2X6./ | / | ..../ / ..#.#.#.$.$...| ..#.#.( | | / / ^ / / / / / ^ ^ ^ ^ E ^ ^ ^ / / / / ( } ..X.#.$.#.#.#.3.3.3.3.$.$.2.3.2.6.2.#.$.3./ z , 7 c I O.@.@.] I ! I S S G z 5 '.pX2X7.z.k.g.7.r.e.e.e.e.3.2.3.2.3.3.2.2.$.$.$.$.$.#.#.#.#.#.#.#.#.#.......| | / / / ^ ^ ^ ^ ^ ^ ^ ^ ^ E E Y Y E Y Y Y Y Y Y E E E E E E E E E E E E E E E E E E E G G G G G G Y F V V F E ^ E T Y E E E Y V g & > e w j w : . : e c Z c c c H V V N N x v x c z z z z v x x x V V V N N N N V V N N x x x x N v x N N N N c x x x x z z z z z z j g g g g g g s g j z v v z z D q 5 q 3 D j %XpXpXuXuXwX;X XXX#X#X%X`._.I.I.A.P.I.I.I.W.!..X.X",
"Q.Q.Q.Q.Q.Q.Q.Q.Q.Q.Q.E.E.T.T.I.I.I.I.I.E.E.E.Q.E.E.Q.E.E.E.Q._.XX X[.`._.).Q.Q.`._._._._.).).)._.).Q.Q.Q.)._._.Q.Q.Q.E.E.I.I.P.P.P.P.P.P.P.I.I.P.P.P.P.P.P.I.I.A.P.T.E.Q.Q.Q.Q.[._.E.I.P.V.V.E.P.P.P.P.P.P.A.A.A.V.V.A.I.T.E.E.P.P.A.V.V.v.v.V.A.A.A.A.V.V.v.v.c.c.c.c.c.c.c.c.c.c.c.c.c.c.c.c.s.s.s.s.i.i.i.s.s.c.c.c.v.v.V.A.A.v.v.A.A.v.V.I.V.v.v.c.c.c.c.c.A.v.c.V.A.V.v.v.v.v.V.v.v.c.v.v.V.A.A.m.V.A.m.d.q.+.( ( ) H S ) ..s . >Xe.| ^ | ^ ^ / / | ..| / #...| / ( | | ^ ^ / / / / / / ( ^ E ^ ^ E Y E | / / / / / | ..../ | X.#.#.#.#.#.$.$.$.#.#.#.$.$.8.g.g.2.2.g.z.h./ c 7 > p Z S S K w < 7 > X 7 ) iXiXH.b.o.g.2.g.r.e.6.6.6.$.$.3.2.2.2.2.$.$.$.$.$.#.#.#.#.#.#.#...........| | | / / ^ ^ ^ E E E ^ ^ E E E Y Y Y E E Y Y Y Y E E E E E E E E E E E E E E E E E E E G G G G G F F j N z q z E E V / Y D G E F j 5 G x.[.%X&X&XT.$.7 > : 7 k Z Z Z N V V N x x x x v z z z z v x x x N N x x N V V V N N c x c N N x c N N N c x x x x v z z z z z z j g g g g g g g g z x x z z g x 5 j & c *XpXiXuXpXuXXXP.Q.Q.Q._.T.P.P.L.I.P.P.E.E.E.W.E._..X`.",
"E.Q.Q.Q.Q.Q.Q.E.Q.E.E.E.T.T.T.I.I.I.I.I.T.E.E.E.E.E.Q.E.E.E.)._. X[._.Q.Q.Q.Q.Q.Q.Q.Q._._._._._._._.).Q.)._._.`.).Q.Q.Q.E.E.I.I.P.P.P.P.P.P.P.P.I.P.P.P.P.P.P.I.A.P.E.E.E.T.I.P.V.P.I.P.A.P.I.I.E.E.E.E.T.I.I.P.P.A.V.P.E.E.I.P.P.P.A.A.V.V.V.V.V.V.V.V.V.V.v.v.c.c.c.c.c.v.c.c.s.c.c.c.c.c.c.c.s.s.s.s.s.s.s.s.s.c.v.v.v.V.A.A.V.c.c.V.V.v.V.P.v.v.v.c.c.c.c.v.P.V.v.A.P.V.v.V.v.V.A.V.c.s.s.c.c.v.v.s.t.t.y.>.@.I Q k = o O 9 ( F o b.$.^ E | | / / ( ......| #.#.#...| | | ( / / ^ ^ ^ ^ / / ../ E E / ../ Y / | | ( | ....../ | #.#.#.#.#.#.....X.#.#.$.3.8.g.8.8.7.3.2.e.F.~.b.| c 7 : > 7 - - j ( %.x.*XpXiX2Xg.k.4.g.k.g.e.6.3.3.3.2.3.6.2.2.2.2.$.$.$.$.#.#.#.#.....#.#.......| | | ( / / / ^ ^ E E E E E E E E Y Y Y Y E Y Y Y Y Y Y E Y E E E E E E E E E E E E E E E E G G G G F D V N q & : % ; q E V D F D z 0 g G $XaXpXpXpXpX9X#Xy.Q 7 * > w k k c V V N c N N x x z v z z v x x z z x x x c V V N N N N N N N V N N N N c x x v x x z z z z z z z j j g g g g s g g z v v z g g 7 7 o G pXaXpXpXtX#XQ.{.).L.v.).L.P.P.).P.T.P._.)._.Q.E.E._._.!.",
"E.E.Q.Q.Q.Q.E.E.E.E.E.I.T.T.E.E.I.I.I.I.W.E.E.E.E.E.Q.E.E.E.).`.`._.Q.Q.)._.`.`.Q.)._.[. X X X X_._.).Q.Q.Q._._._._.).Q.E.E.T.I.I.I.I.I.I.I.I.I.I.I.I.I.I.I.I.I.E.T.I.P.P.P.I.I.I.P.P.P.P.Q.Q.P.P.P.P.P.P.P.A.A.E.P.P.I.T.P.V.V.P.P.P.P.P.A.A.A.A.A.A.A.V.v.v.c.v.c.c.c.v.v.c.c.s.s.s.s.c.c.c.c.c.c.c.c.c.s.s.s.c.v.V.V.V.V.V.V.c.c.c.v.v.v.v.v.v.v.v.c.c.c.v.V.P.V.V.P.P.V.v.V.m.m.M.c.y.>.&.O.0.t.c.t.0.%.O.Q G . o o H t.p : c Y ; ^ H.#.( / ( / / / | | | ..| | ....| / / | | / / ^ ^ ^ ^ E D E ( / ^ ^ / / ( ..#.....#.../ / | #.#.#.X.#.$.X.#.#.$.$.3.e.r.7.4.4.9.g.4.2.6.7.l.H.G.t.&.O.#.t.`.0XuXuXiXiXaX6X~.k.6.k.8.k.2.6.3.3.6.6.3.3.6.$.2.2.$.$.$.$.#.#.#.............| | | | | / / / / ^ ^ ^ E E E E Y Y Y Y Y Y Y Y Y Y Y Y Y Y Y Y Y Y E E E E E E E E E E E E E E E G F F F D x g > V 0.).3.s X 7 s j c c 0 0 O.[.pXpX9X%X[.#XXXQ.Q.T.c.Q 7 + > j z N V V N N N x x x x x z z z z z z z v v x c N x c N N V V V V V N N x x x x x x z z z z z z z z z z g g g s s g g j z h g g s 3 * H pX0XpXtX).#XT.T.m.L.`.T.L.P.T.T.).L.P.L.T.Q._.Q.I.E._._.E.",
"E.E.Q.Q.Q.Q.E.E.E.E.E.I.I.T.E.E.I.I.I.I.I.W.E.E.E.E.Q.E.E.E.).`.[._.Q.Q.Q.).Q.Q.)._.[. XXXXX X X X[._._.).)._._._._.).Q.Q.E.T.I.I.I.I.I.I.I.I.I.P.P.I.E.E.E.E.E.E.E.T.T.E.E.E.E.E.P.P.P.A.A.T.E.E.E.E.E.T.I.P.P.A.A.P.I.I.P.A.P.A.P.P.P.P.P.A.A.I.I.I.P.P.A.V.v.c.c.c.c.c.c.c.c.s.s.s.s.s.s.c.c.c.c.c.c.c.c.s.s.v.V.A.A.A.V.V.V.s.c.v.v.V.A.V.c.c.v.v.c.c.c.V.A.P.V.V.P.P.v.c.A.M.c.y.>.O.Q Z c c Q &.O.Q Z p > o 1 ).%X8X8XZ X & 5 % ..iXe.E E ^ / | | | ( | ....| / / | ( ^ E ^ ^ E E E E ^ ^ | E E / / Y E ..( #.$.$.#.#.| E ^ | #.#.#.X.#.$.#.#.#.#.$.2.6.7.8.g.g.8.8.g.g.g.h.e.6.z.].7XaXpXiXpXuX8X#XT.U.T.b.r.3.h.4.7.2.r.6.3.6.6.6.3.$.2.$.$.$.$.$.$.$.#.#...............| | | ( ( / / / / ^ ^ ^ E E E E Y Y Y Y Y Y Y Y Y G G F F G G Y Y Y Y E E E E E E E G G E Y Y G E G F F F V g 0 Q &XpXpXT.r.Q V c 7 3 w c ( `.pXpX9X$XL.v.A.I.T.T.Q.E.L.y.I 7 o k N V V N V N x N x x x z z z z h z v v z v x x x x N V V V V V V V B x v z x x z z z z z z z z z z j g g g s s g g g g g s s d 3 k 8XaXpX9X].{.{.M.m.y.%.r.t.M.P.L.M.%.-.s.L.I.W.E.E.P.W._.`.Q.",
"E.E.E.E.E.E.E.E.T.I.I.E.E.E.E.E.T.T.T.W.I.I.T.T.I.E.Q.E.E.Q.Q.Q._.).Q.Q.Q.Q.Q.Q._.`. X X`._._.`.[.`.`.`._._._.)._._.).Q.Q.E.E.E.E.E.I.I.I.I.I.I.P.P.P.P.P.P.P.P.P.P.P.I.T.E.I.I.P.P.I.E.E.E.E.E.E.E.E.E.T.I.I.I.I.P.A.V.A.P.I.T.E.I.P.P.P.P.P.P.E.I.P.P.A.V.V.V.v.v.v.v.c.c.c.c.c.c.s.s.s.s.s.s.c.c.c.c.v.v.v.v.V.v.V.P.P.A.v.c.c.c.c.v.V.v.v.v.V.V.v.v.v.v.v.v.v.V.A.A.V.v.m.m.m.m.( &.k > ; o > % z g > X o V Y.7XaX+Xe...G g Y z 3.9XeXr.C | | | | ( / / / / | | | | | / / ^ / ^ E E ^ / / ^ E ^ ( ( / ^ ^ ^ ..#.#.| / | ( ^ ^ | $.2.....#.....X.#.$.3.6.7.7.8.8.8.8.8.6.8.7.r.7.8.8.g.F.^.'./.Y.H.n.k.h.h.h.r.r.e.6.6.7.7.r.6.6.6.6.6.3.3.3.3.3.2.$.$.$.#.#.#.#.#.......| | ..| | / / / / / ^ ^ ^ ^ E E Y Y Y Y Y G G F F F F F F F F G G G E Y Y Y Y Y Y Y G G Y Y G G G G F / V ^ F j 5 V <XpXpX8X[.m.m.{.{.XX+X[.2XuXpXuX0XXXV.A.P.A.m.L.m.L.T.).E.v.Q : c r.G D V N D x c x x v x z z v z z v x x x x x x x N V D V V D V N x x x x z z z z j g g g z z z j g g g g g g g z z g s s q 7 * S tXpXaX`.{.).P.x.0.Q Z Z Q ..%.3.6...G Q >.t.A.).E.I.Q.E.P.E.",
"E.E.E.E.E.E.E.E.T.T.T.E.E.E.E.E.T.T.T.W.I.I.T.T.I.E.Q.E.E.Q.Q.E._.).Q.Q.Q.).).Q.Q._. X X`._._.`._._.`.`.`.`.[.[.`.`._._.Q.E.E.T.I.I.P.P.I.I.I.I.T.T.E.E.E.E.E.E.I.I.E.E.Q.).Q.Q.I.I.E.Q.Q.Q.E.E.E.E.E.E.E.T.I.I.I.P.P.P.P.I.T.E.E.I.P.P.P.I.I.P.T.I.P.P.A.V.V.V.v.v.v.c.c.c.c.c.c.c.s.s.s.s.s.s.c.s.s.s.c.c.c.c.c.c.c.V.A.V.c.c.c.c.c.V.V.V.v.v.v.v.v.v.c.c.c.c.v.V.A.A.V.v.v.v.x.Q O.i . q T.'.e.V 7 o x U.*X7XeX[.6.E E ^ E F k.*XaX0XY.#./ ..| ( / / / / / / / / ( / / / ^ ^ / ^ E ^ ^ / ^ ^ ^ ^ ^ ^ / ( | ..$.%.#.| / / / / / ..2.2...X.$.X.#.#.$.$.$.3.6.8.4.8.8.8.8.4.8.7.8.6.6.8.7.r.g.h.n.b.k.t.r.r.r.r.e.e.6.6.6.6.7.7.6.6.6.6.3.3.3.3.3.3.2.$.$.$.#.#.#.#.#.....| | | | | ( / / / / / ^ ^ ^ ^ E E Y Y Y Y Y G G F F F F F F F F G G G Y Y Y Y Y Y Y G G G Y G E G G Y F E F ^ G s > M.pXpX8X`.L.A.).<XuXpXpXyXuXpXuX9X[.P.v.V.P.m.v.m.L.A.P.T.I.V.@.k 7 b.| D N V D x c x x x x x z v z v x x x x x x x x N D D D D D V N x x x x z z z z z j g g g g z j g g g g g g g g g s g g q 3 : #XpXyX5XT.`.T.{.%.Z : . O > 7 Z G H q o o 9 G t.P.T.P.E.Q.T.Q.",
"E.E.E.E.E.E.E.E.I.I.T.E.E.E.E.E.T.T.W.W.I.I.T.T.T.E.E.E.E.Q.Q.E.Q.Q.Q.Q.Q.).).).E._. X X_._._.`._._._.`.`..X X X X[.`._.Q.E.E.E.T.I.I.I.E.E.E.E.E.E.Q.Q.Q.Q.Q.Q.Q.Q.Q.)._._._.Q.E.E.Q.Q.Q.Q.Q.Q.E.E.E.E.E.E.I.I.P.P.P.P.I.T.E.E.E.I.I.I.T.T.I.I.I.I.P.P.A.V.V.V.v.v.v.c.c.c.c.c.c.c.s.s.s.s.s.s.c.s.i.i.c.c.c.c.c.c.v.v.v.c.c.v.V.V.V.A.P.V.v.v.c.c.v.v.v.v.v.c.B.V.V.V.V.v.v.v.M.O.H o H.6X9X/.X.r.].*X0XiX@Xg.3./ E ^ ^ F E X./ e.t.#.^ / E D / / / / / / / / / / / / / ^ ^ ^ ^ ^ ^ ^ ^ ^ ^ ^ | / / | #.$.$.$.%.$.#./ ^ / ( | ..X.3.2...#.2.$.$.$.$.$.$.2.3.3.2.6.8.8.6.6.7.e.g.g.g.g.g.g.g.r.k.k.g.r.7.7.7.7.e.e.6.6.6.6.6.7.6.6.6.6.3.3.3.3.3.2.$.$.$.$.#.#.#.#.......| | ( / / / / / / / / ^ ^ E E E Y Y Y Y Y Y G G F F F F F F F F Y Y Y Y Y Y Y Y G G G G G G G G G G G E ^ E v j w g <XpX0X_.v.v.V.P. X[. X X X`._.E.A.v.v.v.V.A.V.v.v.A.V.V.A.P.A.>.Z X U.3.V N D V x N c x x x x x x x x x x c x x x N c N D D D D D V N x x x x v z z z z j g g g g j g g g g g z z v z z z x x s 3 X -.$XXXP.).T.T.y.&.g X Y.t.( : o .   ; Z c > X &.A.).T.T.E.T.E.",
"E.E.E.E.E.E.E.E.I.I.I.E.E.E.E.E.E.E.E.E.E.E.E.E.E.E.E.E.E.Q.E.T.E.Q.Q.Q.Q.Q.)._.E._. X X_.Q._.`.`._._._._._._._.`.`._._.).Q.Q.Q.E.E.T.T.E.Q.Q.E.E.E.Q.)._.).Q.Q.).Q.Q.)._.).Q.E.Q.Q.Q.Q.Q.Q.Q.Q.E.E.E.E.E.E.T.I.P.P.P.P.I.T.E.E.E.T.T.E.E.E.T.I.I.P.P.P.A.V.V.V.v.v.v.c.c.c.c.c.s.s.s.s.s.s.s.s.c.c.s.c.v.V.V.v.v.v.V.V.v.s.c.v.P.A.V.A.V.v.c.c.c.v.V.V.A.A.A.V.B.V.V.V.v.v.v.v.&...* ; 9X6Xe.E ^ X.h.e.$.$.W E V F E ^ ^ E G D E Y E ^ ^ ^ / ..^ ^ ^ ^ ^ / / / / / / / / ^ ^ ^ ^ ^ ^ ^ ^ ^ ^ ^ / | ..$.3.3.$.#.....| / ^ / ..#.#.#.2.$...#.3.$.6.3.2.$.2.3.3.3.3.7.e.7.7.7.r.g.7.7.8.8.7.g.k.l.n.b.z.k.h.r.r.e.g.r.e.7.6.6.6.6.6.6.6.6.3.3.3.3.2.2.$.$.$.#.#.#.#.......| | ( ( / / / / / / ^ ^ ^ E E E Y Y Y Y Y Y Y T G F F F D F F F F Y Y Y G G G G G F F F F F F F G G Y G D j D G V q ^ pXuX%XV.c.A.V.c.c.v.v.V.V.V.V.V.P.v.V.V.v.v.V.V.V.A.V.A.P.P.V.@.l . ~.e.V V D N N N N c x x x x x c c N N N c x x N N V D D V V D N N x x x x v z x v z z g g g g j g g g g z z v N N x x c x g 7 = o Z y.A.XXT.{.x.Q . k #X$.Y 6.m.H.G./.#Xr.w * c q.E.Q.I.I.T.I.",
"E.E.E.E.E.E.E.E.W.T.W.E.E.E.E.E.E.E.E.E.E.E.E.E.E.E.E.E.E.Q.Q.T.E.E.Q.).Q.Q.)._._. XXX X_.Q._._.`.`.`._._._._._._._._._.).Q.Q.Q.E.I.I.I.I.T.T.I.E.E.Q._._.).Q.Q.Q.E.Q.Q.).).Q.E.Q.Q.Q.E.E.E.E.E.E.E.E.E.E.E.T.I.P.P.P.I.T.E.E.E.E.E.E.Q.Q.E.T.I.P.P.P.A.A.V.V.V.v.v.c.c.c.c.c.c.s.s.s.c.c.s.s.s.s.s.c.v.V.A.V.v.v.v.V.V.c.s.c.V.A.v.v.v.v.c.c.c.V.V.A.P.P.P.A.A.B.B.v.v.v.v.M.v.0.F * n.2X7.T E E D T F T E E } W / E D F W E V F ^ ( ^ G F Y E ^ ^ ^ ^ ^ ^ / / / / / / ^ ^ ^ ^ ^ ^ ^ ^ ^ ^ ^ / / ..$.$.$...| | / / / / / ( ..#.#.#.$.#.| #.3.$.6.6.3.3.6.6.6.6.2.7.r.8.6.e.r.r.3.2.$.2.6.r.b.F.n.n.n.n.b.l.l.z.k.k.h.r.e.7.6.6.6.6.6.3.3.3.3.3.2.$.$.$.$.#.#.#.#.......| | ( ( ^ / / / / / ^ ^ ^ E E Y Y Y Y Y Y Y Y T G F F F D F F F F F T T F F F F F F F F F F F F Y E F F F D V q 4 G #XpXyXXXv.v.A.V.v.v.V.v.v.B.c.d.c.V.V.V.V.c.c.V.V.v.P.A.P.P.P.V.@.v o ~.3.N D V x D V N N B x x x x N N N N N N N c N N N D D V N V N c x x x x v z z z z z j j g g j g g g z z x x x N x z z z g w 7 1   j V.V.T.T.y.Z o R.r.Y s E | %.#.#.#.Z 7 w X Z c.Q.T.T.T.T.",
"T.T.I.I.W.W.T.T.T.T.W.E.E.E.E.E.E.E.E.E.E.E.E.E.E.E.E.E.Q._.).E.E.Q._._._._._.`. X X X X_.)._._.`.`.`.`.`.`.`.`.`.`._._.).Q.Q.E.Q.E.E.E.E.E.E.E.Q.)._._._._.).Q.E.E.E.)._._._._.E.E.Q.Q.Q.E.E.E.E.E.E.E.E.E.I.I.I.I.I.T.E.E.E.Q.Q.Q.Q.Q.Q.E.T.P.P.P.P.A.A.V.V.V.v.v.v.c.c.c.c.c.s.c.c.c.c.c.c.c.i.c.v.V.V.V.v.c.s.c.c.v.c.s.v.A.V.v.v.v.V.V.V.A.P.P.P.A.A.V.v.v.B.B.v.v.v.V.m.M.#.Z . b.H.W Y C T T E E / ..E V V T W / E T E / E Y F Y ^ | / E ^ ^ ^ ^ ^ ^ ^ ^ ^ ^ ^ ^ ^ ^ ^ ^ ^ ^ ^ ^ ^ ^ / | #.$.$.#...| ..../ / / ( ( / | #.#...#...| #.3.$.7.6.3.6.e.e.7.6.$.7.e.6.3.e.e.e.6.6.e.r.h.k.b.n.F.F.n.b.l.l.k.k.b.z.k.h.r.e.6.6.6.6.6.3.3.3.3.2.2.$.$.$.$.#.#.#.#.#.......| | ( / / / / / / ^ ^ ^ E E Y Y Y Y Y Y Y Y Y Y F F F F F F F F F F F F F F F F F F F G F F G Y F D V V g 0 4 F *XpX9X2XE.c.B.B.V.A.V.V.V.V.A.A.V.B.V.v.v.v.v.V.A.V.c.I.P.A.A.A.V.%.c % Y.$.N F V x F V V N N N c c N N N N V V V N N N N V D D N N N N x x x x x v z z z z z z z z z z z z z z x x x v x x z z x x z p 9 = o Z m.$XP.x.G o w N F D g Y D g z G Z j c X e &.E._.E.E.E.",
"T.T.T.I.W.T.T.T.T.T.T.E.E.E.E.E.E.E.E.E.E.E.E.E.E.E.E.E.Q.`._.E.E.).`.[.`._.`. XXX X`._._._._._.`.`.`.`.`.`.`.[.`.`._._._._.).).).Q.Q.Q.)._._._._._._._._.).).Q.Q.Q.)._.`.`._._.E.Q.)._._.).Q.Q.E.E.E.E.E.T.I.I.I.I.I.I.T.E.E.E._.).Q.Q.Q.E.I.P.P.P.A.A.A.V.V.V.v.v.v.c.c.c.c.c.c.c.v.v.v.v.v.c.s.v.V.V.v.c.c.c.i.i.s.c.c.c.v.V.V.v.V.P.P.P.A.P.A.A.V.V.V.v.v.c.B.c.c.v.V.V.V.m.0.0.4 z k./ } } E W T D F E W T ..W T E / W E T E F Y / ^ G E | ^ ^ ^ ^ ^ ^ ^ ^ / ^ ^ ^ ^ ^ ^ ^ ^ ^ ^ ^ ^ / | #.3.3.$.$.#.#.#.#.| / / | | / | #.#...#...| #.6.2.7.6.6.6.e.e.6.3.$.e.e.3.%.e.e.0.$.3.6.e.r.g.h.h.F.F.b.l.k.g.g.g.l.k.h.g.r.e.6.6.6.6.3.3.3.3.2.2.$.$.$.$.$.#.#.#.#.#.X.....| | | / / / / / / ^ ^ ^ E E Y Y Y E E Y Y Y G G F F F F F F F F F F F D D F F F F F F G G F F D V z w w o F T.aXpXpX0XQ.v.c.V.v.v.V.c.d.c.v.v.V.V.V.V.V.v.B.V.V.V.B.B.I.A.V.V.V.B.-.m % Y.3.V V D V D V V N N N N N N N N V V V V V V V V V D D N N N N x x x x x v z z z z z z z z z x z z z z x x x c N x x x N x j v = p 1 j 1XuX`.T.r.c % D z V ^ c V F F H N v z e > G P.[.Q.T.T.",
"T.T.T.I.W.W.T.T.I.T.T.E.E.E.E.E.E.E.E.E.E.E.E.E.E.E.E.E._.`._.Q.Q._. X X X`. XXXXX[._.Q._._._._._._._._._._._._._._._._.`.`.`.`.Q.E.E.Q.)._._._._._._.).Q.Q.Q.Q.`.`._._._._.Q.E.Q.)._.`.`._._.).E.E.E.E.T.I.I.I.I.I.P.P.P.I.T.E._._.Q.Q.E.E.I.P.P.P.A.A.A.V.V.V.v.v.v.c.c.c.s.s.v.v.V.V.V.V.V.v.v.V.P.A.v.s.s.c.c.s.s.c.c.c.c.V.v.v.V.P.P.V.v.c.V.V.v.v.v.v.V.v.v.c.c.v.V.A.A.V.m.$.0 0 OXo.T T T T Y / / W W W W / } W / } / Y Y E E Y / #...^ / / ^ ^ ^ ^ ^ ^ / / / ^ ^ ^ / / ^ ^ ^ ^ ^ / ..$.$.#.#.$.%.%.#...| / / | | | ..$.#...X.....$.6.3.e.6.6.7.e.e.3.$.3.r.r.6.3.e.r.0.6.6.e.e.g.k.b.n.k.k.k.k.h.k.k.k.g.g.g.r.e.e.6.6.6.6.3.3.3.3.2.2.$.$.$.$.#.#.#.#.#.#.#.......| | / / ( ( / / ^ E ^ ^ E Y Y Y E E Y Y Y G G F F F F F F F F F D D D D D F F F F F G F D D V z 0 > Q x.uXyXpXpX2X[.P.c.B.S.v.v.A.v.A.A.V.c.c.B.B.c.V.v.c.v.c.s.c.A.A.V.V.A.A.v.@.v X Y.e.V N D D V V V V N N N N N N N V V V V V V V V V D D V N N c x x x x x v z z z z z z z z x x z z z z x x x N c v z x x g 7 9 w o Z q.uXpX[.L.T.( w % | G c D V D D V H H c k X w M.`.Q.T.T.",
"I.I.I.I.I.I.I.T.I.I.T.T.I.T.E.E.E.E.E.E.E.E.E.T.Q.I.P.E._._.Q.E._.XX$X`.`.XX$X.X_._._._._._.Q.Q._._._._._._._._._._._._._._._._.).Q.Q.Q.Q.E.E.E.E.Q.Q.Q.Q.Q.Q.E.Q.E.E.E.E.E.E.E.E.E.E.E.E.E.E.E.I.T.E.E.E.T.I.I.P.P.P.P.P.P.P.I.E.E.E.E.I.I.I.P.P.P.P.A.A.V.V.V.v.v.v.c.c.s.s.s.s.v.V.c.s.c.c.c.v.v.v.c.c.c.c.c.s.s.c.c.c.c.v.v.c.v.V.V.V.v.v.v.V.V.V.v.v.v.v.v.v.v.c.s.c.A.A.v.c.%.w , ~.$.V ^ Y E E E E E E ^ ( / / / / ^ ^ E ^ ^ ^ / | | ( / / / / / / / / / ( / / / / / ^ ^ ^ ^ / ^ ^ ^ | #.#...#.3.3.#.| / | / / ......#.$.#.......X.$.3.3.7.6.6.r.e.3.3.r.7.r.r.3.$.6.e.6.6.3.6.r.h.g.k.H.z.z.k.g.r.h.h.h.g.r.e.e.e.e.8.6.6.6.6.6.3.3.$.$.$.$.#.#.#.#.#...#.#.#.#.........| ( / / / / ^ ^ ^ ^ E E E Y E E Y Y Y Y Y G F F E Y Y G G F F D D D D D F F F G F F V D j r G s.uXpXpXuX8X#XW.A.c.v.V.V.A.P.P.P.P.V.v.V.V.V.v.v.i.s.c.q.] &.-.%.c.c.m.m.M.x.$.z o /.Y Y V N / N D D D V V N c x x N V D F F F F F D D V N c x x v v x x x z z z j z z v x x x x N x z j j z x x z z V F 5 g 0 > : 9 Z 2XpXpXtX[.T.).0.D * | | j N V V D D V Z N N 0 o ( L.%XP.T.",
"I.I.I.I.I.I.T.E.I.I.I.T.I.I.E.E.Q.E.E.T.T.T.T.I.I.I.E.)._._.)._. X X X_.`.XXXX_._._._._._._.Q.Q._._._._._._._._._._._._._._._._.).).).).Q.Q.Q.Q.Q.Q.Q.Q.Q.Q.Q.Q.E.E.E.E.Q.Q.E.E.E.E.E.E.E.E.E.E.E.E.E.E.E.E.I.I.P.P.P.I.I.I.I.T.E.E.E.T.I.I.I.I.P.P.P.A.A.V.V.V.v.v.v.c.c.c.s.s.s.v.V.v.c.c.c.c.v.v.c.c.c.c.c.c.c.c.c.c.c.c.c.c.c.v.V.V.V.V.V.V.V.V.V.v.v.v.v.v.v.m.v.c.v.S.A.v.c.>.S . 0.( D E Y E E E E ^ / ( / / / / ^ ^ E E / / / | ....| / / / / / / / / / | / / / / / / / ....| / / / | #.#...#.$.$...| | ..| ..#.$.#.$.$.$.#...X.#.$.3.3.6.3.3.6.6.$.2.e.7.r.e.2.$.7.e.6.6.3.6.h.k.h.k.F.h.h.g.r.r.k.k.k.r.r.e.e.e.e.e.8.6.6.6.6.3.3.$.$.$.$.#.#.#.#.#.X.#.#.#...........| ( / / / / ^ ^ ^ ^ E E Y Y Y E E E E E E E E E E E Y G G F F D D D D D D F F F G P F c , ( [.uXpXyX:X XE.P.V.V.V.A.P.P.P.I.P.P.P.V.v.V.V.v.v.v.P.V.O.G I c k c ( &.%.#.$.0./ 0 5 ,X$.F F V V F D D D V V N c x x c N V D D D D D D V V N c x x x x x x z v z z g z v x c N N N N N x z z x c N z D v 5 w q % V c 2XuXpXuXaX2X`.).x.y.&.O G M.( N V V V V V N N j w * c '.1X{.m.",
"P.P.P.I.I.I.T.E.I.I.I.I.I.I.E.E.E.E.E.E.E.E.E.E.I.E._.[.`.)._. XXX`.Q._. XXX[._._._._._._._.).)._._._._._._._._._._._._._._._._._._._._._._._._.[.`.`._.).Q.E.E.E.E.Q.Q.Q.Q.Q.E.Q.E.E.E.E.E.E.E.E.E.E.E.E.E.I.I.I.I.P.P.P.P.P.P.T.T.I.I.I.I.I.I.P.P.P.A.A.V.V.V.v.v.v.c.c.c.c.c.s.c.v.v.c.c.v.c.c.c.c.c.c.c.c.c.c.c.c.c.c.c.c.c.c.v.V.V.V.V.V.V.V.V.V.v.v.v.v.v.M.M.v.c.B.S.A.v.c.i.O.# Z t./ ^ E E E ^ ^ / | ../ / / ^ ^ ^ E E / / | ..#...| / / / / / / / / / | / / / / / | | $.$.....| ..#.$.....#.#.#.| | ....| ..#.$.#.$.$.$.$.$.$.$.3.3.3.6.$.$.3.3.$.$.6.6.e.6.2.3.e.e.6.6.6.e.k.k.h.k.b.r.g.g.r.r.k.k.k.r.r.e.e.e.e.e.8.6.6.6.6.3.3.3.3.3.3.$.$.$.#.#...#.#.#.........| | ( / / / / ^ ^ ^ ^ E Y Y Y Y Y Y Y E E E ^ ^ ^ E E Y Y G F F D F D D D D D F F c c N 0 X Y.tXpX8X$XP.V.V.V.B.c.P.P.I.P.P.P.P.A.A.V.v.V.V.v.c.c.i.c.O.S >   X X , k D c N c 4 . U.6X| c F Y V F D D D V V N N c x x N V V D D D D V V N N N c c x x x x x z z z z z x N N V V V N x x v v x c N C D V q z : V >XpXuXtXpX1X).).x.x.%.( k o M.`.c N N V V V V N c c Z 7 7 {.8X&XP.",
"P.P.P.P.P.I.I.T.I.I.I.I.I.I.E.E.I.T.E.Q.)._._._.Q._.[. X`.)._. X X).E.`.XX X_.)._._._._._._.).)._._._._.`._._._._._._._._._._._._._._._.`.`.`.`. X[.`._._._.).Q.E.Q._._._.).Q.Q.Q.Q.Q.E.E.E.E.Q.E.E.E.E.E.T.I.I.E.E.E.T.I.I.P.P.I.I.I.I.I.I.I.I.P.P.P.A.A.V.V.V.V.v.v.c.c.c.c.c.i.c.c.v.c.c.c.c.c.c.c.c.c.c.c.c.c.c.c.c.s.s.c.c.c.v.V.V.V.V.V.V.V.V.v.v.v.v.v.v.c.v.v.v.V.S.A.B.v.v.@.k > T...E / / ^ ^ ^ / / | ^ ^ ^ ^ E E E E ^ / | ....| / ^ ^ ^ ^ ^ ^ ^ ^ ^ ( / / ^ / / ..#.$.#...| ..#.$.$.| ..$.$.#.....#...| | ..#...#.$.3.3.2.3.3.3.3.2.3.$.$.3.3.$.$.3.6.6.3.2.3.e.e.6.e.e.r.h.h.h.h.b.h.k.h.r.r.h.h.r.r.r.e.e.e.e.e.8.6.6.6.6.6.3.3.3.6.3.3.$.$.$.#.X.#.#.#.........| | / / / / / ^ ^ ^ E E Y Y Y Y Y Y Y Y E E E E E ^ E Y Y G F F D F F D D D D D F Y Z V 7 E iXpX0XT.V.v.A.W.W.V.c.A.P.P.A.A.A.V.v.V.V.v.V.V.c.c.c.s.v.q.v X &.<Xy.c *   & *   w Y.eXU.V D V E Y F D D D V V N N N x x N V V D D D V V V N N N N N N N x x v z z z v x N V V V V V N c c x c N N V V s D x 4 4 +XpXtXpX[.0.O.0.x.0.&.Q : , Q #XM.j N N V V V N c c c N e X %.`.%XT.",
"P.P.P.P.P.P.P.I.P.I.I.I.I.T.E.E.I.E._.`.`.`._._._._._._._._._. X_.Q._. XXX`.)._._._._._._._.).).)._._.`.`._._._._._._._._._._._._._._.`.`.[.[. XQ.Q.Q.)._.`.`. X_.`. X X`._.Q.Q.).Q.Q.Q.E.E.Q.Q.E.E.E.E.T.I.I.I.Q.Q.Q.Q.E.E.E.E.I.I.I.I.I.I.I.I.P.P.P.A.A.V.V.V.V.v.v.c.c.c.c.c.i.s.c.c.c.c.c.c.c.c.c.c.c.c.c.c.c.c.c.s.s.c.c.c.v.v.V.A.V.V.V.V.v.v.v.v.v.v.v.v.c.v.v.v.V.A.V.B.V.c.@.H o r...E | / / / / / / ( ^ ^ ^ E E E E E ^ / ( | ( / ^ E ^ ^ ^ ^ ^ ^ ^ ^ / / / ^ ^ / ..$...| / / | ....#./ ..$.%.$.#.#.$.#.........#.$.3.6.3.3.6.6.6.3.$.$.$.$.3.3.$.$.$.3.6.3.2.3.6.e.7.r.r.r.r.r.g.k.b.k.k.h.r.e.r.r.e.r.r.e.e.r.r.e.e.6.6.6.6.6.6.6.6.8.6.3.$.$.$.#.#.#.#.#.......| | ( / / / / / ^ ^ E E E Y Y Y Y E E E ^ ^ ^ ^ E E ^ E Y Y Y G F D F F F F D F F F G v q . x.pXtX[.P.P.A.P.S.V.V.V.V.A.A.V.V.V.V.v.V.v.v.V.v.c.c.v.E.i.s.0.* . %.T.0.).[.L.L.[.2X9XH.^ V / F D D Y D D V V V N N N c N N V V D D D V V V V N N N N N N c x x v v v N N V V V V N N N N V V V V D D V B C g : z iX0X{.m.&.O.&.Z c Z 3 % o &.<XT.Z N V V V V V V N c N N j * k T.1XT.",
"P.P.P.P.P.P.P.P.P.P.I.I.I.T.E.E.E.Q.`. X`._.).Q.Q.E.E.Q._.`.`. X)._..XXX X_.).`._._._._._._.).).Q._._.`.`.`._._._._._._._._._._._._._.`.`.`.[.[.).).Q.Q.)._._.`. X XXX X`._._._._.).Q.Q.Q.Q.Q.Q.E.E.E.E.T.E.E.E.I.I.E.E.E.E.E.E.T.T.I.I.I.I.I.I.P.P.A.A.A.A.V.V.V.v.v.v.c.c.c.c.s.s.c.v.v.c.c.c.s.s.s.c.c.c.c.c.c.c.c.s.c.c.v.v.V.V.A.A.A.V.V.V.v.v.v.v.v.c.c.c.c.v.v.v.V.V.V.v.B.i.c.G 3 N b.6.| ( / ( | | | | ^ ^ E E E E ^ ^ / / | ( / ^ ^ ^ E E E ^ ^ ^ ^ ^ / / / / ^ / ..$./ / / / / / ( | | #.%.3.$.$.$.$.%.#.#.#.$.$.3.6.6.3.3.3.6.6.3.2.$.$.$.$.2.$.$.#.3.3.6.3.3.3.6.e.r.r.r.r.r.r.h.z.r.h.h.e.e.r.r.e.r.r.e.e.r.r.e.e.6.6.6.6.6.6.6.6.6.3.3.$.$.$.#.#.#.#.........| | ( / / / / / ^ E E E E Y Y Y E E E E E E E E Y Y E E Y Y Y Y F F F F F F F F F F F D j & T.pX8XQ.P.P.P.P.B.d.c.V.V.A.A.V.V.A.V.V.V.v.v.v.v.c.v.V.c.A.M.>.Q w w ( Q ( #.$.3.O./ ..V E G F E F z Y D D V V V N N N N N V V D D D D D D V V V V V V V N c x x x x x V V C D D V N c x x N N V V V V V F x x g ; G.b.r.( Q j o O ,   * ( {.%XM.c w ) D C V V V V V N V F Z 7 7 ).0XT.",
"P.P.P.P.P.P.P.P.P.P.P.I.I.T.E.E.E._.`._.).E.E.Q.E.E.E._. X X X X`. X XXX[._._._._._._._._._.).).Q._._.`.`.`._._._._._._._._._._._._._._.`.`.`.`. X`.`._._._._._. XXXXX X`._._.`._._.).Q.Q.Q.Q.Q.Q.E.E.E.E.E.Q.Q.I.I.E.E.E.E.I.I.E.E.E.T.I.I.I.I.A.A.A.A.A.A.V.V.V.V.v.v.c.c.c.c.c.s.c.v.V.c.c.c.s.s.c.c.c.c.c.c.c.c.s.s.c.v.V.V.V.V.A.A.V.v.v.v.c.c.c.c.c.c.c.c.c.v.v.v.v.v.v.v.v.s.v.( c ; /.h.............| / ^ ^ E E E E ^ ^ / ( | / ^ E E ^ E E E E ^ ^ ^ ^ ^ / / / ^ / ..$.^ / | ..| ....#.#.$.3.$.$.%.$.#.$.#.#.$.$.$.$.3.6.3.3.3.3.3.3.2.3.$.$.#.$.2.2.$.$.3.6.6.2.$.6.e.7.e.r.r.r.r.h.k.r.r.r.e.e.r.r.e.r.r.e.e.r.r.e.e.8.6.6.6.6.6.6.6.6.3.$.$.$.$.$.#.#.#.......| | | ( / / / / / ^ E ^ E E E E E E E E E E E Y Y Y G E E Y Y Y Y G F F F F F F G Y G x D g & %.#X%XM.v.v.V.A.V.v.c.v.V.A.V.V.V.V.V.V.V.v.v.v.v.c.v.A.P.E.T.c.y.l , 0.G Z N V Z F F z V / F N Y Y N F D V V V V N N N N V V V V D D D F D D V V V V V N N B x x x x c V V D D F D V N x x N V V V V V x x z x j   5 v c 0 o . O.M.m.R.[.*X{.$.N F Y w F D D D D V Z Z c Z c e , &.`.T.",
"I.I.I.P.P.P.P.P.P.P.P.I.I.T.E.E.E.Q.Q.Q.E.T.E.Q.Q.Q.`.XX#X X X XXX#XXX[.`._._._._._._._._._.).).Q._._.`.`.`._._._._._._._._._._._._._._._._.`.`.`._._.`.[. X#X$X[. XXX X`._.`..X_._.).Q.Q.Q.Q.Q.Q.Q.E.E.Q.Q._._._._._._.).E.T.I.E.E.E.E.I.I.I.P.A.A.A.A.A.A.A.V.V.V.v.v.c.c.c.c.c.c.c.V.V.v.c.c.s.s.s.c.c.c.c.c.c.s.s.c.c.v.V.A.v.V.V.V.v.c.c.c.c.c.c.c.c.c.c.c.v.v.v.v.v.c.c.v.v.V.i.%.Z o U...$.#.#.#.#...( ^ ^ ^ E E E ^ ^ ^ / / / ^ E E E E E E E E E ^ ^ ^ ^ / / / ^ / ..#.^ | #.$.$.$.3.6.3.3.3.#.#.$.$...| | ..#.$.#...#.3.3.$.$.3.3.3.2.e.6.$.#.$.3.6.6.$.3.7.6.$.$.3.e.6.e.r.r.r.r.h.g.r.h.r.e.e.r.e.e.r.r.e.e.r.r.r.e.8.8.6.6.6.6.6.6.3.3.$.$.$.$.$.#.#.#.......| | | / / / / / / ^ E ^ E E E E E E E E ^ ^ ^ ^ E E E E Y Y Y Y Y Y G F F F F G Y Y E ^ / j , Z T.2X).V.v.v.V.V.V.C.v.V.V.V.v.v.V.V.v.V.v.v.v.v.c.V.P.I.s.A.c.c.` , c t.Q Z G Z N F F F V F E D N Y D D V V V V N N N N N V V V D D D F F D D V V V V N N x x x x N N V D D F F F D V N V D F F F F F F V E z j z w % X X #.+X1XT.r.#.3.Q Z V Z z c F F F D D D D D D G D Z k : w y.#X",
"`.I.A.I.V.E.A.P.P.I.I.P.I.E.Q.E.E.Q.Q.Q.E.E.Q.)._._.`. X#X#XXX X`.`.`.`._._._.`._._._._._._._._._._.)._._._._.Q._._.`._._._._._._._._._._._._.`._._.`.`. X X X X`.`._._._._._.`. X_.).).`.`.`._.Q.Q.Q.E.E.Q.Q.Q.`.`.`._._.Q.T.I.I.T.E.E.E.I.I.I.P.P.A.A.A.V.V.V.V.v.v.v.c.c.c.c.c.v.A.A.v.c.c.c.c.c.s.s.s.c.c.c.c.c.s.s.c.V.V.v.c.v.V.V.v.v.c.c.c.c.c.c.c.c.c.c.M.M.c.c.c.c.c.d.V.c.c.q.#., E G.e.$.$.#.| | ../ ^ ^ ^ E E ^ ^ / | ( / ^ ^ E E E ^ E E ^ ^ / / | E / / / ( ..#.../ ..$.3.$.#.....| ..#.$.$.$.#.......| ........O.6.3.3.2.3.3.3.3.e.6.3.3.6.6.6.6.$.6.7.6.3.3.3.6.r.3.$.e.e.3.6.h.k.h.r.e.r.r.e.e.e.e.r.r.r.r.e.e.e.e.e.8.6.6.6.3.3.3.3.$.$.$.$.$.#.#.#.....| | ( / / / / / ^ ^ ^ / ^ Y Y E ^ / / ( / / ^ E E E Y Y Y E Y Y G F F Y F F F Y E E E ^ ) V j i ].pX).V.V.B.v.V.V.V.V.v.v.V.V.V.V.v.v.v.v.v.v.c.v.V.A.v.A.v.M.m.&.w , T.( F N Q N D V D D D D D D D D D D V V V V V D V V V V V D D F F F D V V V V V V x x x x x c V D D D F D V N c D D F F F D D D v V F D N F 3.H.m.*X2X~.&.Y G H Z Z Z Z Z Z D D D D V V V V Z Z F c Z Z > , ( L.",
"I.E.V.P.V.I.P.P.P.I.I.P.P.E.E.E.I.E._._.Q.E.E.Q.Q._.`. X X X X`.`.`.`._._._._._.`.`.`.`._._.).Q.E.Q.)._.[.[.`._._._._._._._.`.`.`._.`. X X`._.`.)._._._.`.`.[.[._._._.`.`.`._._.`._.Q.Q._.`._._._._.Q.Q.E.E.E.E.E.E.Q.Q.Q.Q.Q.E.I.T.E.E.E.I.I.I.P.P.A.A.V.V.V.V.V.V.v.v.v.c.c.c.s.c.v.v.v.c.c.c.c.c.s.s.c.c.c.c.c.c.c.s.c.v.v.v.c.v.v.v.v.c.c.c.c.c.c.c.c.c.c.c.v.v.c.c.c.c.c.c.c.f.V.t.| w z +Xr.#.| | / / ( ^ / ^ ^ E E ^ ^ ^ / / ^ ^ ^ E E E ^ ^ ^ / ( | | ..^ | #.#.$.$.#.| / ..$.$.#.......#.#.$.$.$.#.#.................O.6.3.3.3.6.e.e.6.6.3.3.3.6.6.6.6.3.6.e.e.6.3.3.6.g.6.3.r.r.e.r.k.k.h.r.e.r.r.e.e.e.e.e.r.r.e.e.e.e.e.e.8.6.6.6.6.3.3.3.3.$.$.$.$.#.#.#.....| ( / / / / ^ ^ ^ ^ ^ ^ ^ E E E ^ / / / / ^ ^ E E Y Y Y Y Y Y Y Y G G Y G F G E E E E / P c v g ).pX#Xv.v.v.v.B.B.C.v.V.v.V.V.V.v.v.v.c.c.c.c.c.v.V.P.s.V.v.c.m.y.c . %.Q Z V H N Y V F D D D D D D D D D V V V V V D V V V V V D D F F F F D D D D D D N c N c x N V F F F F F D V V V D D F F F D D V V D V N D / %.$.0.$.E Z Z F D D D Z Z Z Z D D D D V V V V Z Z V G c c c , e y.",
"I.$XA.P.A.A.P.I.P.P.P.P.P.I.E.I.P.E._._.Q.E.E.Q.)._.`. X X.X`._.`.`._._._._._.`.`.`._._._.Q.Q.Q.E.Q._. XXX X`._._._._._.`.[. XXX$X#X$X%X%X$XXXXX X X`._._._._._._._. X XXX X`._._._.Q.)._.`.`._._._.).Q.Q.Q.Q.Q.`._._._.).Q.Q.E.T.T.T.T.T.I.I.I.P.P.P.A.V.V.V.V.V.v.v.v.v.v.v.v.v.v.V.V.V.V.v.v.v.v.c.c.c.c.c.c.s.c.c.s.s.c.v.c.c.c.v.v.c.c.c.c.c.c.c.c.s.s.s.c.v.v.c.c.c.c.c.c.v.s.P.s.( z % <Xk...^ / / / / ^ / ^ ^ ^ E ^ ^ ^ / / ^ ^ ^ ^ ^ ^ ^ / / | | ......| #.$.$.$.#.../ | ..#.#...| | ..$.$.$.#.#...................#.#.6.3.3.6.e.r.e.6.3.3.3.3.6.6.3.3.6.7.e.e.6.3.3.3.h.6.6.r.h.r.r.k.h.r.e.e.e.e.e.e.e.e.e.e.e.e.e.e.e.e.e.e.6.6.6.6.6.6.3.3.3.$.$.$.$.#.#.....| / / / ^ ^ ^ ^ ^ ^ ^ ^ E E E ^ / ( | / / ^ ^ E E E E Y Y Y Y Y Y Y Y Y F F F Y E E E / G V j w [.pX[.V.v.V.V.V.V.V.B.V.v.v.v.v.v.c.c.s.c.c.c.c.v.V.V.V.V.m.c.c.c.O.w c y.Q G H D E D F F D D D D D D D D D D D V V V D D D D D F F F Y G F F F F F F F V V V V N V D F F G G F D D V V V D F F F F F F D V V V V D F G D N N F E Y D D D D D D D D D D C V V N N N N N H k Z G : , %.",
"=XqXE.I.P.V.P.P.P.P.P.P.P.I.T.T.I.Q._._.Q.E.E._.`.[. X X X[.`.`.`.`._._.`.`.[. X`.`.`._._._._._.`.`. XXXXX X_.)._._._.`. XXX$X$XXX XXX$X#X X`.`.#XXX X.X`.`.`.[. X XXX$X$XXX X[.`._._._.`. X[.`._._.).)._._.`.`.XX X[._.).Q.E.E.E.E.E.T.I.I.I.I.I.P.P.A.V.V.V.V.v.v.v.v.v.v.v.v.A.A.A.A.A.A.V.v.V.v.v.c.c.v.c.c.s.c.v.c.s.c.c.v.c.c.c.c.c.c.c.c.c.c.c.c.s.s.s.s.M.M.c.c.c.c.c.d.v.s.c.y.| j & 2Xn...E ( | / ( ( / / ^ ^ ^ ^ ^ ^ / / / ^ ^ ^ ^ ^ ^ / / | | ......$.%.$...| | | / ........| | | | #.#.......| | | ............#.#.6.3.2.6.e.e.3.$.6.6.3.3.3.6.3.3.e.e.e.6.3.3.3.6.g.6.3.e.r.e.e.g.h.r.e.e.e.e.e.e.e.e.e.e.e.e.e.e.e.e.e.e.6.6.6.6.6.6.6.3.3.$.$.$.$.$.#...| | / / / ^ ^ ^ ^ ^ ^ ^ ^ E E ^ / / ( / / / ^ ^ ^ E E E E E Y Y Y Y Y E G G F F G Y Y Y G E H q 7 *XpXQ.v.V.V.V.V.V.V.V.V.v.v.v.c.c.c.c.c.c.c.c.c.c.c.v.v.c.V.P.v.t.( w * ).O.F H F G F F F F F F F F F D D D D D D V V F F F F F F G Y Y Y Y G G G G G F D V V V V V D F F F F F D D V D D F G Y Y G F F V N V D D D D F F E / / E F F F D D D D D D D V V V N N N N N H c c Z c 7 * e ",
"uXuX_.I.P.A.P.A.P.P.P.P.I.I.E.E.E.)._._.E.E.).`. X XXXXX X`.`.`.`._._.`. XXXXXXXXXXX X[.`.`.`.`. X X X X X`._._. X`.`. X#X%X%X%X$X#X#X$X$XXX XXX X X X X XXX$X$XXX#X$X$X#XXX X X`.`.`.`.[.[.[.`._._._._.`.`. X X`.`._._.Q.Q.Q.Q.E.E.E.I.I.I.I.I.I.I.P.P.A.V.V.V.v.v.v.v.v.v.v.v.v.v.V.A.P.A.v.c.V.V.v.v.v.v.v.v.c.v.v.c.s.c.v.v.c.c.c.c.c.c.c.v.c.c.c.c.s.s.s.s.c.c.c.c.d.d.s.s.s.c.w.&.( 5 E aXb...E | | ( | | / / ^ ^ ^ ^ ^ ^ | | / / ^ ^ ^ ^ ^ ^ / ( ..#.$.$.$.$...( / | ....#.....| | | | ......| | | | | | | | | | ......X.3.$.$.3.6.6.$.#.6.6.3.3.3.6.7.7.r.e.6.3.2.3.6.e.h.6.3.e.r.e.6.e.r.e.e.8.e.e.e.e.e.e.e.e.e.e.e.e.e.e.e.e.8.6.6.6.6.6.6.3.3.$.$.$.$.$.#...| | / / / / ^ ^ ^ ^ ^ / ^ E ^ ^ / / / / / / ^ ^ ^ ^ ^ ^ ^ ^ E E E E E E E E E E E E E E F ^ P q : Y.8X_.v.V.V.v.v.v.B.V.v.v.c.c.c.c.c.c.c.c.c.c.c.c.c.c.c.i.s.x.t.s.&.k   %XO.c F E D Y F F F F F F F F F F F F D D D V D F F F F G G Y Y Y Y Y Y Y Y Y F D V V V V V F Y Y Y G F F D D F G Y Y Y Y F F D V V D F F F Y E E ^ E F V V F F F D D D D D D V V V V V V N V c c Z k c c e k ",
"uXuXQ.P.P.P.P.P.P.P.P.I.E.E.E.)._._._._.)._.`. X`. XXX X`._._.`.`._._.`.XX#X#XXXXX X X`._._._._..X X X[.`.`.`.`.XXXX XoX%X=X&X%X=X%X%X%X%X$X$X%XXXXXXX X X XXXXXXXXXXX X X X X`._.`.`.`.`.`.`._.[.[.`.`.`.`. X X X X`.`._.Q.Q.E.Q.Q.E.E.T.T.T.T.I.I.P.P.P.A.A.A.V.v.v.v.v.v.v.v.c.v.A.P.P.P.A.V.V.V.v.v.v.v.v.v.c.v.v.c.c.v.v.v.c.c.c.c.c.c.c.v.v.c.c.c.s.s.s.s.c.c.c.c.d.d.s.s.c.A.i.O.H o ~.iXe.( ^ | ( / / / ^ ^ ^ ^ ^ ^ ^ ^ | | / / / ^ ^ ^ ^ ^ / ..#.$.3.6.| ........#.$.#.#...| | ( ( | | | | | | | | ....| | | | | ......#.$.$.3.6.6.3.$.3.$.$.3.6.e.r.r.r.7.3.$.$.3.7.r.h.e.6.e.r.e.7.6.r.e.8.6.8.e.e.8.e.e.8.8.8.8.e.e.e.e.e.e.8.8.8.6.6.6.6.3.$.$.$.#.$.#.#.....| / / / / / / / / | | / ^ ^ ^ / / ^ ^ / / / / / / / / / / ^ ^ ^ ^ ^ ^ ^ / / ^ ^ ^ ^ / / ^ E j X F y.V.v.V.V.V.V.v.C.v.v.c.c.c.c.c.c.c.s.s.c.c.v.v.c.c.c.i.%.( ] -.Q > c 1X$.Z Q ) F E G G G G Y Y Y Y F F F F D D D D D D F F G Y Y Y E E E E E E Y Y F D V V V V D F E E E E Y G F F Y Y E E Y Y F F V V V D F F Y ^ ^ E Y E E Y G G F F F F D D D D D D D Z V V N N z z k w j , w $X",
"uX4XI.P.V.I.A.P.P.P.P.E.E.E.Q.`.[.`.`.`.`..X X X`. XXX X`._._.`.`.`.`. XXX$XXX X.X`.`._._._._.`. X XXXXX X XXXXX$X$X#X$X=X=X%X$X X X XXXXX X.X X$X$X$XXX X X`.`..X X X X X X X X`.`.[..X`._._._.`.`.`.`.`.`. X XXXXXXX X`._.Q.E.).Q.Q.E.E.E.E.E.I.I.I.P.P.P.P.P.A.V.V.V.v.v.v.v.V.A.P.P.A.A.A.P.V.V.v.v.v.V.V.v.v.v.v.c.c.V.V.v.c.c.v.v.c.c.v.v.v.c.c.c.c.s.s.s.c.c.c.c.c.c.c.c.A.S.w.&.j o <X>X../ / | / ^ / ^ ^ ^ ^ ^ / / / / / / / ^ ^ ^ ^ ^ ^ / ..#.$.$.$.#.| ..#.$.$.$.$.#...| ( / / / | | | | | | | | | | ( ( ( | | | ....#.$.3.3.3.3.3.3.$.$.2.6.7.e.e.7.6.3.2.$.3.6.e.r.r.6.3.6.r.r.e.7.e.e.6.6.6.e.e.8.e.e.8.6.6.8.e.e.e.e.e.e.e.8.8.8.6.6.6.3.$.$.#.#.#.#.#.....| ( / / / / / ( ....#.| ( / / / ^ ^ ^ ^ ^ ^ ^ / / / / / / ( | | | | | / ( ( / ^ ^ / / ( ^ Q D > r 7 ) q.i.v.A.V.V.B.v.c.c.c.s.s.s.c.c.s.s.s.c.v.v.c.s.>.@.Q Z l w : * {.2X#.( Q Q / E G Y Y Y Y Y Y Y Y G F F D D D D F F F Y E E ^ ^ ^ / / / ^ ^ E E F D V D D D F Y E E E E Y Y G F Y Y Y E Y F F D D V D F F F Y ^ W ^ / | ..../ Y Y T F F F F F F D D D V N x z j c e s 7 7 7 Q pX",
"yX$XP.I.V.T.V.P.I.P.P.E.Q.Q._.[. X[.`. X XXX X`.`. XXX X`._.`.[.`.`.`. XXXXX X_.`.`.`.`. XXX$X$XXX$X%X%X$X$X$X$X%X$X$X%X=X=X$XXXXXXX$X%X%X$XXX#X XXXXX#X$X$X$X$X_.`. X XXXXX X X X X X X X`.`._._._._._.`. X XXX_._.`.`.`.`._._._.).Q.E.E.E.E.E.T.I.I.P.P.P.P.P.P.A.A.V.V.V.v.v.P.P.P.A.v.c.v.V.V.v.v.v.v.V.V.V.v.v.c.c.v.V.V.v.c.c.v.v.v.v.v.v.v.c.c.c.s.s.s.s.v.v.v.c.c.c.c.c.V.d.-.&.e : 7Xn./ / ..../ ^ / ^ E ^ ^ ^ / / / / ^ ^ ^ ^ ^ ^ ^ ^ / ..#.$.$.../ ^ #.$.$.#.#.$.#...| ( / / / / / / / / ( ( / / / / } / / ( ( | | ..#.$.3.3.$.#.$.$.$.$.3.6.e.6.3.$.2.$.$.3.6.7.e.e.e.3.$.6.r.r.e.7.e.e.6.6.6.8.8.8.e.e.6.6.6.6.e.e.e.e.e.e.e.e.8.8.6.6.3.3.$.$.#.#.#.#.#.....| | ( / / / ( | ..#.$.#...( / / ^ ^ ^ ^ ^ ^ ^ ^ / / / / ( | ..#.#.#.#./ / / / ^ ^ ^ / ^ Q E G c j * j ( &.w.v.V.v.v.v.c.c.s.s.s.s.c.c.c.s.s.c.c.c.i.w.0.G 7 , X o Z `.tX{.Y | F G ..F Y Y Y Y Y Y Y E Y Y F D D D D F Y Y E ^ / / / / | | | | / / ^ ^ F D D D D D F E E E E Y Y G F F F G Y Y Y F F D D V D G Y Y E ^ ^ } } / ^ / / E Y Y F F F F F F D C V c z g w e > ; c e G %XaXuX",
"&XQ.I.E.I.P.P.P.P.E.E.E._.`._. X X X XXXXXXX X XXX X_.)._.`.`.`.`.).{.XX%X#X[.{.[.[.`.`.[.[.XXXX#X$X%X&X%X%X%X&X%X&X&X&X%X#X XXX&X=X=X=X&X%X#XXX[.[. XXX#X#X#X#X#X$X%X&X&X%X#X#XXX X[.[.[.[.[. X`._._._._.`.`.`._.`.`.`.`.`.{.{.`._._.Q.E.E.E.E.E.I.P.P.P.P.P.P.A.A.A.V.V.V.v.v.P.A.V.v.v.v.v.v.v.v.v.V.V.A.A.V.A.V.V.v.c.c.c.c.c.v.A.A.v.c.c.v.c.c.c.s.c.c.c.v.P.A.V.v.v.v.v.v.P.c.@.I , Y rXk.^ / ..../ ^ ^ / ^ ^ / / | ....| ( | ( / ^ ^ ^ / ^ ^ | #.../ / | ....#.#.#.....| | ( / / / / / / ( ( ( / / / / / ( / / / ( ( ( / ..#.$.$.#.#.#.X.$.#.3.e.e.2.$.3.2.2.2.3.3.3.6.6.6.7.6.6.e.h.e.3.6.7.e.r.r.g.h.h.e.e.7.6.7.e.e.e.r.r.e.e.6.0.e.e.6.6.6.3.%.$.$.#.#.#.X.....| | | ..| | ..........| | | | ( / / ^ ^ / ....| / ^ ^ / ^ ^ / | ( | ..| | | | | | | | / Q ^ Q Q Z w : 7 c ( w.m.m.M.m.i.s.c.v.c.i.i.s.c.s.s.c.i.0.@.&.O.* 7 M.&X>X6XeXG.#.G Y ^ Y F E G G G G Y E E ^ Y Y Y G G Y E E | | | | | | | | | ( / ^ E E Y Y F F D D D F G Y Y G Y Y Y F F Y Y G F D D D D D D D D D F Y E ^ / / / / / ^ E E F F F F F F G G N F F N s , > Z c L.0XuXtXuXpXuX",
"_.P.A.P.P.P.I.I.E.Q.Q.E._._.).`. X XXXXXXX X X.X X`._._._.`.`.`.[.[. X#X#XXX`.`.[.[.[.[.[.[.XXXXXX#X%X%X%X$X#X#X$X$X%X$X#X#X#X%X=X=X&X&X%X$X#X#X#X#X#XXX#X#X#X#X#X#X$X%X$X#X#XXXXXXX[.[.[.[.[.[.[.[.[.`.`._.{.{.`.`.`.`.`.{.{.).`._._.Q.E.E.E.E.E.I.P.P.P.P.P.P.A.A.A.V.V.V.V.V.V.v.v.v.v.v.v.v.v.v.v.v.V.A.A.A.A.V.V.v.v.v.v.v.V.A.A.V.v.c.c.v.c.c.c.c.c.v.V.V.m.m.v.c.c.c.v.v.B.i.@.k > T.iXe./ | ..| / ^ ^ / / / ( ..#.#.#.#.| | ( / ^ ^ ^ / ^ ^ / ..| / / ( ............| ( ( / / / / / / / ( ( / / / / / / / / / / / / / / | X.$.$.$.2.2.$.3.$.3.e.e.3.3.7.3.3.3.3.3.3.6.6.3.3.3.3.e.h.r.6.e.e.r.g.h.h.h.g.e.e.7.6.6.7.7.e.e.e.e.e.6.0.6.6.6.6.6.3.%.$.$.$.#.#.X...........#.#.#.$.$.3.2.$.#.......| | ( ( / | ..#.#.#.$.$.#.........| ( | | | | ( / / ( ( ( / / ( ( Q Z z x % 3 | r.r.h.N.V.v.s.q.0.i.s.i.@.q.q.+.] ] K j o : /.pX>X3.6.$./ F V F E F F Y Y Y Y Y Y E ^ ^ E E Y E E ^ / / / / / / / / ^ ^ ^ ^ E E E Y Y G F D D D D F F Y E E E ^ E G Y E Y G F D D D D D D D D F F E ^ ^ / / / / ^ E Y G F F F F F F F F / F z z e 3 M.8XpXpXaXtXpXpX0X`.",
"P.v.V.P.P.P.E.Q.E._.Q.Q.`._._.`..X XXXXX X`.`.`._._.`.`.`.`.`. X#X#X#X$X#X`.`.[.[.[.[.[.[.[.[.[.#X#X$X%X#X#XXX XXX#XXXXXXX#X&X=X=X&X%X#X#X#X#X$X#XXXXX X[.[. X[.XXXX#X#X#XXXXX XXXXXXXXX X[.[.[.[.[. XXXXX#X#X#X#X#X#XXX[.[.`.`.`._._.Q.Q.E.E.E.E.I.P.P.P.P.P.P.P.A.A.V.V.V.V.V.v.v.v.V.V.V.V.V.v.c.c.c.v.V.V.V.A.V.V.v.v.v.v.v.A.A.A.v.c.s.c.v.c.c.c.c.v.v.V.V.v.v.c.c.c.c.c.v.v.w.@.7 ; 2X,X/ / | | ( / ^ ^ / ^ ^ / ..#.#.#...| | / / ^ ^ / / ^ ^ ^ ( | ( / / ..........| / / / / / / / / / / / / / / / / / / ^ ^ ^ ^ ^ / / / / | X.X.X.$.$.$.e.6.6.7.6.3.6.r.3.3.3.3.3.3.3.3.3.3.3.6.e.h.r.7.r.r.h.k.k.h.g.r.r.e.7.6.6.6.6.7.6.6.e.e.e.6.6.6.6.6.6.3.%.$.$.$.#.#.X...........#.#.#.$.3.6.6.6.#.#.....| | | | $.$.$.$.#.#.#.#.#.....$.$.#.#.#...| ( / / / / / | | | | | ( ) ^ 3.#.g % w Y #.x.0.t.s.t.s.M.q.( q.O.) Q Z 9 - , Y 3XiX]./ / / x D D F Y Y F D F F F Y Y Y E E ^ E E E E E ^ ^ / ( | ....| / ^ ^ ^ E Y Y Y F F F F F D D F F Y E / ^ ^ / ^ E Y E G F F D D V C D D D D D G E ^ / ( / / ^ E Y F F F F F F F F F F N F N z 0 E 9XpXpXpX0X&X`._.Q.L.",
"P.V.P.I.P.P.E.Q.E.Q.Q.Q.`.`.`. X.XXX#XXX`._._._.Q._.`.`._.`. XXX$X#X#X#X[.`.`.[.[.[.[.[.[.[.[.[.%X$X$X#XXX X[. X[.XXXX[.XX%X&X;X&X%X$X#X#X#X#X#XXXXX#X#X#XXX X[.XXXXXX[. X X X XXX#X#X#X#X#XXXXX[.[. XXX#X#X$X$X#X#X#X#XXXXX[.[.`._._.).Q.E.E.E.E.I.I.P.P.P.P.P.P.P.A.A.V.V.V.V.V.A.P.P.P.P.A.A.V.v.v.V.A.A.A.A.V.V.V.v.v.V.V.V.V.V.V.v.c.c.c.v.v.v.c.c.c.c.c.c.v.c.c.c.d.c.c.c.c.q.+.w * 3XG.^ ( ( / / ^ E ^ ^ ^ ^ / | ....| ( ( / / ^ ^ ^ ^ / / ^ ^ / | | ( ^ ........| ( / / / / / / / / / / / / / / ^ ^ / / ^ ^ ^ ^ ^ ^ / / / ..#.X.X.#.#.X.7.6.6.7.6.3.6.e.3.3.3.3.2.3.3.3.6.6.6.7.r.g.r.7.r.h.k.k.k.h.r.e.r.e.7.6.6.6.6.6.6.6.6.e.e.6.6.6.6.6.6.3.%.$.$.$.#.#.#.X.X.X.#.#.......#.$.3.3.2.#.#...| ( ( | | $.$.#...| / / ( ..| ..$.%.$.$.$...| / / ^ ^ / / | | | ( / / ) / ..N V H 0 7 Z Y &.&.O.( ( O.( Q f 7 7 > o X ! #X0XiX[.^ F E Y ^ Y E E Y F F F F F F F Y E E ^ ^ ^ ^ ^ ^ E ^ ^ ^ ..........( / ^ / ^ E Y Y G F D F F F G Y E ^ ^ / / / / ^ Y Y E F F D D C C D D V V D F G E ^ ^ / / ^ E Y F F D F F F F F F D D V F N q > G.pXuX$X[.).P.P.L.P.P.",
"P.P.I.E.P.P.E.Q.E._.Q.Q.`.`.`. X XXX#X X`.)._._._._._._._.`.XX$X#X[.`.[.[.`.[.[.$X#X#X#XXX[.[.[.&X%X#X X[. XXX#X[.#X#XXX#X&X&X&X$X$X$X#X#X#X#X#X#X#X%X&X&X%X$X#X#XXXXX[. X XXXXX XXX#X#X#X#X#X#X#X#X#XXX X[.`.`.[.[.[.[.[.[.`.`.`._._._.).Q.E.E.E.T.I.P.I.P.P.P.P.A.A.A.A.A.A.A.A.P.I.I.P.P.A.A.P.P.P.P.I.I.P.P.V.V.V.V.V.V.V.V.V.V.V.V.v.v.c.v.c.c.c.c.c.c.c.c.M.v.c.c.c.d.s.s.s.w.` v ; %Xk.../ / / ^ E E ^ ^ ( ( | ......( / / / ^ ^ E E ^ / / ^ ^ ^ | ..| / ......| | ( / / / / / / ^ ^ / / / / / / ^ ^ ^ ^ E ^ ^ ^ E ^ / | ..#.$.$.$.2.2.$.3.3.6.6.6.3.3.6.3.3.3.2.2.2.3.3.e.e.e.r.g.g.r.r.r.h.h.k.h.r.e.7.e.e.6.6.6.6.6.6.3.6.6.6.6.6.6.6.6.6.3.3.%.$.$.$.#.#.#.#.X.#.#.#.......X.#.$.#.#.#...| | / ( | | | / / / / | ....$.#.#.$.$...| | ..| / ^ ^ ^ / / / ( ( / ^ Q Y Q Y | ( #.0.Z % ; 7 7 w k j 7 > , * , j &.{.8XtXtX>Xr./ ..^ D F ^ G Y Y D D Y E Y F F Y E ^ ^ / / ( / / / / / / ( | | ( / ^ ^ E E / ^ E E Y Y G F F F Y Y E ^ / / ^ ^ ^ ^ E G F Y F F D D D D F F D D F G Y E ^ ^ ^ ^ E Y G F F F F F F F D D D D E c c z j 2XpXtX{.T.P.T.Q.Q.I.P.",
"P.P.T.E.A.P.E.Q.Q._.Q.Q._._._.[.XXXXXX X_._._._._._._._._. X#X%X X`.).`.[.[. X#X&X%X%X#X#X#X#X#X=X%X#X[.[.XX#X#X[.#X#X#X#X&X&X#X#X#X#X$X#X#X#XXXXX#X%X&X&X&X$X#X#X#XXXXXXXXXXXXX[. XXXXXXX#X#X#X#X#X#X#X#XXX X[.`.`.[.[.[.[.`.`.`.`._._._.Q.Q.E.E.T.I.I.I.I.P.P.P.P.P.A.A.A.A.A.V.P.P.P.P.A.A.A.P.P.P.P.I.P.P.V.V.V.V.V.v.V.V.V.P.P.P.A.V.v.c.c.c.c.c.c.c.v.v.v.M.M.c.c.c.d.s.s.s.s.( p * <Xk.^ / ^ ^ ^ E E ^ ^ | ( / / / / ^ ^ ^ ^ ^ ^ ^ E ^ ^ / / ^ ^ / ..../ ......| | / / / / / / ^ ^ ^ ^ ^ ^ ^ ^ ^ ^ ^ ^ ^ E ^ ^ ^ E ^ / ..| X.$.$.$.3.3.3.$.3.6.6.6.3.$.$.3.2.2.2.2.2.3.3.e.7.e.g.h.h.h.h.r.g.h.h.h.r.e.6.e.7.6.6.6.6.6.6.6.6.6.6.6.6.6.6.6.6.3.3.%.$.$.$.#.#.#.#.X.X.X.X.#.X.#.#.$.$.#.X.#.......| ......| ( / / | #.#.$.3.$.#.$.#.../ / | / / ^ ^ ^ ^ / ^ ) ) ) ^ Q Y Y Q Y ( | | r.x.| z 5 ; * ; > x / #X>X8XiXtX*XM.$./ / E F G ^ ^ Y F Y Y Y Y E Y F E E ^ ^ / ( | | / / / / ( | | | | / / ^ ^ E E E E E Y Y E E E E G Y Y Y E E ^ ^ E E ^ ^ E F F F F F F F F F Y Y Y E E E ^ ^ / / ^ E E Y Y G Y Y F F F F F D D D N z c w V 9XyX2XT.).`.{.I.A.A.I.",
"P.A.I.I.V.P.E.Q.)._.Q.E._._._.[.$XXX X`._._._.`.`._._._.[.XX$X$X`.`.`.[.[.[.#X%X%X$X#X#XXX#X$X%X%X$XXX XXX#X#X#X X#X#XXX#X&X&X#X#X#X#X#X#X#X#X#XXX#X#X$X#X#XXX X#X#X#X#XXXXXXXXX#X#X#X#XXXXX#X#X[.XX#X$X$X%X$X$X[. X X X[.[.[.[._.`.`._._.).Q.E.E.E.I.I.I.I.P.P.P.P.P.P.P.P.P.P.V.P.I.P.P.A.P.P.P.P.A.A.A.A.V.V.A.V.V.v.v.v.V.V.A.A.A.V.V.v.v.c.c.c.c.v.v.v.v.v.c.c.c.c.c.d.s.s.c.w.] e % 2Xr.Y ^ ^ ^ ^ ^ ^ ^ ^ / / ^ ^ ^ ^ ^ E ^ / / / / ^ ^ ^ ^ / ^ E / | ..( | | | ( / / / / / / / ^ ^ ^ ^ ^ ^ ^ ^ ^ ^ ^ ^ ^ E ^ ^ ^ ^ ^ | ..| X.$.$.$.2.2.$.$.3.6.6.3.2.$.$.$.$.$.$.2.3.3.3.r.e.e.h.h.g.r.h.h.h.h.h.r.r.e.7.6.6.6.6.6.6.6.6.e.e.6.6.6.6.6.6.6.3.3.3.3.$.$.$.$.#.#.X.........#.#.X.#.$.$.#.X.............#.#.$.#.....#.#.$.$.$.......#...| | / / / ^ ^ ^ ^ ^ W W ^ ^ ^ Q E E | ^ G / $./ ..b.*X*X>X,X2X2X7XrXiXOXh.e.3.^ Y / G | E Y #./ D ^ E E E ^ E Y Y Y ^ ^ / / / / / / ^ ^ / / / | ( ( | ( ( / / ^ ^ E E Y Y Y E ^ ^ ^ E E E E E E Y Y E E E ^ E F F F F F F F G Y E ^ ^ ^ / / / / / / ^ ^ E E Y Y Y Y F F F F F D D D D N j & ( tXuX%X).Q.I.I.E.Q.T.P.",
"P.P.I.P.V.P.E.E.E._.E.E._._._. X$XXX[._._._.`.`.`._._.`.XX$X$XXX`.`.[.XX[.[.$X<X#XXX[.[.[.XX$X%X#X#XXXXX#X#X#XXX X#X#X[.XX%X%XXX#X#X#X#X#X#X#X#X$X$X#X#X#XXXXXXXXX#X#X#X#XXXXX X&X&X%X#X#X#X#X#X[. XXX#X#XXX[.[. X X[.[.[.`.`._._.`.`._._._.Q.Q.E.E.I.I.I.I.P.P.P.P.P.P.P.P.P.P.A.P.E.E.I.I.T.E.E.I.P.A.V.A.A.A.A.V.V.v.v.v.v.v.V.v.v.v.v.v.v.v.v.v.v.v.c.c.c.c.c.c.c.c.c.d.s.s.c.+.@.j * 2Xe.#./ ^ ^ ^ / / / / | ( / / / / / / ^ / ( | / / ^ ^ ^ ^ ^ E ^ | | ( ( / / / / / / / ( / / ^ ^ ^ ^ ^ ^ ^ ^ ^ ^ ^ ^ ^ E ^ / ^ ^ / | #.#.$.3.2.$.2.$.$.$.3.3.3.$.$.$.$.$.$.$.$.2.3.3.3.h.r.r.h.h.r.e.r.h.h.h.g.r.r.e.e.6.6.6.3.3.6.6.6.e.e.e.6.6.6.6.6.6.3.3.3.%.$.$.$.$.#.#.X.................X.#.X...| ........#.#...$.#.....#.$.$.$.#...| | | / / / ^ ^ ^ ^ ^ ^ ^ ^ ^ ^ E E Q Q E E E E ^ ^ ^ ..$.#.6.r.k.k.h.g.r.7.#.../ E E ^ ^ E ..Y ^ / D Y / F E Y E E E Y ^ ../ / / / / ^ ^ E | | | | | | ( / / / | | ( / ^ E ^ E E E ^ ^ ^ ^ / / ^ ^ E Y Y G E E ^ ^ ^ Y F G F F F F Y E ^ ^ / / / / / / ^ ^ ^ ^ ^ E E Y Y G G F F F F F D D Z w w Z 2XpXpX#XT.Q.E.P.P.P.P.P.",
"P.P.P.P.P.P.I.E._.E.E._._._.[.XX$X X`._.`.`.`._..X`.`.XX$X$XXX.X`.`.`.[.XX#X%X%X[.[.[.[.[.[.[.[. X X XXXXX#XXXXX#X#X#XXXXX#X$X%X#X#X#X#X#X#X#X#X#X#X#X#X#X#X#X#X#XXXXX#XXX[.#X%X<X=X%X$X#X#XXX X X X X X X X X X[.[.[.[.[.`.`._._._._._._.).Q.Q.Q.E.E.E.T.I.I.I.P.P.P.P.P.P.A.A.A.P.P.P.I.P.P.P.P.P.P.A.A.A.A.A.V.V.A.V.V.V.V.v.V.V.V.V.V.V.v.v.v.v.c.c.c.c.c.s.c.c.s.s.s.s.s.s.c.i.! e 7 &Xb.G / / ^ ^ ^ ^ ^ ^ ^ ^ / / / / / / ..| ( / ^ ^ E E ^ ^ ^ ^ ^ / / | / ( | / / / / / | / ^ ^ ^ ^ ^ ^ ^ ^ ^ ^ ^ ^ ^ ^ / E E E E ^ | $.X.$.2.$.$.$.2.$.$.$.$.$.$.$.$.$.#.$.2.2.$.$.3.6.e.6.e.g.g.e.e.h.e.6.e.h.h.r.e.e.e.e.7.6.3.6.e.r.e.6.6.6.6.6.6.6.%.%.3.3.3.3.%.%.$.#.#.X.........| ............................../ / ( ..#.#.#.#...| | | | ( / / / / / ^ ^ ^ ^ ^ ^ ^ ^ ^ ^ E E E E E ^ / / / / / ^ ^ ^ W W W E E E W ^ ^ ^ W E E E E E ^ ^ ^ ^ / / / ^ E E ^ ^ / / / ^ E E E ^ / | | | | | ( / / / / / / / / ^ ^ E E ^ ^ ^ ^ / / ^ ^ E E ^ ^ ^ E / / ^ ^ ^ ^ E E Y Y Y E ^ / / / ^ ^ ^ ^ ^ ^ ^ ^ ^ ^ ^ ^ E E Y Y ^ D D ^ F c F F c 7 > ).pXpX8X`._.I.P.Q.Q.P.P.E.",
"P.P.P.P.I.E.Q.).).E.E.)._._._. X X[._._._._._._._. X#X%X$XXX X`.[.[.[.#X$X%X%X%X[.[.[.[.[.[.[.[. X X XXXXX#XXXXXXXXXXXXXXX#X$X%X#X#X#X#X#X#X#X#X#X#X#X#X#X#XXXXX#XXXXX#XXX X#X%X;X&X%X#X#X#XXXXX X X X X X X X X[.[.[.[.[.[.`.`.`.`._._._._.Q.Q.Q.E.E.E.W.I.I.I.I.I.I.I.P.P.A.A.P.P.I.T.E.T.I.I.P.P.P.A.A.A.A.A.V.V.A.V.V.V.V.v.m.v.V.V.V.V.v.v.v.v.c.c.c.c.c.c.c.c.s.s.s.s.s.s.i.w.` e : *Xb.^ / ^ ^ ^ ^ ^ ^ ^ ^ ^ / / / / / / ( / / / ^ ^ ^ ^ / ^ ^ ^ ^ ^ / / ^ / ( / / / / ^ / / ^ E ^ ^ ^ ^ ^ ^ ^ ^ ^ ^ ^ ^ ^ E E ^ ^ ^ ..3.#.$.3.3.$.2.$.#.#.#.#.$.$.$.$.$.$.$.$.$.$.$.3.6.e.e.e.r.r.6.6.e.7.6.7.r.g.e.7.e.6.6.6.6.6.6.e.r.e.e.6.6.6.6.6.3.3.3.3.3.3.3.%.$.$.#.#.X.........................................| | | | ..#.....| | | | | ( / / / / / ^ ^ ^ ^ ^ ^ ^ ^ ^ ^ E E E ^ ^ / / / / / ^ ^ ^ W W E E E E W W E E W W ^ ^ ^ ^ ^ ^ ^ ^ / / | / ^ E E E E E E E E E E ^ / | | ( ( / / / / / / / / / / ^ ^ ^ E ^ ^ / / / / / / ^ ^ E E E E E / / / / / / ^ ^ ^ E E ^ / / / / / / / / / / / / / / / / ^ E E E V Y Y V V E F q s : ( pXtXyX[.)._.I.P.Q.Q.I.P.W.",
"I.I.I.I.T.E.Q._._.Q.Q.)._._._.`. X.X`._._.`.`.`.`.XX%X$XXX[. XXX#X#X$X%X%X%X$X#X[.[.[.[. X X[.[. X X XXXXX#X#XXX XXXXXXXXX#X%X&X#X#X#X#X#X#X#X#X#X#X#X#X#XXXXX X#XXXXX#XXX X#X%X&X%X$X#X#X#X#XXX X X X X X X X X[.[. X X X[.[.`.`.`.`._._._.).Q.Q.E.E.E.W.I.I.I.I.I.I.I.I.P.P.P.I.I.I.E.T.E.I.I.P.P.P.A.A.A.A.A.V.V.A.V.V.V.V.v.V.V.V.V.V.v.v.v.v.c.c.c.c.c.c.c.x.x.s.s.s.s.s.s.u.w.] w : &Xb./ ^ ^ ^ ^ ^ ^ ^ ^ ^ ^ ^ / / / / / / ^ ^ ^ ^ ^ ^ / ^ ^ ^ ^ ^ ^ ^ ^ ^ / / / / / / ^ / ^ ^ ^ ^ ^ / ^ ^ ^ ^ ^ ^ ^ E E E E E ^ / ( #.3.#.3.6.6.3.2.$.#.$.$.$.#.$.$.$.$.$.$.$.$.2.3.3.3.e.e.e.r.e.3.3.6.6.6.e.g.h.r.e.e.e.6.6.6.e.e.r.r.r.e.6.6.6.6.3.3.3.3.3.3.3.%.$.$.$.#.#.............................................| | | | ....| ( | | | | | ( ( ( / / / ^ ^ ^ ^ E E ^ ^ ^ W E E / / / | / / ^ ^ ^ ^ W W E E E E W W E E E ^ / / ^ ^ ^ ^ / / / / / / ^ E Y Y E E Y E E ^ ^ / | | | ( ( / / / / / ^ ^ ^ ^ ^ ^ ^ ^ E ^ / ( / / ( | ( / ^ ^ E E E Y / / / / / / ^ ^ ^ ^ ^ ^ / ( | ( ( ( / / / / / / / / ^ ^ E E E E | Y D Y Y N z D > O.1XuXpX&XT.I.Q.P.P.Q.Q.I.S.W.",
"E.T.I.I.I.T.E.E._._._._._.`.[. X X X`.`.`.[.XX#XXX$X$X X_._.XX=X&X&X%X%X%X#XXX[. X X X XXXXXXXXX X X XXXXX#XXXXX X XXXXXXX#X%X&X#X#X#X#X#X#X#X#X#X#X#X#X#XXX X[.#XXXXXXXXX X#X%X%X$X#X#X#X#X#XXXXXXXXXXXXXXXXXXX[. XXX#XXX X[.[.`.`.`.`._._._.).Q.Q.E.E.T.T.I.I.I.I.I.I.I.P.P.P.P.P.P.P.P.P.P.P.P.P.A.A.A.A.V.V.V.V.A.V.V.V.V.v.v.V.V.V.V.v.v.v.v.c.c.c.c.c.c.c.c.c.s.s.s.s.i.i.i.q.` w : #Xr.Y ^ ^ ^ ^ ^ ^ E E ^ ^ ^ / / / / ^ ^ ^ ^ ^ ^ ^ ^ ^ ^ ^ ^ E E E ^ ^ ^ / / ^ / ( / ^ / / ^ ^ ^ / / ^ ^ ^ ^ ^ E E E E E E ^ / / | #.3.$.3.6.3.3.3.2.$.2.$.$.$.$.$.$.$.$.$.$.$.3.6.3.2.6.6.7.e.7.6.6.6.7.e.g.k.k.h.r.r.r.e.e.r.g.h.g.r.r.e.6.6.6.6.3.3.3.3.3.3.3.%.$.$.#.#.#.............................................| | ( | | | | / ( | | | | | | | ( / / ^ ^ ^ ^ E E E ^ ^ ^ ^ ^ / / / / / / ^ W ^ ^ W E E E E E E E W ^ ^ / } } ^ ^ / / / / / / ^ ^ E E E E E ^ E ^ / / / ( | | ....| | / / / / ^ ^ ^ ^ E E E E E ^ / | | | | | | / ^ ^ ^ ^ ^ E / / / / / / ^ ^ E E E ^ / | | | / / / ^ ^ E E E E E E Y Y Y E E F E Y N D N 0 q G 0XuXpX8X`.T.E.E.P.I.!.!.W.P.W.",
"E.E.T.I.I.E.E.Q.Q._._._.`. X X XXX X`._.`. X$X%X#XXX X`._. X$X=X&X%X#X#X#X#XXX X[.[. X XXXXXXXXX X X XXXXXXXXXXX X XXXXXXX#X%X&X#X#X#X#X#X#X#X#X#X#X#X#X#XXX[.[.#XXXXXXXXX X#X%X%X$X#X#X#X#X#X#XXXXXXXXXXXXXXXXX XXX#X#XXXXX[.[.`.`.`.`.`._._.).Q.Q.E.E.E.T.T.I.I.I.I.I.P.P.P.P.A.A.A.A.P.P.P.A.P.P.A.A.A.A.V.V.V.V.A.V.V.V.V.v.V.V.V.V.v.v.v.v.v.c.c.c.c.c.c.c.c.c.s.s.s.s.i.i.i.q.` p * b.$.^ ^ ^ ^ ^ ^ ^ E E ^ ^ ^ ^ / / ^ ^ ^ ^ ^ ^ E E ^ ^ E E E ^ ^ ^ ^ ^ ^ / / ^ / | | / / ^ ^ ^ ^ ^ ^ ^ E E E E ^ ^ ^ ^ E ^ / / / | #.$.$.3.6.3.2.3.3.3.$.$.$.$.$.$.$.$.$.#.#.$.3.6.3.2.3.6.e.e.7.7.7.7.6.r.k.k.k.h.h.r.r.e.e.r.h.h.g.r.r.e.6.6.6.6.3.3.3.3.3.3.%.$.$.$.#.#.X...............| | | | ....................| | | | ........( | | ......| | | ( / / / ^ ^ ^ ^ W W W W W W W W ^ ^ / ^ W W ^ ^ ^ ^ E E E E E E E ^ / / / / / ^ ^ / / / / / / ^ ^ ^ E E ^ ^ ^ ^ / | ....| | | ....| | / / ^ ^ ^ ^ E E E E E ^ ^ / | | | | ( ( / / ^ / / / / / / / / ( | / / ^ ^ ^ ^ / | | ( / / ^ ^ ^ ^ ^ ^ ^ E E Y Y Y E E E D D E D D x 0 Z 2XpXuXuXXXV. XQ.E.I.E.!.!.W.W.W.",
"E.E.E.E.E.Q._._.Q._._._.`. XXX XXX.X_._.`.XX#X$X.X`.`..X X#X$X$X#XXX[.[.XX#X#X#XXXXXXXXXXXXXXXXX X X XXXXXXXXXXX XXXXXXXXX#X%X&X#X#X#X#X#X#X#X#X#X#X#X#X#XXX X[.#X X XXXXXXX#X%X%X$X#X#X#X#X#X#X#X#X#X#XXX#XXXXX[. XXX#XXXXX X[.`.`.`.`.`._._._.Q.Q.E.E.E.T.T.I.I.I.I.I.P.P.P.A.A.A.A.A.A.A.P.P.A.A.A.A.A.A.V.V.V.V.A.V.V.V.V.v.V.V.V.V.v.v.v.v.c.c.c.c.c.c.c.c.c.c.s.s.s.i.i.i.i.s.0.Z ; G ..#.E ^ ^ ^ ^ ^ E E ^ ^ ^ ^ ^ ^ ^ ^ ^ ^ ^ E E E E E E E ^ ^ ^ ^ ^ ^ ^ / ^ ^ ( ..| / ^ ^ ^ ^ ^ ^ ^ ^ ^ ^ ^ ^ ^ ^ ^ ^ ^ / ( / / | #.#.#.3.3.3.2.3.6.3...#.#.$.$.$.$.#.#.......#.$.3.3.3.6.e.7.6.e.e.6.6.r.k.k.h.h.r.r.e.e.e.e.r.r.e.e.r.e.6.6.6.6.3.3.3.3.3.3.%.$.$.$.#.#.X.............| | | | | ....................| | | ..#.#.....| ..........| | | | ( / / / / ^ ^ ^ ^ W W W ^ ^ W W W ^ W W W ^ / ^ ^ E E E ^ ^ E ^ / | | / / ^ ^ ^ / / ( ( / / / / ^ ^ ^ ^ ^ ^ ^ / ............| | ( / / ^ ^ ^ ^ ^ ^ E E ^ ^ ^ ^ / ( | ( / / / / ^ ^ / / | | | | | | | ..| / ^ ( / / ( | ( / ^ ^ ^ / / ( / ( ( ^ ^ E E E E E E ^ N F x 5 4 ^ 1XpXtXuX). XP._.E.E.E.E.!.!.W.W.W.",
"E.E.E.E.E.Q._._.).`.`.`.[.XXXX X X`._.`.XX$XXX X`.`.`. X XXX$X$X X[.[. X#X#X#X#XXXXXXXXXXXXXXXXX X X XXXXXXXXXXXXXXXXXXXXX#X$X%X#X#X#X#X#X#X#X#X#X#X#X#X#XXXXX XXX X XXXXXXX#X%X%X$X#X#X#X#X#X#XXXXX#XXXXXXXXXXX[.[.XX#XXXXX X[.[.[.[.`.`._._._.Q.Q.E.E.E.E.E.E.I.I.I.I.I.P.P.P.A.A.A.A.P.P.P.P.A.A.A.A.A.V.V.V.V.V.A.V.V.V.V.v.v.v.v.v.v.v.v.v.c.c.c.c.c.c.c.c.c.c.c.s.s.i.i.i.s.c.c.O.z 7 Y E E ^ ^ ^ ^ ^ E E ^ ^ ^ ^ ^ ^ ^ ^ ^ ^ E E E E E E ^ ^ ^ / / / / ^ ^ / ^ / | ..../ ^ ^ ^ / ( | | | ..| | ( / / ^ ^ ^ / ( ^ ^ | #.#.X.2.6.6.3.3.2.$.....#.$.$.#...| E Y D V D Y } X.$.6.7.6.6.e.r.e.6.h.b.z.k.h.r.e.e.e.e.e.7.6.7.e.e.e.6.6.6.6.6.3.3.3.3.3.$.$.$.#.#.#.X...........| | } } | ....X...........| | | ......#.$.#.#.......#.#.#...| | | | ( / / / / / / / / ^ ^ W ^ ^ ^ ^ ^ ^ W W W ^ / Q Q E Q ^ ) / / / ( ( ( ( ) ^ ^ ^ / / ( / / / / ^ ^ ^ ^ ^ ^ / | ....#.....| | / / / / / / / / / ^ ^ ^ ^ ^ ^ / / / / / / ^ ^ / ^ ^ ^ ^ / | | | | | | | | / ^ E ^ ^ ^ / / / ^ ^ ^ / / | | / / / ^ ^ E Y F F D V z j D ; ; $.*XpXaXyX#XL.I.$XP.Q.Q.Q.!.!.!.W.W.E.",
"Q.E.E.I.I.E.E.E.`. X X X X#X#X X X`.`.XX%X=X#X`..X`.`._.`. X$X%X#XXX#X#X#X#XXX[.XXXXXXXXXXXXXXXX X X XXXXXXXXXXX#X#X#XXXXX#X$X%X#X#X#X#X#X#X#X#XXXXX#X#X#XXXXXXXXX X XXXXXXX#X&X&X%X#X#X#X#X#X#XXXXXXXXXXXXXXXXX[.[. XXXXXXX X[.[.[.[.[.`.`._._.Q.Q.E.E.E.E.E.E.T.T.T.I.I.I.P.P.P.A.A.A.A.P.P.P.A.A.A.V.A.V.V.V.V.V.A.V.V.V.V.v.v.v.v.v.v.v.v.v.c.c.c.c.c.v.c.c.M.c.c.s.s.i.i.i.s.s.s.y.Q X z 7 ^ ^ ^ / ^ ^ E E ^ ^ ^ ^ ^ ^ ^ ^ E E E E E E E E ^ / / / / / ^ ^ / / ^ / | #...( / / / | #.#.$.#.#.#.....| / / ^ E / / ^ ^ | #.$...2.6.7.6.3.$.....#.$.$.#.| ^ E z s 0 > > q N G ..$.6.6.6.r.g.r.e.k.n.b.k.k.h.r.e.r.r.e.6.6.7.e.e.6.6.6.6.6.6.6.3.3.3.%.$.$.$.#.#.#.............} } } } | ....#...........| | | ....#.$.$.$.#.....#.#.#.#.....| | | | / / / / / | / / ^ ^ W ^ ^ / / / ^ ^ W ^ ^ ^ Q Q Q Q Q / ( ( ( ( ( ( ) ) Q ^ ^ / / ( / / / E E E ^ ^ / / ( #.#.#.#...( / / ^ ^ / / ( | | | / / ^ ^ ^ ^ / / / / / / ^ ^ ^ ^ ^ ^ ^ ^ / / | ( ( / / / / ^ E Y F F G E ^ / / ^ ^ / / / / ^ Y G Y Y F H Z c k j j X w Y L.iXpXuXaX`.A.Q. Xc.=XI.!.!._.!.E.W.W.E.",
"`._.Q.Q.Q._.`. X`._.`. XXXXX X XQ. X%X%X#XXX X`.`.`.`.`..X XXXXXXX[.[.XX#XXXXX#XXXXXXXXXXX#X#X#X[.XX X[.[.#X%X%X;X&X$X X[.#X#XXX#X#X#X#X#XXXXXXX[.[.[.[.[. XXX#X#X#XXXXXXXXXXX#X$X$X$X#X#X#X#X#X[.[. XXXXXXXXXXX#XXX[.[.[.[.[.`. X X[.`.`._._._.).Q.Q.E.E.E.E.E.E.T.I.I.I.P.P.P.L.P.A.A.V.V.V.V.V.V.V.V.V.V.V.V.A.A.A.A.V.V.V.v.v.v.v.v.v.v.v.v.c.c.c.c.c.c.c.c.c.c.c.s.s.s.s.s.s.i.s.s.q.( k o w / E ( / ^ E ^ ^ / / / ^ ^ ^ E E E E E E E ^ / | | / / ^ ^ ^ ^ / / / ( #.$...^ / / | ....#.#.#.#.........#...| | | / E / $.3.#.$.6.0.3.3.3.#.X.X.3.Y $.O.( K c # >.q.&.>.Z 1 > c Q %.8.r.k.k.r.n.b.b.k.k.h.e.e.e.e.e.e.e.e.e.e.e.e.6.6.6.6.6.6.6.6.3.%.$.$.#.#.#.#.........| | | | | | ....#.#.#...| ...... ...$.$.$.#.#.X.................| | | | | ( ( / / / | | | / / ^ ^ E / ^ ^ ^ / / / ^ / / / ^ ^ / / / / / / ^ ^ ^ ^ ^ ^ ^ / / / / / ^ ^ ^ ^ ^ ^ ^ ^ ^ / / / / | ..| / ^ / / | | / / ^ ^ ^ / ^ ^ ^ ^ / / / / / / ^ ^ ^ ^ / / W W ^ / ../ } ^ / ) F F F C g B h F E / Y Q &.G c E k Z j p H l k Z 7 # v Z t.=XuXpXpXyX0XP.I.E.E.E.E.E.E._.Q.T.T.E.E._. X",
").Q.Q.Q.Q.)._._.`._.`. XXXXX X`.`.#X%X$X X X X X X X X.X.X X X XXX[.[.XXXXXXXXXXXXXXXXXXXXXX#X#X[.#X#X$X%X&X=X&X$X%X#XXXXX#X#X#X#X#X#X#XXXXXXXXXXXXXXXXXXXXX#X#XXXXXXX X XXXXXXX#X#X#X#X#XXXXXXXXXXXXXXXXXXXXXXXXX X[. X#X#XXX X[.[.[.`.`._._._.).Q.Q.E.E.E.E.E.E.T.I.I.I.P.P.A.A.A.A.V.V.V.V.V.V.V.V.V.V.V.V.V.A.A.A.A.V.V.V.v.v.v.v.v.v.v.v.v.c.c.c.c.c.c.c.c.v.c.c.c.c.c.v.v.c.c.v.v.s.-.I y 3 s E Y E / E ^ E / / ^ ^ ^ ^ E E E E E ^ ^ / ( | ( / / ^ ^ ^ ^ / ^ / ..#.#.../ / / / | | | | | | ( / | ......| ....( ^ | $.$...#.$.3.2.2.$.#.X.X.} e.( &.c y - f.qXuXsX5XS.] M 1 9 Q r.g.g.l.k.n.b.b.z.k.h.r.e.e.e.e.e.e.e.e.e.e.e.6.6.6.6.6.6.6.3.3.$.$.#.#.#.#.........| | | ( ( ( ( | | ....$.......X.......#.#.#.#.....................| | | | ( ( ( / / / | | | ( / / ^ ^ / ^ ^ ^ / / / ^ / / ^ ^ ^ ^ / / / / ^ ^ ^ ^ ^ ^ ^ ^ / / / / / ^ ^ ^ ^ ^ ^ / / / / ( | | | | / ^ ^ / | ....| / ^ ^ ^ ^ ^ ^ / / | | | | | / / ^ ^ / ^ ^ / ..X.$.$./ | / E ( Q z 0 & & ; 5 g #.N ..G c G G c e o 1 < y < = y A >.-XuXuXuXuXyX0X%XE.P.I.T.E.E.T.E.E._.Q.T.I.E.Q._.`.",
"E.E.Q.Q.Q.Q.Q.Q.`.`.`. XXXXX`.). X$X$X X`..XXX#X$XXX X X.X`.`.[.XXXXXXXXXXXXXXXXXXXXXXXXXXXXXX#X#X%X&X&X=X<X;X&XXX#X#X#XXX#X#X#X#XXXXXXXXXXXXXXXXXXXXX XXXXXXX#X X X[.[.[. X XXX#XXXXXXXXX X[.[.#X#XXXXXXXXXXXXX X[.[. X#X#XXX X X X X`.`.`._._._.).Q.E.E.E.E.E.E.I.I.P.P.P.P.A.A.A.V.V.V.V.A.A.A.A.A.A.A.A.A.A.A.A.A.V.V.V.v.v.v.v.c.c.c.c.v.v.c.c.c.c.v.v.v.v.v.c.c.c.v.v.v.V.c.c.V.A.v.s.>.( q & ^ E E ..Y ^ E ^ / ^ ^ ^ ^ E E E E E ^ / | ../ / / ^ ^ ^ / / / ^ / #.$.../ / / / / / / / / / / / / / ( | ( / ....| / ..$.#.( O.$.3.$.$.$.#.X...#.2.| *.S w -.uXuX0X_.A.d.f.>.w 1 ( /.H.k.F.n.z.b.b.k.k.h.r.e.e.e.e.e.e.e.e.8.6.6.6.6.6.6.3.3.3.3.$.$.#.#.#.#.........| ( / / / / / / ( | | | $.#...#.#.................................| | | | ( ( ( / / / / / ( ( / / / / ^ ^ ^ ^ ^ / / / ^ / ^ ^ ^ ^ ^ ^ ^ ^ ^ ^ E ^ ^ ^ ^ ^ ^ / / / / / ^ / / / / / / ( | ..#.$.#.#...| / | ..#.$.#.../ ^ ^ ^ ^ / / ( ..#.#.#.#...| / / ^ / W W } #.3.$.#...| ( Y ) H > s 6.h.3 N r.H...E ) G c 7 * Q O.x.S S S >.$XwXuXuXuXuXqX;XQ.A.V.A.P.P.I.I.I.I.T.E.E.Q.E.P.E._.`.Q.",
"E.E.E.E.Q.Q.Q.Q.[.`.`.[. X X_.Q.`.XXXX X`. X$X%X$XXXXX X[.`.`.`. X#X#XXX XXXXXXXXXXXXXXXXXXXXXXX#X&X&X&X&X&X%X#XXX#X$XXX[.XXXXXXXXXXXXXXXXXXXXXX[.[.[.[.[.[.[.[.[.[.[.[.[.[.[. XXXXXXXXX X X[.[.XXXXXXXXXXXXXXXX X[.[. XXXXX[.[. X X X[.`.`.`._._.).Q.Q.E.E.E.E.E.I.P.P.P.P.P.A.V.V.V.V.V.V.A.A.A.A.A.A.A.A.A.A.V.V.V.V.V.v.v.v.c.c.c.c.c.c.c.c.c.c.c.v.v.v.v.v.c.c.c.c.c.c.v.v.s.s.v.v.c.c.s.q.F ; E h.( | F E E ^ / ^ ^ ^ ^ ^ E E E ^ ^ / ( | ^ ^ ^ ^ ^ / / / / ^ ( $.$./ ^ | | | ( ( / / / / ( / / / / / ^ ^ / ( | | ..$.#.( #.$.3.2.2.2.2.2.2.k./ Q Y w 7 <XuX;Xs.] ~ >.w.+.G 8 0.7X(.z.F.b.k.k.k.k.h.r.r.r.e.e.e.e.e.e.8.6.6.6.6.6.6.3.3.3.%.$.$.#.#.#...........| ( / / / / / / / | | ....2.#.#.$.$.#...X.........................| | | | ( ( ( / / / / / / / / / / / / / ^ ^ ^ ^ ^ / / / ^ ^ ^ ^ ^ ^ ^ ^ ^ ^ E E E ^ ^ ^ ^ ^ / / / / ^ ^ ^ ^ ^ / / ( | | #.3.3.$.#.....| #.#.$.$.#.../ ^ ^ ^ ^ / / ..#.$.#.#.#...| / / ^ ^ ^ / ..$.$.../ #.E / Y Q z > 2.iXh.x ; +X1X^ F z N 7 c %.1XpXyXXX;X9XuXuXuXuXqX[.Q.P.V.V.P.P.P.A.P.P.P.P.I.I.E.I.Q.E.P.E.`.`.E.",
"Q.E.E.E.E.Q.)._. X`._._.`.`.`._._. XXX X`. X$X$X#XXX X X X X X X X#X$XXX[.XXXX X X X XXXXXXXXXXX$X%X%X$X#X#X#X X#X#X#X[.[.#X#X#X#X#X#XXXXXXXXXXX[.[.[.[.[.[.[.[.[.[.[.[.[.[.[. XXXXXXXXXXXXXXXXXXXXXXX X X X X X X XXX#X#X#XXX X X X X X[.`.`.`._._.Q.Q.E.E.E.E.T.I.P.P.P.P.A.A.V.V.V.V.V.V.A.A.V.V.V.V.V.V.V.V.V.V.V.V.V.v.v.c.c.c.c.c.c.c.c.c.c.c.c.v.v.v.v.v.c.c.c.c.c.c.c.c.s.s.c.c.i.s.c.t.&.q j OX$.E F E E ^ / ^ E ^ ^ ^ E E E E ^ ^ ^ / ^ ^ ^ ^ ^ / / / / ^ ( $.#./ ^ | / / / / / / / ( | | | / / / / / / / / | ....../ #.$.3.3.2.3.4.2.$.7.O.D H > q.yX9XA.-.>.,.w.>.U G - %.aX].z.F.z.g.h.k.h.r.e.e.e.e.e.e.e.e.e.8.6.6.6.6.6.3.3.3.3.$.$.#.#.#...........| | ( / / / / / / | ....#.#.3.$.#.$.$.#...X.......................| | | | | / / / / / / / / / / / / / / / / ^ ^ ^ ^ ^ ^ / / / ^ ^ ^ ^ ^ ^ ^ ^ ^ E E E E ^ ^ ^ ^ ^ ^ ^ ^ ^ ^ ^ ^ ^ ^ / / ( | ..#.#.| / / / / ........| ( / ^ ^ ^ / / ( ..#.%.| | | | | / / ^ ^ / X.$.$.../ ^ / Y ( Q ) x 5 r.eX^ , g 9X].Q Z V q c ).pXpXpX<XQ.1XuXuX5X XE.v.v.v.v.V.V.A.A.A.A.A.P.P.P.P.I.T.P.E.E.I.E.`.`.E.",
"Q.Q.E.E.E.Q.)._. X`.).Q._.`.`.`._. X#X X`.`. X X X X X X X X X X X$X%XXX[.XX#X[.[. X X XXXXXXXXX#X#X#XXXXX#X#X#XXXXX X[.XX%X&X%X#X#X#X#X#XXXXXXXXX X[.[.[.[.[.[.[.[.[.[.[.[.[. XXXXXXXXXXXXXXXXX X X XXXXXXXXXXX#X#X#X%X&X&X%X$X X X X X X`.`.`._._.).Q.E.E.E.E.I.I.P.P.P.P.A.V.A.V.V.V.V.V.V.V.V.V.V.V.V.V.V.V.V.V.V.V.v.v.c.c.c.c.c.s.c.c.c.c.c.c.c.c.v.v.v.v.v.v.v.v.c.c.c.c.c.c.c.c.i.c.v.x.#.g ; <X6.F E ^ ^ / / ^ ^ ^ ^ ^ E E E E E E E E E E ^ ^ ^ ^ ^ ^ ^ ^ / ..../ ^ / ^ ^ ^ ^ ^ / / / / / ( / / / / ( / / / ( | | / / #.$.2.$.2.2.2.2.#. .} F 8 @.pXpXoX>.+.>.@.=.@.[ S = &.uX].M.n.z.e.r.h.h.r.e.e.e.r.r.r.r.e.e.8.6.6.6.6.3.3.3.3.3.$.$.#.#.........| | | | ( / / / ( | ....#.#.#.#.3.$.$.$.$.#.........................| | | | ( ( / / / / / / / / / / / / / / / / ^ ^ / / ^ ^ / / / / ^ ^ ^ ^ ^ ^ ^ ^ E E E ^ ^ ^ ^ ^ ^ ^ ^ ^ ^ ^ ^ ^ ^ ^ ^ / / / ....| ^ E ^ / / / / / / / / / / ^ / / / / | #.$./ / / / / / / ^ ^ ..$.3.$.../ / ^ / O.E Q N : j ) z o *XpX| ( c g c `.aXpX2XL.L.T.P.P.V.V.P.P.c.i.v.I.P.c.i.c.A.V.V.A.A.A.P.P.I.I.E.E.T.T.Q.Q.E.",
"E.E.E.Q.Q.Q.Q.Q.`._.Q.Q._.`.`.`._. XXX X`.`. X X X X[.[..X X X X X%X&XXX[.XX#X[.[.[. X X XXXXXXXXX#X#XXXXX#X#XXXXXXX[. X%X;X=X%X$X$X$X#X#XXXXX X X X[.[.[.[.[.[.[.[.[.[.[.[. XXXXXXXXXXXXXXXXXXX XXXXX#X#X#X#X#X%X%X&X&X&X&X%X#XXX X X X X[.`.`._._._.Q.E.E.E.E.I.I.P.P.P.P.A.V.A.A.V.V.V.V.V.V.V.V.V.V.V.V.V.V.V.V.v.v.v.v.c.c.c.c.c.c.c.c.c.c.c.c.c.c.c.c.c.c.c.c.c.v.v.c.c.c.c.c.c.c.s.c.v.s...s % >Xe.F ^ E ^ / / ^ ^ ^ ^ ^ E E E E E E E E E E ^ ^ ^ ^ ^ ^ ^ ^ / / ( / / ^ ^ ^ ^ ^ ^ ^ ^ / ^ / / / ^ ^ / / ( / / / / / ( / #.$.2.$.#.2.2.#.3...F c > #XpX&Xi.~ -.>.[ @.[ ] K < &.uX].n.b.k.e.r.h.h.r.e.e.r.r.r.r.r.r.e.e.8.6.6.3.3.3.3.2.2.$.$.#.#.........| | | | ( ( ( / ......#.#.#.#.#.3.$.$.2.2.#.....................| | | | | ( / / / / / / / / / / / / / / / / / / ^ ^ / / ^ ^ ^ / / / / ^ ^ ^ ^ ^ ^ ^ ^ ^ ^ ^ ^ ^ / ^ ^ ^ ^ ^ ^ ^ ^ ^ ^ ^ ^ / / / #...| / / | | ( ( | | | | ( / / / / / / / | | ..^ ^ / / / / / / ( ..#.#.../ ^ / ) | ( E Q Z 7 * X o ..rX].^ j c o 0.pXpX1X).s.V.c.v.V.A.A.V.v.c.P.v.c.V.I.I.A.v.V.V.V.A.A.P.P.I.I.E.Q.E.T.T.E.Q.",
"I.E.E.Q.Q.Q.Q.E._.Q.Q.).`.[.`.`.Q..X X X`.`. X X X X[.`.`..X X X X%X&XXX[.XX#X[.[.[.[. X XXXXXXXXX#X#XXX[. X[.`.#X#XXX#X&X<X&X#X%X%X$X#X#XXXXX X[.[.[.`.`.`.`.`.[.[.[.[.[.[. XXXXXXXXXXXXXXXXXXXXXXX#X#X#X$X%X%X<X;X;X=X&X%XXX[.XXXX X X X[.`.`._._._.Q.E.E.E.E.I.P.P.P.P.P.A.V.A.A.V.V.V.V.V.V.v.v.v.v.v.v.v.v.v.v.v.v.v.c.c.c.c.c.c.s.s.c.c.c.c.c.c.c.c.c.c.c.s.c.c.c.c.c.c.c.s.i.c.c.s.c.c.i.O.g : +Xr.Y ^ Y / | ( ^ ^ ^ ^ ^ E E E ^ ^ E E E E E ^ ^ ^ ^ ^ ^ ^ ^ ^ ^ / | / ^ / ^ ^ ^ ^ ^ ^ ^ / / / / ^ E E ^ / / ^ / / | ..#.#.2.3.$.#.2.2.2.$.^ Q 7 %.iXuXV.q.] q.-.] >.+._ S - *.sX/.n.l.g.e.r.h.h.r.e.r.r.r.r.r.r.r.e.e.e.6.6.3.3.3.3.2.%.$.$.#.#.#.......| | | | | | | | #.#.#.#.#.#.....3.$.$.2.2.#...............| | | | | | | ( ( / / / / / / / / / / / | ( / / / / ^ ^ ^ / / ^ ^ ^ / / / / / ^ ^ ^ ^ ^ ^ ^ ^ ^ ^ ^ ^ / / ^ ^ ^ ^ ^ ^ / / ^ ^ ^ / / / ....| ( | ....( #.#.#.#.#.../ / / / ( ( / / / ( / / / / / / / / ....../ ^ E Y E Q Q F ) ( Y G Z | $.2XaX#.H V 0 O.9XpX9XL.t.M.v.A.A.V.V.A.V.v.A.I.P.P.P.P.v.c.c.V.V.V.V.A.A.P.I.T.E.Q.Q.T.P.T._.",
").Q.E.E.Q.Q.Q.Q.).E.Q.).). XXXQ.`.`.`.`.`.`.`.`. X X X X X X X X[.[.[.[.[.[.[.[.[.[.[.[.[.[.[.[. X XXXXXXX#X#XXXXX#X#X$X%X%X$X$XXXXXXXXXXXXXXXXX[.`.`.`.[.[.`.`.[.[.[.[.[.[.[. X#XXX[.[.XX#XXX[.[.XX#X%X&X=X;X<X$X$X$X$X#X#XXX[. X X X X X`.`._._._.Q.Q.Q.Q.E.E.E.T.I.P.P.P.A.A.A.V.V.V.V.v.v.v.V.V.V.V.v.v.v.v.v.v.v.v.v.c.c.c.c.c.c.s.s.s.c.c.c.c.c.c.c.c.c.c.c.v.v.v.c.c.c.c.c.c.c.c.c.c.c.s.O.g . 2Xe.F E ^ ^ ^ / / / / ^ ^ E E E E E E E E E E ^ ^ ^ ^ ^ ^ ^ ^ / / / / ^ ^ ^ ^ ^ ^ ^ / / / ^ ^ / ^ ^ ^ ^ ^ #.../ ^ / | #.#.3.$.$.2.2.#.X.2.X.| D 3 3.uX1X@.@.@.@.+.[ [ [ [ I 7 w $XG.G.g.g.6.e.h.r.e.e.h.b.b.k.h.r.r.r.e.e.6.3.3.3.3.3.3.%.$.#.#.O...........| | ( ( | | | ......#.#.#.#.#.$.$.$.#.#.#.........| | | | | | ..| / / / / / / / / / / / / / / / / ( ( / / ^ ^ ^ ^ ^ ^ ^ ^ / ( | / ^ ^ / / / / ^ ^ ^ ^ ^ E E E ^ ^ ^ ^ E E E E ^ ^ ^ ^ ^ / / / $.#.| ( #.$.#.$.6.6.3.$.#.../ / / / / ^ ^ / / / E / ( / / ( ( / ^ ( / G E N j N c N Z F R Q Q R M.eX8XT.F F 7 w ).uXpXT.i.s.s.c.v.V.A.A.V.V.A.P.I.I.P.P.V.V.v.v.V.v.v.V.P.I.I.P.T.I.T.E.T.I.E.).",
"_.Q.Q.Q.Q.Q.Q.Q.Q.Q._._.).[. X_.`.`.`.`.`.`.`.`.[. X X X X X X X[.[.[.[.[.[.[.[.[.[.[.[.[.[.[.[. X X XXXXXXX#XXXXXXX#X#X#X#X#X#XXXXXXXXXXX#XXXXX[.[.`.`.[.[.`.`.[.[.[.[.[.[.[.XX$X#XXXXXXXXX X[.#X#X&X=X;X&X%X$X$X$X$X#X#XXX[.[. X X X X X`.`._._._.Q.Q.Q.Q.E.E.E.T.I.P.P.A.A.A.A.V.V.V.v.v.v.v.V.v.v.v.v.v.v.v.v.v.v.v.v.c.c.c.c.c.c.s.i.i.s.c.c.c.c.c.c.c.c.c.c.c.c.c.c.c.c.c.s.c.c.s.c.c.c.s...N X *Xh.G E ^ ^ ^ ^ ^ ^ ^ ^ ^ E E E E E E E E E E E ^ ^ ^ ^ ^ ^ ^ / / / / ^ ^ ^ ^ ^ ^ ^ ^ ^ / ^ ^ / ^ ^ ^ ^ / ..| / / ( ..$.$.3.$.$.$.2.X.X.#.#./ F ; r.pXE.@.@.@.@.@.@.[ [ [ ~ v 7 y.R.k.k.k.e.r.h.h.r.r.k.b.k.k.h.r.r.r.e.8.6.3.3.3.%.3.%.%.$.#.#...............| | | | | | ................$.#.#.#.#.X...........| | | | | | | / / / / / / / / / / / / / / | ( / / / ^ ^ ^ ^ / / ^ ^ ^ / | / / / / / / / / ^ ^ ^ ^ ^ ^ E E ^ ^ ^ E E E E E ^ ^ ^ ^ ^ ^ ^ / #.#.| | $.$.#.$.$.$.$.#.#.....| | ( / / / / / / ^ ( | ( / ( ( / #.| E D w q > * * & > c Q ( ) Q | 6...) D D , &.pXpX;Xs.w.c.s.A.A.A.A.P.P.P.P.P.P.P.A.A.V.V.V.V.v.V.A.A.P.P.I.I.E.E.E.E.E.T.E._.",
"_.).Q.Q.Q.Q.Q.Q.Q.Q._.`.).`. X_._._.`.`.`.`.`.`.[.[.[. X X X X X[.[.[.[.[.[.[.[.[.[.[.[.[.[.[.[.[.[. X X XXXXXXXXXXX#X#XXXXX X[.XXXXXXXX#X#X#X#XXX[.[.[.[.[.`.`.[.[.[.[.[.[.[.[.$X#X#X#X#X#X#X#X&X&X=X=X&X%X#XXX#X#X#X#XXXXX[.[. X X X X X`.`._._._.Q.Q.Q.Q.E.T.T.I.I.P.P.A.A.A.V.V.V.V.v.v.v.v.V.V.V.V.v.v.v.v.v.v.v.v.v.c.c.c.c.c.c.s.i.i.s.c.c.c.c.c.c.c.c.c.v.v.v.c.c.c.c.c.s.c.c.c.v.V.v.c.| V % '.h.Y G Y E ^ ^ ^ ^ ^ ^ E E E E E E E E E E E E E ^ ^ ^ ^ ^ ^ / / / / ^ ^ ^ ^ ^ ^ ^ ^ ^ ^ ^ ^ / ^ ^ ^ / ( #.../ / | ..$.$.$.#.#.$.#.#. .X.$.W Y * c.pXc.0.-.=.=.@.@.@.@.@.` K r j R.h.n.k.r.g.k.k.h.h.k.b.k.h.r.r.r.e.8.6.6.6.3.3.%.%.%.$.$.#.#.................| | | | | ............| | X.#.#.X.......| ........ .| | | | ( / / / / / / / / / / / / / / | / / ^ ^ ^ ^ ^ ^ ^ ^ ^ ^ ^ / ( ^ / | ....| / / ^ ^ ^ ^ ^ ^ ^ E ^ E E E E E E E E E E ^ ^ ^ ^ ^ ..#.| | $.$.#.#.#.#.#.............| | / / / / / ( ....| / ( ( / ^ ^ E F : ..T.T.).Q r J O.( H G Z F Q Q G k . L.pX8XA.w.V.A.c.P.P.P.A.P.I.E.I.P.P.A.V.V.v.v.V.V.v.A.P.P.P.P.I.E.E.E.E.E.E.E.E._.",
"_.).Q.Q.Q.Q.Q.E.Q.Q.`. X)._.[.`._._._._.`.`.`.`.`.`.`.[.[.[.[.[.[.[.[.[.[.[.[.[.[.[.[.[.[.[.[.[.[.[.[.[. X X X X#X#X#X#X#X#XXXXXXXXXXXXXXXXXXXXXXXXX[.[.[.[.[.`.[.[.[.[.[.[.[.[.#X#XXXXX#X$X&X=X<X;X&X$X#X#X#X#X#X#X#X#XXXXX[.[. X X X X[.`._._._.).Q.Q.Q.E.E.T.T.I.P.P.P.A.A.A.V.V.V.V.v.v.V.V.V.V.V.V.V.V.V.v.v.v.v.v.v.c.c.c.c.c.c.s.i.i.s.c.c.c.c.c.c.c.c.v.A.V.V.v.c.c.c.c.c.v.v.v.v.V.v.c.| x % +Xe.E F Y E E E E E E E E Y Y Y Y Y Y Y Y E E E E E E ^ ^ ^ ^ ^ / / / ^ ^ / / ^ ^ ^ ^ ^ ^ ^ ^ ^ / / / ( | $...| / | ....#.#.#.#.#.#.X. . .#.^ Y , 5.0Xc.q.-.@.=.@.@.@.@.@.] ] j : e.H.F.g.r.h.k.h.h.h.k.b.h.r.r.e.e.e.6.6.6.6.3.3.%.%.$.$.$.#.#.....................| | | | | ....| | | ( ..........|  .| ........ .| | | | ( / / / / / ^ / ^ ^ ^ ^ / / / / / ^ ^ ^ ^ ^ ^ ^ ^ ^ ^ ^ ^ / | | ..#.#...| | | / / ^ ^ ^ ^ ^ ^ E E E E Y E E E E E ^ ^ ^ ^ ^ ^ ( ......$.$.#.#.$.#.#.....| | | ..| | / / / / / ..#.#.| / ( / / ^ ) ^ V X P.pXpXpXL.c e J G G Q Y Q Q G G Z X Q [.#Xc.v.P.P.c.P.P.A.A.P.I.I.I.P.P.A.V.v.v.v.v.v.V.P.P.I.P.P.P.I.I.I.I.E.E.T.E.Q.",
"_.Q.Q.E.Q.Q.Q.E.Q.Q.[. X).Q.`.`._._._._._._._.`.`.`.`.`.`.`.`.`._._._._.{.{._._.`.`.`.`.`.`.`.[.[.[.[.[.[.[.[. XXXXXXXXXXXXX#X#XXXXXXXXXXXXXXXXX#XXX X[.[. X[.[.`.`.`.`.[.[.[. X%X#XXX[.XX%X=X<X&X%X#X#XXX#X#X$X$X#X#X#X#XXXXXXX X X X X.X`._._._.).Q.Q.Q.E.E.I.I.I.P.P.P.A.A.A.V.V.V.V.V.V.V.V.v.V.V.V.V.V.v.v.v.v.v.v.v.v.v.c.c.c.c.s.s.s.s.c.c.c.v.c.c.c.v.V.A.A.V.v.v.c.c.c.c.v.v.c.c.v.c.i.#.g & ,X#.^ Y E Y E E E E E E Y Y Y Y Y Y Y Y Y Y Y Y E E E E E ^ ^ ^ ^ ^ ^ ^ ^ ^ ^ ^ ^ ^ ^ ^ ^ ^ ^ / ^ ^ / | ..#...| / / | ....O.O.#...X.X. . .#...Q 7 Z E.P.@.-.=.;.;.[ [ [ [ ] +.S 7 x U.F.g.r.r.r.r.r.r.h.k.r.r.e.e.e.e.6.3.6.6.3.3.%.$.$.$.$.#.#.......................| | | | | | | | ( / | ........| | ............| | | | / / / / / / ^ ^ ^ ^ ^ ^ ^ ^ / ^ ^ ^ ^ ^ ^ ^ ^ / / ( ( | | ..#.#.#.#.#.| ( | | / / ^ ^ ^ ^ ^ ^ E E E Y Y E E E ^ ^ ^ / / / ^ ^ / #.....$.%.#.#.$.$.#.....| | | | | ( / / / | | ..#.#.| / / / / O.( G c @ /.aX[.m.x.Q : X e l y k Z G G Z G p j E.:XT.v.s.V.V.P.A.P.P.P.P.P.P.P.P.P.A.V.v.V.V.A.P.P.P.P.I.I.P.P.I.P.P.T.E.T.E.E.",
"Q.E.E.E.E.Q.Q.E.Q.E.`. X_.Q._._._._._._._._._._.`.`.`.`.`.`.`._._._._._.{.{._._.`._._._.`.`.`.`.[.[.[.[.[.[.[.[.[.[.[.[.[. XXXXX X X X X X X X X#XXX X XXXXX X[.`.`.[.[.[.XXXX#X&X%XXX X#X%X&X&XXX#X#X$X$X$X#X#X$X#X#X#XXXXXXXXX X X X X`.`._._._.).Q.E.E.E.E.I.I.I.P.P.P.A.A.A.A.V.V.V.V.V.V.V.A.P.P.P.P.A.V.V.v.v.v.v.v.v.v.v.c.c.c.c.s.s.c.c.c.v.v.v.c.c.V.A.V.V.v.v.v.v.V.V.v.V.v.c.c.v.c.x.#.g % ]./ E F Y Y Y Y E E Y Y Y Y Y Y Y Y Y Y Y Y Y Y Y Y E E E E E E E ^ ^ ^ ^ ^ ^ ^ ^ ^ ^ ^ ^ ^ ^ ^ ^ ^ / | ....| / / / | ....| O...|  .X. . .X.#./ j e 0. Xq.-.;.=.=.;.;.@.;.=.+.( v & e.G.b.e.e.r.r.e.r.r.h.r.e.e.e.e.e.6.3.6.6.3.3.%.$.$.$.$.#.#.....................| | | | | | | | | ( / | ..X.X...| ..X...........| | | ( / / / / / / ^ ^ ^ ^ ^ ^ ^ / / ^ ^ ^ ^ / / / / #.#.#.#.#.#.$.3.#.#...| / / / ( / / / ^ ^ ^ ^ ^ E E E Y Y E ^ ^ / / / / / / ^ ^ / #.#...$.%.#.#.#.#.....| ......| | / / / / | | | ....( / / / / ( Q Q c * t.`.0.Q ( ( G Z l y - , e G O.G k v c %XuX`.V.i.P.S.A.A.P.T.I.P.P.P.I.P.P.A.A.A.P.P.I.I.P.P.P.T.T.P.A.I.P.P.E.E.E.E.E.",
"E.E.T.E.E.Q.Q.E.).E._. X_.Q.).Q._._._._._._._._.`.`.`.`._._._._.`.`.`.`.`.`.`.`.`._._.`.`.`.`.[.[.[.[.[.[.[.[.[.XX X[.[.[.[.[. X X X X X X X X X#XXX XXX#X#X#XXX[.[.[. X#X#X$X%X&X$XXX#X%X&X&X$X XXX#X$X%X$X#X#X#X#X#XXXXXXXXXXX X X X X`.`._._._.Q.Q.E.E.E.E.I.I.P.P.P.P.A.A.A.A.A.A.V.V.A.A.A.P.I.I.I.I.P.A.V.v.v.v.v.v.v.v.v.c.c.c.c.c.c.v.v.v.V.V.v.v.v.V.P.v.v.v.v.v.V.V.A.A.A.V.v.v.V.V.v.$.V & 3./ G F F Y Y Y E E Y Y Y Y Y Y Y Y Y Y Y F G G Y Y Y Y E E E E E E E ^ ^ ^ ^ ^ ^ ^ ^ ^ ^ / / ^ ^ ^ ^ ( | ..| / / / | | | O.O...} | X.X. .} #.| Z 8 *.#XP.-.-.;.;.=.=.=.=.-.@.@.G 5 N U.G.e.e.e.e.e.e.r.r.r.e.e.e.e.e.6.3.6.6.3.3.$.$.$.$.$.#.#...........| | ......| | ( / ( | | | | | | | ..#.#.......#.X.X.X.....| | | / / / / / / ^ ^ ^ ^ ^ ^ ^ / / / ( / / ^ / | ..#.$.$.$.#.....#.#...| / / / / / / / / / ^ ^ ^ ^ ^ E E E Y E E ^ / / / ( ( / / ^ ^ / $.$...$.%.#.#.....| ( | | ....| | ( / / / / / / | | / ^ / / / ( Q ( Z * w G c J f j ( v.P.v.t.c , 7 c S v 9 Q 9XuXQ.P.v.P.A.V.P.I.I.I.I.P.P.P.A.A.A.A.P.P.P.P.P.P.I.I.I.P.P.A.P.P.P.I.E.E.T.E.",
"E.I.I.T.E.Q.Q.E._.E._. X_.Q.Q.Q._._._._._._._._.`.`.`._._._._._._._._._.{.{.{.{.`.`.`.`.`.`.[.[.[.[.[.[.[.[.[.[.$X#X#XXX X X X X X X X X X X X XXX X XXX#X#X#X#X[.[.XX#X#X%X&X&X$XXX[.$X;X<X&X#X$X$X#X#X#X#X$X$X#X#XXX X[.[. XXX X X X X`.`._._._.Q.Q.E.E.E.E.I.I.P.P.P.P.A.A.A.A.A.A.A.A.A.A.A.P.P.P.P.A.V.V.v.v.v.v.v.v.v.v.v.c.c.c.c.c.c.v.V.v.V.V.V.v.v.A.P.v.v.c.c.c.v.v.V.A.A.V.v.v.V.V.m.e.( > V #.E Y E Y Y Y E E Y Y Y Y Y Y Y Y Y Y Y F F G G Y Y Y Y Y Y Y Y E E E ^ E E ^ ^ ^ ^ ^ ^ / / ^ ^ ^ ^ / | #...( / / / / / O.#...} / ..X.X. .$...H 7 Q T.P.,.,.-.-.-.;.;.;.-.@.=.Q H * T.L.e.e.e.e.e.e.e.r.r.e.e.e.e.e.6.3.6.6.3.3.$.$.$.#.$.#.#...........| | | ..| | ( / / / ( | | | | | | ..#.#.....#.$.#.X.......| | | / / / / / / ^ ^ ^ ^ ^ / / / ( ( ..| / ^ / | #.3.#.#.#.| / / / / | ( / / ( | | / / / / ^ ^ ^ ^ ^ E E E Y E E ^ / / ( | ( / / ^ E | %.$...$.%.$.#...| | / / | | ....| ( / / / / / / ( ( ^ ^ / / / O.P ) Q s , , * * , % : %.8XpXsX&.9 9 > j w k %XuXuXA.A.d.v.c.P.I.P.P.P.I.I.P.V.V.V.V.V.V.V.V.V.P.I.E.E.P.A.A.A.P.V.A.P.T.I.I.I.",
"E.I.I.E.E.E.E.Q.Q.E.E.Q.)._.Q.Q._.Q.Q._.`. X`._.`.`.`.`._._._._.).)._._._._._._._._.`.`.`.`.[.[.`.`.[.[.[.[. X[.%X$XXX[.[.[. XXX X X X X X X X XXXXXXX X X X[.[.#X$X%X&X&X%X#X#X X X#X%X;X=X$XXX#X#X#X#X#X#X#X#X#X#XXXXXXXXXXX[.[.[.[.[.[.`.`.`.`._.!.Q.T.T.T.T.P.P.P.P.P.P.P.I.P.P.P.P.P.P.A.A.P.A.V.V.V.A.A.A.V.v.v.v.v.v.v.v.A.A.V.v.v.v.v.c.V.v.v.v.V.A.V.v.V.V.A.A.A.A.A.A.P.P.A.V.V.V.V.V.t.0.c , 0.H Q F G G Y Y Y Y T T F F F F F F F F F F F F G G G Y G Y Y E E E E E E ^ ^ ^ ^ ^ ^ / ..| / ^ ^ / ( | / | | ( / / ( ( | ....| | } ....X...( / j k w. Xv.>.-.q.-.@.;.,.u.+.>.@.Z > t.7Xn.6.$.8.8.8.7.6.7.r.e.7.7.7.8.6.7.6.3.3.3.3.$.$.$.$.#.#.X.............| | | | | | | | | | | | | | ..#.X.....#.#.#.#.....| | | | ( / / / | ( / ^ E / / ^ ^ ( #.3.$.#.....#.$.#.#.| / ^ / ( ..........| | / / ( ( / / / / / ^ ^ ^ ^ E E E E ^ ^ / / / / ^ / / / / $.$.#.#.3.$...$.| | | | | | | | | | ( / / / / / ( / / / / / / / / / / / E E #.h.>X#X$.> 4 F 3.x.s.~ w m y ! XXuXuX=Xv.s.v.A.A.P.T.P.P.I.P.v.v.P.A.A.V.V.V.V.V.V.T.I.P.P.A.V.V.V.A.A.P.I.I.I.P.P.",
"Q.E.T.E.E.E.E.Q.Q.E.E.Q.).).Q.Q._.).Q._.`. X`._.`.`._._._._._._.Q.).).)._._._._._._._._.`.`.`.`.`.`.[.[.[.[.[.[.$X#XXX X[.[. XXX X X X X X X X X X X X XXXXXXXXX#X#X#X$X$X#X#XXX#X$X&X&X&X%X#X#X#X#X#X#X#X#X#X#X#X#XXXXXXXXX X[.[.[.[.[.[.`.`.`.`._.!.Q.Q.T.T.T.P.P.P.P.P.P.P.I.I.I.I.I.P.P.P.P.I.P.A.A.A.V.V.V.V.V.V.V.V.V.A.A.V.V.v.V.V.A.A.A.P.A.A.A.A.A.V.V.A.A.A.A.A.A.A.V.A.A.V.V.V.V.A.A.v.M.Q , Z t.( F Y G Y G Y F F F F F F F F F F F F F F F F F F F F G Y Y Y E E E E ^ ^ / ^ ^ / | | ( / / / / ( | / | | | / / ( | %.#.O.| | } } } #.....( c * i.yXP.q.-.>.-.=.-.-.=.+.=.&.G o 0.iXn.8.$.8.8.8.7.8.8.e.e.7.e.r.r.8.e.6.3.3.3.3.2.$.$.$.$.#.X.............| | | ( ( / / | | | | | | | | ........#.#.X.X.......| | | ( / / / ( / / ^ ^ / ^ ^ / #.$.$.#...| | ..#...| ( ( ( | ......| | | ( / / / / / ( / / / ^ ^ ^ ^ ^ ^ E E E E ^ ^ ^ ^ ^ ^ ^ / / / $.$...#.3.$...#.| | | | | | | | | | ( / / / / / / / / / ( ( / / ....| ^ E #./.0XrX/.^ s 5 : w Y &.@.@.V. XqXuXyX4X_.c.c.V.A.P.I.P.P.P.P.P.A.A.P.P.A.A.A.V.V.V.V.P.P.A.A.V.V.V.V.A.A.P.P.I.I.I.I.",
"_.E.E.E.E.T.E.Q.Q.Q.E.Q.Q.).Q.Q._.).)._.`.[.`._._._._._._.).).Q.Q.Q.Q.Q.).).).).)._._._._._._.`.`.`.`.`.[.[.[.[.XXXXXX X X XXXXX X X X X X X X X[.[.[. XXXXXXXXXXX XXXXXXX#X#X#X#X&X<X;X$XXX#X$X#X#X#X#X#X#X#X#X#XXXXXXXXXXX[.[.[.[.[.[.[.`.`.`.`.).).Q.Q.T.T.T.I.I.I.I.I.I.I.I.T.I.P.P.P.P.P.P.I.P.P.A.A.A.V.V.V.V.A.P.P.P.P.P.A.V.V.V.A.P.P.P.I.I.I.P.P.A.A.P.P.A.A.V.V.V.V.V.v.v.v.v.v.V.V.A.m.M.&.7 > [.| Y G F Y F F F F F F F F F F F F F F F F F F F F F F F F T Y Y E E E ^ / / / / / | / / / / / / ( | ^ / | | / ^ ( ..0.2.#.| | ....} / X...E G - P.yXE.i.=.-.-.-.-.=.[ <.@.! G , b.iXn.8.2.6.6.6.7.8.8.8.8.7.r.k.r.e.e.6.6.3.3.3.3.$.$.$.$.#.#.............| | ( / / / / / / ( ( ( ( / / / | ..X.X.X...........| | / / | | | / / / / / ^ ^ / ..3.$.#.| / / / | | ( / / | ......| | ( / / / / / / / / | | / / ^ ^ ^ ^ ^ ^ E E E E E ^ E E E ^ ^ ^ / / #.#.....$.#.| #.| | | | | | | | | | ( / / / / / / / | | | | | ( | / | ..| | 3.h.6.| E Y F V q * c >.$X:XyXuXuX2XE.V.s.v.A.A.P.I.V.P.P.P.P.I.I.I.P.P.A.A.A.V.V.A.V.V.V.V.V.V.V.V.A.P.P.P.I.I.T.T.",
"_.Q.E.E.E.T.E._.Q.Q.E.Q.Q.Q.Q.Q._._._._.`.`._._._._.).).Q.Q.Q.Q.Q.Q.Q.Q.Q.Q.Q.Q.).)._._._._._._._.`.`.`.`.`.[.`.[.[. XXXXXXXXXXXXXXXXXXXXXXXXXXX[.[.[. X X XXXXX X[.[.[.XX#X%X%X%X&X<X&X#X X#X$X#X#X#X#X#X#X#X#X#XXX X XXXXX[.[.[.[.[.[.[.`.`.`.`.).).!.Q.Q.T.T.I.I.E.E.E.T.I.I.T.I.P.P.A.P.P.P.P.P.A.A.P.P.A.A.V.V.A.P.P.P.P.P.I.P.A.V.A.A.A.A.A.P.P.P.A.A.A.P.A.V.V.v.c.v.v.v.v.v.v.v.V.V.A.A.L.t.&.Z X T.Q F F F F F F D D D D D D D D D D D D D D D D D F F F F F F G Y E E ^ / ( ( / / / | ^ ^ / / / / / / ^ / ..../ ^ | $.0.$.| } | ....} $.$.Q c v v 3XpXI.w.-.>.-.-.-.=.=.>.+.I l : /.iXb.8.2.6.2.6.7.8.8.7.7.e.r.k.g.7.e.e.6.6.6.6.3.2.$.$.$.#.#.X...........| | ( / / / / / / / / / / / / / / ..#.X.............| | | ( | ..| / ^ / / / / ^ / #.%.#.| / / / / / ( / ^ / | ....| / / / / / / / / / / / | ( / ^ ^ ^ ^ ^ ^ ^ E E E E E E E E E E E ^ ^ / ..#.....#...| ..| | | | | | | | | | ( / / / / / / ( ........| | ../ / | ..| / / ^ | ../ ^ 3./ > > -.:X_.E.I.V.A.V.c.s.V.A.V.V.P.v.P.I.A.P.E.E.P.P.P.A.A.V.V.V.V.V.V.A.A.A.A.A.A.P.P.P.I.I.E.E.Q.",
"`.Q.E.E.T.T.E._._.Q.E.E.Q.Q.Q.Q.).)._._._._._.).Q.Q.Q.Q.E.E.E.E.E.E.E.E.E.Q.Q.Q.).)._._._._._._.)._._.`.`.`.`.`.`.[.[.XXXXXXXXXXXXXXXXXXXXXXXXXXXX X X X X X X[.XXXXXX#X#X%X&X;X%X%X%X$X#X#X#X#X#X#X#X#X#X#X#X#X#X#XXXXXXXXX X[.[.[.[.XX[.[.`.`.`.).).).Q.Q.T.T.W.E.E.E.E.E.I.I.E.E.I.P.P.P.I.I.P.P.A.P.P.P.P.A.V.A.P.P.I.I.P.P.I.P.A.A.A.A.A.V.v.V.A.V.V.v.V.A.A.V.v.v.v.v.V.V.P.P.P.P.P.P.P.P.T.M.0.Q X ( ( Z G F F D D D D D D D D D D D D D D D D D D D D D D D F F G Y E E / ( | | / ^ ^ / ^ ^ / / / / / / / / ....( / ..3.$.O.( / | ....( ..| E F j @.yXpXv.q.>.<.-.-.-.;.-._ ` ) 7 k <XpXh.6.3.6.$.3.e.6.e.e.r.r.r.k.r.e.e.e.6.6.6.6.3.3.2.$.$.$.#.#.X...........| | ( | / / / / / / / / / / / / ..#.X...............| | | ....| / / / ( ^ / / / | ..| / / / / / / / / / / | | | / / / / / / / / / / / / / / ^ ^ ^ ^ ^ / ^ ^ E E E E Y Y Y Y E E E ^ ^ ^ / ..| ( ..../ ..| | | | | | | | | | | | / / ( ( / | #.#.#......./ | #.#.....$.e.3.( / | ^ / E j G `.uXQ.V.c.s.V.A.c.c.v.A.V.V.A.v.P.I.A.A.T.E.A.A.A.A.V.V.V.V.V.A.A.A.A.A.A.A.A.I.I.I.T.E.E.Q.Q.",
"_.Q.T.T.T.T.E._._.Q.E.E.Q.Q.Q.Q.Q.Q.)._._._.Q.Q.Q.E.E.E.E.E.E.T.E.E.E.E.E.E.E.E.Q.).)._._._._._.)._._.`.`.`.`.`.`.[.[.[. X X X X#X#X#X#XXXXXXXXXXXXXXXXXXXXXXX#X#X#X#X$X%X&X=X;X$X#X#X#X#X#X#X#X#X#X#X#X#X#X#X#X#X#XXXXXXXXXXX[.[.[.XXXXXX[.[.`.`.`._.).).Q.Q.T.E.E.E.E.E.T.I.I.I.I.P.P.P.P.P.I.P.P.P.P.P.P.P.A.P.P.I.I.I.I.I.I.P.P.A.A.A.A.A.A.P.P.P.P.A.A.A.A.A.A.V.V.V.A.P.P.P.P.P.P.P.P.P.L.R.L.x.Q > w h.G H H D D D D D D D D D D D D D D D D D D D D D D D D D F G Y E ^ / | ..../ ^ ^ ^ ^ ^ ^ / / / / / / / | ..| / ..6.$.#.....#.#.....G ^ F w c &XpX;Xu.>.,.q.-.-.-.-.>.[ ~ c - P.pX,Xe.3.6.6.$.6.e.8.e.r.r.r.r.r.r.8.e.e.6.6.6.6.3.3.2.2.$.$.#.#.#.X.............| | | | / ( / / / / / / } | ..X.X.X.......................| / / / / ^ / ( / / / / ^ / / / / / / / / / / / / / ^ / / / / / / / / / / ^ ^ ^ E E ^ ^ ^ E E E E E Y Y Y E E E E E E ^ ^ ^ | | / | | / | / ( ( ( ( | | | | | ( / ( ( | | | ..$.$.#.......^ ( #.%.%.#.| / ^ G E ..| E x 7 K 4XuXI.c.V.v.v.P.v.c.v.V.A.A.P.v.P.I.A.A.P.P.V.A.A.V.V.V.V.V.V.A.A.V.V.V.V.A.A.T.T.E.E.E.Q.Q.Q.",
"Q.E.I.T.T.T.E._._.).E.E.E.Q.Q.Q.E.Q.Q.).Q.Q.Q.Q.E.E.E.E.T.T.I.I.T.E.E.E.E.E.E.E.Q.Q.Q.Q.)._._._.).).`.`.`.`.`.`.[.[.[.[.[.[. X XXXXX#XXXXXXXXXXXXXXX#X#X#X$X%X%X$X%X&X&X&X&X%X%X#X#X#X#X#X#X#X#X#X#X#X#X#X#X#X#X$X#X#X#X#X#XXX X[.XXXXoXXX X[.`._.`.`.).).Q.Q.T.E.E.E.E.T.T.T.T.P.P.P.P.P.P.P.P.P.P.P.I.I.I.I.P.I.I.I.I.P.P.P.P.A.A.A.P.P.P.P.A.I.I.P.I.I.I.I.I.P.P.A.A.A.P.P.I.A.A.A.A.A.A.V.V.|.L.M.&.k , m.Q Z Z D D D D F F D D D D D D D D F F D D D D D D D D D F F E ^ ^ / | ..../ ^ ^ ^ ^ ^ ^ ^ ^ ^ / / / ^ / | | / ..3.$.$.$.$.#...( ) E H v > y.pXpXT.q.-.,.q.-.-.,.-.,.>.! 7 * 8XiXb.6.3.8.e.3.6.r.e.6.r.h.h.r.e.e.e.e.7.6.6.6.3.3.2.3.2.$.$.$.#.#.#.................| | | | ( ( / / | | ........#.#.X.....| ....#.#.#...| | ( ( / / ^ / / ^ ^ ^ / ^ / / / / ^ / / / ( / / / / / / / / / / / / / ^ ^ E E E E E E E E E E E E E E Y Y E E E E E E E ^ E | ( ^ / / / / / / / / / / ( ( | | ( ( ( | | | ..#.$.$.#.......#.| / ( #.3.$...#.3...^ / / c 5 @.uXuX).v.P.A.P.V.V.V.V.A.V.A.P.v.A.P.A.A.A.A.V.A.V.V.V.V.A.A.A.A.A.V.V.V.A.P.I.T.E.E.E.E.E.E.E.",
"Q.T.I.T.E.W.E.)._.).E.E.E.Q.Q.Q.E.Q.Q.Q.Q.E.E.E.E.E.E.T.I.I.I.I.T.T.T.E.E.E.E.E.E.E.Q.Q.Q.Q.).)._.).`.`.`.`.`.[.[.[.[.[.[.[.[. XXXXXXXXXXXXXXXXX XXX#X$X%X&X=X;X%X&X&X&X&X%X#XXX#X#X#X#X#X#X#X$X#X#X#X#X#X#X#X#X$X#X#X#X#X#X#XXX XXXXX#XoXXX[.`.).`.`.).).).Q.Q.Q.E.E.T.I.I.T.T.I.I.T.E.E.E.E.E.P.P.P.I.E.E.E.E.I.I.P.P.P.A.A.A.P.P.P.P.P.P.A.V.A.V.V.A.P.I.I.P.P.P.P.P.P.P.P.P.V.V.V.A.A.V.V.A.P.M.L.y.G . y.F D D D D D F F F D D D D D D D D F F F D D D D D D D F F T E ^ / ^ / | | / ^ ^ ^ / / ^ ^ ^ ^ ^ ^ / E E ( | / ..3...O.#.O.( Q G Z k : Z y.pXpX_.i.w.>.>.<.,.,.,.-.-.@.K v - [.'.e.3.3.e.e.6.e.h.e.3.e.h.h.e.e.e.e.e.6.6.3.3.3.3.$.3.3.$.$.$.#.#.#...........X.#.#.| | | | | ( ( ( | ..#.X.....#.#.#.....| | ..#.$.#...| ( | | / / ^ ^ ^ E E / / ^ / / ^ ^ ^ ^ / / ( / / / | | / / / / / / / ^ ^ E E E ^ E E E Y Y E E E E E E Y Y E E E E E E E E Y ( / ^ / / ^ / / / / / / / / / | | ( ( ( | | | #.$.3.$.#.....#.| #.$.#...| | ..^ ..^ ^ #./ g , I.uX2XI.v.v.c.A.v.V.A.P.A.V.V.P.v.V.A.A.A.A.V.V.A.A.A.A.A.A.P.P.P.A.A.V.A.P.E.Q.I.T.E.E.E.E.T.I.",
"P.I.I.I.I.I.E.E.E.E.E.E.E.E.E.E.Q.Q.Q.Q.Q.Q.E.E.E.E.I.I.I.P.P.P.P.P.P.I.I.I.I.I.E.E.E.E.Q.)._._.).)._.`.`.`.`.`.[.[.[.[.[.[.[.[.[.[.XXXXXX#X#X#X#X%X&X<X;X&X%X#X#X#X#X#X#X#X#X#X$X$X$X#X#X#X$X$X#X#X#X#X#X#X#X#X#X#X#X#X#X#X#XXXXXXXXXXXXX X X X`.`.`.`._.).Q.Q.E.E.E.E.I.I.I.I.I.I.I.I.I.I.I.I.I.I.I.I.P.P.P.P.T.I.I.I.E.E.I.P.A.A.A.A.P.P.P.I.I.I.I.T.T.T.I.I.P.P.A.A.V.V.V.V.V.P.I.I.P.V.V.V.P.M.m.M.O.7 w h.G / x Y F F T C F F F F F F G Y F F F F D D D D D D F G Y E E ^ / / / / / ^ ^ ^ / / ^ ^ ^ ^ ^ ^ / ^ E / #.....3.( %.#.^ G ( 7 7 c 0.<XpXuX&Xv.-.0.>.>.>.,.-.-.-.<.-.@.l : ( G.$.$.e.6.r.3.3.n.e.e.r.h.h.r.e.e.r.6.6.6.6.3.3.3.3.$.$.$.$.$.$.#.X.......#.#.#...| #.#...| | ..#.$.X.#.$.....#.$.$.X.....................| | ( / / ^ E E ^ ^ ^ ^ ^ E ^ ^ ^ ^ ^ / / / / / / / / / / | / ^ ^ ^ ^ ^ ^ ^ ^ E E Y Y Y Y E E E E E E E E E E E E E Y E ^ / / / ^ ^ ^ ^ ^ / / / / / | | | | | | ( | | ....#.$.$.$.#.......| ..........| | | | / ^ / ^ v ; T.uX_.A.v.c.A.V.P.V.V.A.P.P.P.A.v.V.P.P.A.V.V.A.A.V.V.V.V.A.P.I.T.P.V.V.P.I.I.P.P.I.E.I.P.I.I.P.",
"P.I.I.I.I.I.E.E.E.E.E.E.E.E.E.E.E.E.E.Q.E.E.E.E.I.I.I.I.I.I.I.I.I.I.I.I.I.I.I.I.E.E.E.E.Q.)._._.).).)._.`.`.`.`.[.[.`.`.[.[.[.[.XXXXXXXX#X#X%X&X&X&X&X&X&X%X#X#X#X#X#X#X#X#X#X#X$X$X$X#X#X#X#X#X#X#X#X#X#X#X#X#X#X#X#X#X#X#X#XXXXXXXXXXXXXXX X X[.`.`.`._.).Q.Q.E.E.E.E.I.I.I.I.I.I.I.I.I.I.I.I.I.I.I.T.E.E.E.E.E.I.P.P.I.I.I.P.P.P.P.P.P.A.A.A.P.I.I.E.E.T.I.I.P.P.P.A.V.V.V.V.A.P.E.E.I.P.P.I.P.m.T.M.%.w > Y.#.Z F Y D F E Y F F F F F F F G F F F F D D D D D D F Y E E ^ ^ / / / / ^ ^ ^ ^ ^ ^ ^ ^ ^ ^ ^ ^ / ^ E / #.....3.#...( Y Z 7 w 0.<XsXpXuX#Xc.q.y.>.>.>.>.-.-.-.-.u.[ @.) 7 7 Q &.3.r.%.3.e.6.r.3.e.r.h.h.r.e.e.r.6.6.6.6.3.3.2.2.$.$.2.$.$.#.#.X.#.#.#.#.$.$.$.#.#.#.........#.#...#.#.....#.$.$.#.....................| | / / / ^ E E ^ / ^ ^ / ^ ^ ^ ^ ^ / / / / / / / / / / / ( / ^ ^ ^ ^ ^ E E E E E E E E E E E E E E E E E E E E E E E E / / / ^ ^ ^ ^ ^ ^ ^ / / / / ( | ....| | ( | | ......#.$.$.#.#.....................| | / ^ / ^ v ; c.1X_.T.V.V.P.T.P.P.A.A.P.P.P.V.v.V.P.P.A.V.V.A.V.V.V.V.A.P.T.E.I.P.A.P.I.I.I.P.A.I.I.P.P.I.I.P.",
"P.P.I.I.I.I.E.E.E.E.E.E.E.E.E.E.E.E.E.E.E.E.I.I.I.I.P.P.I.I.I.I.I.I.I.I.I.I.P.P.I.I.E.E.Q.Q.).).).).).).).`.`.`.`.`.`.`.`.`.[.[.XXXXXXXX#X$X&X;X&X&X%X$X#X#X#X#X#X#X#X#X#X#X#X#X#X#X#X#X#X#X#X#X#X#X#X#X#X#X#X#X#X#X#X#X#X#X#XXXXXXXXXXXXXXXXX X[.`.`.`._.).!.Q.E.E.E.E.T.I.T.T.I.I.I.I.I.I.I.I.P.I.I.T.E.E.Q.Q.E.T.P.P.P.P.P.P.I.I.I.P.P.P.A.A.P.I.T.E.E.E.I.I.P.P.P.A.A.A.A.A.P.I.T.I.P.P.P.P.P.T.{.M.y.c o U.$.s ^ Y F F ^ E F F F F F F F F F F F D D D D D D F F Y E ^ ^ ^ ^ ^ ^ ^ ^ ^ E E ^ ^ ^ ^ ^ ^ ^ ^ ^ ^ ^ ( $.#...$.#./ / G c 7 i.qXpXyX;XE.w.@.&.-.>.>.-.-.-.-.-.-.<.] -.>.Z , 5 D Q $.#.$.e.3.e.h.0.e.r.r.e.0.e.e.6.6.6.3.3.3.2.$.2.2.2.$.$.#.X...#.#.....#.#.#.#.#.#.#.............#.#.....#.$.$.X...................| | ( / / / ^ E E ^ / ^ ^ / / ^ ^ ^ / / / / / / / / / / / / / / ^ ^ ^ ^ ^ E Y Y E E E E ^ ^ E E E E E E E E E Y E E E E ^ ( ^ ^ ^ ^ ^ ^ ^ ^ ^ ^ / / / / | ......| ( ( | | ..| ..$.$.$.#...................../ } / / ( ^ x 3 c q.s.A.v.v.A.I.P.P.A.A.A.A.V.v.v.V.P.P.A.V.A.A.V.V.V.A.P.P.I.T.A.A.A.P.I.I.P.A.A.P.I.P.P.P.P.P.",
"P.P.I.I.I.I.T.E.T.T.W.T.T.T.T.T.T.T.T.T.I.I.I.I.I.I.P.P.P.P.I.I.I.P.P.P.P.P.P.P.P.I.T.E.Q.Q.Q.Q.).).).).)._._.`.`.`.`.`.`.`.[.[.[.[.XXXXXX#X$X%X$X#X#X#X#X#X$X%X#X#X#X#X#X#X#X#X#X#X#X#X#X#X#X#X#X#X#X#X#X#X#X#X#X#X#X#X#X#X#XXXXXXXXXXXXXXXXXXX[.[.`.`.`.).!.Q.Q.E.E.E.E.T.T.E.W.W.I.I.I.I.I.I.I.I.I.I.I.I.I.I.E.I.P.P.P.P.P.P.P.P.I.I.I.I.I.P.P.I.E.E.Q.E.T.I.P.P.P.A.A.A.A.P.I.T.I.P.A.V.V.A.P.T.T.M.x.Z X ( G j Y G F G Y F F F F F F F F F F F F D D D D D D F F Y E ^ ^ ^ ^ ^ ^ ^ E E E E E E E E ^ ^ ^ ^ ^ ^ ^ | $.#...$.#.( Q Z w ( yXpX<XW.q.@.q.i.y.>.-.-.-.-.-.-.-.-.-.-.>.>.O.c 7 3 Z F F ) O.$.0.e.0.e.e.e.e.0.0.e.6.6.6.3.3.3.2.2.3.2.$.$.$.#.X...#.......#.#.#.#.#.#.#.#.......| | ....| | X.#.#.X.................| | | / / / / ^ ^ ^ / / ^ ^ / / ^ ^ / | | ( ^ ^ ^ / / / / / ( / ^ ^ ^ ^ ^ E E E E E ^ ^ E E E E E E E E E E E E Y E E E E ^ / ^ ^ ^ ^ ^ ^ ^ ^ ^ ^ / / / / | #.....| / / / | | | ..$.$.$...........#.#.#.#.#...( / / / / ^ D g - b =.P.I.P.P.I.A.V.V.V.V.V.v.c.v.V.A.A.A.V.V.A.V.V.A.A.A.A.A.A.V.V.V.A.P.P.A.V.A.P.P.P.P.P.P.P.",
"P.P.I.I.I.I.I.T.W.T.T.W.T.T.T.T.T.T.I.I.I.I.I.I.I.I.I.P.P.P.P.P.P.P.P.P.P.P.A.A.P.I.I.E.E.E.E.E.Q.Q.Q.).).).).).`.`.`.`.`.`.`.`.`.[.#X#XXX X XXX X XXX#X#X#X$X$X#X#X#X#X#X#X#X#X#X#X#X#X#X#X#X$X#X#X#X#X#X#X#X#X#X#X#X#X#X#X#XXXXXXXXXXXXXXXXXXX[.[.[.`.`.).!.Q.Q.E.E.E.E.E.E.E.T.T.T.I.I.I.I.I.I.I.I.I.P.P.P.P.I.I.I.I.P.P.P.P.P.P.P.P.I.I.I.I.T.E.Q.Q.Q.E.E.T.P.P.P.A.A.A.P.P.E.E.I.P.A.A.A.L.P.T.m.G.M.( g > s Q D F F Y F D F F F F F F D D F F D D D D D D D F F Y E E ^ ^ E E E E E E E E E E E E E ^ ^ ^ E ^ ^ ( #.#...#.$.( ^ c X c.pX1Xd.w.>.>.q.,.,.q.-.-.-.-.-.-.-.-.@.<.>.+.-.&.H w z > 3 s z Y #.#.0.0.e.0.0.0.0.6.6.6.6.6.3.3.3.2.3.2.$.$.#.#.X.X.#.#.$.$.%.%.$.#.#.#.#.#.#...| | / | | / | ..#.#.#.................| | | / / / / / ^ ^ / / ^ ^ / / / / ..#.#.../ / / / / / / / / ^ ^ ^ ^ ^ ^ E E E E ^ ^ ^ ^ ^ ^ E E E E E E E E E E E E E Y E ^ ^ ^ ^ ^ ^ ^ ^ ^ ^ ^ / | | / | #.....| ( / / ( | | #.$.$.#...| | ....#.$.$.#.....| ( / / / / Y Z e 9 ~ P._.P.A.A.V.V.v.v.v.v.v.v.v.V.V.V.V.V.V.V.V.V.A.A.A.A.V.V.V.V.V.V.V.A.V.V.V.A.A.P.A.A.P.P.",
"P.P.I.T.I.I.I.I.I.I.I.I.I.I.I.I.I.I.I.I.P.P.I.I.I.I.P.P.P.P.P.P.P.P.P.P.P.P.P.A.I.I.T.E.E.E.E.E.Q.Q.Q.!.).).).).`.`._._.`.`.`.`.`.XX$X%X#X X[.XX XXX#X#X#X#XXXXXXXXX#X#X#X#X#X#X#X#X#X#X#X#X#X$X#X#X#X#X#X#X#X#X#X#X#X#X#X#X#XXXXXXXXXXXXXXXXXXX[.[.[.`.`.).).!.Q.Q.E.E.E.E.E.E.E.T.T.T.I.I.I.I.I.I.I.I.I.I.P.P.P.I.I.I.I.P.P.P.P.P.P.P.P.P.P.P.E.Q.Q.Q.Q.E.E.T.P.P.P.A.A.P.P.P.P.P.P.A.A.P.P.I.T.T.L.T.P.x.#.* 7 &.D D D G D F F F F F F F D D D D D D D D D D D F F Y Y E E E Y Y Y Y Y Y Y Y Y Y E E E E E E E ^ ^ / #.#...#.$./ ^ Z , E.pXP.-.,.q.q.-.O.+.:.-.-.-.-.-.-.;.;.=.>.=.+.-.%.../ 0.| O.Y q q Z #.0.0.0.6.6.3.3.6.6.6.6.3.3.3.2.$.$.$.$.#.#.X.#.X.#.#.$.%.3.3.$.#.#.#.#.#.#...| | / | / / | #.#.#.#...................| | | / / / / / / / / / / / ....#.$.%.$.#.| ..| / / ^ ^ ^ ^ ^ ^ ^ ^ ^ ^ ^ E E E ^ / ( / / / E E E E E E E E E E E E E Y E ^ / / / / / / ^ ^ ^ ^ | #.../ | #.....| / / / ( | ..#.%.$.#.| | | ..#.#.$.$.#...| | ( / ^ ^ ^ ^ Q v 1 b v. XV.A.V.V.V.V.V.V.V.V.V.v.v.v.V.V.V.V.V.V.V.V.A.A.A.A.A.A.V.V.V.V.V.A.A.A.V.A.A.A.A.P.I.",
"P.P.I.T.I.I.I.I.I.I.I.I.I.I.I.I.I.P.P.P.P.P.P.P.I.P.P.P.P.P.P.P.P.P.P.P.P.P.P.P.E.E.E.E.T.T.E.E.Q.Q.Q.Q.!.).).).).).)._.`.`.[.[.`.XX%X%X#XXXXX#X#X#X#X#XXXXX X[. XXXXXXX#X#X#X#X$X$X#X#X#X#X#X#X#X#X#X#X#X#X#X#X#X#X#X#X#X#X#XXXXXoXXXXXXXXXXXXX[.[.[.`.`.).).!.Q.Q.E.E.E.E.E.E.E.E.T.T.T.I.I.I.I.I.I.I.I.I.I.I.P.I.I.I.P.P.I.T.E.E.I.P.P.P.I.T.Q.Q.Q.E.E.T.I.I.P.P.P.P.A.P.P.I.P.A.A.A.P.I.T.T.).T.T.).T.T.M.Z 3 G E D D D C T D D F F F F F D D D D D D D D D D D F F G G Y Y Y Y Y Y Y Y Y Y Y Y Y Y E E E E Y ^ ^ ^ ....| ....E P j S 1XuXV.u.q.,.q.q.q.q.q.-.-.-.-.=.=.=.=.-.@.@.-.%.&.$.0.#X<X<Xm.Q 0 3 #.0.0.3.3.3.3.3.3.3.3.3.3.$.$.$.$.$.$.#.#.#.#.#.#.#.#.#.#.$.$.#.#.#.#.#.#.#.....| | | | / ..#.$.#.#.....................| | / / / ( / / | ..| ....#.#.$.$.#.#...| | | / ^ ^ ^ ^ ^ ^ ^ ^ ^ / / ^ E E ^ / | | | / / E E E E E E E E E E E E E Y E / | | | | ( / / ^ / / ..$.#.( | #...| | / / / | | | #.$.$...| | ..#.#.#.#.#.......| ( / / ^ ^ ^ ) Z y l T.0XI.Q.I.v.V.V.V.V.v.V.V.v.v.v.V.V.V.V.V.V.V.V.V.V.V.A.A.V.V.V.V.V.V.A.A.A.V.V.P.A.A.P.I.",
"P.P.I.T.I.I.P.P.P.P.P.P.P.P.P.P.P.P.P.A.A.P.P.P.P.P.P.P.P.P.P.P.P.P.P.P.P.P.P.I.Q.E.E.E.T.T.E.E.Q.Q.Q.Q.Q.!.).).Q.Q.)._.`.[.XXXX_.[.#X#XXX[.#X$X#X#XXXXXXXXXXXXX[. X XXXXX#X#X#X#X#X#X#X#X#X#X#X#X#X#X#X#X#X#X#X#X#X#X#X#X#X#XXXoXoXXXXXXXXXXXXX[.[.[.`.`.).).Q.Q.Q.E.E.E.E.E.E.E.E.E.T.I.I.I.I.I.I.I.I.I.P.P.P.I.I.I.P.P.P.E.Q._.Q.E.T.T.E.Q._.).Q.E.T.I.I.I.I.P.P.P.P.P.P.P.I.E.I.I.I.E.E.Q.Q.E.L.~.P.|.T.x.&., 7 / H Z V V F D D H F F F F F D D D D D D D D D D F F F F F F F F G G G G F G Y Y Y Y Y Y Y Y Y ^ E ^ | ..| ..E G Z + %.pXuXC.q.,.,.q.,.-.-.>.-.-.-.-.=.=.=.=.-.[ @.>.>.%.%.%.%.R.L.0.0.H > &.0.5.%.%.%.3.3.%.%.$.$.$.$.$.#.#.$.$.#.#.#.#.$.$.#.#.....#.#.#.#...#.#.#.#...........| | ..$.3.$.#.....................| | ( / / ( / ( ..#.#.#.$.$.$.#...| / / / / / ^ ^ ^ / / ( ^ ^ ^ / / / ^ ^ / / | ....| / ^ E E E E E E E E E Y E E E E ^ / ......| ( / / ^ / / #.3.$.( ( #.| | } / / / | | | #.$.#...| ..#.$.$.#...........| ( / / ^ E E ^ m k b  XuXT.I.v.v.v.V.v.v.v.v.v.V.V.v.V.V.V.V.V.V.V.v.v.v.v.v.v.v.V.V.V.V.V.V.V.A.V.V.P.P.A.P.T.",
"P.P.P.P.P.P.P.P.P.P.P.P.P.P.P.P.P.P.P.A.A.P.P.P.A.P.P.P.P.P.P.P.P.I.E.Q.E.E.I.I.E.E.I.P.I.E.E.I.E.E.E.E.Q.Q.Q.Q.Q.).)._._.`.`. X`.[.[. XXXXXXXXXXXXXXXXXXXXXXXXX#XXX#X#X#X XXX$X#X#X#X#X$X$X#XXX#X#X#X#X#X#X#X#X#X#X#X#X#X#X#X#X$XoXXXXXXXXXXXXX`.`.`.`._._.Q.Q.E.E.E.Q.Q.Q.Q.Q._.Q.E.T.I.I.I.T.E.T.I.I.I.I.I.I.I.I.P.P.P.I.E.E.T.T.E.E.E.E.E.E.E.Q.).Q.E.I.I.I.I.P.P.P.P.P.T.E.Q.E.E.E.T.I.P.P.I.L.P.I.Q.T.m.w.Z = Z Z k G c Z Z Z Z D F G G Z F F F D D C V V D D D D D D F F F F F F F F G G T T Y T Y Y E E Y E | / E O.3.) G I w v 0XuX5Xs.>.>.q.q.q.q.>.>.-.-.-.=.@.@.@.@.@.@.@.@.@.@.@.@.@.&.@.-.&.Q w # I ( &.O.O.( ) Q ` +.+.) G G G Y Q / X.$.2.X.r...3.2.$.#.X.X.#.#.$.#.#.X.#.#.......| ..#.%.3.3.$.3.$.X.X.X... .......| | ( / / / ....| | | | ....| ..#.#.#...| | / / / ^ / / ( | / | ....| / ^ ^ / / ^ ^ ^ ^ ^ ^ E E E E E ^ ^ ^ ^ ^ E Y E ^ / ) &.G %.%.Q / Q Q ^ #...$.#.} E $.} } | | } | ..#.( #.$.$...( | ..................| / / / / / ^ Y Z w G 4XpX[.v.L.v.v.V.V.V.B.B.v.v.v.v.v.v.v.m.m.v.v.v.v.v.m.m.m.V.V.V.V.V.V.V.V.V.V.V.A.A.A.A.P.",
"A.P.P.P.P.P.P.P.P.P.P.P.P.P.P.P.P.P.P.A.A.A.P.P.A.P.P.P.P.P.P.I.E.E.Q.Q.E.I.P.P.I.I.P.P.I.E.E.E.E.E.E.E.Q.Q.Q.Q.Q.Q.)._._.`.`.[.`.[.[. XXXXXXXXX[.[.[. X XXXXXXX#XXXXX#XXX XXX$X#X#X#X#X%X%X%X%X%X%X$X$X#X#X#X#X#X#X#X#X#X#X#X#X$XoXXXXXXXXXXXXX.X[.`.`._.).!.!.E.E.E.Q.Q.Q.Q.Q.).Q.E.E.T.I.I.I.E.E.T.I.I.I.I.I.E.T.I.P.P.P.I.I.P.P.P.P.I.I.I.I.Q.)._.Q.E.I.I.I.P.P.P.P.P.P.P.P.P.P.P.P.P.P.P.P.P.P.P.E.Q.E.P.V.@.w - $ 1 l y m J G G Q G G F G F F F D D D D D D D D D D D D F F F F F F F G F T T T T T E E E ^ Y ^ } ( #.#.Q m 9 - _.sXuXL.q.,.q.q.q.q.q.,.-.-.-.-.=.@.@.@.@.@.@.@.@.@.@.@.@.@.@.@.-.-.~ c 7 y v A K Q K b p n K _ ! A l 9 , w H E 6.X.g.o.r.$.$.$.#.#.#.X...| #.3.$.../ | X.....#.$.3.3.$.#.#...#.3.7.3.4.2.X.......| | | | ............| | ....#.#.#.#...| | | ( ( | | ..#.#.#.#...| / / / ^ ^ / | | ( / ^ E E E E E ^ ^ ^ E ^ E E ^ / ( / ! K S Z Z G ) Q E ..#...| ..W  .} } } } / | ..X.| ..#.#...| | ..................| / / / / / ^ E j > &.pXpXE.m.L.V.V.V.V.V.B.v.v.v.v.v.v.v.v.v.v.v.v.v.v.v.v.v.v.v.v.v.v.V.V.V.V.V.V.V.V.A.A.A.A.",
"A.A.A.A.A.P.P.P.P.P.P.P.P.P.P.P.P.A.A.A.A.A.P.P.P.P.P.P.P.P.T.E.Q.Q.Q.E.I.P.A.A.P.P.P.P.P.E.E.E.E.E.E.E.E.Q.E.E.Q.Q.Q.)._._.`.`.`.`.[.[.[.[.XXXX[.[.[.[.[.[.[.[.XX[.[.XXXX[.#X%X#X#X#X$X%X&X;X;X=X&X%X$X#X#X#X#X#X#X#X#X#X#X#X#X#X#X#XXXXXXXXXXXXXXX[.`.).).).).E.E.Q.Q.Q.Q.Q.Q.Q.Q.E.E.E.T.I.I.I.I.I.P.P.P.P.P.P.P.I.I.E.E.Q.Q.E.E.E.E.Q.Q.Q.Q._._.).Q.T.I.I.I.P.P.I.T.E.E.E.E.I.I.P.P.P.P.P.P.P.I.E.Q.E.E.I.I.v.@.k < 8 < - k Z Z Z G Q Q G H F F D D D D D D D D D D D D D D D D F F F F F F F F T T Y Y E E | E / | / ^ Q H H > O.uXuX%Xw.q.q.q.q.q.q.,.-.-.-.-.=.@.@.@.@.@.@.@.@.@.@.@.@.@.@.@.@.-.-.+.Q Z w w 8 < = - < 1 2 2 = + 8 K ] O.w * Y ....X.X.4.$.$.#.#.#.#.#.#.6.2.$.$.$.$...} | ..O.#.%.3.3.3.r.3.X. . . .X.2.#.#.............| ..........| ( ....#.$.#.#.....| | | | | ..#.#.$.$.#...( / / | / ( ..#.#...| / ^ ^ E E E ^ ^ ^ Y E E ^ ^ / / Q Z Q k c G c Z s g v ^ E E ..^ / | / / / / | ....| ........| ....................( / / / / ^ ^ E Z o 0.tXP.y.[.s.V.V.V.V.v.v.v.v.c.c.c.c.v.v.c.c.c.c.v.v.v.v.v.v.v.v.v.v.V.V.V.V.V.V.V.V.V.A.A.A.",
"V.V.V.A.A.A.A.A.A.A.P.P.P.P.A.A.A.A.A.A.A.A.A.P.P.P.P.P.P.I.E.Q.E.E.E.I.P.P.P.P.I.T.I.P.P.T.E.I.I.E.E.E.E.E.E.E.Q.Q.Q.Q.)._._._.`.`.`.[.[.[.[.[.[.[.`.`.[.[.[.[.[.[.[.XXXX[.#X%X%X$X#X$X%X=X<X<X;X&X%X$X#X#X#X#X#X#X#X#X#X#X#X#X#X#X#X#XXXXXXXXXXX X[.`.).Q.Q.Q.Q.Q.Q.Q.Q.Q.Q.Q.Q.Q.Q.E.E.E.T.I.I.I.I.P.P.I.I.I.P.I.E.E.)._._._.).)._._._._._._.).Q.E.E.I.I.I.I.I.I.E.E.E.Q.Q.E.Q.Q.E.I.I.I.I.I.T.E.Q.Q.T.I.I.I.I.E.i.@.K 9 1 = : e c Z Z Z G Q F D D V V V C D D V D D D D D D D D D F F F F F F F T T Y Y E E E / ..../ Y F Z p H 0XuX0Xd.w.w.q.q.q.q.-.-.-.-.-.-.@.@.@.@.@.@.+.@.@.@.@.@.@.@.@.@.@.@.-.-.+.` ! +.>.-.+.q.A._.-.=.+.q. XwXuX8X&.* H %.r./ r.X.$.#.X.....X.$.$...#.$.#.| / | #.) ( ( ..#.$.3.6.....X.o.o...o.$.#.#.#.....................| | / ....#.#.#.#.....| | / / / | ....| | | / / / | ....#.$.$.$...| / / ^ ^ ^ ^ ^ ^ ^ E ^ / / ( | / E c w * , t o : * q ; D / Y ../ } / / ^ / / } / / | | ( | | ..................| | / / / / ^ ^ ^ E v > , j Q %.x.i.v.v.v.v.v.v.v.v.v.c.c.c.c.c.c.c.c.c.c.c.v.v.v.v.c.c.v.v.v.V.V.V.V.V.V.V.V.V.V.V.",
"V.V.V.V.V.V.V.V.A.A.A.A.A.A.A.A.A.A.V.A.A.A.A.P.P.P.P.P.P.I.E.Q.P.P.P.P.P.P.P.P.I.E.E.I.P.T.E.E.T.E.E.E.E.E.E.E.E.E.E.Q.Q.Q._._.)._.`.`.[.[.[.[.`.`.[.[.[.[.[.[.[.[.[.XXXX XXX$X&X%X#X#X%X&X=X;X&X%X$X#X#X#X$X$X#X#X#X#X#X#X#X#X#X#X#X#X#XXXXXXX[.[.`.`._.).Q.Q.Q.Q.Q.Q.Q.Q.Q.Q.E.E.E.E.E.E.E.E.T.T.T.E.E.E.Q.Q.Q.Q.).).Q.Q.E.E.T.I.I.I.I.I.I.I.E.E.I.I.I.I.T.T.Q.E.E.I.I.P.P.P.I.I.P.P.I.E.E.Q.E.E.E.T.I.P.P.P.P.T.P.).E.I.I.~ e > , 7 c Z H Z G F D D V V V V D C V V V V D D D D D D F F F F F F Y Y Y E E E D ^ | | } Q N s > I.uXsXI.s.@.w.q.q.q.>.-.-.=.;.=.@.@.@.@.@.@.@.+.@.@.@.@.@.@.@.@.@.+.@.-.-.-.@.i._.4XyXyXyXuXuX5X9XqXwXuXuX;Xm.0.v > k./.e.3.X.#.#.#.....#.#.#.#...| | / ^ Y D F G Q ( ( ..........#.#.X...#.3.#.#...................| ( ( ( ( | | ........| | | ( / / / / / ( ^ / / ( / / | | ....#.#...| / / / / ^ ^ ^ ^ ^ / | ..#.......( Q k : %.#X`.T.T.G.F > F b...| W } / / / / ( ( / / | / / / | ....| ..........| | | / / / ^ ^ ^ ^ ^ V G 7 o 7 c G x.v.v.c.c.c.c.v.v.v.v.v.c.c.c.c.c.c.c.c.c.c.c.c.c.c.c.v.v.v.V.V.V.V.V.V.V.V.V.V.V.",
"v.v.v.V.V.V.V.V.V.V.A.A.A.A.V.V.V.V.V.V.V.A.A.A.P.P.P.P.P.P.T.E.P.P.P.P.A.A.A.P.P.T.E.I.I.E.E.E.T.T.E.E.E.E.E.T.E.E.E.E.E.Q.Q.).).)._.`.`.[.`.`.[.[.[.[.[.[.[.[.[.[.XX#X#XXXXX#X&X%X$X#X$X%X%X%X$X$X#X#X#X#X$X$X#X#X#X#X#X#X#X#X#X#X#X#X#XXXXXXXXX[.[.[.`.`.`.`.Q.Q.Q.Q.Q.Q.E.E.E.E.E.E.E.E.E.E.I.I.I.T.E.E.Q.Q.Q.Q.).Q.Q.E.E.E.E.E.E.T.T.T.T.I.E.E.T.T.E.E.E.E.E.E.E.T.E.E.E.Q.E.T.T.T.E.E.E.Q.E.T.I.I.I.E.I.I.I.P.P. XXX5XyX_.s.I 7 * 7 j c c F H F D D D D D V V V V V V V V D D D D D F F F F F Y Y Y E E E ^ ( / Q Y N 7 ; q.wXuX%Xy.s.@.i.q.q.>.-.-.=.=.=.@.@.@.@.@.@.@.@.+.+.@.@.@.@.@.@.@.@.+.@.@.@.@.=.@.q.v.P.P.L.v.s.i.B.P.S.A.v.t.%.( Q & O.9Xb...$.......#.#.......%.#./ Y V z q > * , > w c H F F F F Y / } } } ..................#.#...| / / ( | / ( | | | | | ( | | / / / / ( | | | ....| ( / / / / / / / / / / / / ^ ^ ^ ^ / / ..#.#......./ E Z , m.pXpXpXpXpX#.e D *X$./ E E ^ ^ / / / / | ../ / / / | | | | ..........| | | / / / ^ ^ E ^ ^ ( G 0.&.7 & c %.v.v.c.c.c.c.c.v.v.c.c.c.c.c.c.c.c.c.c.c.c.c.c.c.c.c.c.v.v.v.v.V.v.v.v.v.v.v.v.v.",
"v.v.v.v.v.v.v.V.V.V.V.V.V.V.V.V.V.V.V.V.V.A.A.A.A.P.P.P.P.P.P.I.P.I.I.P.P.P.P.P.I.E.E.I.P.I.E.E.T.T.E.E.E.W.T.I.E.E.E.E.E.E.Q.Q.).).).`.`.`.`.`.`.`.`.[.[.[.[.[.[.[.#X%X$XXX XXX&X%X$X#X$X$X$X$X#X#X#X#X#X#X$X$X#X#X#X#X#X#X#X#X#X#X$X$X$X#XXXXX#X[.`.Q.T.T.T.T.Q.Q.Q.Q.Q.E.E.E.Q.E.E.E.E.E.Q.Q.E.E.E.E.E.E.E.E.Q.Q.Q.)._._._._._._._._._._._._._.Q.Q.Q._._.Q.Q.T.E.E.Q._._._._.Q.Q.Q.Q.Q.E.E.E.Q.E.E.E.E.Q.Q.E._.).E.I.A.I._.P.Q.L.t.Q 7 X 7 Z N Z Z Z D D D D D D V V V V V V D D D D D D F F F F G E G E E E ( ) F Z c 7 j *.sXuX1Xc.y.>.i.y.>.>.-.-.=.=.=.=.@.@.@.@.+.+.@.@.+.+.@.@.@.@.@.@.@.@.@.@.@.@.@.@.-.@.+.] +.-.>.-.@.-.q.,.@.] O.O.( Q w v 2X3.#.#.) Q F Z Z G E Q c F G N w g E 6.M.%.K k 7 : * o 3 5 s F ..$.../ ................#.#.#.....| | ( / / ( | | | ( ( | | / / ( | ....#.$.$.#...| / / ^ ^ / / / / / / / / ^ ^ ^ / / | | ..| / / / ^ Y j * ( &X&X'.R.h.#.e s 2X..G D x c c c c c V G ) ^ / / ( ( ( / / ........| | | ( / / / ^ E E ^ ^ F H H Q #.v , ( m.m.M.c.c.c.c.c.c.c.c.c.c.N.N.i.c.c.c.c.c.c.c.c.c.c.c.v.v.v.v.v.v.v.v.v.v.v.v.v.",
"v.v.v.v.v.v.v.v.V.V.V.V.V.V.V.V.V.V.V.V.V.A.A.A.A.P.P.P.P.A.P.P.P.P.I.I.P.P.P.P.T.E.E.I.P.P.P.P.I.T.T.E.E.W.I.I.E.E.E.E.E.E.Q.Q.Q.).)._.`.`.`.`.`.`.`.`.`.[.[.[.[.[.#X%X%X#X[.XX&X%X$X$X$X$X$X$X$X$X$X$X$X$X#X#X#X#X#X#X#X#X#X#X#X#X$X$X$X#XXXXX[.).I.m.c.s.x.c.Q.Q.Q.Q.Q.E.E.E.Q.E.E.E.E.E.Q.Q.`._._._._.).)._. X[.`.`._._._.).`._._._._._._._.`.`._.`.`.`._.Q.Q._._._._.Q.T.I.I.I.E.E.Q.).)._.)._._._.Q.Q.)._.E.Q.T.I.E.P.V.E.).Q.T.L.-.b 7 : z c c Z D D V V D V V V V V V V D D D D D D F F F F G E G E E E Z N c c j w y.uXpXsXT.y.q.q.i.+.-.-.-.=.=.=.=.=.@.@.@.+.+.+.@.@.+.+.@.@.@.@.@.@.O.+.@.@.@.@.+.+.] @.-.@.+.+.+.+.@.] ] @.@.@.%.0.&.G 7 7 G H F Z G c 0 , : 7 c Z Z q , g 0.%XaXpXuX2XT.y.0.y.x.M.3.F 7 4 j E #.3.................#.#.$.#.#...| / / / / ( | | | ( / / / / | ..#.#.$.$.$.#...| | | / / ( ( ( / / / / / ^ ^ / / ( | | ..| / / / / E F 7 7 $.x.0.x.6.| w 5 2XY x g > , , , * * > g V ^ / ( | ( / / / ........| | | ( ^ / / ^ E E ^ / ) Q Q Y Y s , G P.A.m.v.c.c.c.c.c.c.c.c.i.i.i.i.c.c.c.c.c.c.c.c.c.v.v.v.v.v.v.v.v.v.v.v.v.v.v.v.",
"c.c.v.v.v.v.v.v.v.V.V.V.V.V.V.V.V.V.V.V.V.A.A.P.P.P.P.P.P.P.P.P.P.P.P.P.P.P.P.P._.Q.E.E.I.I.I.I.T.I.I.I.I.I.T.T.E.T.E.Q.).Q.Q.Q.`.Q.[.E._.Q.[.Q.`.`.XX).`.#X[.[.[.#X%X%X#X X#X$X#X#X#X#X#X$X$X$X$X#X#X#X#X#X#X#X#X#X#X#X#X#X#X#XXX;X#X{.&X&X`.`.).A.t.%.( G G ( v._.`.E.Q.E.Q.E.Q.Q.Q.E.E.E.E.Q.E.Q._._._._._.`._.Q.E.E.E.E.E.E.E.Q.E.E.E.Q.Q.E.E.E.E.E.E.E.E.E.Q.Q.)._._._.).)._.).Q.E.E.I.I.I.E.E.T.I.I.I.I.T.E.T.I.I.I.I.I.P.A.P.E.Q.L.-.c : , X F G c Z Z Z D D V V N N V V V V D D D D F F V ^ D G E F g F j N w X ( [.iXpXaX[.t.>.q.q.>.w.-.-.-.-.;.;.;.=.@.@.@.@.@.@.@.@.@.@.@.@.@.@.+.+.+.&.&.+.+.@.@.+.@.@.@.@.@.@.@.@.+.+.+.+.+.+.+.O.O.) c 9 9 7 : : : c O.0.%.H e 7 c ( i.XXuXpXyX2XT.P.P. X5XuXuXtX0XT.Q 7 ; ) ( %.$.......| ..#.....| | | ....| / | ....#.....| / ( ( ( ( ( | #.$.$.$.#...| | ..#.| | ......| | ( / / | ..#.$.$.$.#.#.$.$.#...| / E x 4 5 F O.( ) c > N ( z * c O.L.m.L.T.y.Z 7 > G E %.| ^ #./ ............| | | ^ / / ^ E ^ ^ E E G ^ ^ ) w k k m.tXP.x.c.M.q.c.i.c.c.q.w.v.c.w.N.c.v.c.i.i.c.v.c.c.c.v.v.v.c.s.c.c.c.c.c.c.c.c.",
"c.c.v.v.v.v.v.v.v.V.V.V.V.V.V.V.V.V.V.V.V.A.A.P.P.P.A.A.A.P.P.P.P.P.P.P.P.P.P.P.I.I.P.P.P.P.P.P.I.I.I.I.I.I.T.E.E.T.T.E.Q.Q.Q.Q.I.).I.y.f.v.T.XX_.!.XX`.`.XX`.[.$X%X&X%X#X[.[. X#X#X#X#X#X#X#X#X#X#X#X#X#X#X#X#X#X#X#X#X#X#X#X#X$X[.#X&X).y.m.c.s.y.Q m o O O > >._.XXQ.Q.E.Q.Q.E.Q.Q.E.E.E.E.Q.Q.Q._._.Q.Q.Q.Q.`._.).Q.E.E.E.E.E.Q.E.E.E._._.Q.Q.Q.Q.Q.Q.Q.Q.Q.Q.Q.Q.Q.Q.Q.E.E._.).).)._._._._._._.Q.E.E.T.I.I.E.I.I.I.I.I.P.P.P.P.P.T.T.m.y.&.Z > 3 c N H Z Z D V V V N N N V c V D D V V V D D F F G j G Z : ; s F r.dXpXpX0XP.t.>.y.f.y.-.-.-.-.-.-.;.=.=.=.@.@.@.+.+.+.+.+.+.+.+.+.+.+.+.+.] +.+.+.+.@.@.@.@.@.@.@.@.+.@.@.+.+.+.+.+.+.+.+.>.&.! I O.-.-.-.i.$XuXpX0X).s.s.2XtXpXpXaX2XI.w.i.q.q.c.I._._.E.R.P.y.G 0 Q b.0.6.#.#.$.#.#.#...#...........| | | | ......| | ( / / | ......#.$.$.$.$.#.........#.#.#.#.....| ( / / / / ( ..#.$.#.#.#.#...| / / ..Y q ; > 7 w k ; * | V 7 &.pX9XpXuXuXpX0XL.Z * G x.#.| / $.| #.....| | ( / / / ^ / ^ E E ^ / ^ / ^ E D G V v N <X1Xv.m.0.c.m.M.c.i.i.c.c.i.i.c.i.i.w.i.c.v.c.c.c.c.c.c.c.c.c.c.c.c.c.c.c.c.c.c.",
"c.c.v.v.v.v.v.v.v.v.V.V.V.V.V.V.V.V.V.V.V.A.A.P.P.P.P.A.A.A.P.P.P.P.P.P.P.P.P.P.P.A.A.A.A.P.P.P.P.P.P.P.I.I.E.E.E.T.T.E.E.Q.Q.Q.).`.v.-.] O.>.T.[.Q.`.[.[. X_.#X&X&X%X#XXX[.[.[.XXXXXXXX#X#X#X#X#X#X#X#X#X#X#X#X#X#X#X#X#X#X#X#X&X[.*X).U.r.0.Q ^ N O . * ( j . G [.=X`.E.E.Q.Q.E.E.E.E.E.E.Q._.)._._._._._.`.[.[.`._.).Q.E.E.E.E.Q.Q.E.Q._.`._.`.`.`.`.`.`.`.`.Q.Q.Q.Q.Q.Q.E.E.E.E.Q.Q.)._._.`.`.`._.Q.E.E.I.I.E.I.I.I.I.I.P.P.I.P.A.A.P.P.I.I.>.k X : Z k Z c V V V N N N N N N N V V V V D F / F w N c e > D y.&XtXpXpXpX&Xv.y.q.>.q.q.>.>.-.-.-.-.-.=.=.=.=.@.@.+.+.+.+.+.+.+.+.+.+.+.[ [ ] ] +.+.+.+.@.-.@.@.@.@.@.@.+.+.+.+.+.+.+.+.+.+.+.` O.+.w. X0XyXuXuXuXyX;XE.A.XXwXyXyX1XQ.v.w.>.q.-.-.-.>.q.q.q.>.@.s.>.( 7 7 M.y.e.$.$.3.$.$.$.#.$.#.............| | | | | | | | / | ..#.#.#.#.#.#.$.$.$.$.#.....#.#.#.#.#.....| | ( / / | ..$.$.#.#.#...| | / / / W F F ^ F w 3 6.h.k k T.aX9XpX2X XP.L.I.s.G 7 F %Xe.$.#.$...X.......| | ( ( ( ^ / / ^ E ^ ^ ^ ^ ^ ^ Y Y V 7 G aXpXP.t.y.M.q.q.t.t.c.c.c.q.0.y.w.N.c.c.t.y.c.V.s.c.c.c.c.c.c.v.c.c.c.v.v.c.c.c.",
"c.c.c.c.v.v.v.v.v.v.V.V.V.V.V.V.V.V.V.V.V.A.A.A.P.P.P.A.A.A.P.P.P.P.P.P.P.P.P.P.P.P.P.P.P.P.P.P.P.P.P.P.I.I.E.E.E.E.I.I.E.Q.).Q.T.A.>.) > - S I.;X`.).`.XXXX`.%X%X$XXX XXXXX X[.XXXXXXXXXX#X#X#X#X#X#X#X#X#X#X#X#X#X#X#X#X#X#X#X$X[.&Xa.x.Q o o     @ e.b.%.7 # j =X0X$XE.E.Q.E.E.E.E.E.E.Q._.`.`.[. X X`.`. X X`.`._.).Q.Q.Q.Q.E.Q.Q.Q._.`. X`..X.X[.[.[.[.[.[._._._._._.Q.Q.Q.E.E.E.E.E.E.Q.Q.Q.Q.Q.E.E.E.E.E.T.I.I.I.I.I.P.P.P.P.P.P.A.A.P.I.m.! c o c c F c V V V N N N N N V N x N D F F F 7 F w , , j ( *XpXpXpXpX3XP.0.c.i.s.t.>.%.-.>.>.-.-.-.-.=.=.=.=.@.@.+.+.[ [ +.+.+.+.+.+.[ [ [ [ +.@.@.+.@.@.-.@.@.@.@.+.+.+.+.+.+.+.+.+.+.+.+.+.@.-.+.@.c.P.P.P.I.E.A.i.q.-.w.A.v.v.w.@.>.w.w.s.q.q.q.w.w.q.q.0.q.y.&.@.Z , 0.T.y.$.#.$.$.$.%.$.%.$.#...........| | | | | | ........#.#.........#.$.$.$.$.#.....| | ............| ..#.$.%.%.$.$.$.#.#...| | | | #.} Y / b.OX2X0X0XZ 7 O.pXpX8Xm.v.i.q.q.w.y.( Z & L.r.......$.#.....| | | | | | / / / ^ ^ ^ ^ ^ E G ^ ..E z * 0.pXaXk.O.&.( I &.( %.0.%.%.0.&.( @.%.w.M.m.M.N.q.i.s.c.c.s.s.c.c.c.c.v.v.v.v.c.c.",
"c.c.c.c.c.v.v.v.v.v.V.V.V.V.V.V.v.v.V.V.V.V.A.A.P.P.P.P.A.A.P.P.P.P.P.P.P.P.P.P.P.P.P.P.P.P.P.P.A.A.P.P.P.I.T.E.T.E.T.I.E.)._.Q.).I.c.Q   1 S.uXsX$X)._.XX#X[.%X#XXX[.`.[.XX X[.XXXXXXXXXX#X#X#XXXXXXXXX#X#X#X#X#X#X#X#X#X#X#X#X%X]./.0.H O . D ( k.m.:.V e > - 9 0XuX;XQ.Q.E.E.E.E.E.E.E.Q._.[. X X X`._.Q.Q.Q._._.).Q.Q.Q.Q.Q.E.Q.Q.Q._.[. X`._._._._._._._._._._._._._._.Q.Q.).).Q.Q.Q.Q.Q.Q.E.E.E.E.E.E.E.E.T.I.I.P.I.I.P.P.V.A.P.P.P.P.P.P.P.t.&.: w 0.Q N V V V V N N N c V N x V F F V v c r , G t.dXpXuXeX8X{.v.-.v.c.0.q.y.t.y.q.q.>.@.-.-.-.=.=.;.;.@.@.@.+.+.[ +.@.@.@.@.@.+.+.[ [ +.@.-.-.@.@.@.@.@.@.@.@.+.+.+.+.+.+.+.+.+.+.+.+.+.[ -.@.@.q.w.q.q.>.-.+.+.-.=.@.-.-.,.>.q.s.s.q.-.u.q.q.w.u.w.q.,.w.0.0.%.O.< I 2Xb.3.#.$.#.#.%.%.$.#...........| ..| | | | ............| | | | ..#.$.$.#........./ | | ............#.$.3.3.3.3.%.$.#.....| | | | E ..#.$.3.6.e.b.e.E X Q <X0XM.t.>.u.i.w.w.q.( Z o #.U.$...| $.} ......| ( / / / / / / / / ( | / | E / } Y v , r.aXG.Q %.( Z j 7 c G ) ( ( ( Q N c Z Q &.%.y.M.m.s.s.c.c.c.s.s.s.c.c.c.v.v.v.v.c.",
"c.c.c.c.c.c.v.v.v.v.v.V.V.V.V.V.v.v.v.V.V.V.A.A.P.P.P.A.A.A.P.P.P.P.P.P.P.P.P.P.P.P.P.P.P.P.A.A.A.A.A.P.P.P.I.T.I.E.E.I.E._._.Q.T.I.s.G 1 q.9XuXuX=X`.).XX#X`.XX#X X`.`.[.[.[.`. XXXXXXXXX#XXXXX[. X XXXXXXX#X#X#X#X#X#X#X#X#X#X&X[.x.%.X O r.x.G c k j g 7 5 1 7 uXuX:X_._.E.Q.E.E.E.E.E.Q.`. X)._.`.`._._._._.Q.Q.Q.Q.Q.Q.Q.Q.Q.Q.Q.Q.).`.`._.Q.Q.Q.Q.Q.Q.Q.Q.)._._._.).Q.Q.Q.Q.Q.Q.Q.Q.Q.Q.).Q.Q.E.E.E.E.E.E.T.I.P.P.I.I.P.P.A.S.P.P.A.A.A.P.A.A.&.k * ).Q c V V V V V N N N N N V D F V g 7 7 P L.uXpXpXtXpX2XL.0.M.c.w.q.w.y.q.q.q.q.q.>.@.-.-.=.@.;.@.@.@.@.+.+.+.+.@.@.-.-.=.@.+.+.+.+.+.@.-.-.@.@.@.@.@.@.@.+.+.+.O.+.+.O.O.O.O.O.O.O.] ] -.-.@.-.@.[ +.@.-.>.q.i.q.@.-.q.i.w.>.>.-.-.q.i.u.<.<.q.q.>.-.@.>.w.( Q 7 m tXG.e.$.3.$.#.$.$.$.#...........| ....| | | ......| | | ( / | ..#.#.#.#...| | ........#.#.#.#.#.#.#.#.#.#.#.$.%.3.#.....| / / / / / ..| / | / ^ | ( G k , q.w.c.q.d.d.i.q.w.i.q.] e F Y.$.X...X./ #.#.#.....| / / ^ / ( / | ..#.#.| ..../ ^ D , g ) ) Q k . O : 7 * & 7 z k > X X X r c ^ &.3.0.0.t.w.w.i.s.c.c.c.c.c.c.c.v.c.c.c.",
"c.c.c.c.c.c.c.c.v.v.v.V.V.V.V.v.v.v.v.V.V.V.A.A.A.A.A.A.A.A.P.P.P.P.P.P.P.P.P.P.A.A.P.P.P.A.A.A.A.A.A.P.P.P.I.I.I.E.Q.E.E.`.`.Q._.[.T.s.`.sXuXyX8X#X`._.XX$X`.[.XX X[.[.[.[.[.`.[.[.[.[. X X XXX[.[.[. XXXXXXX#X#X#X#X#X#X#X#X#X]./.k...O c a.g 5 v g 7 7 c w X 1 uXuX<X_.`.E._.Q.Q.Q.E.E.).`. XE.).`. X X X X X).).).).Q.Q.Q.Q.Q.Q.Q.E.Q._._.Q._._._._._._._._.Q.Q.Q.Q.Q.Q.Q.E.Q.E.E.E.E.Q.Q.Q.).Q.Q.E.E.E.E.E.I.I.P.P.P.P.P.P.I.P.S.A.V.V.V.V.m.A.@.Z o m.E c V V V V V V N N N V D V N z s q F 3XpXpXuX8XP.|.N.t.v.t.w.i.c.@.c.t.>.>.>.>.-.-.-.-.=.@.=.@.@.@.@.+.+.+.+.@.-.-.-.=.@.+.+.+.+.+.@.@.@.@.@.@.@.@.@.@.+.+.+.O.O.O.] ] ] ] ] ] ] ] ` @.@.@.,.<.,.<.>.>.@.+.@.@.@.w.=.q.u.w.w.q.q.s.p.u.<.,.,.<.>.>.,.q.i.+.S 9 b 0XM.6.$.6.3.$.$.$.#.#...........| ....| | | | | | ( | | | | | ....#.#.#.....| | ....#.#.$.$.$.$.$.#.#.#.#.#.$.$.%.....| | ( / / / |  .^ / #.$.....3.G j 7 e Q q.>.>.<.q.w.s.i.@.Q e > G c Y / / } } | ....#.....| ( | ..| ..#.$.#./ #.2.| #.Y w ; ; 3 * * &.2X8X3XL.%.H j g F k.&Xn.^ > X w E ..*.( ! ~ ] >.i.c.c.c.c.c.c.c.c.c.c.",
"c.c.c.c.c.c.c.c.v.v.v.V.V.V.V.v.v.v.v.V.V.V.A.A.V.V.V.V.V.A.A.A.P.P.P.P.P.P.P.P.A.A.A.P.P.P.A.A.A.A.A.A.P.P.P.I.P.E.Q.E.Q.`.`.Q.L.[.`.[.uXuXtXtX%X).).`.XX%X[.[.[.[.[.[.[.[.[.[.[.[.[.[.[.[.[.[.[.[.[.[. XXXXXXX#X#X#X#X#X#X#X#X#Xm.t.x   $.Q w w i 7 V 7 w : 0 > uXyX=X_.[.Q.`.Q.Q.Q.E.E.).`. X_.[. X X X_.).Q._._._._.).Q.Q.E.Q.Q.Q.E.E.).).E.Q.Q.Q.Q.Q.Q.Q.Q.Q.Q.Q.Q.Q.Q.Q.Q._._.).Q.Q.Q.Q.Q.E.E.E.E.E.E.E.E.I.I.P.P.P.P.P.P.P.S.A.A.P.P.P.A.P.m.q.Z & ( ( Z V V V V V V N N V D D x s w z N 9XpXpX9XT.v.c.c.M.0.M.x.i.5.c.i.y.>.>.q.q.-.@.@.-.-.=.@.@.@.@.+.@.+.+.+.@.=.-.>.-.=.@.+.+.+.+.+.O.@.@.+.+.@.@.@.@.@.+.+.O.O.O.] ] ] ] ] ] ] ] ] @.-.@.+.-.=.@.+.@.=.@.-.q.>.@.-.i.i.-.@.>.>.,.i.<.,.,.-.-.>.q.q.w.=.>.i.I 1 9 Q.t.#...6.6.$.$.$.#.#.....#.#...| | | | | | | | / | ......| | | | #.#.#.#...| | | | ..#.#.$.%.3.3.#.#.%.6.6.3.$.$.........| | / / / X.../ / ^ / #...( ( q : , H ( ~ ] @.-.q.w.y.0.G 7 > > v D v D Z G E / ( ......#.#.#.....#.#.X.....#...$.E / Y ..D h.<XeXiX7Xn.6.Y.3X8X0XeXiXpXT.U.r.Y 7 * 5 g w e w c ! >.t.s.c.c.c.c.c.c.c.c.",
"s.s.s.i.s.s.c.c.c.c.v.v.v.v.v.v.v.v.v.v.V.V.V.V.A.A.A.A.A.A.A.A.A.A.A.P.P.A.V.A.A.A.P.P.A.A.A.A.A.A.A.A.A.P.I.I.I.Q.E.E.`._.Q.). X X X$X=X=X$X X`._._.`.[. X X X X X X X X X X X X X[.`.`.`..X.X`.`.`.[.[.[.XX#X#XXXXXXXXXXX XXX`.m.&.*   t.Z 7 7 7 > e w 7 7 : 9 uXuX&X{.{.).`.).).T.T.).).`.`.Q.`. X X`._.).Q.)._._._._.).Q.Q.Q.Q.E.E.E.E.E.E.E.E.E.Q.Q.Q.E.E.Q.Q.Q.Q.Q.Q.Q.Q.E.E.Q.Q.Q.E.E.E.E.E.E.E.E.E.E.E.I.I.P.P.P.P.P.P.A.S.P.P.L.P.P.P.L.M.y.O.w 7 t.Q D F F D D D D V Z G D 7 j : Q 1XpXuX1XL.t.m.V.w.i.i.i.i.i.i.i.w.y.q.q.q.,.>.@.@.@.@.@.@.+.+.+.+.+.+.+.@.@.@.@.@.@.@.@.@.@.@.@.@.@.@.@.+.+.+.+.+.+.+.+.+.+.+.+.+.+.+.+.] ] ] O.+.@.@.+.+.+.+.@.@.=.@.+.@.@.-.>.>.w.q.,.>.>.>.>.,.>.>.>.,.q.q.q.q.-.0.q.q.+.l y I h.3.$.r.r.2.$.6...#.#.#.........X.X.X.....} } / } } | | | | | | #.#.#.X.....| | #.#.#.#.2.6.6.6.#.$.3.6.3.$.$.#.$.#...| | } / / ..X.X.....X.X...#...| ^ V q : ; e j Z Q ] >.y.y.O.( ( G k - # * $ 9 b k H ` ( #.#.$.X./ 6.7...7.2.$.#.X...| / / H.2XiXiX>Xn.3.#.$.e.k.H.U.J.G.M.3.$.6.h.k.3.F g g 0 ; . ; ( b.q.x.c.i.c.s.i.c.v.",
"s.s.s.i.s.s.s.c.c.c.v.v.v.v.v.v.v.v.v.v.v.v.V.V.V.V.V.V.A.A.A.A.P.A.A.P.P.A.A.A.A.A.P.P.P.P.P.A.A.A.A.A.P.P.I.T.P.E.T.E._.).E.Q. X`._.`. XXX X_.`._._.`.`. X X X X[.`.[. X X.X`. X X[.`.`.`.`.`.`.`.`.[.[.[.XXXX#X#XXXXXXX X XXX`.M.Q   Q 0.: * : 7 , , : > 7 , < tXpX;X`.`.Q.Q.).Q.Q.).{.`.[.[._. X X[._._._._.)._._._._.).Q.Q.E.E.E.E.Q.Q.Q.Q.E.E.E.E.E.E.E.Q.Q.Q.Q.Q.Q.Q.Q.Q.Q.Q.Q.Q.Q.E.E.E.E.E.E.E.T.T.T.I.I.I.P.P.P.P.P.P.L.L.L.P.L.P.P.P.L.I.v.%.p , P.&.G Y T D D D V c k j 7 j X ( 8XpXpX:XI.v.c.c.s.s.i.i.i.i.i.i.w.w.q.q.q.q.>.>.%.@.@.@.@.@.+.+.+.+.+.+.+.+.@.@.@.@.@.@.@.@.@.@.@.@.-.=.@.@.+.+.+.+.+.+.+.+.+.+.+.+.+.+.O.] ] ] O.O.+.+.+.+.+.+.+.+.+.+.+.@.-.>.q.q.q.q.,.>.>.>.>.,.>.>.>.0.0.0.q.q.w.q.-.>.@.K 9 - ^ | ....3.h.e.#.$.$.#.#.........X.o.o... . .} } } } } | | | | | #.#.X...........#.#.$.2.6.6.6.3.$.3.6.6.3.2.$.$.2.$.X.....| | } ..X.#.#.$.3.6.3.3.3.$.X./ ^ ..6.j , > w e G 0.y.t.y.q.t.i.i.s.c.w.n p 9 $ 7 G O.| #.2...#.2. .2.3.2.$.#.#.#.#.#.6.k.G.z.6.X.| | | ..$.6.6.6.3.$.e.3.....3.n.+X7X,X7X,Xr.7 & G t.w.c.i.i.c.V.c.-.",
"s.s.i.i.i.s.s.s.c.c.c.c.v.v.v.v.c.c.c.c.v.v.v.v.V.V.V.V.V.V.V.V.P.A.A.P.P.A.A.P.A.A.P.P.P.P.P.P.V.V.A.A.P.P.I.I.I.Q.E.E.`._.Q._.XX[._._.`.`.`._.`.`.`.`.`.`.[.[.`.`.`.`.[. X X[. X[.`.`.`.`.`.`.`.`.`.[.[.[.XXXXXXXXXX X X X[.[.{.m.G   ( c . > 7 w 7 > X . * , k tXpX&X{.`.{.).Q.Q.Q.).`.[.[.[._.[. X_.)._.`.`.Q._._._._.).Q.Q.E.E.E.E.Q.Q.Q.Q.Q.Q.E.E.E.Q.)._.E.E.E.E.E.E.E.E.Q.Q.Q.Q.E.E.E.T.T.T.T.I.I.I.I.I.P.P.P.P.P.P.P.P.L.L.L.P.L.L.P.P.m.I.m.%.l . `.%.F F F D D D V z w w e e ( 8XaXpX4XE.i.c.V.i.w.c.i.i.i.i.i.w.w.w.q.q.q.q.>.>.-.@.-.@.@.+.+.[ [ [ ] [ [ +.+.+.+.+.+.+.@.@.@.@.@.@.=.@.@.@.+.+.+.+.+.+.+.+.+.+.+.+.+.+.O.] ] ] ] ] +.O.O.] ] O.O.+.[ [ +.@.>.q.q.q.q.q.,.>.>.>.>.>.>.>.>.>.>.0.0.0.q.>.-.>.>.-.A , 4 V | X.#.6.7.2.3.$.$.#.#.#.#.#.o.X..... . . . .| | } } | | | | $.#.#...........#.$.2.6.7.7.6.2.2.3.6.3.3.2.2.2.2.$.#.........| | ..X.#.$.3.6.6.3.6.6.3.$.7.H.OXeXL.3.F X ; ( 0.0.6.y.P.%X9XuXuX5XQ.s.] S 9 7 Z $...3.#.X.6.4.4.3.3.$.#.#.#.#.#.$.2.$...........3.3.3.3.3.6.6.6...#.2.3.$.2.h.H.H.z.8.^ g : i &.t.t.c.c.i.q.i.v.",
"i.i.i.i.i.s.s.s.c.c.c.c.c.c.c.c.c.c.c.c.v.v.v.v.v.V.V.V.V.V.V.V.P.A.A.P.A.A.A.P.A.A.P.P.P.P.I.I.A.P.P.P.I.I.I.I.E.Q.Q.Q.`.`.)._.XX X_._.`. X[.`.`.`.`.`._.`.`. X`.`.`.`. X X X[.`.`.`.`.`.`.`.`.`.`.`.`.[.[.[.[.[.[.[. X[.[.[.[.{.T.( > * : , j 0XuXpX9XP.c 7 7 m.pXpX#X).)._.`.).).).{.`.`.{.).Q.`.`._.Q.)._._.Q._._._._.).Q.Q.E.E.E.E.E.E.E.E.Q.Q.Q.Q.Q.Q.Q.).Q.Q.Q.Q.Q.Q.Q.Q.Q.Q.Q.Q.E.E.E.I.T.T.I.I.I.I.I.P.P.P.P.P.P.P.P.P.L.L.L.L.L.L.P.P.v.L.c.@.H O `.O.D C V V F F N g w * Z #XiXeXpX2XI.A.v.v.c.s.i.i.i.i.i.i.w.w.w.w.q.q.q.,.>.>.-.@.-.@.@.+.[ ] ] ] ] ] ] ] [ +.+.+.+.+.+.+.@.@.@.@.@.@.+.+.O.+.+.+.[ [ O.O.O.+.+.+.+.O.O.] ] ] ] ] ] ] ] ] ] ] ] ] +.+.+.@.-.>.,.>.q.,.>.>.>.>.>.>.>.>.>.>.>.>.>.>.-.-.q.q.-.q.-.H ; 5 V #.3.#.X.3.3.$.#...#.#.$.#.#.o.X... .......#.#.X.X.X.X.#.#.2.$.#.X.......X.$.$.3.6.e.7.6.3.$.2.3.$.$.$.$.2.$.#...............X.#.X.#.$.3.$.$.6.e.7.3.6.b.Y.G.h.R.Y.( z Q 0.y.e.%.0.i.v.v.c.Q.w.P.I.I 1 c $.'.6.$.$.$.e.g.6.6.3.$.#.#.X.X.#...$.6.$.X...#.#.3.3.3.3.3.6.6.6.$.#.#.$.#.} ^ ^ ..^ E ^ ^ g 7 D 0.%.q.i.s.s.u.i.",
"i.i.i.i.i.i.i.i.s.s.s.s.c.c.c.c.c.c.c.c.v.v.v.v.v.v.v.V.V.V.V.V.A.V.A.P.P.A.A.P.P.A.P.P.P.P.I.I.I.T.E.E.E.E.E.E.I.Q.E.E._._.E.Q._._.Q.)._.`.`._.`.`.`.`._._..X X`.`.`.`. X X X X`.`.`._._._._._.`.`.`.`.`.[.[.[.[.[.[.[.[.[.[.[.`.).%.Z O X w O.uXpXuXtX2X&XeXpXuXpXaX#X`.).).`.`.`.`.`.`._.).Q.Q.`.[._.).).).Q.Q._._._._.).Q.Q.Q.Q.E.E.E.E.E.E.E.E.Q.Q.Q.Q.E.E.Q.Q.Q.Q.Q.Q.Q.Q.Q.Q.Q.Q.E.E.E.I.T.T.I.I.I.P.P.P.P.P.P.P.P.P.P.P.L.L.L.L.P.P.P.P.A.P.M.&.G . L.O.H D D D F D z 7 * e.pXtXpXpX8XI.c.A.P.v.s.c.s.i.i.i.i.w.w.w.w.q.q.q.q.,.>.>.@.@.@.@.+.+.[ ] ] ] ` ` ] ] ] ] [ [ +.+.+.+.+.+.+.@.+.+.+.+.] ] ] +.[ O.O.+.+.+.+.+.] O.O.] ] ] ] ] ] ` ` ` ` ` ` ] [ +.+.@.-.>.>.-.>.>.>.>.>.>.>.>.>.>.>.>.>.>.>.>.0.-.q.q.@.-.>.&.H 5 ; N #.$.#.$.%.$.#.#.#.#.#.#.$.#.X.......X.#.3.2.2.2.2.2.2.3.$.$.#.#.#.$.$.$.3.3.3.6.6.7.6.6.2.3.2.$.$.$.$.2.$.#.X.....X.X...$.2.3.$.2.6.6.3.6.6.e.e.6.3.3.e.3.e.e.$.Z , 7 Q &.0.q.q.q.t.y.0.+.+.Q G Q > 3 '.iXM.X.$.2.7.8.2.e.7.6.2.$.$.$.$...#.$...| ..2.6.#.#.$.3.3.3.3.2.e.$...| ..#.$.3...X.| ../ w X * e G y.y.w.v.w.w.",
"i.i.i.i.i.i.i.i.s.s.s.s.s.s.c.c.c.c.c.c.c.v.v.v.v.v.v.V.V.V.V.A.A.V.A.P.P.A.A.P.A.P.A.P.P.P.I.I.I.I.I.I.I.I.T.T.E._.Q.Q.`._.E.Q.Q.E.Q.)._.`._._._.`.`.`._.`. XXX X`.`..X X X X`.`._._._._._._._.`.`.`.`.`.`.`.`.[.[.[.[.[.[.[.[.[.[.m.( >   c 2XuXpX9X1X7XaXpXtXpXtX2X`.XX).).`.`.`.`.`.[.[.`.{._. X X[._._._.).Q.)._._._.).Q.Q.Q.Q.Q.Q.Q.Q.Q.Q.Q._._.`.`._.Q.E.Q.Q.Q.Q.Q.Q.Q.Q.Q.Q.Q.Q.E.E.E.T.E.I.I.I.I.P.P.P.P.P.P.P.P.P.P.P.A.A.A.A.L.L.A.A.P.P.m.>.H o O.&.G Y F F F V w > Y pXpXpX8X{.i.I.A.v.c.c.c.s.i.i.i.i.i.w.w.w.q.q.q.q.q.>.>.-.@.@.@.@.+.[ ] ] ] ] ` ` ] ] ] ] [ [ +.+.[ +.+.+.+.+.@.+.+.+.+.+.+.+.] ] ] ] [ [ ] ] ] ] ] O.] ] ] ` ` ` ` ` ` ` ` ` [ ] [ @.=.-.>.>.>.>.>.>.>.>.>.>.>.>.>.>.>.-.-.-.q.-.-.q.>.-.-.@.&.V 4 4 c ( #.#.#.$.$.$.#.#.#.#.#.#.X.......#.#.#.#.$.$.$.$.#.#.X.#.#.$.3.3.6.6.6.3.3.3.6.6.e.e.3.3.3.3.$.$.2.3.2.$.#.#.#.$.$.$.$.3.3.3.3.7.e.6.7.6.3.6.6.3.$.$.| 3.#...( j * 7 G &.0.q.-.-.&.] Q ( Q 9 * v m.pXiXb.| $.4.7.4.2.3.3.3.3.3.3.3.3.3.3.$.$.3.6.6.$.3.6.6.e.e.6.3.2.X.#.$.3.$...} | ..| ^ / ../ F Z 7 > H ( @.q.-.m.",
"w.i.i.i.i.i.i.i.i.i.i.i.i.s.s.c.c.c.c.c.c.c.v.v.v.v.V.V.V.V.A.A.V.V.A.P.I.P.A.A.P.A.A.A.P.P.I.I.P.P.P.P.P.I.T.E._.`._._. X`.Q.).Q.Q.Q.)._.`.`.`._.`..X`._.`.XX$X X X`.`.[.[.`._._._._._._._._._.`.`.`.`.`.`.`.`.[.[.[.[.[.[.[.[.[.[.).&.Z O Z pXpXtX%X{.#X2X8X2X<X#XXXQ.XX{._.`.`.`.`.`.[.[.[.`.`. XXX`._._._._.Q._._._._.Q.Q.Q.Q.Q.)._._._._._.[. X X X[.`._.Q.E.E.E.E.E.E.E.E.Q.Q.Q.Q.Q.E.E.E.E.E.I.I.I.I.P.P.P.P.P.P.P.P.P.P.A.A.A.L.L.L.L.L.L.V.A.c.Q 7 9 G Z D D D H N w > T.8XpX%Xs.Q.V.m.P.v.s.s.c.s.i.i.i.i.i.w.w.q.q.q.q.q.q.,.>.-.@.@.+.+.+.[ ] ] ] ] ` ` ] ] ] ] [ [ [ [ +.+.+.+.+.+.+.+.+.+.+.+.+.+.] ] ] ] [ [ ] ] ] ] ] O.] ] ] ` ` ` ` ` ` ` ` ` @.@.+.@.@.-.-.-.-.-.-.>.>.>.-.-.>.>.>.-.-.-.-.-.>.>.@.-.q.q.-.%.%.#.F q 7 c F F H E ( | ( ( | ......................#.#.#.#.X...#.$.$.3.6.6.6.6.6.3.3.3.6.7.e.e.3.3.3.3.2.$.2.3.2.$.#.#.$.$.$.$.$.3.3.3.3.6.7.6.7.3.$.3.3.$.$.$...$.#.#.3.} k 3 j ^ %.0.@.&.O.) S k , * 0.eXpXpXOX6.X.$.2.6.4.8.3.3.3.3.3.3.3.3.3.3.2.$.3.6.$...6.6.6.6.3.3.3.3.$.$.2.3.$...X.$...X.$.#.E E ( &.O.> , 7 ! t.%.t.",
"w.w.i.i.i.i.i.i.i.i.i.i.i.i.s.s.c.s.c.c.c.c.c.c.v.v.V.V.V.A.A.A.V.V.A.I.I.P.A.A.P.A.A.A.A.P.P.I.P.P.P.P.I.E.Q._.Q._.).Q.`._.E.E.Q.Q.E.E.Q.)._._._.`..X`.`..XXX%X X.X`.`.`.`._._._._._._._._._._.`.`.`.`.`.`.`.`.[.[.[.[.[.[.[.[.[.T.T.M.( 7 Z 9XpX8X[.$X$X).`.+X[.{.#X).[.).`.).`.{.{.{.`.`.`.`. XXX X_.Q.Q._._.Q._._._._.Q.Q.Q.Q.Q._._.`.[. X X`.`.`._._.Q.Q.E.E.E.E.E.E.E.E.E.E.E.Q.Q.Q.E.E.E.E.E.E.I.I.I.P.P.P.P.P.P.P.P.P.P.L.A.A.A.L.L.L.L.L.c.V.L.%.G . j w g x V D Z j 7 <XpX9XP.I.m.A.m.s.V.V.c.s.c.s.w.i.i.w.w.w.q.q.q.q.q.q.,.>.-.@.@.+.+.[ [ ] ] ] ] ` ` ] ] ] ] [ [ [ [ [ +.+.+.+.+.+.+.] ] ] ] [ ] ] ] ] ] ] ] ] ] ] ] ] O.] ] ` ` ` ` ` ` ` ` ` ` >.-.@.@.@.@.=.=.-.-.-.>.>.-.-.-.>.>.>.-.-.-.-.-.@.w.-.] @.@.+.%.%.%.| D z j e ; > w c H G G Y Q | ..............#.$.2.3.3.2.$.o.2.3.6.6.6.6.3.3.3.3.3.3.6.e.e.7.$.2.3.3.$.$.$.$.$.#.#.#.#.$.$.$.3.6.6.6.6.6.7.6.e.6.3.3.3.#.#.#.6.$.$...| #.( j j ) 0.%.&.] Q Z : * h.tXpXpX,Xb.e.$.7.6.#.2.$.4.7.e.e.e.e.6.6.3.6.6.3.$.#.2.e.r.r.r.7.6.6.6.e.r.h.6.3.3.6.2.#...$./ ..#.( | &.( Y ) ( , > @.y.q.",
"w.w.i.i.i.w.w.i.w.w.i.i.i.i.i.i.s.s.i.s.s.c.c.c.v.V.V.V.V.V.P.I.V.V.A.I.I.P.A.A.A.P.P.A.A.A.A.P.I.A.A.I.E.E.E.Q.`.Q.`. X_.E.E.E.Q.Q.Q.)._._._.).`._._._._.`. X$X`.`.`.`.`.`.`.`._._._.).Q.Q.Q.Q.{._.`.`.`.`.`.`.Q.[. X).XXA.I.P.T.y.x.y.c O X %.).8X_.$X*X[.#X[. X[.`.`.`.`.[.[.`.`.`.`.`.`.`.`._._._._._._._._.).).Q.Q.Q.Q.Q.Q.E.Q.)._._._._.`. X X X X`._.Q.Q.E.E.E.E.E.E.E.E.I.E.Q.Q.E.E.E.E.E.E.E.T.T.I.I.I.P.P.P.P.P.P.P.P.L.L.L.A.A.A.P.L.L.m.m.A.t.( v 7 q o : v j j c e 2XuX#XA.V.c.P.v.v.v.c.c.c.s.s.s.i.i.i.w.w.q.q.q.q.q.,.>.-.@.@.@.+.+.[ ] ] ] ] ] ` ] ` ] @.@.] +.+.+.+.+.[ ] ] ] ] ] ] ] ` ` ] ] ] ] ] ] ] ] ] ] +.+.] ] ` ` ` ` ` ( ~ ~ ` ] O.+.] @.@.@.+.@.=.=.-.-.-.-.-.-.-.>.-.-.-.-.-.-.-.-.-.-.-.-.@.@.@.@.&.>.%.O.` &.y.y.&.Z 7 , : > w c Z G G Q O.#.#.$.$.3.7.6.2.o.$.2.6.6.6.6.6.6.6.6.2.3.6.e.e.7.6.3.3.$.$.#.#.#.#.X.#.....$.3.3.3.6.6.6.6.7.e.r.r.r.r.r.e.6.$.#.#.$.#.#.#.#.$.$.( F 3 j H ^ ( Q c > H 0XpXaX2XU.h.e.r.e.6.2.$.$.2.2.r.e.6.e.r.r.6.#.2.2.3.6.7.e.e.e.e.e.7.e.r.r.r.r.r.e.6.6.3.3.$.$.#.#.............&.) 0.c > Q %.t.",
"w.q.q.w.w.q.q.w.w.w.w.i.i.i.i.i.s.s.i.s.s.c.c.c.v.v.V.V.V.V.P.I.V.V.A.I.I.P.A.A.A.A.P.P.A.A.P.P.E.P.P.E.Q.Q.)._._.Q._. X).E.Q.Q.Q.Q.Q.Q.)._._._._._._.`.`._.[.XX`.`.`.`._._._._._._._.Q.Q.Q.Q.Q.).).{._.`.`.`.{.[.`.[.I.s.w.y.O.$.t.O.w . X . w T.%X%X[.[.[.$X#X[.`.`.[.[.XX#X#X#X#XXXXX[.`._.{._._._._._._._._._._.).Q.Q.Q.)._._.Q.E.Q._.[. X X X X X[.`._.Q.Q.Q.Q.Q.E.E.E.E.E.T.E.E.E.E.E.E.E.E.E.E.T.T.I.I.I.P.P.P.P.P.P.P.P.P.P.L.L.A.A.L.A.A.m.m.P.m.x.i.c.x.O.7 o 7 w e k 5XuX[.A.A.c.V.c.v.c.c.c.c.s.s.s.i.i.i.w.w.q.q.q.q.q.,.>.-.@.@.+.+.+.[ ] ] ] ] ] ` ] ` ] -.=.] ] +.+.+.[ ] ] ] ] ] ] ] ` ` ` ` ` ] ] ] ] ] ] ] ] [ +.] ] ` ` ` ` ` ( ( ( ` ] ] +.[ @.=.@.+.@.-.=.-.-.-.-.-.-.-.-.-.-.-.-.-.-.-.-.@.@.@.@.@.@.@.@.O.&.&.&.y.).2X0X1XT.%.&.y.@.H w * : 7 l Q ( O.e.3.6.6.3.2.$.o.$.3.6.6.7.e.e.e.e.6.7.e.r.r.e.6.6.3.$.$.$.$.$.#.#.$.$.$.6.6.6.6.e.7.e.e.e.r.r.r.g.e.e.7.3.$.#.#.#.#.#.X...#.$...^ z , > Z Z 7 > Z iXpX2XG.r.#.$.e.6.3.3.3.3.6.7.7.7.e.e.e.e.6.3.3.3.3.6.6.e.r.r.r.h.r.r.r.r.r.r.e.r.e.6.3.3.2.$.#.#.#.#...........| | ..V r i Q &.",
"v.w.q.w.i.q.q.w.w.w.w.w.w.i.i.i.s.s.s.s.s.c.c.c.c.v.V.V.v.V.A.P.V.V.A.P.I.P.A.A.A.A.P.A.A.A.A.P.E.I.P.E.)._._.`.Q.E._.`.Q.E._._._._.).Q.Q.Q.).).Q.Q._.`.`._._.[._._._._._._._._._._.).Q.Q.Q.Q.Q.).).).{.{.{._.{.[.).T.A.y.] l 7 7 k . O 7 y.k o $.~.8X#X#X#X$X[.[.[.[.[.[.#X#X$X$X#X#XXX[.`._.{._._._._._._._._._.Q.Q.E.E.Q.Q.Q._.Q.Q._. X#XXX.X`.`.`.`._._.).Q.Q.Q.Q.E.E.E.T.T.T.I.I.I.E.E.E.E.E.E.E.T.I.I.I.I.P.P.P.P.P.P.P.P.L.L.L.L.L.L.A.A.L.m.A.L.A.P.).%X0X).%.Q w X > I uXuX_.m.V.c.V.c.c.c.c.c.s.s.s.i.i.i.i.w.w.q.q.q.q.q.q.>.-.@.+.+.+.+.[ ] ] ] ] ] ` [ ` ] -.-.] ] +.+.[ ] ] ] ] ] ] ` ` ` ` ` ` ` ` ` ` ] ] ] ] ] ] ] ] ] ` ` ` ` ` ( ( ` ` ] ] +.+.@.-.@.@.@.=.=.=.=.=.-.-.-.-.-.-.-.-.-.@.@.@.@.@.@.@.@.+.+.+.+.+.@.@.+.-.s.P.E.V.P.XX9XuX5XE.q.w.] j > c ( #.&.6.3.3.3.4.4.2.2.6.7.e.r.r.r.r.r.r.r.r.r.r.e.e.6.3.2.$.$.$.$.$.#.$.$.2.6.6.3.6.r.e.e.e.r.r.r.r.r.e.e.6.3.$.#.#.#.o.o.X.....#.#...^ D j 3 X 7 M.pXpX6Xn.e.g.e.r.h.e.e.6.6.3.3.6.6.6.e.r.e.6.3.3.6.6.6.7.e.r.h.h.g.k.h.g.g.g.r.r.e.e.7.6.3.2.$.$.#.#.#.#...| | | ....$./ E j > N #.",
"E.c.0.w.i.q.q.i.q.q.q.w.w.w.i.i.i.i.s.s.s.s.c.c.c.v.v.v.v.v.A.P.V.V.A.P.P.A.A.P.A.P.P.A.A.V.V.V.E.I.I.T.Q.Q._.).E.E.)._.E.E.`.`. X`._.).Q.Q.Q.Q.Q.Q._.`.`._._.`.`._._._._._._._._._.).Q.Q.Q.Q.Q.).).).{.{.`.`.`.[.[.A.w.( o   o o o > t.G.%.: * c $XpX%X#X#XOX[.[.[.[.[.[.[.[.[.[.[.[.[.[.`.`.`._._._._._._._._.Q.Q.).).).).Q.Q._._.`.XX$X#X.X_.`.`._._._._._._._.).Q.Q.E.E.T.I.T.I.I.E.Q.Q.E.I.E.E.E.T.W.I.I.I.I.I.P.P.P.P.P.P.P.L.P.P.P.L.A.A.A.A.A.A.m.m.P.).P.'.P.L.m.( %.8XpXyXE.c.v.c.v.v.c.c.c.c.s.s.i.i.i.i.i.w.w.w.q.q.q.q.,.>.-.@.+.+.+.+.[ ] ] ] ] ] ] [ ` ] -.-.] ` [ ] ] ] ] ` ` ` ` ` ` ` _ _ ` ` ` ` ` ` ] ] ] ] ] ] ] ` ` ` ` ` ` ` ` ` ` ` ] ] +.-.-.=.@.@.=.=.@.@.@.@.@.@.@.@.@.@.@.@.@.@.@.@.@.+.+.+.+.+.+.+.] @.-.@.+.+.] ` +.-.w.c.v.V.E. X9X$XO.- > G O...%.3.6.6.8.7.7.7.r.g.h.k.k.h.r.r.k.h.h.g.r.r.e.e.6.3.3.2.3.2.$.#.#.$.3.3.3.3.6.r.e.e.r.r.r.r.r.r.7.6.3.$.$.#.#.#.X.X.X.......#.#./ $.0.r.).0XpXpX*XH.6.e.g.e.r.h.r.e.7.6.3.$.$.3.6.e.r.e.6.3.6.e.e.e.e.r.h.h.h.h.k.h.g.h.h.h.r.r.7.6.3.2.$.$.$.#.#.#.#...| | | ..#.$.....E q z e.",
" XV.q.0.w.q.q.q.q.q.q.q.w.w.i.i.i.i.s.s.s.s.s.s.c.c.c.c.v.v.V.A.V.V.V.P.P.A.A.P.A.A.P.P.P.A.A.P.E.E.I.T.E.Q.Q.E.T.T.)._.W.Q.[. X[.`._._.)._._._._._._.`.`._._. X`.`.`.`._._._._._._.).Q.Q.Q.Q.Q.).).)._.`.`.`.`.T.).V.0.c o 0.s.&.x.M.&.w w e . 7 uXpX&X[.`.`.$X[.[.[.`.`.`.`.`.`.`.`.`.`.`.`.`._._._._._._._._._.`.[. X X[.`._.`. X XXX X[._._._._._._._._._._._.).Q.Q.E.E.T.I.E.E.E.)._._.E.P.E.E.E.T.T.I.I.I.I.I.P.P.P.P.L.L.L.P.I.T.T.I.P.L.L.A.L.L.L.A.V.A.P.M.{.[.m.#XpXpXyX:XP.c.v.c.B.v.c.c.c.s.s.i.i.i.i.w.w.w.w.q.q.q.q.q.,.>.%.@.+.+.+.+.[ ] ] ] ] ] ` [ ` ] -.=.] ` ] ] ] ] ` ` ` ` ` ` ` _ ~ _ _ _ ` ` ` ` ` ] ] ] ` ` ` ` ` ` ` ` ` ` ` ` ` ` ] ] +.-.-.=.@.@.@.@.@.@.@.@.@.@.@.@.@.@.@.@.@.+.+.+.+.+.+.+.+.+.+.+.] +.@.+.@.-.-.-.-.>.,.q.,.>.,.q.V.A.-.v < 7 Z ( ..%.e.r.r.7.9.g.h.k.k.z.k.k.g.r.k.k.h.h.r.r.e.e.6.6.3.3.3.3.$.$.#.3.6.6.3.6.e.r.6.7.e.e.e.e.e.e.6.6.3.$.$.#.#.#.X.X.o.o.......#.....t.*XpXpX<Xb.k.4.8.7.2.o.2.2.$.2.3.3.3.3.6.e.r.r.r.e.e.e.e.r.r.r.r.r.h.k.h.h.h.h.h.h.h.g.r.e.6.3.2.$.$.$.$.#.#.#.#.X...| | ..#.| $...( c 5 $.",
"E.V.w.q.w.w.q.q.q.q.q.q.q.w.i.i.i.i.s.s.s.s.s.s.c.c.c.c.c.v.V.V.V.V.V.A.A.V.A.P.V.A.P.I.I.I.W.E.E.E.E.E.Q._.Q.T.I.E._._.T.Q. X[._._._._._.`.`.[.`._.`.[.`._._. X`.`.`.`._._._._._._.Q.Q.Q.Q.Q.Q.).{.{._.`._._._.$XI.M.! O - T.I v 7 7 e : * j 7 7 pXpX<X$X[.{.[.[.[.[.[.[.[.[.[.[.[.[.[.[.`.`.`._._._._._._._._._._. X X X X`._.XXXX X`._._.`. X`._._._._._._._.).).Q.Q.E.E.E.E.E.Q._.`.`._.E.I.E.E.E.T.T.I.I.I.I.I.I.P.P.P.P.P.P.P.I.T.T.T.T.T.T.P.L.L.I.I.P.m.x.M.M.M.T.&XsXpX#XE.v.v.V.B.v.c.c.c.c.s.s.i.i.i.w.w.w.w.q.q.q.q.q.,.>.>.-.@.+.+.+.+.[ ] ] ] ] ] ` [ ` ` @.+.` ] ] ] ` ` ` ` ` ` ` ` ` _ ~ ~ _ _ ` ` ` ` ` ` ` ] ` ` ` ` ` ` ` ` ` ` ` ` ` ` ] ] +.-.-.-.@.@.@.@.@.@.@.+.+.+.+.+.+.+.+.+.+.+.+.O.O.O.O.O.O.O.O.O.+.+.+.[ [ +.+.+.@.+.+.+.+.@.@.-.] [ +.O.S 1 > c Y | 6.r.g.r.g.g.h.k.k.z.z.k.k.k.l.k.k.h.g.r.e.e.6.6.6.6.6.6.3.$.#.$.3.$.$.6.e.e.6.6.6.e.e.e.e.e.6.6.2.$.$.$.#.#.#.o.o.#.X.....#.$.$.3.r.x.k.t.t.X...8.6.2.8.2.o.#.$.3.6.6.6.e.g.h.g.r.r.h.h.h.g.g.r.r.h.h.h.h.g.k.k.h.h.g.r.7.6.6.3.2.$.$.$.$.#.$.#.#.X...| | | #./ 3.| ..F , D ",
"+.>.w.q.q.q.q.q.q.q.q.q.q.w.i.i.i.i.s.s.s.s.s.s.c.s.s.c.c.v.v.V.A.V.V.V.A.V.A.P.A.P.I.T.T.T.T.E.P.T.E.E._.`._.T.T.Q.`._.I.Q. X`.Q.Q.)._._._._.`._._.`. X X_._.`._._._._._._._._._.).Q.Q.Q.Q.Q.Q.).{.{.{.{.).).).XXL.t.G . O.V.7 , > X j w X X 7 $.aXpX<X%X[.{.`.`.[.[.[.[.[.[.[. X X[.[.[.[.`.`._._._._._._._._.Q._._._.`._._._. X X`.`.`. XXXXX`.`._._._._._._.Q.Q.Q.Q.E.E.E.E.Q._._._._.Q.E.E.E.E.E.T.T.I.I.I.I.I.I.P.P.P.P.P.L.P.P.I.T.T.T.T.T.T.P.L.P.I.P.m.'.M.L.T.M.s.P.I.A.c.v.v.v.v.c.c.c.c.c.s.i.i.i.i.w.q.q.q.q.q.q.q.,.,.>.>.-.@.@.&.+.+.[ [ ] ] ] ] ` ] ` ` [ ] ` [ ` ` ` ` ` ` ` _ ` ` ` _ _ _ _ _ ` ` ` ` ` ` ` ` ` ` ` ` ` ` ` ( ` ` ` ` ` ` ` ` +.-.-.=.@.@.@.+.+.+.+.+.+.+.+.[ +.+.O.O.O.] ] ] ] ] ] ] ] ] ] ] ` ] +.@.@.@.+.[ ] @.-.-.@.@.=.-.w.-.@.>.@.Z e k g V } 6.g.g.g.g.l.k.k.k.k.k.k.k.z.l.k.k.h.g.r.r.7.6.6.6.7.6.3.$.#.$.$.#.$.6.7.6.3.3.6.e.e.e.e.e.7.6.2.$.$.$.$.#.2.#.X.$.$.o.#.$.$.3.e.6.0.0.0.6.g.8.8.o.o.7.2.7.6.7.e.e.6.6.e.r.k.k.h.k.k.z.k.k.k.h.h.h.k.k.h.r.k.k.h.h.h.r.e.6.6.3.2.$.$.$.$.$.$.#.#.#.X.X.....#.X.#.| X.^ q q ",
"e G @.>.-.>.q.q.q.q.q.q.w.w.i.s.i.i.s.s.s.s.s.i.s.s.s.s.c.v.v.v.A.V.V.V.V.V.A.P.P.P.I.I.P.P.P.P.A.P.E.E._.`._.T.T.Q. X`.E.Q.[.`._._._._.Q.Q.Q.Q.)._.[.XX X_.)._._._._._._._._._._.).Q.Q.Q.E.Q.Q.).).).).).).).Q.T._.i.Z X q.Z < > k Z 2X9Xx.k %.tXpXpX$X`.{.[.#X[.[.[.[.[.[.`.`.[.[.[.[.[.[.`.`._._._._._._._._._._._._._._.`.`._._._. X$X%X$X X[.`._._._._._._.Q.Q.Q.Q.Q.E.E.E._._.`._.Q.E.E.E.E.E.E.W.T.I.I.I.I.I.I.P.P.P.P.P.L.L.P.P.I.T.T.Q.P.P.P.P.I.T.P.A.s.T.m.x.P.P.c.m.v.c.V.v.s.c.c.c.c.c.s.s.i.i.i.i.q.q.q.q.q.q.0.0.>.>.>.>.-.@.@.@.+.+.[ [ ] ] ] ] _ [ ] ` ] ` ` +.` ` ` ` ` ` _ _ ` ` ` _ _ _ ` ` ` ` ` ` ` ` ` ` ` ` ` ` ` ` ( ( ` ` ` ` ` ` ` ` +.=.-.=.@.+.+.[ +.+.+.+.+.[ [ ] O.O.] ] ] ] ] ] ` ` ` ` ` ` ` ` @.+.] ] +.+.+.@.=.@.+.+.@.=.@.] _ =.-.+.+.] ) Q ; q D #.r.z.z.k.b.b.b.k.k.h.h.h.z.z.z.k.k.h.r.r.7.7.7.7.e.6.3.$.$.3.2.$.3.e.r.e.3.3.6.e.e.e.e.e.7.6.2.$.$.$.$.#.6.$.X.$.2.2.$.6.t.3.6.h.t.$.$.r.2.$.7.6.r.g.2.7.8.e.r.r.r.r.g.k.k.k.z.b.b.b.b.b.k.k.k.k.k.k.h.r.h.h.h.h.h.h.r.e.6.3.2.$.2.2.$.$.$.#.#.#.X.X...../ $.( | $...V 4 ",
"> * Z >.-.-.q.u.q.<.,.>.q.q.w.i.i.i.i.i.i.i.i.i.s.s.i.i.s.c.c.v.c.v.v.V.V.V.A.P.P.P.I.I.I.P.P.P.P.T.Q.Q.Q.Q.E.I.E._.`.Q.Q.`. X`.Q.Q.)._._._._._._. XXX X_.)._. X_._._.).Q.Q.Q._._._.Q.E.E.E.Q.Q.).).).Q.Q.Q.).).).{.q.Z = &.p > 7 2XuXpXuX2XuXuXpXpX0X;X`.Q.`.#X[.`.`.`.{._.`.[.[.[.[.[. X[.[.[.[.`.`.{.).).).).).{.`.[.`.`.`.`.`.[.#X%X$X[.`.[.`.`.`.`.`.`.`.`.).).).Q.Q.E.E.E.E.E.E.E.E.E.E.E.T.I.E.T.I.I.I.P.P.P.P.P.P.I.I.I.A.P.T.Q._.).Q.E.T.T.I.P.P.P.A.A.V.m.V.V.V.V.V.V.v.v.v.v.c.c.c.c.c.s.s.i.i.s.i.i.w.w.w.w.q.q.q.0.-.-.-.-.-.@.@.@.+.+.[ ] ] ] ] [ ` ] ] ] ` ` ` ` ` ` ] ] ] ] ] [ ` ` ` ` ` ` ` ` ~ ~ ` ` ` ` ` ` ( ( ( _ _ _ ( ( ` ` ` ` ` ` ] ] O.+.+.+.O.] ] ] O.] ] ] ] ] ] O.] ] ] ] ` ` ` ` ` ` ` ` ` ] ] ] O.] O.] [ O.O.O.+.+.+.+.+.+.+.+.+.+.+.@.@.@.@.@.S - > Y #.e.n.g.z.k.h.h.h.h.k.k.b.M.M.b.k.r.e.6.e.e.e.e.e.6.6.3.3.3.6.6.7.e.e.e.6.6.e.r.r.e.6.3.3.3.3.3.3.3.3.3.6.2.$.3.3.3.6.e.r.r.6.3.3.6.r.r.6.7.r.r.e.7.7.e.r.r.r.r.r.h.k.k.k.h.k.b.n.n.G.H.G.F.b.k.k.h.k.k.r.h.k.k.r.e.8.6.6.3.3.3.3.%.$.$.$.$.#.#.#.X.X.X.#.....X.#...E V ",
"N 3 7 Z +.q.q.=.,.,.<.q.w.w.w.i.i.i.i.i.i.i.i.i.i.i.i.i.s.c.c.v.c.v.v.V.V.V.A.P.P.P.P.P.P.P.P.P.P.E.Q.Q.Q.Q.E.I.E._._.Q.Q.`. X`.`.`.[. X X X XXX[. XXX X_.Q._.`._._._._.Q.Q.Q._.).Q.Q.E.E.E.Q.Q.).).).Q.Q.Q.Q.Q.L.Q.M.H   < o 9 ( 0XpXpXuX1XtXyXaX5X#X`.[. X[.).)._.[.XX X[.[.[.`.[.[.[.[.[.[.[.`.`.`.`.{.`.`.`.`.`.[.[.`.`.`.`.`.[.XX$X#X[.`.[.`.`.`.`.`.`.`.`.).).).Q.Q.E.E.E.E.E.E.E.E.E.E.E.I.I.T.T.I.I.I.P.P.P.P.P.P.I.I.I.E.E.E.Q.E.E.I.I.T.I.I.P.P.P.A.A.V.V.V.V.V.V.V.V.v.v.v.v.c.c.c.c.c.c.s.i.i.i.i.i.w.w.w.q.q.q.>.>.-.-.-.-.=.@.@.@.+.+.+.[ [ [ [ [ >.>.>.-.@.] ` ` ` ` ` ` ` ] ] ] ` ` ` ` ` ` ` ` ~ ~ ` ` ` ` ` ~ ( ( _ _ _ _ ( ( ` ` ` ` ` ` ] ] +.+.@.+.+.] ] ] ] ] ] ] ] ] ] ] ] ] ] ` ` ` ` ` ` ` ` ` ` ` ] ] O.O.O.O.O.] O.O.+.+.+.+.+.+.+.O.O.+.+.+.@.@.@.@.~ v e c e.H.k.g.k.k.k.k.b.M.n.n.n.n.n.b.k.h.r.r.e.e.r.e.e.6.3.2.3.3.6.6.7.e.e.e.6.7.e.e.e.6.3.$.3.3.6.6.6.6.6.6.6.3.2.3.6.3.6.e.6.6.6.6.6.e.r.r.e.r.r.r.e.7.7.e.e.e.e.r.g.k.k.z.b.k.b.G.H.G.G.G.n.b.b.z.k.k.k.k.M.n.n.n.k.r.e.e.6.6.3.3.3.3.3.$.$.$.$.#.#.X.X.X.#.......X.../ E ",
") N 7 w ` w.u.,.-.,.q.u.i.u.w.w.w.w.w.i.i.i.i.i.i.i.i.i.s.c.c.v.c.v.V.V.V.V.A.P.P.P.P.P.P.P.P.P.P.E.E.E.E.Q.Q.T.E.)._.Q.Q.`. X`. X X X X X X X X[. X X`._._._._._._._._._._._.).Q.Q.Q.Q.E.E.E.E.T.Q.Q.Q.Q.Q.Q.Q.`.T.c.Q : 7 7 Q 9XpXpX2X[.).%X<X&X#X{.)._.[.[.`.`.[.XX#X X[.`._.[.[.[.[.[.[.[.[.`.`.`.`.`.`.`.`.`.`.[.[.`.`.`.`.`.`.[.XXXX`.`.[.`.`.`.`.`.`.`.`._.).).Q.Q.Q.E.E.E.E.E.E.E.E.E.E.T.T.T.T.I.I.P.P.I.I.P.P.P.P.P.I.E.E.E.E.I.I.I.P.I.I.P.P.P.A.A.V.V.V.V.V.V.V.V.V.v.v.v.v.c.c.c.c.c.c.s.i.i.i.i.i.w.q.q.q.q.>.-.-.-.-.=.@.@.@.@.@.+.+.+.+.[ +.+.+.=.-.-.=.@.+.+.+.] ] ] ] ] ` ` ` ` ` ` ` ` ` ( ` ~ ( ` ` ` ` ( ( ( ( ( ( _ _ _ ( ` ` ` ` ` ` ] ] +.@.@.@.+.O.O.+.] ] ] ] ] ] ] ] ] ] ` ` ` ` ` ` ` ` ` ` ` ` ` ] ] ] ] ] ] ] ] ] +.O.O.] ] ] ] ] ] ] [ +.[ [ [ [ +.! v 7 x.>Xh.k.k.k.b.n.n.n.n.n.n.b.k.k.h.h.h.h.r.r.g.r.r.6.3.2.3.3.6.6.7.e.e.e.r.r.r.e.7.6.3.3.3.3.6.6.6.6.6.6.7.3.3.6.6.6.6.e.6.6.e.e.r.r.e.e.r.r.r.r.e.6.6.7.6.e.r.g.k.z.b.b.n.n.n.H.H.G.n.b.k.k.k.k.k.k.k.h.n.n.n.b.k.r.e.6.6.6.6.3.3.3.3.3.$.$.$.#.#.X.X.X.#.X.............",
"| ( k w ( i.c.<.<.<.u.i.i.i.w.w.w.w.w.w.w.w.i.i.w.w.i.i.s.c.v.v.v.v.V.V.V.V.A.P.P.P.P.A.A.P.P.P.P.I.E.T.E.E.E.E.E.)._.)._.`. X XXX X[.`._._._._._._._._._._._._._._._._._._._.).Q.Q.Q.Q.E.E.E.E.T.T.Q.Q.Q.Q.Q.T.T.T.).M.O.&.A.5XpXuX0X%XQ.).).).).{.`.`.[.[.[.[.XXXX X[.`.`.[.[.XXXXXX X[.[.[.`.[.`.`.`._.{.{.{._.`.`.`.`.`.`.`.`._.`.[.[.`.`.[.[.[.`.`.`.`.`.`._._.).).Q.Q.Q.E.Q.Q.E.E.E.E.E.E.W.T.T.T.I.I.P.P.I.I.P.P.P.P.P.P.P.P.I.I.E.E.E.E.I.I.P.P.P.A.V.V.V.V.V.V.V.v.v.v.v.v.v.v.v.v.c.c.c.c.s.i.i.i.i.i.q.q.q.q.>.-.-.-.=.=.@.@.@.@.+.+.@.+.+.+.+.+.+.+.` ] [ +.[ [ +.+.@.@.@.+.+.] ] ` ` ` ` ` ` ( ( ` ( ( ` ` ` ( ~ ~ ~ ~ ~ ~ ~ ~ ~ ~ ` ` ` ` ` ` ] ] O.+.+.+.O.] ] O.] ] ` ` ` ` ] ] ` ` ` ` ` ` ` ( ( ~ ~ ( ( ` ` ` ] ] ] ] ] ] ] ] ] ] ] ] ` ` ` ` ` ] ] ] [ [ [ [ +.( Z * k.9XG.z.b.b.b.b.b.b.b.b.k.k.h.r.r.r.r.r.h.k.k.h.g.e.6.3.3.6.6.7.e.e.e.e.g.r.e.e.6.6.3.3.6.7.e.e.e.e.7.6.e.6.3.6.6.6.7.r.r.r.r.g.g.r.r.e.k.h.g.r.e.e.e.r.e.r.h.k.b.b.n.n.H.n.n.n.b.k.h.h.g.r.r.r.r.r.g.h.k.k.k.h.r.r.e.e.6.6.6.6.3.3.3.3.$.$.$.#.#.#.X.X.#.X.....| ..#.$.",
"#.&.c e K c.W.,.p.p.p.p.u.w.w.w.w.w.w.w.w.w.w.w.w.w.i.i.s.c.v.v.v.v.V.V.V.V.A.P.P.P.A.A.A.A.P.P.P.I.I.I.I.E.E.T.Q._._._._.[. XXXXXXX X`._._._._._._.)._._.`._._._._._._._._._.).).).Q.Q.E.E.I.I.Q.Q.Q.Q.Q.Q.Q.Q.[.I.I.I.$X0XpXpXpX5X<XXX).XX[._.[._._. X%X&XXX).`.`.[.[.XX#X%X&X$X#X#XXX X[.[.[.[.[.`.`.`.[.[.[.[.[.[.[.`._.`.`.`.{._.[.[.`.`.[.[.[.[.`.`.`.`.`._._._._.).Q.Q.Q.Q.Q.Q.E.E.E.E.E.E.E.E.E.T.I.I.P.I.I.P.P.P.P.P.I.P.P.T.E.Q.Q.Q.Q.I.I.P.P.P.A.V.V.V.V.V.V.V.v.v.v.v.v.v.v.v.v.v.v.c.c.s.i.i.i.i.w.q.q.q.0.>.-.-.@.=.@.@.@.@.+.+.+.@.+.+.+.+.+.+.+.+.@.@.@.+.] ] ] =.=.@.@.@.+.+.+.` ` ` ` ` ` ( ` ( ` ` ` ( ~ ~ ~ ~ ~ ~ ~ ~ ~ ~ ~ ~ ( ( ` ` ` ` ` ` ] O.] ] ` ` ] ` ` ` ` ` ` ` ` ` ` ` ` ` ( ( ( ~ ~ ~ ~ ~ ( ` ` ` ` ` ` ` ` ` ` ] ] ] ` ` ` ` _ ` ` ` ] ] [ ] ] +.Q S , r.iX'.z.n.M.b.b.z.z.z.z.k.k.k.h.r.r.e.e.k.k.k.h.g.e.6.3.6.6.7.e.r.r.r.r.e.e.6.6.6.6.6.6.g.h.h.h.h.r.e.7.e.6.6.6.7.7.e.g.h.h.h.h.h.h.h.h.b.b.k.h.h.k.k.k.h.k.z.b.n.n.b.b.G.b.k.h.h.g.h.k.h.r.r.e.e.r.g.h.k.k.h.h.h.h.r.r.8.6.6.6.6.3.3.3.$.$.$.#.#.#.#.#...X.....| ..X.$.",
"..&.G j p i.-Xc.f.p.u.u.w.q.w.w.q.q.w.w.w.w.w.w.w.i.i.s.c.c.v.v.v.V.V.V.V.V.A.P.A.A.A.A.A.A.A.P.P.I.I.I.I.E.E.T.)._._.`.`.[. XXX`.`._._._._._._.`._._._._._._.)._._._.`._._._.)._._.Q.Q.E.E.T.T.).).Q.Q.T.E.Q.Q.T.[.&XXX X;X9XpXuX2X#XQ.T.)._.{.`. X#X%X$X#X[.[.[.XX$X%X%X%X%X%X$X$X#X#XXX X X[.[.[.[.[.XX#X#X$X$X$X#XXX[.`._.`.`.{._.[. X[.`.`.[.[.[.[.`.`.`.`._._._._._.Q.Q.Q.Q.Q.Q.Q.E.E.E.E.E.E.E.E.E.T.I.I.I.I.P.P.P.I.T.E.Q.Q._._._.Q.E.T.I.I.P.P.P.A.A.V.V.V.V.V.V.V.V.v.v.v.v.v.v.v.c.c.c.c.s.i.i.i.i.w.q.q.q.0.>.-.-.-.@.@.@.@.@.+.+.+.+.+.+.+.[ +.+.+.@.@.@.@.+.+.+.+.+.+.+.@.@.@.@.@.` ` ` ` ` ` ` ` ( ` ` ` ( ~ ~ ~ ~ ~ ~ ~ ~ ~ ~ ~ ~ ~ ~ ~ ( ` ` ` ` ` ] ] ` ` ` ` ` ` ` ` ` ` ` ` ` ` ` ` ( ( ~ ~ ! ! ! ! ~ ~ ( ` ` ` ` ` ` ` ` ` ` ` ` ` ` ` ` ( ` ` ` ] ] ] ] ] +.Q K > e.iX@Xz.n.b.b.b.b.n.n.n.M.b.b.z.k.k.h.h.k.k.h.h.r.e.6.3.6.e.e.r.r.r.g.g.r.r.e.e.r.r.h.h.h.h.k.k.h.r.7.6.e.7.6.e.r.r.g.k.h.h.h.h.k.z.b.n.G.F.n.b.n.n.n.n.b.b.n.n.n.n.b.z.b.k.g.h.h.h.k.b.k.h.r.e.r.g.k.b.k.k.h.r.r.r.r.e.e.e.6.6.6.3.3.3.2.$.$.#.#.X.#.#.................",
"( #.O.m - w.wXW.u.u.q.q.q.q.q.q.q.q.q.q.w.w.w.w.i.i.s.c.c.c.v.v.v.V.V.V.V.V.A.P.V.V.A.A.A.A.A.A.P.I.T.T.E.Q.Q.E._._._.`.`.`. XXX).).)._._._._._._._._._._._._._._._._.`.`._._.)._.).Q.E.E.E.Q.Q.{.).).T.T.T.Q.Q.`.#X[.`.{.#X#X`.`.`.).`.[.`.{.T.`.#X&X%X[.`.XX%X%X%X&X&X%X#XXX[.#X#XXXXXXXXX#X#X[.[.[. XXXXX#X#X#X#X#X[.[.`.`.`.`._.`. X#X X[.`.[.[.`.`.[.`.`.`.`._._._._.).Q.Q.Q.Q.Q.Q.Q.E.E.E.E.E.E.E.E.E.T.I.E.T.I.I.I.E.Q.Q._._._.Q.E.E.I.I.T.I.I.P.P.P.A.A.A.A.A.V.V.V.V.V.V.v.v.v.v.c.c.c.c.c.s.i.i.i.i.w.q.q.q.0.>.>.-.-.=.@.@.@.@.+.+.+.+.+.+.[ [ [ [ [ ] ] +.+.+.+.+.@.+.+.+.+.+.@.@.@.` ` ` ` ` ` ` ` ` ` ` ( ~ ~ ~ ! ~ ~ ~ ~ ~ ~ ~ ~ ! ! ~ ~ ~ ~ ( ( ( ` ` ` ` ` ` ` ` ` ` ` ` ` ` ` ` ` ` ` ( ~ ~ ~ ! ! ! ! ! ~ ~ ~ _ _ ( _ ( ( ( ( ` ` ` ` ` ` ` ` ` ` ` ` ] ] ] ] ] ) Z > k.iX+Xk.k.k.b.M.n.n.n.n.n.M.b.k.k.k.b.b.z.k.k.h.r.e.e.e.e.e.r.r.h.h.h.h.h.h.g.h.h.k.z.b.h.k.k.z.k.g.e.6.r.e.e.r.h.h.k.n.k.k.z.b.n.G.H.H.J.H.F.n.F.F.n.n.n.n.n.n.n.b.l.k.h.g.h.b.b.z.k.k.h.g.r.r.g.k.b.n.k.h.r.e.e.e.e.8.e.e.8.6.6.3.3.3.2.$.$.$.#.#.#.#.................",
"O./ Q c - c.uXB.,.,.<.<.q.q.q.q.q.q.q.q.q.q.w.w.i.i.s.c.c.v.v.v.v.V.V.V.V.V.A.P.V.V.A.A.A.A.A.A.P.I.E.E.E.Q.Q.E._._._.`.`.`.`. X_._._._._._._._.Q.)._._._._.`.[._._.`.`.`._._.).Q.Q.E.E.E.Q.)._.`.{.).T.T.T.Q.).I.[.{.[.E.{.{.).[.%X).Q.).Q.[.[.%X#X[.[.#X$X%X%X&X%X%X#XXX[.XX#X X[.[. XXX#X#X$X#XXX X[.[.`.`.`.`.[.`.`.`.`.[.[.[.`.`.XX#XXX[.[.[.[.[.`.`.`.`.`.`.`._._._.).Q.Q.Q.Q.Q.Q.Q.E.E.E.E.Q.Q.E.E.E.E.T.E.E.E.T.E.Q._._.E.E.T.I.I.I.I.I.T.T.I.P.P.P.A.A.A.A.A.A.V.V.V.V.V.V.v.v.v.c.c.c.v.c.s.s.i.i.i.w.q.q.q.0.>.>.>.-.=.=.@.@.@.+.+.+.+.+.[ ] ] ] ] [ ] +.+.+.+.[ [ +.-.=.@.@.+.+.[ ] ` ` ` ` ` ` ` ` ` ` ` ( ~ ~ ~ ! ~ ~ ~ ~ ~ ~ ~ ~ ! ! ! ! ~ ~ ~ ~ ~ ` ` ` ` ` ` ` ` ` ` ( ( ` ` ` ` ` ` _ ~ ~ ~ ~ ! ! ! ! ! ~ ~ ~ _ _ ( ( ( ( ( ( ` ` ` ` ` ` ` ` ` ` ` ` ] ] ] ] ~ ( c , F.iX].h.k.k.b.n.n.n.M.b.b.k.h.r.r.k.b.n.n.b.z.k.h.g.r.r.e.r.r.g.h.h.k.k.r.r.r.r.g.h.k.k.b.n.F.G.F.b.k.h.h.r.r.h.k.z.n.G.n.n.G.H.H.J.J.U.J.H.n.n.n.n.b.k.n.n.n.n.b.z.k.k.r.g.k.F.G.z.r.7.e.r.r.r.h.k.b.n.k.h.r.e.r.r.r.e.e.e.e.6.6.6.3.3.2.$.$.$.#.#.#.#.....| | ........",
"( Q G c m 2XuXS.,.,.,.,.<.q.q.q.0.q.q.q.q.q.w.i.w.s.c.c.c.c.v.v.V.v.V.A.A.v.V.A.A.V.v.V.A.P.P.P.T.I.I.Q._.).)._. X_.)._.`.`._._._._._._._._._._._._._._._._._._.`.`.`.`.`._.).Q._.Q.E.).).E.Q._.).Q.`.E.Q.P.t.s.c.I.`.Q.).[.Q._.).#X_.T.`.`.).[.%X X[.$X=X&X%X$XXX#X&X&X%X$X#X#XXXXXXX X[.[.[.[.#X#X#X#XXX[.`.`._.`.`.`.`.[.[.[.#X#X%X&X%X[.`.[.[.[.[.[.[.[.[.[._.`.`.`.`._._.).Q.Q._.`.`.`._.Q.E.E.E.E.Q.Q.Q.).I.T.E.)._._.E.T.E.E.E.E.E.T.T.T.T.T.T.I.I.P.P.P.A.A.A.V.V.V.V.V.v.v.v.v.v.v.c.c.c.c.s.i.i.i.w.w.w.q.q.q.0.>.>.>.-.=.@.@.@.@.@.+.+.+.+.[ ] ] ] ] +.] ] +.+.] ] ] ] ] [ +.+.@.@.@.] ] ` ` ` ` ` ` ` ` ` ` ( ~ ~ ! ~ ~ ~ ~ ~ ! ! ! ! ! ! ~ ` ` ~ ! ~ ~ ( ` ` ` ` ` ` ` ` ` ( ( ( _ ( ( ( ( ~ ~ ~ ! ! ! ! ! ! ! ~ ~ ! ~ ~ ~ ~ ~ ~ ~ ( ( ` ` ` ( ~ ~ ` ` ] ] ` ' ' ` ~ ] Z * M.iX(.l.k.b.M.b.M.G.G.n.k.k.k.k.k.k.k.k.b.l.h.h.h.h.g.r.r.g.h.h.g.r.e.6.6.6.6.6.r.k.n.n.F.n.n.n.b.b.k.h.k.g.r.b.G.H.G.G.G.G.G.G.H.H.H.H.n.G.H.H.H.F.n.b.H.F.b.k.k.k.k.k.b.b.n.n.z.h.g.r.r.r.e.e.r.h.h.k.k.h.r.r.r.e.r.r.8.8.8.6.6.6.3.3.3.3.3.2.$.$.#.#...3.| | | | 3. .",
"( O.G , >.uXuXd.,.,.,.,.,.<.q.q.0.q.q.q.q.q.w.i.w.s.c.c.c.c.v.v.V.v.V.A.P.V.V.A.P.A.V.A.P.I.I.I.Q.E.E.Q.Q.E.E.Q.[._.Q.)._._.).)._._._._._._._._._._._._._._._._.`.`.`.`.`._.).Q.E.T.I.E.E.E.E.Q.T.Q._.).Q.L.y.] Q y.)._.`. X).[.#X%X[.).[.[.`.#X%X#X$X&X%X#XXXXX#X%X&X=X&X%X%X%X%X%X$X$X#X#X#X#X#X#X#XXX X[.[.`.`.`.`.`.`.`.`.`.[.[.XX#XXX[.[.#X$X$X#X#XXX[.[.`.`.`.`.`.`._._._.Q.Q._._.`._._.Q.Q.Q.Q.Q.Q.Q.Q.Q.E.T.I.P.I.E.Q.Q._._.).Q.Q.E.E.E.E.T.T.I.I.P.P.P.A.A.A.V.V.V.V.V.v.v.v.v.v.v.c.c.c.c.s.i.i.i.w.w.w.w.q.q.0.>.>.>.-.-.=.@.@.@.@.+.+.+.+.[ ] ] ] ] +.] ] +.+.[ ] +.] ] ] ] [ [ +.+.] ] ` ` ` ` ` ] ` ` ` ` ( ~ ~ ~ ~ ~ ~ ~ ~ ! ! ! ! ! ! ~ ~ ~ ~ ~ ~ ~ ( ` ` ` ` ` ` ` ` ` ` ` ( _ ` ` ` ` ( ~ ~ ~ ! ! ! ! ! ! ~ ~ ~ ~ ~ ~ ~ ~ ~ ~ ~ ( ( ( ( ( ~ ~ ` ` ] ] ` ' ' ` ` I Z * L.iXOXF.b.G.G.n.M.b.z.h.k.k.k.b.n.n.G.G.n.n.k.k.k.k.h.r.h.h.h.h.h.g.r.r.e.e.r.h.z.n.F.F.n.b.z.k.h.h.h.g.G.n.b.G.U.U.J.J.F.F.F.F.F.G.G.G.G.H.U.Y.U.U.J.J.G.n.b.b.b.b.b.b.n.n.n.k.h.r.r.r.r.r.r.r.h.k.k.k.k.h.r.r.r.e.r.r.8.8.8.6.6.6.3.3.3.3.3.2.$.$.#.#.| ../ #...| 3.X.",
"( F 7 c <XuX=XV.,.,.,.,.,.,.q.q.q.q.q.q.q.q.q.w.w.s.c.c.c.v.V.V.V.V.V.P.P.A.A.A.P.A.P.P.I.T.E.T.Q.E.E.Q.Q.E.E.E._.Q.E.Q.).Q.Q.Q._._._._._._._._._._._._._._._._.`.`.`.`.`._._.Q.Q.E.E.Q.).Q.)._. X#X X[.I.s.Q > * k y.T.Q.Q.Q.%X[.[.).T.{._.`.$X$X%X&X&X#X[.[.#X&X&X=X&X%X$X$X$X&X&X%X%X%X%X&X&X#X#XXXXX[.[.[.[.`.`.`.`.[.[.[.[.[.`.`.[.[.[.#X%X%X%X$X#X#X[.[.`.`.`.`.`.`._._._.Q.Q.)._._._._.).`._._._.).Q.Q.Q._.Q.E.I.E.)._.`.`._._._.).Q.Q.Q.E.E.E.I.I.P.P.P.A.A.A.V.V.V.V.V.V.V.V.v.v.v.c.c.c.c.s.i.i.i.i.w.w.w.q.q.q.>.>.>.-.-.-.=.@.@.@.@.+.+.+.[ ] ] ] ] [ ] ] +.+.+.+.+.+.+.[ [ ] ] ] ] ] ] ] ` ` ` ` ] ` ` ` ` ` ( ~ ~ ` ` ( ~ ~ ! ! ! ! ~ ! ! ! ! ~ ` ~ ~ ( ( ` ( ~ ~ ` ` ` ` ` ` ` ` ` ` ` ` ( ~ ~ ~ ! ! ! ! ! ~ ~ ( ` ` ( ~ ~ ~ ~ ~ ~ ~ ~ ~ ~ ~ ~ ~ ` ` ] ] ` ' ' ` +.G Z * m.iXOXz.b.n.H.G.n.n.b.z.b.b.M.n.n.G.H.H.G.n.b.k.h.h.g.r.h.h.h.h.h.h.h.g.h.k.z.n.F.G.n.n.k.k.z.z.k.h.h.g.k.h.h.k.b.k.z.b.G.G.G.G.G.G.G.G.U.Y.Y.Y.U.U.U.U.G.G.G.G.H.H.H.H.H.G.n.k.r.e.r.r.r.r.r.r.h.k.z.z.h.h.r.r.r.r.r.r.e.8.6.6.6.6.3.3.3.3.3.2.$.$.#.#.$.....3...| 3.X.",
"G H 7 0.wXuXP.q.<.,.,.,.,.,.>.>.q.q.q.q.q.q.q.q.i.c.v.v.v.V.A.A.V.A.P.P.P.A.A.A.A.P.P.P.I.E.E.E.E.E.E.).).E.Q._._.E.E.E.Q.Q.Q.).).)._._._._._.`.`.`.`.`.`.`.`.`.`.`.`.`.`._._.)._._._._.`.`.[. X). X).[.L.y.H o . # Z &.m.`.).T.`.`.`.[.XX#X$X&X#X$X%X$X#XXX$X&X;X=X&X%X#X#XXXXX%X$X$X$X$X%X&X&X#X#XXX[.[.[.[. X`.`.`.[.[.[.[.[.[.`.`.[. X#X%X&X#X#X#XXXXX X[.[.`.`.`.`.`._._._.).).Q.Q.Q.).Q._.`.`._._.).Q.Q.E.Q.Q.)._.`.`.`._.Q.Q.Q.Q.Q.Q.Q.Q.E.E.E.T.I.I.P.P.P.A.A.V.V.V.V.V.V.V.V.v.v.v.c.c.c.c.s.i.i.i.i.w.w.w.w.q.q.0.>.>.-.-.-.-.=.@.@.@.+.+.+.[ [ [ [ [ ] ] ] @.@.+.+.@.@.@.@.@.+.+.[ ] ] ] ] ] ] ] ] ] ` ` ` ` ` ` ` ` ` ` ` ~ ~ ! ! ! ! ! ! ! ( ` ` ( ~ ~ ~ ~ ~ ~ ~ ~ ` ` ` ` ` ` ` ` ` ` ` ` ` ( ~ ~ ! ! ! ! ! ~ ~ ( ] ` ` ~ ~ ~ ~ ( ~ ~ ~ ~ ~ ~ ~ ( ` ` ] ] ` ' ' ` +.I Z ; $.9X(.M.n.G.H.H.n.n.n.n.b.M.M.n.n.M.M.M.b.z.k.h.r.r.r.r.k.h.h.r.r.r.r.g.b.b.b.n.n.n.z.k.g.k.n.G.G.n.z.k.k.k.z.b.b.k.b.F.J.J.U.U.U.U.U.U.Y.Y.U.H.F.n.n.n.G.G.F.G.H.J.U.U.U.H.F.z.h.r.r.g.e.e.e.r.h.k.k.k.h.r.r.r.r.r.e.e.e.8.6.6.6.3.3.3.3.3.3.2.$.$.$.#.6.X.#.2...$.7...",
"Y s c #XpX5Xu.-.<.<.,.,.>.>.0.0.q.q.0.0.q.q.q.q.i.c.v.v.v.V.P.P.V.P.T.I.A.V.A.P.P.P.I.T.E.E.E.E.Q.E.Q._.).E.Q._._.E.E.E.Q.Q.Q._.Q.).)._._._._._.`.`.`.`.`.`.`.`.`.`.`.`._._._._.Q.)._._._.`.[.[.`.XX).[.M.&.p o t.7 o 9 Q 0.v.).T.T.).`.`.#X$X#X#X#X#X#X#X%X=X<X&X%X$X#X#X#X#X#X$X$X#X#X#X#X$X$X$X#XXX[.[.[. XXX[.[.[.[.[.[.[.[.[.[.[.[.XX$X%X%X[.[.[. X X X[.[.[.`.`.`._._._._._._.).Q.Q.Q.)._._._._.).Q.Q.Q.Q.I.E.Q._._._.Q.E.E.E.E.E.E.E.Q.Q.E.E.E.E.I.I.P.P.P.A.A.A.V.V.V.V.V.V.V.V.v.v.c.c.c.c.s.i.i.i.i.i.w.w.w.q.q.q.0.>.>.>.-.-.-.@.@.@.+.+.+.+.[ [ +.+.] ] +.@.@.+.@.-.-.-.=.@.@.+.[ +.] ] ] ] ] ] ] ] ` ` ` ` ` ` ` ` ] ` ` ~ ~ ! ! ! ~ ! Q ~ ] +.` ! ( ~ ~ ~ ~ ~ ~ ~ ( ( ` ` ` ` ` ` ` ` ` ` ( ~ ~ ~ ! ! ! ! ! ! ~ ( ] ` ` ~ ~ ~ ~ ( ~ ~ ! ! ~ ~ ~ ( ` ` ] ] ` _ _ _ ~ ( Z 7 N *X^.J.U.U.H.G.b.k.k.b.b.b.b.b.k.k.k.h.k.h.h.r.r.g.h.h.z.k.k.h.g.g.h.h.b.l.k.k.k.k.k.h.k.b.n.F.n.b.z.z.b.b.n.G.n.n.G.U.U.U.U.U.U.U.U.J.J.H.H.G.n.b.n.n.n.b.z.z.b.n.G.G.G.G.n.b.k.h.g.h.e.e.e.r.k.k.k.k.r.r.r.r.r.r.e.e.e.e.6.6.3.3.3.3.3.3.3.3.$.$.$.$.#...$.#...6.2.E ",
"s > t.pXpXv.;.u.,.,.,.,.>.>.0.q.q.0.>.0.q.w.w.w.i.c.v.v.v.V.A.P.V.I.E.P.A.A.I.E.T.E.E.E.E.E.Q.Q.Q.Q._._.Q.E.E.Q._.Q.E.Q.Q.Q._.`.Q.Q.)._._._._._._._._._._._._._.`.`.`._._._._._.Q._._._.`. X X`.&X%X[.`.y.Q + - A.Q e o . p ) %.t.s.c.c.M.).#X[.&X%X$X#X%X=X;X&X$X#X#X#X%X&X;X;X&X&X%X%X$X#XXXXX#X#XXX X[.[.XXXX#X#X#X#XXX[.[.[.[.[.[.[.XX#X#XXXXXXXXXXX X[.[.[. X[.`.`._._._._._._._.).).).).).).Q.Q.Q.Q.Q.Q.Q.E.E.T.E.E.Q.Q.Q.Q.Q.Q.Q.E.E.E.E.E.E.E.E.T.I.P.P.P.P.A.A.V.V.V.V.V.V.V.V.v.v.v.c.c.c.s.s.s.s.i.i.w.w.w.w.q.q.q.0.,.>.>.-.-.=.@.@.+.+.+.+.+.+.+.+.] ] +.@.@.+.@.-.@.@.@.@.+.+.[ [ ] O.O.O.O.] ] ] ` ` ` ` ` ` ] ] ] ` ` ~ ~ ~ ~ ~ ~ ! ! ` +.@.` ! ~ ( ~ ~ ~ ~ ( ` ( ( ` ` ` ` ` ` ~ ~ ( ( ~ ~ ~ ! ! ! ! ! ! ! ~ ~ ` ` ( ~ ~ ~ ~ ~ ~ ! ! ! ! ~ ~ ( ` ] ] ] ` _ _ _ I O.G w 3 6.l.z.U.G.n.b.b.k.k.M.b.b.b.b.z.k.k.k.h.h.h.g.g.h.l.b.n.n.b.b.z.z.b.b.l.k.h.h.k.z.b.z.F.n.b.k.g.g.k.b.k.k.b.n.n.n.G.U.J.H.H.H.G.F.n.n.F.G.H.H.H.H.J.U.F.n.b.b.n.n.F.F.z.b.b.z.k.g.r.r.r.r.g.k.k.k.k.h.r.r.r.r.r.r.e.e.e.e.6.3.3.3.3.3.3.3.3.3.2.$.$.$...$.6.#.....F x ",
"c t.tXtXXXq.u.-.,.,.,.,.>.,.q.q.q.>.>.q.w.w.w.w.s.v.V.V.v.V.P.P.A.P.P.A.P.T.Q.Q.E.Q.Q.E.E.E.E.Q.E.Q.)._.Q.I.E.Q._.Q.E.Q.Q.Q._. X_._._._._._._._._._._._._._._._.`.`._._._._._._._.`. X.X XXXXX X`.).{.).y.Q X I -.* 1 ( Z O O v G S K S ( P.;X=X&X&X&X%X&X=X&X#X#X#X#X$X&X<X<X2X&X&X&X&X%X%X#XXX#X#XXXXX X XXXXX#X#X#X#X#X#X#X#X[.[.[.`.[.#X#X[.XXXXXXXX X[.[.`. X[.`.`._._.`.`._._._._._._.).).).).).Q.Q.Q.E.E.).Q.E.E.E.Q.Q.Q.Q.Q.Q.Q.Q.E.E.E.E.E.E.E.E.I.I.P.P.P.A.A.A.V.V.A.V.V.V.V.v.v.v.c.c.c.s.s.s.s.i.i.i.w.w.w.q.q.q.q.q.,.>.>.-.-.@.@.+.+.+.+.+.+.+.+.] [ @.@.@.[ +.-.+.+.+.+.[ +.+.+.] O.+.+.+.O.] ] ` ` ` ` ` ` ] O.] ` ` ~ ~ ~ ( ( ` ` ] ] +.] ` ~ _ _ ~ ~ ~ ` ` ` ( ` ` ` _ ( ( _ ~ ~ ~ ~ ~ ~ ! ! ! ! Q Q I ! ! ~ ~ ~ ~ ~ ~ ~ ~ ~ ! ! ! ! ! ~ ~ ` ` ] ] ] ` _ _ _ ~ ] Q c 5 q #.7.H.b.k.b.n.n.n.G.b.b.M.n.M.b.k.k.k.k.k.h.h.k.b.n.n.n.n.n.F.G.G.G.n.n.b.b.n.n.F.n.F.F.n.l.h.h.k.n.n.b.n.F.G.G.H.Y.F.F.n.n.n.n.b.b.G.H.U.Y.Y.U.U.U.G.G.G.H.H.H.H.G.k.k.l.k.h.g.g.g.g.h.h.k.l.k.h.g.r.r.r.r.r.r.e.e.e.8.6.3.3.3.3.3.3.3.3.3.2.$.$.$.#.3.6.../ D q V ",
"&XuXpX4Xw.,.-.,.,.>.>.,.>.,.q.q.q.>.>.q.w.i.i.i.c.V.A.V.V.A.P.P.P.A.V.V.P.)._.Q.E.Q.E.E.I.I.E.Q.I.I.E.Q.E.T.E._._.Q.E.Q.Q.Q._. X_._._._._._.).)._._._._._._._._.`.`._._._._._._._.[. X.X XXXXX.X[.).[.).y.K   &.S w w 7 w Q c . O . . O > 0.%X&X$X&X<X;X&X&X%XXX$X#X#X$X&X;X<X<X%X&X&X=X&X&X%X$X#X#X#XXXXXXXXXXX[. X#X#X$X%X%X&XXXXX[.`.[.#X#X X[.[.[.[.[.[.[.`. X[.`.`._._.`.`._._._._._._._.)._._._.).Q.Q.E.E.Q.E.E.E.Q.Q.E.E.E.E.E.E.Q.Q.Q.Q.E.E.E.E.E.I.I.P.P.P.A.A.A.A.A.A.V.V.V.V.v.v.v.c.c.c.s.s.s.s.i.i.i.i.w.w.q.q.q.q.q.q.>.>.-.-.@.@.+.+.+.+.+.+.+.+.[ +.@.=.@.[ +.-.+.+.+.+.+.+.+.+.O.O.+.+.+.O.] ] ` ` ` ` ` ] O.+.] ` ` ~ ~ ~ ` ` ] @.@.+.` ~ ~ ` ( _ ~ ~ ( ` ` ] ` ` ` ` ( ( ( _ ~ ~ ~ ~ ~ ! ! ! Q Q I I I ! ! ~ ! ~ ~ ~ ~ ~ ~ ~ ! ! ! ! ! ! ~ ` ` ] ] ] ` ` _ _ ` ( ( G v o #.r.U.G.b.n.G.n.M.b.n.n.n.n.M.z.k.k.k.k.k.h.g.h.b.n.n.n.F.G.H.H.H.J.U.U.H.H.H.H.G.n.z.n.G.G.n.n.n.n.b.k.k.b.n.n.F.H.b.b.b.n.n.F.F.G.U.Y.^.^.Y.H.G.F.n.F.H.U.Y.U.H.F.b.b.z.k.h.h.h.h.g.h.h.k.k.h.r.e.e.r.r.r.r.r.e.e.e.8.6.3.2.2.3.3.2.3.3.3.3.$.$.$.#.$.#.^ ^ z 7 #.",
"uXwX$Xc.@.@.,.q.>.>.-.-.>.q.w.w.>.>.q.w.i.w.w.i.V.V.A.A.P.P.A.A.P.P.V.A.I.E.E.E.).E.I.I.I.I.E.Q.P.P.Q.Q.I.T.`. X_._.E.E.).[. X`.).).).).).).!.!.Q._.`._._._.`._._.`.`.`.`.`._._.`.`._._._._.`.`.[._.[.Q.M.G   O.c w 7 7 7 e c Q O.) ( , o O.).8X<X&X&X=X#XXX#XXX#X#X%X;X2X2X;X%X%X%X%X%X$X$X#X#X$X#X#X#X#X#X#XXX X#X#XXXXX#XXX[.XX#X#XXX[.[.#X&XXX[.[.[. X X[.[.[.[.[.`.`.`.`._.{.{.).).).).).).).Q.Q.E.E.E.E.E.I.T.T.E.E.Q.Q.).E.E.E.E.E.E.E.E.E.E.E.E.T.I.I.I.P.P.A.A.A.A.A.V.A.V.V.v.v.v.v.c.c.c.s.s.s.s.s.i.i.w.w.w.w.q.w.w.q.q.q.>.-.-.=.=.@.@.@.+.+.+.+.+.[ @.@.@.[ [ @.-.@.+.+.+.+.[ +.+.+.+.[ ] ] ] ] ] ] ] ] ] ] ] [ +.` ` ` ` ` ` ` ` ~ ` ` ` ` ( ~ ~ ` ( ~ ` ` ` ` ~ ( ( ~ ~ ~ ~ ! ! ~ ~ ~ ! ! ! ! ! I U U I Q Q ! ! ! ~ ~ ! ! ~ ~ ! ! ! ! ! ! ~ ` ] ] ] ] ] ` ` ( ~ ( ( ( Q Y e V {.2XY.H.U.H.Y.H.m.G.G.n.b.b.k.h.h.h.k.k.k.b.n.m.n.n.n.n.n.n.m.G.G.H.U.U.U.H.G.n.n.H.H.G.n.b.k.b.n.k.b.n.m.G.n.n.b.m.m.n.n.n.G.H.H.U.Y.Y.Y.U.G.m.m.H.G.G.m.m.m.n.n.b.k.k.k.k.h.h.t.r.r.r.r.r.r.e.e.r.r.r.r.r.e.e.e.e.6.6.3.3.3.3.6.#.7.e.#.#.6.6...6.#./ E x % r.pX",
":XE.q.@.>.q.-.[ >.-.-.-.>.q.w.w.i.w.w.i.w.w.i.s.v.v.v.V.V.V.V.V.I.P.P.P.E.Q.Q.Q._.Q.E.E.E.I.I.E.I.I.Q.Q.I.E.`.`._.).E.E.).[. X_.!.!.).).).).!.!.Q._.`._._._.`._.`.`.`._._._._._.).)._._.`.`. X X$X#XXXQ.M.G . G w e w g s 0 q j j c k = = k %XpX<X%X&X&X#X#X%X%X;X;X;X<X2X<X&X#X&X%X%X%X%X$X#X#X#X#X#X#X$X%X&X%X#X#X#XXXXX#XXX[.XX#X#XXX[.[.#X%X#X X[.[. X X[.[.[.[.[.`.`.`.`.`.`._.).{.{.{.{.{._._.).Q.Q.Q.Q.Q.Q.E.E.E.E.E.E.E.E.Q.Q.Q.Q.Q.Q.).E.E.E.E.E.E.E.I.P.P.P.P.P.P.A.V.A.V.V.v.v.v.v.c.c.c.s.s.s.s.i.i.i.w.w.w.w.w.w.w.q.q.q.>.>.-.-.=.@.@.@.@.+.+.+.+.` ] +.+.[ +.@.-.+.+.+.+.+.[ +.[ +.+.[ ] ] ] ] ] ` ` ` ` ` ` ` ` ` ` ` ` ( ( ` ` ` ` ` ` ( ~ ~ ~ ~ ~ ~ ( ` ` ` ( ~ ~ ~ ~ ~ ! ! ! ~ ! ! ! ! ! U I I I I I Q Q Q ! ! ~ ~ ! ! ~ ~ ! ! ! ! ! ! ! ( ` ` ` ` ` ` ` ( ( Q O.Q ( G Z , P.iX[.Y.U.G.U.H.U.U.H.G.n.b.k.k.h.k.b.k.k.k.b.n.n.n.n.n.n.m.n.n.n.n.n.b.n.n.G.H.H.G.G.m.n.b.k.b.n.n.n.n.n.b.b.b.b.n.n.b.n.G.U.U.H.H.U.U.U.G.m.n.n.G.G.n.n.n.n.n.b.b.k.k.k.k.k.h.t.r.r.r.r.r.r.e.e.r.r.r.r.r.e.e.e.6.6.6.3.3.3.3.3.e.X.#.e.2...%.t.$.F Q H o U.uXtX",
"c.-.] @.>.-.@.-.-.-.-.>.>.q.w.w.s.i.w.w.w.w.i.c.v.v.V.V.A.A.P.P.I.P.P.I.E.)._.)._.Q.E.E.E.P.P.P.E.I.E.Q.E.Q.`._.Q.Q.Q.E._.`.`._.!.!.).).).).).!._.`.[.`._.`.`._.`.`.`._._.`.`.[.`.`. X XXXXX#X$X%X%XXX_.v.) , 7 c e 3 7 q q 0 7 7 w 1 1 , + 2XuX2X&X$X$X#X$X;X;X2X<X<X<X;X&X$XXX%X%X%X%X$X$X$X#X#X#X#X#X%X&X&X&X$X%X%X#X#X#X#X[.XX#X#XXX[. X#X%X#XXX[.[. X[.[.[.[.[.[.`.`.[.[.[.`.`.{._.{.`.`.`.`._._.).Q.Q.Q.Q.E.E.E.E.E.E.E.E.Q.Q.Q.Q.Q.Q.Q.Q.Q.Q.Q.E.E.E.E.E.I.P.P.P.P.P.A.V.A.V.V.v.v.v.v.c.c.c.s.s.s.s.i.i.i.i.w.w.w.w.w.w.w.q.q.q.>.-.-.-.@.@.@.@.+.+.+.+.+.+.+.@.@.=.-.-.+.+.+.+.+.[ [ [ +.[ ] ] ] ] ] [ ] ] ] ` ` ` ` ` ` ` ` ` ( ( ( ( ` ` ` ` ( ~ ~ ~ ` ` ` ` ` ] ` ` ~ ~ ~ ~ ! ! ! ! ! ! ! ! ! Q I I I I I I Q Q Q ! ! ~ ~ ! ! ! ! ! ! ! ! ! ! ! ~ ( _ _ ~ ` ( ~ ( ) Q ` Q ( F Z o [.pX+X~.Y.H.G.b.b.H.G.G.n.b.b.k.k.b.b.b.k.k.n.m.n.H.H.H.H.H.H.G.G.H.n.k.k.k.b.n.n.b.n.b.b.k.k.b.b.m.n.b.k.k.k.b.b.m.n.b.n.H.U.U.G.H.H.H.G.n.b.b.n.G.n.n.n.n.n.b.b.b.k.k.k.k.k.h.r.r.r.r.r.r.r.r.e.r.r.r.r.e.e.e.e.6.6.6.6.3.3.3.3.7.X.$.6.%.3.3./ / Q N o M.pXpX<X",
"@.@.>.,.=.[ @.w.-.>.>.>.q.q.w.u.i.w.q.w.w.w.s.v.v.v.V.V.A.P.P.I.P.P.P.I.E.Q.).Q.Q.E.I.I.P.P.A.P.E.I.E.Q.E.)._.Q.E.Q.Q.Q.).`._.Q.!.).).).).).).!._.[. X`._.`.`._.`.`.`.`.[. X#X$X#X$X$X$X$X$X#XXX[.XX[. XT.>.k . c w 7 5 0 0 0 e w 1 7 9 + X Q.<X0X;X#X#X#X%X<X2X;X&X&X&X&X%X#X#X$X$X$X#X$X$X$X$X#X#X#X#X#X#X#X#X%X&X&X%X$X%X$X#XXXXX#XXX[. X#X$X#X#X X X X X[.[.[.[.[.`.`.[.[. X`.`.{.{.`.`.`.`.`.`._._.Q.Q.Q.Q.I.I.T.E.Q.Q._._.`._._._.).Q.Q.Q.Q.Q.E.E.E.T.T.T.I.I.I.I.I.I.P.A.A.V.V.v.v.v.c.c.c.c.s.i.i.i.i.i.i.i.w.w.w.w.w.w.w.w.q.q.>.>.-.-.@.@.@.@.+.+.+.+.=.@.@.-.-.-.-.@.+.+.+.+.+.[ [ [ [ [ ] ] ] [ +.+.+.+.+.+.+.+.[ ] ] ] ` ` ` ` ` ` ( ( ~ ~ ( ( ( ` O.] ] ] ] ] ] ` ~ ~ ! ! ! ! ! ! ! ! ! Q Q I I I I I I I I I ! ! ~ ~ ~ ! ! ~ ~ ! ! ~ ~ ! ! ! ! ~ ! ! ~ ~ ~ ~ ) ) ( G ( G Z , k 0XpXOXU.Y.H.n.h.k.b.b.b.b.b.k.b.b.k.b.n.b.n.H.H.H.Y.Y.Y.U.U.H.G.G.Y.H.b.k.k.b.k.k.k.k.k.k.k.k.k.k.b.b.k.k.k.b.n.n.m.n.n.G.H.H.G.n.U.H.G.n.b.b.b.n.m.n.n.n.n.n.b.b.b.k.k.k.k.k.h.r.t.t.r.r.r.r.r.r.r.r.r.e.e.e.e.e.6.6.6.6.3.3.3.3.$.$.7.3.#.6.6.F G Z X M.uXaX8Xt.",
"-.-.@.+.@.>.-.+.>.>.>.q.q.w.i.i.w.q.w.w.i.w.i.c.c.v.v.v.V.A.P.P.P.P.P.I.E.Q.Q.Q.Q.I.P.P.P.A.P.I.Q.I.E.Q.E.Q._.E.E.Q.Q.Q.Q._._.Q.).).).).).).).)._.[. X`._.`.`._.`.`.`.`.[. X#X$XXXXXXXXX X X`.`._._._. X`.m.( X * > w s 0 3 5 w 7 1 9 > - # S <XtX2X$X#X#X%X<X2X%X%X$X$X$X%X$X$X&X&X%X$X$X$X$X$X$X#X#XXXXX#XXX X#X%X%X$X$X%X%X#XXXXXXXXX XXX#X#X#X#X X XXX X[.[.[.[.[.`.[.[.[.[.`.`._._.{.`.`.`.`._._._.Q.Q.Q.Q.E.E.Q.Q._.`. X X[.[.`.`.`.`._._.).Q.Q.E.E.E.E.E.E.T.T.E.T.I.P.A.A.V.V.v.v.v.c.c.c.c.s.i.i.i.i.i.i.i.w.w.w.w.w.w.w.w.q.q.>.>.-.-.=.@.@.@.@.+.+.+.@.@.@.@.-.=.@.+.[ [ [ +.+.+.+.+.[ [ [ ] [ [ +.+.+.@.@.@.@.@.@.@.@.+.] ` ` ` ` ` ~ ~ ~ ~ ~ ` ` ` @.+.+.O.] ] ` ~ ~ ! ! ! ! ! ! ! Q Q Q Q Q I I I I I I Q ! ! ! ! ( ` ( ! ! ~ ~ ! ! ~ ~ ! ! Q ! ! ! ! ! ! ! ! ! ! ` G ( c e : P.pXpX[.G.n.n.G.m.H.k.k.k.k.k.k.k.b.b.n.G.G.H.U.U.H.U.U.H.H.G.m.n.b.G.n.k.k.n.n.n.b.k.k.k.k.k.k.k.k.k.k.k.b.b.b.n.n.b.n.H.H.G.m.n.G.G.G.n.n.n.m.G.H.G.m.n.n.n.n.b.b.b.k.k.k.k.k.h.t.t.t.r.r.r.r.r.r.r.r.e.e.e.e.e.e.6.6.6.6.6.3.3.3.3.$.6.e...| O.( c o M.uXyX0X0.-.",
"=.-.+.` @.q.>.+.-.>.>.q.w.w.i.i.i.w.i.s.s.i.i.c.v.v.V.V.A.P.P.P.P.P.I.E.E.Q.Q.E.Q.T.P.P.P.P.I.E.Q.I.E.Q.E.Q.).E.E.E.Q.E.Q.).).Q.).).).).).).).)._.`.[.`._.`.`._.`.`.`._._.`.`.[.`.`.`.`.`.`._._. X)._._.[.).M.Z o o X , 5 0 0 7 > p w = w * - tXpX1X#X#X#X%X;X<X&X%X%X%X%X%X%X%X<X<X=X&X%X$X#X#X#X#X#X#X#X#X#X#X X#X#X#X#X$X$X#XXXXXXXXXXXXXXXXX#XXX X XXXXX X[.[.[.[.[.[.[.[.[.`.`.`._.{.{.{.`._._._._.).).).).`.`.`.`.`.[. X X_._._._._._.`.`.`._.).Q.E.E.E.Q.E.E.E.E.T.I.P.A.A.A.V.v.v.v.c.c.c.c.s.s.s.s.i.i.i.i.w.w.w.w.w.w.w.w.q.q.0.>.-.-.-.=.@.@.@.+.+.+.[ +.@.-.-.-.=.@.[ [ +.+.+.+.+.+.+.+.[ [ [ [ +.+.+.+.@.@.=.=.@.@.-.@.] ` ] ] ] ` ~ ~ ~ ~ ~ ` ` ] +.O.] ] ` ` ~ ! ~ ~ ! ! ! ! ! ! Q Q Q Q Q Q I I I I Q ! ! ! ! ~ ` ` ` ! ! ~ ~ ! ! ! ~ ! ! I Q ! U ! ! ! ! ! Q Q I Q G c , &.pXpX0XY.G.G.n.U.H.G.n.n.b.b.k.k.k.k.G.H.U.H.H.U.H.G.U.H.H.G.m.n.n.n.n.b.b.b.n.n.n.n.b.b.k.k.k.k.k.k.b.b.b.n.n.n.b.b.k.n.H.H.G.n.G.H.n.n.n.n.H.U.U.U.G.G.n.n.n.n.n.b.b.k.k.k.k.k.h.t.h.t.t.r.r.r.r.r.e.e.e.e.e.e.e.e.6.6.6.6.6.3.3.3.$.3.$.#.$.O.G j , L.aXtX9Xy.@.%.",
"[ @.-.-.@.=.>.,.-.-.>.q.q.w.u.i.i.i.i.s.s.s.s.v.V.V.A.P.P.I.I.I.A.P.I.E.E.E.T.T.E.I.I.I.I.P.I.E.E.I.Q.Q.E.E.Q.I.E.E.Q.E.E.Q.Q.Q.).).!.!.).).).).Q._.`._._._.`._.`.`.`._._._._._._._._.`.`.`..X[. XQ.XX).`.`.).c.G j , o * 5 7 5 r p 9 : 9 > %.pXpX2X#X#X$X$X&X&X&X&X&X%X%X%X%X%X<X;X&X%X$X$X$X$X#X#X#X#X#X$X$X#XXX#X#X#X#X#X#XXXXXXX XXXXX#XXXXXXX X[. XXX#XXXXXXXXX#X#X#XXX[.[.[.[.`.`.`.`.{.{._._._._._._._._. X X[.`.`.`.`.`._._._._._._._._.`._._.Q.Q.E.Q.Q.Q.E.E.I.I.I.P.P.P.A.V.v.v.v.c.c.c.c.s.s.s.s.i.i.i.i.i.w.w.w.w.w.w.w.q.q.>.-.-.-.-.-.@.@.@.+.+.+.[ @.-.>.>.-.-.-.+.+.+.+.@.@.@.@.+.+.+.[ [ [ [ [ @.@.@.=.-.=.@.@.-.@.] ` ] ] ` ` ` ( ~ ~ ~ ( ` ` ] ] ` ` ` ` ~ ! ~ ~ ~ ! ! ! ! ! U I Q ! ! ! ! ! Q Q ! ! ! ~ ~ ~ ` ` ` ! ! ! ~ ! ! ! ! ! ! I I Q ! ! ! ! ! ! Q Q G I Z Z X ).pXtX{.n.H.U.G.H.n.k.n.n.n.b.b.b.b.b.H.H.H.G.G.H.H.G.U.H.H.G.m.n.m.m.G.n.n.n.n.n.n.n.H.m.b.b.b.b.b.b.n.n.n.n.n.n.b.b.b.m.H.H.H.G.H.U.G.G.G.H.U.U.U.H.G.G.n.n.n.n.n.b.b.k.k.k.k.k.h.t.h.h.t.r.r.r.r.r.e.e.e.e.e.e.e.e.6.6.6.6.6.3.3.3.O.e.#.) O.( k 7 y.uXpX4Xq.>.@.@.",
"@.+.@.,.>.@.@.>.@.-.-.>.q.w.w.w.w.w.w.i.s.s.c.V.v.V.A.P.P.P.P.P.V.A.P.I.I.I.P.P.E.I.P.I.I.P.P.I.E.I.Q.).I.I.E.I.E.Q.Q.E.E.Q.Q.Q.).!.!.!.!.).).).Q._.`._._._.`._._.`.`.`.`.`._._.`._._._._._.`.`.`.E.%X_.`._.[.{.A.c.&.k % . % > 1 , > > X w uXuXpX2XXX#X#X$X%X%X%X%X%X%X%X%X%X%X%X%X$X#X#X$X$X%X#X#XXXXX#X#X#X#X#X$X%X#X#X$X#XXXXXXX X XXX#XXX X X[.[.[.XX#X#XXX#X#X#X$X$X#X[.[.XX[.[.`.`.`.`.`.`.`._._.`.`.`.`.`.`._._._._._._.XX X X[.`._._.).`._.).E.E.E.E.E.Q.E.T.I.I.I.P.P.P.A.V.V.v.v.c.c.c.c.s.s.s.s.s.i.i.i.i.w.w.w.w.w.w.q.q.q.>.-.-.-.-.-.=.@.@.+.+.+.] @.>.>.=.+.+.+.+.+.+.@.@.@.@.@.@.@.+.+.[ ] ] ] =.-.-.-.-.=.@.@.-.@.` ` ` ] ` ( ` ` ( ~ ~ ~ ~ ( ] ` ` ` ` ` ` ~ ~ ~ ~ ~ ! ! ! ! ! ! ! ! ! ! ! ! ! ! ! ! ~ ~ ~ ( ` ` ( ! Q ! ! ! Q ! ! ! ! I I ! ! ! ! ! ! ! Q Q ( S G c X U.0X2XY.b.U.U.b.G.m.n.b.b.b.b.b.b.b.b.G.H.m.b.b.G.H.H.H.G.n.n.b.b.n.n.m.m.n.n.n.n.H.H.U.H.n.n.n.n.n.b.m.m.n.n.n.n.n.n.H.H.H.H.H.H.H.H.U.U.H.U.U.H.m.b.G.m.n.n.n.n.n.b.k.k.k.k.k.h.h.t.h.h.t.r.r.r.r.r.e.e.e.e.e.e.e.e.6.6.6.6.6.3.3.%.$.6.O.( Q e e q.pXpX8Xs.>.-.@.@.",
"@.+.@.>.-.@.@.>.-.-.>.q.w.u.w.w.w.w.i.c.v.c.v.V.c.V.A.A.P.P.P.P.V.A.I.T.T.I.I.I.E.I.P.P.P.P.P.P.P.E.Q.Q.E.T.E.E.T.E.E.E.E.E.Q.Q.Q.).).Q.E.E.E.Q.).Q.[. X_._.`._.`._._._._._._._.`._._._._._._.`._._.`. X`.`.XX=X2X=X XL.&.k * . o < > o 9 c.0XpXyX2X#XXX#X#X#X#X$X%X%X%X%X%X%X$X$X$X$X$X$X$X$X$X#X#X#X#X#X#X#X#X#X#X#X#X#X#XXXXXXXXXXXXXXXXXXXXXXXXXXXXXXXXXXXXXXXXXXXXXXXXXXXXXXX[.[.`.`.`.`.`._.`.`._._._.`.`.`.`.[. X X X`._. X X X X X X XXX[.`._.).Q.E.E.E.Q.E.E.T.I.I.P.A.V.V.V.V.v.v.c.c.c.c.c.s.s.i.i.i.i.i.i.i.w.w.w.w.q.q.q.q.>.>.-.-.-.=.@.@.@.@.@.@.-.-.-.=.@.@.+.+.+.+.@.@.@.@.=.=.@.@.@.@.@.+.[ ] -.-.@.+.+.@.=.@.@.@.+.] ] ] ] O._ _ _ _ ( ( ( ~ ` ( ( ` ] ] ` ~ ~ ~ ~ ~ ~ ! ! ! ! ! I I I ! ! ! ! ! ! ! ! ! ! ! ! ! ! ! ! ! I I ! ! ! Q Q Q I I I I I I I I Q Q G Q Q c * G &X*XL.n.b.k.n.G.k.n.n.n.b.b.b.n.n.m.G.G.m.m.G.H.U.U.n.n.n.b.b.n.n.n.m.m.n.n.n.m.H.U.H.H.G.n.b.k.k.k.n.k.b.G.G.b.n.G.H.G.H.U.U.H.H.U.H.Y.Y.U.H.U.U.U.U.H.H.G.n.n.b.b.k.k.k.k.h.h.h.h.h.h.h.h.t.r.r.r.r.r.r.e.e.6.6.6.e.$.3.e.6.%.$.$.6.( O.Q j - i.pXpX=Xs.=.-.-.=.@.",
"@.@.@.>.>.@.@.>.-.-.>.>.q.w.q.q.w.w.i.c.v.c.v.v.v.A.P.P.P.T.I.P.V.P.P.I.I.P.P.P.I.I.I.I.P.P.P.I.P.E.Q.Q.E.I.T.E.T.T.E.E.Q.Q.Q.E.Q.Q.Q.Q.Q.)._._.).Q.[. X_._.`._.`.`.`.`.`.`.`._.`._._._._._._.`.`.`. X X X[.XX=X&X%X&X=X#Xm.O.Z 7 - o 7 x.yXpXyX5X&X[.XX$X#X#X#X$X%X%X%X%X%X%X$X$X$X$X$X$X$X$X$X#X#X#X#X#X#X#X#X#X#X#X#X#X#XXXXXXXXXXXXXXXXXXXXXXXXXXXXXXXXXXXXXXXXXXXXXXXXXXXXXXX[.[.[.`.`.`.`..X X X[.`._.`.`.`.`.`.[. X[._._._._._._._._.`.`.`.`._.).Q.E.E.E.Q.E.E.I.I.I.P.A.V.V.V.V.v.v.v.c.c.c.c.s.s.i.i.i.i.i.i.w.w.w.w.w.q.q.q.q.>.>.-.-.-.-.-.@.@.@.@.@.-.=.=.@.@.@.@.@.+.+.@.=.-.>.>.>.-.=.@.@.+.+.[ [ +.@.@.+.+.@.@.@.@.@.+.] ] ] ] O.` ` ` _ ( ~ ~ ~ ` ` ` ` ` ` ( ~ ~ ~ ~ ~ ~ ! ! ! ! ! Q Q I ! ! ! ! ! ! ! ! ! ! ! ! ! ! ! ! I I I ! ! Q Q I I I I I I I I I I Q Q G S Q Z e c #X1XR.n.n.b.n.m.k.m.n.n.b.b.b.b.b.b.n.m.G.H.H.G.m.n.n.n.n.n.n.n.n.n.b.b.n.n.G.G.H.H.H.G.m.n.b.b.b.b.b.k.k.n.m.b.b.m.H.G.G.H.H.G.H.Y.U.Y.Y.H.H.H.H.H.H.H.G.m.n.n.b.b.k.k.k.k.k.h.h.h.h.h.h.t.r.r.r.r.r.e.e.e.e.6.6.6.e.e.r.#.$.$.6.O.Q ( G w 7 P.sXuX=XT.u.>.,.-.@.@.",
"-.@.=.>.>.@.=.>.>.-.-.>.>.q.q.q.w.w.i.c.v.c.c.v.v.V.A.A.P.P.P.P.A.P.P.I.P.P.P.I.P.I.E.T.I.P.I.I.P.T.E.E.T.I.I.T.T.I.E.Q._._.Q.E.Q.E.E.E._.`.[.`.).Q.[. X_._.`._.`.`.`.`.`.`.`._.`._._._._._._.`.`..X XXX X.X X$X X X#X;X2X<X%X[.9XpXpXpXyXuXpXuX&X#X[.#X%X#X#X#X$X$X%X%X%X%X$X$X$X$X$X%X$X$X$X$X#X#X#X#X#X#X#X#X#X#X#X#X#X#XXXXXXXXXXXXXXX X[. X X X XXXXXXXXXXXXXXXXXXXXXXXXXXXXX X[.[.`.`.`.`._.`. X XXXXXXX$X`.`.`.`.`._._.Q.Q.Q.Q.Q.Q.Q.)._._._._.Q.Q.Q.Q.Q.Q.E.E.I.I.I.P.A.A.V.V.V.v.v.v.v.c.c.c.s.s.i.i.i.i.i.i.w.w.w.w.q.q.q.q.q.>.>.>.-.-.-.-.-.-.-.-.-.-.-.=.@.@.@.@.@.[ +.@.-.>.q.q.q.-.-.@.@.+.+.[ [ [ @.@.+.@.@.@.+.@.@.+.] ] ] ] ] ` ` ` ` ( ~ ~ ~ ` ` ` ` ( ( ( ( ~ ~ ~ ~ ~ ~ ! ! ! ! I Q Q Q ! ! ! ! ! ! ! ! ! ! ! ! ! Q Q Q I I Q Q I I I I I I I I I I I I Q Q Q G ( Z k > x.1X/.G.H.n.n.n.k.G.n.n.b.b.b.b.n.n.m.G.H.H.G.n.b.k.n.n.n.n.n.n.n.n.b.n.n.G.H.H.H.H.G.G.m.n.n.b.b.b.b.k.k.n.n.b.b.n.H.G.G.G.G.G.H.Y.Y.Y.U.G.G.H.H.m.G.G.m.n.n.b.b.b.b.k.k.k.k.h.h.h.h.h.t.t.r.r.r.r.e.e.e.e.6.6.6.6.6.$.6.6.h.$.| G G I < 8 q.yXuX5Xc.i.,.<.,.-.=.-.",
"-.@.@.-.-.@.=.-.>.-.-.-.>.q.q.q.w.w.i.c.v.c.c.v.c.V.V.V.A.P.P.A.P.I.I.I.P.P.I.I.P.I.E.E.I.P.I.T.I.I.E.E.I.I.I.T.I.I.E.Q._._.Q.T.Q.E.E.Q.`. X X`.).Q.[. X_._.`._._.`.`.`.`._._._.`._._._._._._.`._..X XXX X`..XXX X X[.`.[.%X1XtXpXuXuXuXpXpX9X2X%X#X#X$X%X#X#X#X$X$X%X%X%X%X$X$X$X$X$X$X$X$X$X$X#X#X#X#X#X#X#X#X#X#X#X#X#X#XXXXXXXXXXX X X X X[.[. X X X XXXXXXXXXXXXXXXXXXXXXXXXX X[.[.[.[.`.`._.`. X#X$X$X$X$X`.`.`._.`._.).Q._.).).Q.Q.)._._._._.).Q.Q.Q.Q.Q.Q.E.T.I.I.P.P.P.A.A.V.V.V.v.v.v.c.c.c.c.s.i.i.i.i.i.i.w.w.w.w.q.q.q.q.q.>.>.>.>.-.-.-.-.-.-.-.-.>.-.-.@.@.+.+.+.+.@.-.>.q.q.q.q.>.-.@.+.+.[ +.[ +.@.@.+.+.@.@.[ @.+.+.O.] ] ] ] ` ` ` ` ( ~ ~ ~ ` ] ] ` ~ ~ ` ` ~ ~ ~ ~ ~ ~ ! ! ! ! I I I I U ! ! U U Q I I ! ! Q Q Q Q I I I I I I I I I I I I I I I I I I Q Q Q I Q G c * G &X*XU.G.n.n.n.k.G.b.b.b.n.n.m.G.H.H.H.m.n.b.b.b.b.n.n.n.n.n.n.n.n.H.H.H.H.U.U.H.H.G.G.G.n.n.n.b.b.b.k.b.n.n.b.n.n.m.m.m.G.G.G.H.Y.U.U.G.G.G.H.G.m.G.m.n.n.n.b.b.b.b.k.k.k.k.h.h.h.t.t.t.r.r.r.r.r.r.e.e.e.6.6.6.e.3.e.6.6.#./ F F j - +.%XuXuX0Xv.q.>.>.,.-.=.=.,.",
"=.@.@.@.=.@.@.-.-.-.-.>.q.w.u.i.w.w.i.c.v.c.c.c.v.V.V.V.A.P.P.A.I.T.T.I.I.I.T.E.P.T.Q.E.I.P.I.T.I.I.I.I.I.I.T.E.T.E.E._._._.Q.T.E.E.Q._. X X`.).).Q..X X_._.`._._.`. X X`._._._.`._._._._._._.`._..XoXoX.X`.`. XXX$X#X X`.[.$X;X=X<X2X2X;X#X$X&X$X#X#X$X#X#X#X$X$X$X$X%X%X$X$X$X$X$X$X$X$X$X$X$X#X#X#X#X#X#X#X#X#X#X#X#XXXXXXXXXXXXXXX X X[.[.[.[.[.[. X[.XXXXXXXXXXXXXXXXXXXXXXXXXX X[.[.[.[.`.#X$X$X$XXX X`.`. X`.`.`.`._._.Q._._._._._._._._.).).).Q.Q.Q.Q.Q.E.E.I.I.I.P.P.P.A.A.A.V.V.v.v.v.c.c.c.c.s.s.i.i.i.i.i.w.w.w.q.q.q.q.q.q.q.>.>.>.-.-.-.-.-.-.-.-.>.-.-.@.@.@.@.@.-.>.q.q.w.q.q.q.>.-.@.@.+.[ +.+.-.-.@.[ [ +.@.+.+.+.+.O.] ] ] ] ] ` ` ` ( ~ ~ ~ ( ] ] ` ~ ( ` ` ~ _ _ ~ ~ ~ ! ! ! ! Q I I I I I ! Q I I I I Q Q Q I I I I I I I I I I I K K K K K K K K I I I I G Q Q Q Z e j %X8XY.n.n.n.G.b.n.b.b.n.n.n.G.G.G.H.G.m.n.n.n.n.n.n.n.n.n.n.n.n.n.U.H.H.H.U.U.H.H.H.H.G.G.n.n.b.b.n.b.n.m.G.m.m.G.n.m.G.G.G.H.H.U.U.H.m.G.H.H.H.G.m.n.n.n.b.b.b.b.b.b.k.k.k.h.h.h.t.r.r.r.r.r.r.r.r.r.e.e.e.e.6.6.3.k...$./ $.z 7 ` _.uXuXuX%Xv.,.<.,.-.-.;.=.;.-.",
"=.@.@.@.@.@.@.@.-.-.-.>.q.i.i.i.w.w.i.c.v.c.s.c.c.v.v.v.V.A.A.A.I.T.E.E.T.T.E.E.T.E.E.E.I.I.I.I.I.I.P.I.I.T.E.E.E.E.)._._.).E.E.E.E.Q._.[.`._.E.).Q..X X_._.`._.`. XXXXX X`.`.`.`._._._._._._.`..XoXoXoX X.X X XXXXX X X#X#X[.).#X[.[.#X$X#XXXXXXXXXXXXXXX#X#X%X$X$X$X$X$X$X$X$X#X#X#X#X#X#X#X#X#X#X#X#X#X#X#X#X#X#X#XXXXXXXXXXXXXXX X X[.[.[.[.[.[.[.[.[.[.XXXXXXXXXXXXXXXXXXXXXXXXXXXX[.[.[.`.XX#X#XXX X`.`.`. X`.`.`.`.`._._._._._.).).).!._.Q.Q.).).Q.Q.Q.E.E.E.I.I.I.P.P.P.A.A.A.V.V.V.v.v.c.c.c.c.s.s.i.i.i.i.w.w.w.w.q.q.w.q.q.q.q.>.>.>.>.>.-.-.-.-.-.-.@.@.@.@.@.-.>.>.w.w.w.u.w.w.q.,.-.-.@.@.+.+.+.+.-.-.@.[ ] +.@.+.+.+.+.O.] ] ] ` ` ` ` ` ` ( ~ ~ ( ] O.` ( ] ] ` ( ( _ _ ~ ~ ! ! ! ! Q I I I I I Q Q I I I I I I I I I I I I I I K K K K K K K K L K K K K K I I H Q G Q Z c 7 [.iX~.b.b.b.G.n.n.b.b.n.b.b.b.b.b.n.m.G.H.H.G.m.n.n.n.n.n.n.m.G.G.H.G.G.G.H.U.U.H.H.H.H.G.m.n.b.b.n.n.n.G.G.G.G.G.n.G.G.G.G.H.H.H.H.G.G.H.H.H.H.H.m.m.n.n.n.b.b.b.b.b.k.k.k.k.h.h.r.r.r.r.r.r.e.e.r.r.r.e.e.6.6.6.$.3.^ #.F x w ..pXuXuX5Xw.i.s.=.,.,.-.,.,.-.;.=.",
"-.=.@.@.@.-.=.@.-.-.>.q.w.i.i.i.w.w.i.c.v.c.s.s.i.c.c.c.v.V.A.V.I.I.E.E.E.E.E.Q.Q.E.E.E.I.I.I.I.I.P.P.P.I.E.Q.Q.E.).`.`.).E.E.E.E.Q.Q._._._.Q.Q.).Q..X X_._.[._._. XXXXX X`.`..X`._._._._._._.`..XoXoX X.X.X X X X X X`. X#X#X[. X[.[. X[.`.[. X[.[. X XXX#X#X$X#X$X$X$X$X$X$X#X#X#X#X#X#X#X#X#X#X#X#X#X#X#X#X#X#X#XXXXXXXXXXXXXXXXX X X[.[.[.[.[.[.[.[.[. XXXXXXXXXXXXXXXXXXXXXXXXX#XXX X[.[.`._.`.`.[.`.`. X X[.`._._.`.`._._._._.).Q.Q.Q.Q.Q.Q.).).).Q.Q.E.E.E.T.I.I.I.P.P.P.P.A.A.A.V.V.v.v.c.c.c.c.s.s.i.i.i.i.w.w.w.q.q.q.w.w.q.q.q.>.>.>.q.0.>.-.-.=.=.=.@.@.@.@.-.>.q.w.w.w.w.w.q.q.>.>.=.=.@.@.@.@.@.@.@.@.@.[ [ @.@.+.+.+.+.O.] ] ` ` ` ` ` ` ` ` ` ( ~ ] ] ` ` +.+.` ( ( ( ( ~ ~ ~ ! ! ! Q I I I I I Q Q I I I I I I I I I I I I K K K K K K K K K K S S S S S K G G K G Q G Z j , '.pX/.n.n.b.n.n.n.b.b.b.b.b.b.b.b.G.G.H.U.U.H.H.G.G.G.G.G.G.H.H.H.H.G.G.H.U.U.H.G.H.H.H.G.G.n.n.b.b.n.n.n.m.G.G.G.G.H.H.n.n.H.U.U.H.H.H.U.U.H.G.H.G.G.n.n.n.b.b.b.b.b.b.k.k.k.h.h.r.r.r.r.r.e.e.e.e.e.e.e.e.6.3.$.| #./ D q : 6.pXuX4XP.B.i.s.,.u.,.,.,.<.<.,.-.=.",
"-.-.@.@.@.-.-.@.-.-.>.q.w.u.w.w.w.w.s.c.v.c.s.s.s.c.v.v.V.P.P.P.P.I.T.E.E.E.E.E._.Q.E.T.I.I.I.I.I.P.P.P.I.E.Q._.E._.`.`.Q.E.E.Q.E.Q.Q.Q.E.Q.)._.).Q..X X_._.[._._.`.XXXX.X_._.`.`._._._._._._.`._.XXoX.X_.`. X X X%X=X$X[.[.XX#XXX[.[.[.[.[.#X%XXXXXXXXX#X#X#X#X#X$X$X$X$X$X$X#X#X#X#X#X#X#X#X#X#X#X#X#X#X#X#X#X#X#XXXXX XXXXX#XXXXX X[.[.[.[.[.[.[.[.[.[. XXXXXXXXXXXXXXXXXXXXXXXXX#X#XXX[.[.`._.`.`._._._._.`.`.`._._._.`._._._._._.).Q.Q.Q.).).).).).Q.Q.E.E.E.T.I.I.I.P.P.P.P.P.A.A.V.V.V.v.c.c.c.c.s.s.s.i.i.i.w.w.w.q.q.q.w.w.q.q.q.>.>.>.q.q.0.-.-.-.=.=.@.@.@.@.-.>.q.w.w.q.q.q.>.>.-.-.@.@.@.@.@.@.@.@.] +.+.+.+.@.@.+.+.+.+.O.] ] ` ` ` ` ` ` ` ` ` ` ~ ] ] ` ] @.+.` ( ( ` ( ~ ~ ~ ! ! ! Q I I I I I Q I I I I I I I I I I I I K K K K K K K K K K K A S S S S S G G Q Z ! G K w : [.pX/.m.G.b.b.b.b.b.b.n.n.n.n.n.n.U.J.H.H.H.H.U.U.H.H.H.H.H.U.U.U.U.H.H.U.Y.U.H.n.G.G.G.G.G.G.n.n.b.b.n.n.n.m.m.n.H.U.H.n.n.H.U.U.H.H.U.Y.U.G.G.H.G.G.m.n.n.b.b.b.b.b.b.k.k.k.h.h.r.r.r.r.e.e.e.e.e.e.e.e.6.%.$.#.( ) c * %.).eXpX0XS.i.q.d.,.p.,.u.u.u.<.,.,.,.-.",
"-.-.@.@.@.@.-.-.@.@.-.,.w.i.i.i.s.i.s.v.v.c.s.c.c.s.v.P.V.V.P.I.P.I.E.E.E.Q._._.I.Q.`._.Q.I.I.T.T.I.I.I.E.E.Q.).T.)._.Q.T.E.E.E.!.!.!.!.Q.`.`.!.Q.Q.Q.!._._.`.[._.oX X`.`.Q._.`.`.`._._._._._._.$XoXXXXX X X XXX X$X$X X XXXXX XXX[.[.[.[.[.[.`.[.XXXX XXX#X#X#X#X#X#X#X#X$X$X$X#X#X#X#X#X#X#X#X#X#X#X$X$X$X#X#X X XXXXXXXXXXXXX X X X[.`.`.`.`. X`.`.[. XXX X X XXXXXXXXX X X XXXXX[.[.[.[.[. X X.X`.`._._.`.`._._._._._._._._._._._._._.).Q.Q.Q.Q.Q.E.E.E.T.T.I.I.I.I.P.P.P.P.P.P.A.A.V.V.V.V.v.v.c.c.s.i.i.i.w.w.w.w.w.w.w.w.w.w.w.q.q.0.0.>.q.q.0.>.>.-.-.-.=.@.@.=.>.q.w.w.w.q.q.>.-.-.-.-.=.=.@.@.@.@.@.@.+.+.+.+.+.[ +.+.+.+.+.+.] ] ` ` ` ` ` ` ` ` ` ` ] ] +.@.@.+.+.O.` ` ` ` ` _ ~ ! ! ! ! Q I I I I I I I K K K S S K K K K K K K K K K K K K K S S S S S S S S S S I m ` S S p * M.9XOXH.F.n.n.G.n.k.b.n.n.m.n.M.b.n.F.H.J.U.U.U.H.G.H.U.H.H.H.U.Y.Y.U.U.U.H.n.n.G.m.G.G.G.G.m.n.n.n.n.b.b.b.n.G.H.H.m.n.n.m.H.H.H.G.H.H.H.H.G.G.H.H.H.G.n.n.n.n.n.n.n.b.b.k.k.k.k.r.r.r.r.r.r.e.6.8.r.r.8.%.*.( ( Z f - q.qXpXpX4XV.d.w.i.i.i.q.q.w.q.q.<.,.>.-.-.",
"-.-.=.@.@.=.-.-.=.-.-.q.u.i.i.i.i.i.s.c.c.c.s.c.c.s.v.A.V.V.P.P.P.I.T.E.E.E.E.E.Q._._.Q.E.I.I.I.I.P.I.E.Q._.).Q.Q._._.Q.E.E.E.E.I.Q.!.!.`..X.X_._._._.`._._._._.!.!.W.E. XXX`.Q.`.`._._._._._._.XXXX X X X X X X X#X$X X X XXX X[.[.[.[.[.[.[.[.[.[. X XXX#X#X#X#X#X#X#X#X#X$X$X#X#X#X#X#X#X#X#X#X#X#X$X$X#X#X#X X XXXXXXXXXXX X X X X[.`.`.`.`. X X`. X XXX X X X XXXXX[. X X XXXXX[.[.[.[.[.[. X.X`.`._._.`.`._.`._._._._._.`._._._._._.).Q.Q.Q.Q.Q.E.E.E.T.T.I.I.I.I.P.P.P.P.P.P.A.A.V.V.V.V.v.v.c.c.s.i.i.i.i.i.w.w.w.w.w.w.w.w.w.w.w.w.w.w.q.q.0.>.>.-.-.-.=.@.@.-.,.q.w.w.w.q.,.>.-.-.-.-.=.=.@.@.@.@.@.@.+.+.+.+.+.+.+.+.+.+.+.+.] ] ` ` ` ` ` ` ` ` ` ` ` ] ] +.+.O.] ] ( ` ` ` ` ~ ~ ! ! ! ! I I I I I I I I K K K S S S K K K K K K K K K K K S S S S S S S S S S S S K m K Z K l o c m.h.h.n.M.z.k.k.n.n.b.b.b.z.b.M.n.F.F.F.G.G.G.G.G.H.H.H.H.U.Y.~.'./.~.~.Y.H.G.H.G.G.G.G.G.n.n.n.b.b.b.b.n.G.H.H.G.n.b.b.n.G.G.G.G.G.H.H.G.G.G.H.H.G.G.n.n.n.n.n.n.n.b.b.k.k.k.k.t.r.r.r.r.r.e.e.8.#.6.6./ ( G 7 * ` I.uXuX2XE.=.c.i.w.u.i.w.q.q.q.q.q.q.>.>.>.-.",
"-.-.=.=.=.-.-.-.-.-.>.q.u.i.i.i.i.i.i.c.c.s.s.c.v.c.v.A.V.V.P.P.A.P.I.T.T.T.T.E.`._.Q.E.I.P.P.I.P.P.T.Q._.`.).E._.`._.E.E.E.Q.Q.W.!._.`. X X[.!.E.).`..X.X[._._. XXXoX.X_.!._. X`.`._._._._._._. X X X.X.X X X X XXXXX X X X X X`.[.[.[.[.[.[.[.[.[.[.XXXXXX#X#X#X#X#X#X#X#X#X#X#X#X#X#X#X#X#X#X#X#X#X#X#X#X#X#X X XXXXXXXXX X X X X X[.[.[. X X X X.X X XXXXXXXXX X X[.[. X X[.XX X[.[.[.[.[.[. X.X`.`._._.`.`.`.`._._._._._.`._._._._._.).Q.Q.Q.Q.Q.E.E.E.T.T.P.P.P.P.P.P.P.P.P.P.P.A.A.V.V.V.v.v.c.c.s.s.i.i.i.i.i.w.w.w.q.q.q.w.w.w.w.w.w.w.q.q.0.>.>.-.-.-.-.-.-.>.q.w.w.q.q.q.>.-.-.-.-.-.=.=.@.@.@.@.@.@.@.@.@.+.+.+.+.+.+.+.+.+.] ] ` ` ` ` ` ` ` ` ` ` ` ` ` ] ] ] ` ` ( ` ` ( ( ~ ~ ! ! ! Q I I I I I I I K K K K S S S S S K S S S S S S S S S S S S S S S S S S S S S S K A I S < # j G 6.M.m.m.n.m.n.n.M.b.b.M.n.n.n.n.n.n.F.G.G.G.G.G.H.U.Y.Y.~./.'./.~.~.Y.H.H.H.G.G.G.G.m.n.n.b.b.b.b.n.n.G.H.H.m.n.b.b.n.m.G.G.m.G.G.G.G.m.G.G.G.G.m.n.n.n.n.n.n.b.b.b.k.k.k.k.h.r.r.e.e.e.e.e.r.e.../ P 7 1 ) P.qXuXyX-XV.C.u.u.w.w.i.u.q.q.q.q.q.q.,.>.>.>.>.",
"-.-.-.-.-.-.-.-.-.>.q.w.i.i.i.u.i.w.i.c.c.s.s.c.v.c.V.A.v.V.P.A.V.A.I.E.E.E.E.E.`.).E.I.I.I.I.P.P.I.Q._._.).Q.Q.`._.Q.E.E.Q.Q.!.[..X[.[.[.`._.Q.Q._. X X.X[._.Q.E.A.W.!._. X`._.`.`._._._._._._.`.`.`.`.`..X X X X X X X X X X X`.[.[.[.[.`.`.`.[.`.[.XX#XXXXXXX#X#X#X#X#X#X#X#X#X#X#X#X#X#X#X#X#X#X#X#X#X#X#X#X XXXXXXXXX X[.[. X[.[.[.[. X X X X X.X X XXXXX#X X X X[.[.[. X[.XX X[.[.[.[.[.[. X.X`.`._._.`.`.`.`._._._._.`.`._._._._._.).Q.Q.Q.Q.Q.E.E.E.T.T.P.P.P.P.P.P.P.P.P.P.P.A.A.V.V.V.v.v.c.c.s.s.i.i.i.i.i.w.w.w.w.w.q.q.q.w.w.w.w.w.q.q.0.>.>.-.-.-.-.-.>.,.q.q.q.q.q.,.>.-.-.-.-.-.=.=.@.@.@.@.@.@.@.@.@.@.+.+.+.+.+.+.+.O.] ] ` ` ` ` ` ` ` ` ` ` ( ` ` ` ` ` ` ` ( ( ( ~ ~ ~ ~ ! ! ! I I I I I I I I K K K S S S S S S S S S S S S S S S S S S S S S S A S S S S A I K K S K m 9 & 7 c / r.m.n.M.b.b.M.n.n.n.n.n.b.n.n.F.G.G.G.G.G.H.J.Y.~.~.~.Y.Y.U.U.U.H.H.G.G.G.G.G.m.n.n.n.b.n.n.n.n.n.n.n.n.n.n.n.n.n.n.G.G.m.G.G.n.m.m.m.G.m.m.m.n.n.n.n.n.n.b.b.k.k.k.k.k.h.t.r.e.e.e.e.e.6.e.( H c j y.pXpXpX;XA.w.-.s.i.q.q.u.i.u.q.,.q.,.,.,.>.>.>.>.>.",
">.-.-.-.-.-.-.>.>.q.w.i.i.i.i.u.w.w.i.s.c.s.s.c.v.c.V.A.v.V.P.V.A.P.E.Q.Q.Q.E.E.Q.E.I.P.I.T.I.P.I.Q.`._.E.I.E._.`.).E.E.)._.`.`.oX X`._._._._._. X#X#X X[._.E.P.v.q.v.A.P.`.)._._._._._._._._._.`.`.`.`.`.`..X[.`..X X X[.`.[. X[.[.[.[.`.`.`.`.[.`.[.#X#XXX[.XX#X#X#X#X#X#X#X#X#X#X#X#X#X#X#X#X#X#X#X#X#X#XXXXX XXXXXXX X[.[.[.[.[.`.`.`..X X X.X.X.X.X X X#X$X X X X X X X[.[.XX X[.[.[.[.[.[. X[.`.`._._.`.`._._._._._._._._._._._._._.).Q.Q.Q.Q.Q.E.E.E.T.T.P.P.I.P.P.P.P.P.P.P.P.A.A.V.V.V.v.v.c.c.s.s.i.i.i.i.w.w.w.w.w.w.w.w.w.w.w.w.q.q.q.q.0.>.>.-.-.-.-.-.>.,.q.q.q.q.>.>.>.-.-.-.-.-.=.=.@.@.@.@.@.@.@.@.@.+.+.+.+.+.+.+.+.O.] ] ` ` ` ` ` ` ` ` ` ` ( ` ` ` ` ` ` ` ( ~ ~ ~ ~ ! ! ! ! ! Q I I I I I I K K K K S S S S S S S S S S A S S S A S S A A A A A A S A S S A S S K A A I Z j w > 7 E e.t.k.n.n.n.n.n.n.n.n.b.n.n.G.G.G.n.n.H.U.Y.~./.~.U.H.H.U.H.H.G.G.G.m.G.G.G.n.n.n.n.n.b.n.n.n.n.n.b.b.n.n.n.n.n.n.n.G.G.m.n.n.n.n.m.m.n.m.m.G.m.n.n.n.n.b.b.k.k.k.k.h.h.t.r.r.e.e.e.6.$.#...j 5 L.pXpX#X).i.>.i.i.q.=.q.w.i.s.u.,.>.q.>.>.>.>.>.>.>.>.",
">.>.-.-.-.-.>.>.q.w.i.s.i.i.u.w.w.w.w.s.c.s.c.c.v.v.V.A.v.A.P.A.P.T.Q.Q.Q.E.T.I.I.P.P.P.I.E.I.P.E._.`.Q.I.P.E._.`.Q.E._.[. X X[. X_.!._.`.[. X#X XXX X.X[._.P.M.w.S I ! ] V.T.`._._._.`.`.`._._._._._.`.`.`.`.`.`.`.`. X`._.`. X[.[.[.`._.{.`.[.[.`.[.$X$XXX[.XXXXXXXX#X#X#X#X#X#X#X#X#X#X#X#X#X#X#X#X#X#XXXXX X XXXXXXX X[.[.[.`.`.`.`.`.`.`.`.`.`.`.`..X X#X$X X X X X X X[.[.XX X[.[.[.[.[.[. X[.`.`._._.`.`._._._._._._._._._._._._._.).Q.Q.Q.Q.Q.E.E.E.T.T.I.I.I.I.I.P.P.P.P.P.P.A.A.V.V.V.V.v.v.c.c.s.s.i.i.i.w.w.w.w.i.i.i.i.i.i.i.w.q.q.q.q.0.>.>.-.-.-.-.-.>.>.>.>.>.>.-.-.-.-.-.-.-.=.=.=.@.@.@.@.@.@.+.+.+.+.+.+.+.+.O.+.+.O.] ] ] ` ` ` ` ` ` ` ` _ ( ` ` ` ` ` ` ` ( ~ ~ ! ! ! ! ! ! ! I I I I I I I K K K K S S S S S S S S S A A A A A A A A A A Z A A A A A S S K A m K S A K S P ^ c 7 0 j / M.H.H.m.n.n.n.n.m.n.n.G.G.G.G.G.G.U.Y.~.~.~.Y.H.G.Y.Y.Y.H.H.H.G.n.G.m.n.n.n.n.n.n.b.b.b.b.n.n.n.n.b.b.n.b.b.b.n.m.G.m.n.n.n.m.m.m.G.G.G.G.G.n.n.n.b.b.b.k.k.k.h.h.h.t.r.r.r.e.e.6.%.O.V e %.aXpXm.s.w.-.q.c.i.q.u.w.u.i.s.u.,.>.,.>.>.>.>.>.>.>.>.",
">.>.>.-.-.>.>.>.q.u.s.s.s.i.w.w.w.w.w.s.c.c.c.v.v.v.A.A.V.P.I.A.I.T.E.E.E.I.P.P.I.P.P.P.P.I.I.I.)._.Q.E.I.I.E._._.E.E._. X X`._._.Q.!..XXX X XXX{.`.`.).).T.c.&.Z o + * 9 O.t.L._._._.`.`.`._._._._.`.`.`.`.`.`.`._._.[.`._._. X`.[.[.`.{.{.[.XX[.`.[.%X%XXX[.#XXXXXXXXXXX#X#X#X#X#X#X#X#X#X#X#X#X#X#X#X#XXX[.[.XXXXXX X[.[.[.[.`.`.`._._._._._._.`.`.`.`. XXX$X X XXXXX X X[.[.XXXX[.[.[.[.[.[. X.X`.`._._.`.`._._.`.`._._._._._._._._._.).Q.Q.Q.Q.Q.E.E.E.T.T.I.I.I.I.I.P.P.P.P.P.P.P.A.A.V.V.V.v.v.c.c.s.s.i.i.i.i.w.w.w.w.w.i.i.i.i.i.w.q.q.q.q.0.>.>.-.-.-.-.-.-.-.-.=.-.>.-.-.-.-.-.-.-.-.=.=.@.@.@.@.@.@.+.+.+.+.[ [ [ [ O.O.O.O.] ] ] ` ` ` ` ` ` ` ( ( ( ( ~ ~ ( ` ` ` ( ~ ~ ! ! ! ! ! ! Q I I I I I I K K K K K S S S S S S S S S A A A A A A A A A Z m m Z A A A A S K A S K I K A S Z ) G j 7 ; e *.a.x.M.M.M.M.x.k.t.t.h.x.M.m.L.R.Y.Y.~.Y.U.H.G.G.Y.Y.Y.H.H.H.H.m.m.n.n.n.n.n.n.n.b.b.b.b.n.n.n.n.b.n.n.n.n.n.m.G.H.m.n.n.n.G.G.m.G.H.H.H.G.m.n.b.b.b.b.k.k.h.h.h.t.r.r.r.r.r.6.3...Q 7 Q tXpX[.w.@.>.u.i.i.q.=.u.i.w.u.i.w.q.>.,.,.>.>.>.>.>.>.>.",
",.>.>.-.-.>.>.,.q.i.s.d.s.i.w.w.w.w.i.s.c.c.c.v.v.v.A.A.V.P.T.P.P.P.I.T.I.I.P.P.I.P.P.P.P.P.I.T._.Q.T.I.T.E.Q.Q._.T.T._. X`.Q.E._.!.`.oX$X X_.).`.[._.E.T.M.&.Z . * O.H O . v x._._._.`.`.`.`._._.`.`.`.`.`.`._._._._.[.`._._. X{.`.`.{.)._. X$X[.`.[.%X&X#X[.#XXXXXXXXXXXXX#X#X#X#X#X#X#X#X#X#X#X#X#X#XXXXX[.[.XXXXXX X[.[.[.[.`.`.`._._._._._._._.`.`.`..XXX$XXXXXXXXX X X X XXXXX[.[.[.[.[.[. X.X`.`._._.`.`._._.`.`._._._._._._._._._.).Q.Q.Q.Q.Q.E.E.E.T.T.I.T.T.I.I.I.P.P.P.P.P.P.A.A.V.V.V.v.v.c.c.s.s.s.s.s.i.i.w.w.w.w.w.i.i.i.i.w.q.q.q.q.0.>.>.-.-.-.=.-.-.=.@.@.-.-.-.-.-.-.-.-.-.-.=.=.@.@.@.@.@.@.+.+.[ [ [ ] ] ] [ +.O.O.] ] ] ` ` ` ` ` ` ~ ( ( ~ ~ ~ ~ ~ ~ ( ` ( ~ ! ! ! ! ! ! ! Q I I I K I I K K K K S S S S S S S S S S S A A A A A A Z Z Z m m m Z A A A A A A K S S K Z Q G P Z G ( D 7 w ( &.y.M.M.k.y.&.&.&.&.3.r.M.L.T.T.~.T.U.G.n.G.H.H.U.U.H.G.H.H.G.n.n.n.n.n.n.n.G.G.m.n.n.n.b.b.b.n.G.H.H.G.G.H.U.H.G.n.n.n.G.G.m.H.H.H.H.H.G.n.b.b.b.b.k.k.h.h.h.r.r.r.t.t.r.6.%.Q c w c.pX2X>.@.-.w.s.w.u.u.,.i.u.w.w.u.w.q.>.,.,.,.>.>.>.>.-.-.",
"-.-.-.>.>.q.q.q.w.i.d.i.q.q.w.s.i.w.i.s.c.c.c.s.V.A.A.V.V.P.P.P.A.I.E.I.I.I.I.P.P.P.P.P.P.P.I.I.E.I.I.T.E.E.E.Q.).Q.Q.Q._._._.).).)._. X X_.{.`.`.`.).{.t.3.V o ; ~.M.G Q 7 o Z y.`.I.XX.X X XQ._._._._._.`.`.`.`.`.`._._.`.`.`.{.{.{.)._.[.#X$X[.`.[.$X$X[.`.XX[.[.[. X XXXXXXX X XXXXX#X#X#X#XXXXXXXXXXXXXXXXX#XXXXX[.[.`.`.`._._._._._._._._.`.).Q.`. X`.[. XXX X XXX#X#X#XXX X[.[.[.[.[.[.[.`._._._._._._.`._._._._._._._._._._._._.).).Q.Q.Q.Q.E.E.E.E.E.E.E.E.E.I.I.I.P.P.P.P.P.A.A.V.V.V.v.v.c.c.c.s.s.i.i.i.i.i.i.i.i.i.i.i.i.w.w.w.q.q.q.q.>.>.>.-.-.-.-.-.-.-.-.=.@.@.-.-.-.-.-.-.-.-.-.-.=.@.@.@.+.+.+.+.+.+.[ ] ] ] ] ] ] ] ] ] ] ] ` ` ` ` ` ( ( ~ ~ ~ ~ ~ ~ ~ ~ ~ ~ ! ! ! ! ! I K K ( K I I A ! K I K K K K S S S K K S S S S S S A A A m m m m m m m m m Z A A S A A S S K K K K G G G G G Z w : , c ( O.O.&.&.( b c k c Q %.x.M.R.T.Y.G.n.H.U.H.H.H.H.H.H.H.H.G.m.m.n.n.n.n.m.G.G.G.G.m.G.H.U.U.U.U.U.H.H.H.H.H.G.n.n.G.H.U.U.U.m.U.Y.H.G.n.n.n.b.b.b.k.k.k.k.k.h.b.e.k.r.e.k.Y ( X -.pXyXs.>.@.-.q.w.w.<.>.<.q.w.w.i.i.w.q.q.,.,.>.>.>.>.>.q.q.",
">.>.>.>.,.q.q.q.i.i.i.i.w.w.u.i.w.i.i.c.v.v.v.v.V.A.A.V.V.P.P.P.P.I.E.I.I.T.I.P.P.P.P.P.P.P.P.P.E.P.P.I.T.I.I.E._.Q.Q.Q.)._._.).).Q._..X`._.).{.[.T.T.t.#.Z & O R.r.c s j e :   Q c.;XQ.`.`.E.XX_._._._._._.`.`.`.`._._._._.`.`.`.`.`._.`.[.XX$X X[.[.%X%XXX[.#X XXXXXXXXXXXXX#X#X#X#X#X#XXXXXXXXXXXXXXXXXXXXXXXXXXXXX[.[.`.`.`._._._._._._._._.`._._.`. X`.[. X#XXXXXXX#X#X#XXX X X[.[.[.`.`.`.`._._._._._._.`._._._._._._._._._._._._._.).Q.Q.Q.Q.Q.E.E.E.E.E.E.E.E.T.I.I.I.P.P.P.P.A.A.V.V.V.v.v.c.c.c.c.s.i.i.i.i.i.i.i.i.i.i.i.i.w.w.w.q.q.q.q.>.>.>.-.-.-.-.-.-.-.=.@.@.@.@.@.=.=.-.-.-.-.-.-.=.@.@.@.+.+.+.+.+.[ ] ] ] ] ] ] ] ] ] ] ] ] ` ` ` ` ( ( ~ ~ ~ ~ ~ ~ ~ ~ ~ ~ ~ ! ! ! ! ! Q I ~ S K ] S K +.b I K K K K K K K K K S S S S A A A A m m m m b b m m m m m Z A A A A S S S S S S G G G G G H c j j 8 > 7 j k w < * = = = 7 c ( 0.G.P.Y.U.H.H.G.G.H.H.H.H.H.G.G.G.n.n.m.n.n.n.n.G.G.G.H.H.H.U.U.U.Y.U.U.U.U.U.U.U.J.H.H.U.Y.Y.U.U.H.U.Y.U.G.m.n.n.b.b.b.k.k.k.k.k.t.h.k.e.h.e.E #.7 K 8XpX-X@.] >.=.>.q.q.>.>.,.<.q.w.u.w.q.q.,.>.q.,.>.-.-.-.-.>.",
"w.w.w.q.w.w.w.w.i.u.w.u.i.i.i.i.i.s.c.v.v.v.V.V.V.A.V.V.P.I.P.A.I.T.E.T.T.E.I.P.P.P.P.P.P.P.P.P.I.I.P.T.T.I.I.T._._.Q.Q.Q.).).)._.)._..X.X`.).).).6.U.#.E X O /.h.V g V 7 7 c , w Q.uX[._.`.Q. X_._._._._._._.`._._._._._._._._.`.`.`.`.`.[.XX#X X[.[.$X$XXX[.XX[.[. X X XXXXXXX#X#XXXXXXXXXXXXXXXXXXXXXXXXXXXXX X X[.[.[.`.`.`._._._._._._._._.[._._.`. X[. X X#X#XXXXXXX#X#X#XXXXX[.[.[.`.`.`.`._._._._._._.`._._._._._._._._.`._._._._._._.).Q.Q.Q.Q.Q.Q.Q.E.E.E.E.E.T.I.I.I.P.P.P.A.A.V.V.v.v.v.c.c.c.c.s.i.i.i.i.i.i.i.i.i.i.i.w.w.w.w.q.q.q.q.0.0.>.-.-.-.-.-.-.=.@.@.@.@.@.@.@.@.=.-.-.-.-.-.=.@.@.@.@.+.+.+.+.[ ] ] ] ] ] ] ] ] ] ] ] ] ` ` ` ` ( ~ ~ ~ ~ ~ ~ ~ ~ ~ ~ ~ ! ! ! ! Q Q ! ! S ` Q I I Z S ! K K K K K K K K K K K S S S S A A Z m m m b b b b b b b m m A A A A A S S S S S S S S H S S S S ` S b S Z p y b I._.P.O.9 # 7 c O.r.G.H.J.H.G.H.H.H.H.H.G.G.m.n.n.n.n.n.n.n.G.G.H.H.H.H.U.U.Y.Y.~.~.Y.U.U.U.U.U.U.U.U.U.U.H.G.n.H.U.Y.H.G.G.m.n.n.b.b.b.k.k.k.k.k.h.n.r.h.r.Y / $ P.uX$Xw.` ! @.@.=.-.>.=.=.>.<.q.q.w.w.q.,.>.>.q.,.>.>.-.>.>.>.",
"u.w.w.w.w.w.w.w.q.q.w.w.i.s.d.c.c.v.V.v.v.v.v.V.V.V.V.A.P.I.P.A.T.T.I.I.T.T.P.P.A.A.P.P.P.I.I.T.I.I.I.E.E.T.T.E.`._.Q.E.E.Q.Q._._.).)._.[.`.Q.T.x.0.Q v O o n.n.x q 0 g j e 7 : > 9XuX;XE.XX XW._._._._._._._._._._._._._._._._.`.`.`.`.`.[.#X$X[.`.[.#X#X[.[.[.[.[.[.[.[.[.[.[.[.[.[. XXXXXXX#XXXXXXXXXXXXXXXXX[.[.[.[.`.`.`.`._._._._._._._._.`._._.`. X X X X%X#XXX XXX#X#X#X#XXX[.[.`.`.`.{.`._._._._._._.`.`.`._._._._._._.`.`._._._._._._.Q.Q.)._.).Q.Q.E.E.E.E.E.E.I.I.I.P.P.P.A.V.V.V.v.v.v.c.c.c.c.s.i.i.i.i.i.i.i.i.i.i.i.w.w.w.q.q.q.q.q.0.0.>.-.-.-.-.=.=.@.@.@.@.@.+.+.@.@.@.=.-.=.=.=.@.@.@.@.@.+.+.[ [ ] ] ] ] ] ` ] ] ] ] ] ] ` ` ` ` ( ~ ~ ~ ~ ! ! ! ! ! ! ! ! ! ! ! ! I I Q ! S ( b k ( I b I S K K K K K K S S S S S S S A A A A Z m m b b b b b b b b m Z A A A S S S A A A S S S S S S S S K ( i.E.).E.$X9XwX`.@.Q ` ( j . c y.Y.H.G.H.H.U.H.H.H.H.G.m.n.n.n.n.n.n.n.n.G.H.Y.U.H.G.H.Y./.'.'./.T.Y.U.U.U.U.U.U.H.H.G.m.n.b.G.H.U.H.G.G.G.m.n.n.b.b.b.b.b.b.n.k.k.b.6.6.$.5 m 0XqXw.] @.@.@.+.@.=.=.=.=.>.<.q.q.w.q.q.>.>.>.,.>.>.>.q.q.w.w.",
"w.q.q.q.q.q.q.q.q.w.i.i.i.i.s.c.v.v.V.v.v.v.V.A.A.A.A.P.I.I.P.A.T.I.I.I.I.I.P.P.P.P.P.I.I.E.E.E.P.P.E.Q.Q.E.E.Q._._.Q.E.E.E.Q._.).Q.E.)._.).P.c.0.v * O q H.r.g q z d 5 z j : , Q pXuX%XW..X.XE._._._._._._._._._._._._._._._._.{.{.`.`.`.[.#X#X`.`.[. XXX[.[.[.`.[.[.[.[.[.[.[.[.[.[.[. X XXXXX X X X X[.[.[.[.[.[.[.[.`.`.`.`._.`.`._._._._._._._._._.[. XXXXX$X#XXX XXXXX#X#X#XXX[.[.[.`.`._.`._._._._._._.`.`.`.`._._._._._.`.`._._._._._._.Q.)._._._.Q.Q.Q.E.E.E.E.E.I.I.I.P.P.P.A.V.V.v.v.V.v.c.c.c.c.s.i.i.i.i.i.i.i.i.i.i.w.w.w.y.q.q.q.q.q.q.0.>.-.-.@.@.@.@.@.@.@.@.+.+.+.+.+.@.@.@.=.@.@.@.@.@.@.+.+.[ ] ] ] ] ] ] ] ` ` ] ] ] ] ` ` ` ` ` ~ ~ ~ ! ! ! ! ! ! ! ! ! ! ! ! ! Q I I I I K A K S k k A Q S K I K S K K K S S S S A A A A A A Z m m m b b b b b b m m A A S S S S S A A A S S S S A A A S A L _ -.q.0.0.q._ I S M A H c j c {.6X/.n.H.J.G.H.H.H.G.G.n.n.n.m.m.n.n.n.n.H.U.U.U.U.U.Y.T././.~.T.Y.U.H.U.U.U.~.T.Y.U.H.G.G.H.U.Y.Y.H.G.H.G.n.n.n.b.b.b.b.b.b.m.h.h.b.$.} Y , c.uXoX@.[ ` +.] [ @.@.@.=.=.>.<.q.q.w.q.q.,.,.q.,.,.>.,.q.w.w.i.",
"i.u.w.w.q.q.q.q.w.i.s.i.u.w.i.d.c.c.c.c.v.V.A.P.P.A.P.I.I.P.A.P.I.I.T.E.I.P.P.I.Q.Q.E.E.E.E.E.E.P.P.E.Q.Q.T.T.E.).).Q.Q.E.E.Q._..X_.)._.[.Q.v.6.v o & 6.H.k.x h 6 h N g q q 7 w 2XuXuX`. X_.W.XX_._._._._._._._._._._._._._._._.{.`.`.`.`.[.XX#X[.[.[.XXXX X[.[.[.[.[.[.[. X X XXXXX X[.[.[.[.`.[.[.[.[.[.[.[.[.[.[.`.`.`.`.`.`.`.`._._._._._._.)._._._.`. XXX X#X#X X XXXXXXXXXXXXX[.[.[.`.`.`.`._._._._._._.`.`.`.`.`._._._._.`._._._._._._.).Q.).).).).Q.Q.Q.E.E.E.E.T.I.I.I.P.P.A.A.V.V.v.v.V.v.c.c.c.c.s.i.i.i.i.i.i.i.i.i.i.w.w.w.y.q.q.q.q.q.q.q.>.-.-.@.@.@.@.@.@.+.+.+.[ [ [ +.+.@.@.@.@.@.+.+.+.+.+.+.] ] ] ] ] ] ] ] ` ` ] ] ] ] ` ` ` ` ( ~ ~ ! ! ! ! ! ! ! ! ! ! ! ! I I I I I K S A l k 1 + + - k b S K K S K K S S S S S S S S S A Z Z m m m m m b b b m m A A S S S S S S A A A A S S S S S S S A Z b b S L S A L I K K L A c y k <XpX+Xn.J.J.n.H.H.H.H.G.m.n.n.G.G.n.n.n.G.U.Y.G.H.Y.~./.~.Y.U.U.H.H.H.H.U.U.Y.~.Y.Y.U.H.H.U.Y././.~.U.H.H.G.n.n.n.n.b.b.b.b.b.G.r.m.e.3.D ; #.4XyXi._ ' ! _ _ +.[ @.@.=.=.>.>.q.q.q.q.q.,.q.q.q.q.,.,.,.q.q.w.",
"i.i.i.i.u.u.u.u.i.i.i.i.i.i.s.s.c.c.c.c.v.V.P.P.P.P.I.I.P.V.A.P.I.T.E.Q.E.P.I.Q.Q.Q.E.E.E.E.E.E.I.T.Q._.Q.I.I.E.Q.Q.Q.Q.E.E.Q._. X.X_._.{.T.y.Q * o G.Y.x x 0 6 h 6 d d q : , G pXpXuX XXX_.W. X_._._._._._._._._._._._._._._._.[.[.[.[.[.[.[.XX[.[.[.[.[. X[.[.[.[.[. X X XXXXX X X[.[.[.[.`.`.[.[.[.[.[.[.[.[.`.`.`.`.`.`.`.`._._._._._._.).)._._._.)._. X X`.XX X[. XXXXXXX X[.[.[.[.[.`.`.`.`._._._._._._.`.`.`.`.`.`._._._._._._._._.).).Q.).).Q.Q.Q.Q.Q.Q.E.E.E.T.I.I.I.P.P.P.A.A.V.V.v.v.V.v.c.c.c.c.s.i.i.i.i.i.w.w.w.w.w.w.w.w.w.q.q.q.q.q.q.q.>.-.-.@.@.@.@.@.+.+.+.+.[ [ +.+.+.+.+.+.+.+.+.+.+.[ [ [ ] ] ] ] ] ] ] ] ` ` ` ] ] ` ` ` ` ` ( ~ ! ! ! ! Q Q Q Q Q Q Q Q ! I K K I I S m l 1 = 9 +.O.< o 9 l S S S K S m A A m b b m m A m m m m m m m m b m m m A S S S K K K S S A Z Z A A A A S S S S L K K A A A K I A M M A K K b w : *XpX+XF.J.J.H.G.H.H.H.G.G.m.n.n.m.G.G.G.H.U.Y.U.Y.~./.~.Y.H.G.H.H.H.H.H.H.U.U.H.H.H.H.H.H.U.Y.~./.T.U.H.H.H.n.n.n.n.n.n.n.n.n.n.e.k.$.| z 5 <XpX.X[ _ _ ;._ =.@.@.[ { @.=.=.>.q.q.q.q.>.>.,.q.q.q.,.,.q.q.w.w.",
"w.w.w.q.q.q.q.q.w.q.q.w.s.c.c.c.V.v.c.c.v.V.A.A.P.P.I.E.P.V.V.I.I.E.Q._.E.P.T._.T.I.I.I.I.I.I.T.E.Q._.`._.T.I.E.E.Q.Q.Q.Q.Q.Q._..X_.).).}.m.O.c   b.k.q g 0 g g g g g g x ; j 2XtXpX=XXXE.`..XE._._._._._._._._._._._._._._._._.XXXXXX[.[.[.[.[.`.`.`.`.[.[.[.`.[.[.[.[.[.[.[.[.[.[.[.[.[.[.[.[.`.`.`.`.`.`.`.`.`.`.`.`.`.`.`.`._._._._._._.).Q._.`._.)._..X`._.[.[.[. XXXXXXX[.[.[.[.[.[.`.`.`.`._._._._._._.`.`.`.`.`.`._._._._._._._.).).Q.Q._.Q.Q.E.E.Q.Q.Q.E.E.E.I.I.I.P.P.P.P.A.A.V.V.v.v.V.v.v.c.c.c.s.s.i.i.w.w.w.w.w.w.w.w.w.w.q.q.q.q.q.q.q.q.>.-.@.@.@.@.@.+.+.+.+.+.[ [ +.+.+.+.+.+.[ [ [ [ [ ] ] ] ] ] ] ] ] ] ] ] ` ` ` ] ] ` ` ` ` ` ~ ~ ! ! ! Q Q Q Q Q I Q Q Q ! K S K Q I A b 7 < s.0XpXsXA.m = w m Z H G Z c v k j p y p k k b b b m b m m m m m m Z A S S K K K K S S A Z m A A m m A A A A m b m S K S S S L L S A S A b k o '.aXOXG.H.G.H.H.H.H.H.H.G.G.G.n.m.H.H.U.U.U.U././.~.Y.U.H.H.G.H.H.H.H.H.G.G.G.m.G.H.H.H.U.U.Y.U.Y.U.H.H.H.H.G.n.n.n.n.M.M.n.n.k.3.#...Z 7 O.aX-X[ _ +.K =.L @.@.[ [ [ @.=.=.=.>.,.,.>.>.>.>.,.,.,.q.q.w.u.i.s.",
"i.i.i.i.i.i.i.i.i.i.s.s.i.i.s.s.c.c.c.c.V.A.P.P.A.E.E.A.v.A.E.E.E.Q.Q.E.E.Q.Q.E.P.P.P.P.P.T.).`._.).Q.E.E.E.E.E.E.E.E.E.Q.Q.Q.Q.E.[.[.T.P.M.K # - %.j : w 7 k 5 7 7 w p 7 > 7 pXpXyX%XI._. X_.!._._._._.).)._.`._._.`._._.`.XX$X$X$XXXXX X X X X X X X.X[.`.`.`. X X X X X X X X`.`.`.`.`._._._._._._._._._._._._._._._._._._._.`.`._._._.).).).Q.)._._._._._.`.`.`.`.[.[.[.[.`.[.`.`.`.`._._._.`.`._.).Q.)._._.`.`._._._._._._.Q.Q.E.Q.Q.).Q.Q._.).Q.E.E.E.E.E.E.E.I.I.I.P.P.P.P.A.A.A.V.V.V.v.v.v.c.c.c.c.s.i.i.i.i.w.w.w.w.w.w.w.w.w.w.q.q.q.q.q.q.0.>.-.-.@.@.@.@.+.+.O.] ] ] ] ] ] ] ] ] O.+.+.[ [ O.O.O.O.] ] ] ] ] ] ` ` ` ` ` ` ` ` ` ` ( ( ~ ~ ~ ! ! ! ! ! ! Q Q K K K R Q R K Q R S l * n.aXpXuX9X'.$.i > i k c N w v 7 = X X + * r p e w f k Z c l S m b Z S S Z S Q K K K S S S S Z A A A A A A Z m A Z m A A S S A S S A H S H c k * ^ %X/.U.G.b.Y.m.H.H.G.m.G.U.Y.H.U.Y.Y.Y.Y.~./.'./.Y.U.H.G.G.G.G.G.H.H.H.H.H.H.G.H.H.H.G.G.G.H.U.U.U.U.U.H.G.G.H.n.n.G.n.n.n.z.M./ $.N * Q 8XyX@.] _ ~ ` ] +.[ +.@.@.@.@.@.>.q.>.,.,.>.>.>.>.-.>.q.w.u.i.s.s.s.",
"v.v.c.d.s.i.i.i.i.s.s.s.s.i.s.s.c.c.c.c.V.A.P.P.I.I.P.V.V.P.T.T.E.E.E.T.E.E.E.I.P.P.P.I.E.Q.Q.Q.Q.Q.E.E.T.T.T.E.E.E.E.E.E.Q.Q.Q.).{.).Q.).m.G . o m - * < # 1 , p > i - 1 p ( qXuX4X_.E.`. X_..X_._._._.`..X.X[.`.`._._._.`.XX$XXX X X`.`.`.`.`.`.`..X.X[.[.[.[. X X X X X X X X`.`.`.`._._._._._._._._._._._._.`.`._._._._.`.`._._._._.).).).).).)._._._._._._._._.`.`.`.`.`.`.`.`.`.`._._._._.`._._.).Q.Q._._._._._._._._._._.Q.Q.Q.)._._._.Q.Q.Q.Q.Q.Q.Q.E.E.E.T.I.I.I.P.P.P.P.A.A.A.V.V.v.v.v.v.c.c.c.c.s.i.i.i.i.w.w.w.w.w.w.w.w.w.q.q.q.q.q.q.q.>.>.-.-.@.@.@.+.+.O.O.] ] ] ] ` ` ] ] ] ] O.+.[ [ O.O.O.O.] ] ] ] ] ` ` ` ` ` ` ` ` ` ` ` ( ~ ~ ~ ! ! ! ! ! ! ! ! Q K K K K K K K R K S l * '.pXaX+X~.H.k.#.0 o , v v , & c M.8X8XP.( k e * * X , c G Z c Z Z Z S S A S Q K K K S S S S S m m A A A A Z m A Z m A A S S A G H Z S G S Z c > 3 M.T.H.U.Y.G.U.U.U.H.G.G.H.H.Y.T.~.~.Y.Y.~./.Y.U.U.H.H.H.H.U.~.Y.Y.U.H.H.H.H.H.U.Y.Y.Y.U.Y.Y.Y.Y.Y.Y.Y.U.H.H.G.b.n.G.n.n.n.l.8.X.v X O.0XqXW._ ~ ! ! ~ ` ] ] +.@.@.@.@.@.>.q.-.>.,.-.-.>.>.-.>.>.q.w.i.i.s.s.",
"v.v.c.i.i.i.i.i.i.s.s.s.s.s.s.c.c.c.c.v.V.P.P.P.E.P.V.A.P.I.I.I.T.E.T.I.I.E.T.P.P.P.I.E._._.Q.I.E.E.E.T.I.I.T.T.E.E.E.E.E.E.Q.Q._.).Q.).).m.Q 1 - w 7 w p 7 w y , , , O v v yXpXuX&XE.`. X_._..X`._._.[.XX$XXX X X X`._.`. X$X$X X[.`._._._._._.`.`.`.`.[.[. X X`.`.`.`.`.`.`.`.`.`.`._._._._._._._._._._._._._._._._._._._._._._._.).).Q.)._._.Q.Q._._._._._._._._._._.`._._._._._._._._._._._._._._.Q.Q.Q.)._.).).).Q.Q.Q.Q.Q.E.E.Q.)._._.Q.E.E.E.Q.Q.Q.Q.E.E.T.T.I.I.I.P.P.P.P.A.A.A.V.V.v.v.v.v.c.c.c.c.s.i.i.i.i.w.w.w.w.w.w.w.w.w.q.q.q.q.q.0.0.>.-.-.@.@.@.+.+.+.O.] ] ] ` ` ` ` ` ` ] ] ] ] ] ] ] ] ] ] ] ] ] ` ` ` ` ` ` ` ` ` ` ( ( ( ~ ~ ~ ! ! ! ! ! Q ! Q Q Q Q I Q K K K K K K A v , [.pX<XG.m.U.H.b.#.D V q * G H.pXaXtXpXtX<X&X1X<XT.G * , k Z G S Z Z A A S S Q K K S S S S S S m m Z A A Z m m A Z m A A S S A S H Z Z H S Z c w o H 3.k.H.H.n.U.H.G.G.G.H.H.H.U.U.Y.Y.U.Y.Y.~.U.U.U.U.U.Y.Y.Y.~.Y.U.U.U.U.Y.Y.U.Y.T.~.Y.Y.Y.Y.Y.Y.Y.Y.U.U.H.G.L.n.F.G.n.n.n.k.$.X., Q 0XuXE.@.! I I Q ~ ` ` ` ] +.@.@.+.@.-.>.-.>.>.-.-.>.>.>.>.>.q.q.u.i.d.c.",
"c.s.i.w.w.i.i.i.i.s.s.s.s.s.s.c.c.c.c.v.A.P.P.P.E.V.v.P.I.P.P.I.I.W.I.P.I.T.I.P.P.P.E.)._._.E.I.T.T.T.T.T.T.E.E.E.E.E.E.E.E.E.E.).)._.`.Q.L.c.i.9X0XtXuXyXaXaXuXuX9Xs.G G uXpX9X9X X). X_.).[.[.`.`. XXX$X$XXXXXXX X.X XXX$X$X$X X`.`._._._._._.`.`.`.`.`.`.`.[.`.`.`.`.`.`.`.`.`.`._._._._.).).Q.Q.).)._._._._.).Q.Q.Q.Q.Q.Q.).Q.Q.Q.Q.Q.Q.)._.).Q.Q.Q.).Q.Q.Q._._._._._._._._._._._._._._._._._._.).Q.Q.Q.Q.Q.Q.Q.Q.Q.Q.Q.Q.Q.Q.E.E.E.Q.Q.E.T.E.E.Q.Q.Q.Q.E.E.E.T.I.I.I.P.P.P.P.P.A.A.V.V.V.v.v.v.c.c.c.c.s.i.i.i.i.w.w.w.w.w.w.w.w.w.q.q.q.q.>.>.>.>.-.@.@.@.+.+.+.O.] ] ] ] ` ` ` ` ` ` ` ` ] ] ] ] ] ] ] ] ` ` ` ` ` ` ` ` ` ` ( ( ~ ~ ~ ~ ~ ~ ! ! ! ! Q Q Q Q Q I Q K K K K K K K K K A v * {.iX+Xm.T.T.m.H.h.6.'.<X,XeXpXaXpXpX<X{.%X0XuXpX9Xm.c , > k G S S A A S S S K K K S S S S S S m m Z Z A Z m m A Z m A A S S A S H Z Z Z S Z Z c 7 3 w $.n.k.Y.H.H.H.U.H.H.G.H.G.G.H.H.U.Y.T.~.T.T.Y.Y.Y.Y.Y.Y.Y.U.U.U.U.U.Y.Y.U.U.U.U.H.H.H.H.Y.Y.Y.Y.U.H.H.G.L.G.G.F.z.M.z.e...v * &XyXq.R K I I Q ! ~ ` ` ] O.+.@.@.@.@.@.-.=.-.-.-.-.>.,.>.,.q.q.w.i.s.c.v.",
"s.i.i.i.i.i.s.c.s.s.c.c.s.s.c.c.v.v.v.V.A.P.P.P.I.V.v.P.I.V.A.E.I.I.I.P.I.E.T.P.P.T.)._.Q.E.E.E.T.E.E.E.E.E.E.E.E.E.E.E.E.E.E.E.T.Q.{.`.).).#X2XpXyXpXpXuXpXpXpXpXaX$X9XpX8XpXpX$X)._.[.)._. X[.`. X$X$XXX X XXX X[.[. XXX#XXX X[.`.`._._._._.`.`.`.`.`.`.`.`._.`._._._._._._._.`._._._._.Q.Q.Q.Q.Q.Q.Q.Q.).).).Q.Q.Q.E.E.Q.Q.Q.E.E.E.E.Q.Q.Q.).Q.Q.Q.Q.Q.Q.Q.Q._._._._._._._._._._._._._._._._.).Q.Q.Q.Q.Q.Q.Q.E.E.E.E.E.E.Q.Q.Q.E.E.E.Q.Q.Q.Q._.).Q.E.E.E.E.E.E.E.T.I.I.I.P.P.P.P.P.A.A.V.V.V.v.v.v.c.c.c.s.i.i.i.i.w.w.w.w.w.w.w.w.q.q.q.q.q.>.>.-.-.-.@.@.+.+.+.O.] ] ] ` ` ` ` ` ( ` ` ` ` ` ` ` ` ` ` ` ` ` ` ` ` ` ` ` ` ~ ~ ~ ~ ~ ~ ~ ~ ! ! ! ! ! Q I I Q Q Q Q K K K K K K K K K K Z v o +XiX+Xn.H.H.m.h.U.].9XpXiXpXiXtX`.x.M.P.L.P.`.[.[.L.O.k : 7 c S S S S S S S S S S S S S S S A m m Z A A A A A A m m A A S A A S A A Z Z Z Z Z c c 5 * N 3.t.T.Y.Y.T.~.Y.G.G.H.H.H.U.Y.~././.'.T.T.Y.Y.U.U.U.H.~.~.Y.Y.U.H.H.G.U.H.G.G.G.H.H.U.~.~.T.Y.Y.U.U.H.H.n.n.n.b.M.k.6.( & G aX).K ! K ! ! ! ! ~ ` ` ] @.@.-.-.-.-.-.-.=.-.-.-.-.>.,.>.q.q.q.w.i.s.c.v.",
"i.i.i.w.w.i.i.i.s.c.c.c.c.s.c.c.v.v.v.V.A.P.P.P.A.v.V.P.P.V.V.T.P.I.I.P.I.E.E.I.P.E._._.E.I.E.Q.E.E.E.E.E.E.E.E.E.E.E.E.E.E.E.E.).T.T.Q.).).[.%X$X$X;X$X X&X&X#XXX&X1X9XuXpXXX`.Q._. X[.).[. X_._. X$X$X X_.`. X_._.`.`.[. X`.`.`.`._._._._._._.`.`.`.`._._._._.`.`.`._._._._._._._._._.Q.Q.Q.E.Q.Q.Q.Q.Q.Q.Q.Q.Q.Q.Q.E.E.Q.Q.Q.E.E.E.E.E.E.Q.Q.Q.Q.Q.Q.Q.Q.Q.Q._._._._._._._._._._.).).).).).).Q.Q.Q.Q.Q.Q.Q.Q.E.E.E.Q.Q.Q.Q.Q.Q.E.E.Q._.`.[.[._._.).Q.E.E.Q.Q.E.E.E.T.I.I.I.I.P.P.P.P.A.A.V.V.v.v.c.c.c.c.s.i.i.i.i.w.w.w.w.w.w.w.w.q.q.q.q.q.-.-.-.-.@.@.+.+.O.O.] ] ] ` ` ` ` ` ( ( ` ` ` ` ` ` ` ` ` ` ` ` ` ` ` ` ` ` ` ` ~ ~ ~ ~ ~ ~ ! ! ! ! ! ! Q I I I K K K K K K K K S K S S K S m k % *XiX[.n.G.m.n.T./.U.Y./.].].T.M.P.L.M.M.T.T.M.T.T.L.t.( j : : v b S S S S S S S S S S S S S Z m m Z A A A A A A Z m A A S S A A A A Z Z Z Z Z Z c k 0 * c #.t.~.U.U.Y.Y.H.H.U.U.U.Y.~./././.~.Y.Y.Y.Y.Y.Y.Y.Y.T.~.~.T.Y.U.U.H.U.H.G.H.U.Y.T.~.Y.Y.Y.Y.U.U.U.H.H.G.H.G.n.n.k.#.V * `.0X%.+.` ! I Q ! ! ~ ( ` O.+.+.@.@.-.@.@.&.-.>.>.-.-.>.>.>.>.,.q.q.w.i.i.s.",
"w.w.w.w.w.w.i.i.s.c.c.c.c.c.c.c.v.v.v.V.A.A.A.V.V.v.V.A.A.V.V.P.P.P.P.P.I.E.E.I.I.E.).Q.E.I.T.E.E.E.E.E.E.E.E.E.W.W.I.I.T.T.T.T.).T.T.T.Q.T.I.I.).`._.{.{.).`.).{.{.).m.R.O.x.x.c.P.}.).{.[.{._._. XXX X`._._.`._._._._._._._.`.`.`._._._._._._.`.`._._._._._._.`._._._._._._._._._._.).Q.Q.E.E.Q.Q.Q.Q.E.E.E.E.Q.E.E.E.E.E.E.Q.E.E.E.E.E.E.E.E.E.E.E.E.Q.Q.Q.Q.Q.Q.)._._._._._._._.).).Q.Q.Q.Q.E.E.E.Q.Q.Q.E.E.Q.Q.Q.Q.Q.Q.Q.Q.Q.Q._.`. X X[.`._._._.).Q.Q.Q.Q.E.E.E.E.E.I.I.I.I.I.P.P.P.A.A.V.v.v.c.c.c.c.s.i.i.i.i.w.w.w.w.w.w.w.q.q.q.q.q.q.-.-.-.@.@.@.+.O.] ] ] ] ` ` ` ` ` ` ` ` ` ` ` ` ` ` ` ` ` ` ` ` ` ` ` ` ` ` ( ( ~ ~ ~ ~ ! ! ! ! ! ! ! U I I I K G G G G G S S S H G H H G H b j * +XaX].H.Y.H.G.n.H.Y.m.m.U.H.H.Y.m.n.G.n.t.M.T.M.L.R.P.m.#.j * 7 j Z A Z Z S A S S S S S S S Z m Z A A S S S S A m m A A S S A A A A A m m Z m Z m c Z * , Z t.+X~.H.U.Y.U.U.Y.U.Y.Y.~./.~.Y.U.Y.Y.Y.Y.Y.T.~./.Y.Y.Y.Y.Y.Y.Y.Y.U.U.U.U.T.~.~.T.U.U.U.H.H.H.H.H.U.J.H.G.k.h.%.E , Q 0X_.~ ! b L I I ! ! ! ` O.@.+.+.@.@.@.@.@.+.-.>.>.-.-.>.>.-.,.q.q.w.w.w.w.w.",
"i.i.i.i.i.i.s.s.s.c.c.c.c.c.c.c.v.v.v.V.V.V.V.v.v.v.v.V.A.A.A.A.A.P.P.P.P.E.E.I.T.E.E.Q.E.E.T.I.E.E.E.E.E.E.T.I.T.I.I.T.T.T.T.T.P.T.).).).Q.Q.Q.T.).T.{.[.T.).).{.L.t.b.&./ Q Z ) 5.t.m._.{.). X_.`.`.`.`._._._.`.`.`._.Q.).`. X[.`.`._._._.`.`._._._._._.`.`.`._._._._._._._._._._._.).Q.E.E.E.Q.Q.Q.E.E.E.E.E.E.E.T.T.T.T.E.E.E.E.E.E.E.E.E.E.E.E.E.E.E.Q.Q.Q.Q.Q.Q.Q.).).Q.Q._._.).Q.Q.Q.Q.E.E.E.E.Q.Q.E.E.E.Q.Q.Q.Q.).).)._.Q._.`. X X[._.E.Q.)._._._._._.).Q.Q.E.E.E.T.T.I.I.I.I.P.P.P.A.A.v.v.c.c.c.c.s.i.i.i.i.w.w.w.w.w.w.w.q.q.q.q.q.q.-.-.-.@.@.+.+.O.] ] ] ` ` ` ` ` ` ` ` ` ` ` ` ` ` ` ` ` ` ` ` ` ` ` ` ` ` ( ( ( ~ ~ ! ! ! ! ! ! ! ! ! I I I K K G G S S G S S S Z S Z Z H S c p % *XiX+XU.Y.H.U.H.m./.U.U./.n.m.m.m.m.m.L.L.H.m.L.T.U.m.L.m.O.c * 9 b Z b Z A Z S S S S S S S Z Z A A S S S S S A m m A A S S A Z A A A m b b b l G k F c * s ].9X>X~.Y.T.Y.H.H.U.Y.T./././.Y.H.U.U.H.H.U.Y.~./././.T.U.U.U.U.U.Y.Y.Y.~.~.~.Y.H.Y.U.U.U.U.U.U.U.H.H.F.k.6.$.E w : <X9X-.` ! K ! I I ! ! ~ ` @.-.@.@.-.>.>.>.-.@.>.,.,.>.>.>.>.-.q.q.w.w.u.w.w.w.",
"i.w.i.i.w.s.v.c.i.c.v.v.c.c.c.v.s.c.v.V.V.V.v.c.c.v.V.v.V.P.P.V.P.P.P.I.I.T.E.E.E.E.E.E.E.E.E.E.E.E.E.E.E.E.E.E.E.E.I.I.P.I.I.T.T.T.Q.Q.).Q.T.T.E.T.).).T.).).I.m.k.:...5 & o . X k Z ( 0.V.%X_.`.`.`.`._.`._._.`.`.`.`.`.`.`.`._._._.`.`._._._._.`.`.`.`._._._._._._._._._._._._._._.).Q.Q.E.E.Q.Q.E.E.E.E.T.I.I.I.I.I.I.T.E.E.E.E.E.T.T.I.I.I.T.T.E.E.E.Q.Q.Q.Q.Q.Q.)._._._._._.Q.Q.Q.Q.Q.E.E.E.E.Q.Q.Q.Q.Q.Q.E.E.E.Q._.`. XXX[.XXXX`.).)._._.).).Q.Q._._.`.`.Q.Q.Q.E.E.E.T.T.I.I.I.P.P.A.A.A.V.V.v.v.c.c.s.s.s.i.i.w.w.w.w.w.q.q.q.q.>.>.-.-.@.@.@.@.@.+.+.+.] ] ] ` ` ` ` ` ~ ~ ( ( ( ` ` ` ( ` ` ` ` ( ~ ~ ~ ~ ~ ~ ~ ~ ~ ~ ~ ~ ! ! Q I Q Q ! ! I I K K S S S S S H H H H H G c G Z G H 7 w Y 0XpX].H.Y.m.m.m.U.T.~.Y.U.H.H.G.G.H.L.L.L.H.H.L.Y.T.R.Y.R.x.%.j - j b S b S b A S S S S S S S S S S S S S A A A A A A A A A A m m M m m m m m c c Z Z Z > e '.6XOXH.Y.H.'.Y.Y.Y.~././.Y.U.U.U.H.H.U.~././././././.~.~.Y.U.U.J.U.U.Y.Y.~.~.~.~./.~.~.~.Y.Y.U.U.U.H.T.6.( E X :  X9XT.` ~ ~ ~ K ! I ! ` ] ] @.>.-.@.@.q.q.@.@.-.-.-.>.,.,.>.>.-.>.q.q.q.q.q.w.w.",
"i.w.i.i.w.s.v.s.s.c.v.v.c.s.s.c.s.s.c.v.v.v.c.c.c.v.V.V.V.A.A.V.P.P.P.I.I.I.T.T.E.E.E.E.E.E.E.E.E.E.E.E.E.E.E.E.E.T.I.I.I.E.E.Q.T.T.E.Q.Q.Q.T.T.).E.).).T.T.P.s.x.#.w O & k ( 0.Z o O , H y.c.).[._._.`.`.`._._.`.`.`.`.`.`.`.`._._.`.`.`.`._._._.`.`.`.`._._._._._.Q.)._._._.)._._._.).Q.Q.E.E.E.E.E.E.E.T.I.I.I.I.P.P.I.I.T.E.E.E.T.T.I.I.I.I.I.T.E.E.E.Q.Q.Q.Q.Q.Q.)._._._._.Q.Q.Q.Q.Q.Q.E.E.E.E.E.E.Q.Q.Q.Q.Q.E.E.Q.`. X[.`.Q._.`._._.[. X XXXXX X`._._.).).Q.Q.Q.E.E.E.E.T.T.I.I.P.P.P.A.A.V.V.v.v.c.c.s.s.s.i.i.w.w.w.w.w.q.q.q.0.>.-.-.@.@.@.@.@.@.+.+.+.] ] ] ` ` ` ` ` ( ( ( ( ( ( ( ( ( ( ` ` ( ~ ~ ~ ~ ~ ~ ~ ~ ~ ~ ~ ~ ~ ! ! Q I I Q Q Q I K K S S S H S Z Z S S Z Z G I S v w 9 w w <XpXpX'.n.H.n.n.H.Y.Y.Y.U.H.H.H.G.G.L.L.U.P.R.R.m.L.U.P.T./.R.M.Q w < K b b A Z A S S S S S S S A S S S S S A A M m Z A A A A A m m m m m m m m H Z Z c Z 7 X Z e.e.m./.n.U.H./.Y.~.~.~.Y.U.U.U.U.Y.~./.'.'.'./././.~.T.Y.U.U.J.U.U.U.Y.T././././././.~.T.Y.Y.U.U.M.k.e.Z X Q #X1X$X@.K ~ K K ! Q I ! ` ] ] @.0.-.@.-.q.q.-.@.-.-.-.-.-.-.-.>.>.>.,.q.q.q.q.w.w.",
"w.w.s.s.w.s.c.i.s.c.c.c.s.i.i.s.i.s.s.c.c.c.c.c.c.V.A.V.V.A.A.A.A.P.P.P.P.I.I.I.I.I.I.T.T.T.E.E.W.W.E.E.E.E.E.E.I.I.I.T.E.Q.Q._.T.T.Q.Q.Q.Q.E.T.Q.T.).).T.T.M.&.G q > w n.'.m.Y N #.%.*   Q P.$X X_._.`. X`._._.`.`.`.`.`.`.`.`.`.`.`.`.`.`.`.`._.`.`.`.`._._._._.Q.E.Q._.`._.)._._._.).Q.Q.E.E.E.E.E.T.I.I.I.P.P.P.P.P.P.I.I.I.T.I.I.I.I.I.I.I.I.I.T.E.E.E.E.Q.E.Q.Q.).)._._.).Q.Q.Q.Q.Q.Q.Q.Q.E.E.E.E.E.E.E.Q.).Q.Q._. X X`.Q.E.Q._._.`.XXXX X X X[.`.`.`.`.`.).Q.Q.Q.E.E.E.E.E.T.I.I.P.P.A.A.V.V.V.v.c.c.c.s.s.i.i.w.w.w.q.q.q.q.>.>.>.-.@.@.@.@.@.@.+.+.] O.] ] ` ` ` ` ` ` ` ` ( ( ~ ~ ~ ~ ~ ~ ( ( ~ ~ ~ ~ ~ ~ ~ ~ ~ ~ ~ ~ ~ ! ! Q I I I I I I K K S S S S H Z Z Z Z Z Z m v c H k k 7 p 5XpXiX1XT.H.T.Y.U.U.Y.Y.U.H.m.m.H.H.H.H.U.U.Y.Y.Y.G.U.Y.U.Y.~.T.L.y.S * ! S A b S A S S S S S S S A A A A S A A A m m Z Z m m m m m m m m m m m m A Z Z c Z v , @ 0 z h.].U.T.U.Y.Y.Y.Y.Y.U.U.U.U.Y.Y./.'.].'.'./.~.~.T.Y.Y.U.U.H.Y.U.U.U.~./.'.'./././.~.~.Y.Y.Y.J./.h.r.Z X [.yX).w.S ! ] ! I I I I ~ ` ` ] @.q.-.@.-.q.q.-.@.-.-.-.=.@.@.-.-.>.-.>.,.q.q.q.w.u.",
"w.w.s.s.i.i.c.i.i.i.s.s.s.i.s.s.i.i.s.s.s.c.c.c.c.V.A.A.V.V.A.P.A.A.P.P.P.P.P.I.I.I.I.I.I.I.I.I.I.I.T.T.E.E.E.E.I.I.T.E.E.Q.Q.).T.T.T.Q.Q.E.E.T.T.T.Q.).Q.T.t.Q ; . F U.U.G j w c D j k : X #.&X#X_.Q.`. X_._.`.`.`.`.`.`.`.`.`.`.`._._._._.`.`._.`.`.`.`._._._._.Q.E.Q.`. X`.)._._._.).Q.Q.E.E.E.E.T.I.I.P.P.P.P.P.P.P.P.P.P.I.I.I.I.I.I.I.I.I.I.I.I.T.E.E.E.E.E.E.Q.Q.).).).).Q.Q.Q.Q.Q.Q.Q.E.E.E.E.E.E.E.E.E.Q.Q._.`. X X_.Q.)._._._..XXX X_._._._._.`.`. X X).).Q.Q.Q.E.E.E.E.E.I.I.P.P.P.A.V.V.V.v.v.c.c.c.i.i.i.w.w.w.q.q.0.0.>.>.-.-.@.@.@.@.@.+.+.O.] ] ] ] ` ` ` ` ` ` ` ` ( ~ ~ ! ! ! ~ ~ ~ ~ ~ ~ ! ! ! ! ! ! ! ! ! ! ! ! ! Q I I I I K K K S S S S A H Z Z Z Z Z m c c c e e - Z <XpXpX1X'.U.H.U.U.m.U.U.U.H.m.m.G.H.G.H.H.H.U.U.U.U.H.Y.Y.Y.U.Y.U.L.M.O.- Z @.K b Z S S S S S S S S A A A A A A A A m m m m m m m m b m m m m m m m l b S m c Z c 7 & 0 H.2X]./.U.H.U.U.H.H.U.U.Y.U.U.T./.'.'./.~.~.~.T.Y.Y.U.U.U.H.Y.U.U.Y./.'.'.'././.~.~.T.Y.Y.U.k./.b.%.c , _.v.+.! ! +.` ~ ~ K K I ~ ` ` ] @.>.@.@.-.>.>.-.@.@.@.@.@.@.@.@.-.-.-.-.>.,.q.q.w.u.",
"w.w.s.c.i.s.c.w.i.i.i.i.i.i.i.s.s.s.s.s.s.c.c.c.c.v.A.A.V.V.V.P.A.A.P.P.P.P.P.P.P.P.P.P.P.I.I.I.I.I.I.I.T.T.E.E.E.E.E.E.E.E.E.E.T.T.T.T.T.Q.T.T.T.T.T.T.T.I.y.G o b.*Xh.g z c v k G w 0 0 e O.M.#X`.)._.`._._.`.`.`.`.`.`.`.`.`.`._._._._._._.`._.`.`.`.`._._._.`._.Q.).`. X`._._._._.).Q.Q.E.E.E.E.T.I.I.P.P.P.A.A.P.P.P.P.P.P.P.P.P.P.P.I.I.I.I.I.I.I.T.T.E.E.E.E.Q.Q.Q.Q.Q.Q.Q.Q.Q.Q.Q.E.E.E.E.E.E.E.E.E.E.E.E.).`. X`._._._.`._._._.`. X`.E.`.`.`._._._._.).).).Q.Q.Q.E.E.E.E.E.I.I.P.P.P.A.V.V.V.v.v.c.c.c.i.i.i.w.w.q.q.q.0.0.>.>.-.-.@.@.@.@.+.+.+.O.] ] ` ` ` ` ( ( ( _ ` ` ( ~ ~ ! ! ! ~ ~ ~ ~ ~ ! ! ! ! ! ! ! ! ! ! ! Q Q Q I I I I K K K S S S S A Z S Z m Z Z Z c k 9 w 7   G 9XpXsXeX+XH.m.n.n.H.U.m.H.U.U.H.m.H.H.G.G.H.H.H.H.H.H.n.H.U.Y.Y.Y.Y.T.m.q.j - w.K Z Z Z S S S S S S S A A A A A A A A Z Z Z m m m m m b m m m m m m m l b m m v l Z k > x 2XiX+XU.U.U.Y.U.U.U.U.U.U.U.Y.~./.'./.~.T.Y.Y.Y.Y.Y.U.U.U.U.U.U.Y.~./.'././.~.~.T.Y.Y.Y.U.U.H.J.n.0.Z . @.@.[ ! @.[ K U ~ I K ! ` ` ] +.@.>.@.@.@.-.-.@.@.@.+.+.@.@.@.@.@.@.-.-.>.,.q.q.w.u.",
"i.i.c.c.i.s.c.i.i.i.i.i.i.i.i.i.s.s.s.s.s.c.c.c.v.v.V.A.V.v.V.A.A.A.A.P.P.P.P.P.P.P.P.P.P.P.P.P.I.I.I.I.I.T.T.E.E.E.E.E.T.T.I.I.T.T.T.T.E.T.T.Q.T.T.T.T.I.P.q.G o %.#.C v x 5 F c z G k > X 3 h._._._.).Q.)._._._._._._._._._._._._._._._._._._._.`.`.`.`._._._.`._.Q._.`. X`._._._._.).Q.Q.E.E.E.E.T.I.P.P.P.P.A.A.P.P.P.P.P.P.P.P.P.P.P.P.P.P.I.I.I.I.I.I.I.I.E.E.E.Q.Q.Q.Q.Q.Q.Q.Q.E.E.E.E.E.E.E.E.E.E.E.E.Q.E._. X X_.)._.`._._._.)._. X`.Q.`.`.`.`._._.).Q.).Q.Q.Q.E.E.E.E.E.T.I.I.P.P.A.A.V.V.V.v.c.c.c.s.i.i.w.w.w.q.q.q.0.0.>.>.-.-.@.@.@.@.@.+.+.O.] ] ` ` ` ( ( ~ ~ ( _ _ ~ ~ ! ! ! ! ! ! ! ! ! ! ! ! ! ! ! ! ! ! ! ! I I I I I I K K K K S S S S A Z Z Z Z Z Z c k w 9 o j ;XtX0XpXtX{.H.m.U.U.H.U.Y.m.H.U.U.H.H.H.H.H.H.H.H.H.H.G.G.H.U.Y.~.~.~.Y.T.|.c.S O ( S Z A Z Z S S S Z Z Z A Z Z Z m A A A A A A m m m m m M m m m b b b b m l k b c v m j 0 z 7XpX*XY.Y.Y.Y.Y.Y.Y.U.U.U.U.~./.'.'./.T.Y.T.Y.Y.Y.Y.U.U.U.U.U.Y.~./././.~.~.Y.Y.Y.Y.Y.U.U.J.T.H.H.a.( 7 ! c.q.! ` +.! ! U ! ! ( ] ] +.@.-.-.+.@.@.@.@.@.@.+.[ +.+.@.@.@.@.@.-.>.,.q.q.q.w.u.",
"i.i.c.c.i.s.c.i.s.i.i.i.i.i.i.i.i.i.i.s.s.c.c.c.v.v.v.V.V.v.v.V.A.A.A.P.P.P.P.P.P.P.P.P.P.P.P.P.P.P.I.I.I.I.I.W.E.E.E.E.E.T.I.I.T.T.T.T.T.T.T.E.T.T.T.I.I.T.c.Q . z x s g V V Y Z z H Z c 3 > %.P.E._.Q.E._._.Q._._._._._._._._._._.).Q.Q.)._._._.`.`.`.`._._._._._.)._._._._._._._._.).Q.Q.E.E.E.E.E.I.I.P.P.P.A.A.P.P.P.P.P.P.P.P.P.P.P.P.P.P.P.I.I.I.I.I.I.I.E.E.E.Q.Q.Q.Q.Q.E.E.E.E.E.E.E.E.E.E.E.E.Q.Q.Q.Q._.`.[.`._.)._._._._.).Q._.`.`._._._._.`.`.`._._.Q.Q.Q.E.E.E.E.T.T.I.I.P.P.P.A.A.V.V.v.v.c.c.c.s.i.i.w.w.q.q.q.q.q.q.0.>.-.-.@.@.@.&.@.+.+.+.O.] ` ` ` ( ~ ~ ~ ~ ~ ~ ~ ~ ! ! ! ! ! ! ! ! ! ! ! Q I I I I I I I I K I I I I K K K K S S S S S S A S Z Z Z m v 9 > 9 [.pXtXuXpX5X).L.Y.T.T.Y.H.n.b.m.H.U.U.H.G.H.H.U.U.U.U.U.U.U.U.Y.Y.~.~.~.Y.U.U.T.v.@.7 8 S l Z b Z A A Z Z Z Z M Z m m m Z A A A A A A m m m m M M M m b n b b l b y b Z c c j 0 0 2XiXOXH.U.n.n.G.H.U.U.U.Y.Y./.'.'.'.~.Y.Y.T.Y.Y.Y.Y.Y.Y.U.U.Y.~././.~.Y.Y.~.Y.Y.Y.Y.U.U.U.J.m.n.a.0.] p K _.q.U _ +.[ ` I ~ ~ ` ` ` +.-.-.@.+.@.@.@.@.@.@.+.+.+.+.+.+.@.@.=.>.,.q.q.q.q.w.w.",
"s.s.c.c.i.s.c.i.i.i.i.i.i.i.i.i.i.i.i.s.s.s.s.s.v.c.c.V.A.V.v.V.V.A.A.A.P.P.P.P.P.P.P.P.P.P.P.P.P.P.I.I.I.I.I.I.I.E.E.E.E.E.T.T.T.T.T.T.T.T.T.E.T.T.T.T.T.).A.&.N o j ^ V z / v D ) x D F 3 ; 3 s.P.).E.E._._.E._._._._._._._._._._.Q.Q.Q.Q._._._.`.`.`.`._._._.).).).).).).Q.Q._._._.Q.Q.Q.E.E.E.E.E.I.I.P.P.P.A.A.P.P.P.P.P.P.P.P.P.P.P.P.P.P.P.P.I.I.I.I.I.I.E.E.E.E.Q.Q.Q.Q.E.E.E.E.E.E.E.E.E.E.Q.Q.Q.Q.Q.Q. X X`._._._.).)._._.).Q.).`.`._._._._._._._.).Q.Q.Q.Q.E.E.E.T.T.I.I.I.P.P.A.A.A.V.V.v.v.c.c.s.s.i.i.w.w.q.q.q.q.q.q.0.0.>.-.@.@.@.@.@.@.+.+.O.O.` ` ` ( ~ ~ ~ ~ ~ ~ ~ ! ! ! ! ! ! ! ! ! ! ! ! Q I I I I I I I I K K I I I K K K K S S S S H S S H Z Z Z m j 7 * #XpXpXpXpX[.L.R.U./.Y.m.H.Y.Y.U.H.U.U.U.H.m.H.H.U.Y.Y.^.~.~.~.~.Y.Y.Y.Y.~.^.Y.Y.~.v.w.Q O K j b b Z Z Z Z b b b Z m m m m Z A A S A A A A A m m M M M m n n b n k A j v l y v p 7 q eXpXH.3.e.r.e.h.n.G.H.U.Y././.'.'./.Y.U.Y.Y.Y.Y.Y.Y.Y.Y.Y.Y.T./.'./.Y.U.Y.~.Y.Y.Y.Y.U.U.L.H.Z.Z.0.>.( - Z qXu.` ` ! U ` I ` ~ ~ ~ ( ] @.@.] +.@.@.@.@.@.@.+.@.+.] ] ] +.=.-.>.q.q.q.q.q.w.w.",
"i.c.c.c.c.c.c.i.i.i.i.i.i.i.i.i.s.i.w.i.i.i.s.c.c.c.v.v.V.A.A.V.v.V.A.A.A.P.A.V.P.P.P.P.P.P.I.I.I.I.I.I.I.I.I.P.T.T.T.I.I.I.I.I.T.T.E.E.E.E.E.E.E.T.I.I.I.I.P.P.O.c o ( c G N F F F Y Y Z c 0 o I w.I.T.`.A._._.).).).).).).).).Q.Q.Q.Q.Q.Q.Q.)._._._._._._._._._._._._._._._._.).).Q.Q.E.E.E.E.I.T.E.I.P.P.P.P.P.P.P.P.P.P.P.A.P.P.P.A.A.A.A.P.P.P.P.P.P.I.T.E.E.E.Q._.Q.E.E._.E.E.Q.Q.E.E.E.E.E.Q.Q.E.E._. X X X_._.[. X`._.`.`._._._._.)._._._._.).Q.Q.Q.E.E.E.E.E.E.E.T.I.I.I.P.P.P.P.A.V.V.V.v.v.c.c.c.s.s.i.i.i.w.w.w.q.q.q.q.>.-.-.-.=.@.@.@.+.+.+.] ] ] ` ` ~ ( ( ( ~ ! ! ! ! ! ! ! ! ! ! ! ! ! ! ! ! ! Q Q I I I K K K K K I I K K K S G K S G c G j Z c D v g j 7 7 c pXpXaX&X~.U.T.Y.Y.Y.Y.U.U.Y.Y.Y.U.U.H.G.H.U.Y.~.~.T.Y.U.U.Y.Y.T.Y.T.~.~.~.Y.U.H.U./.G...N * Z c m G A b m m b b b b m b b m A S S A A A Z m m m M M M n n l l k k b l l v y j w , c pXiXe.#.Y D z / #.6.n./.H.OX~.~./.~.T.Y.Y.Y.Y.Y.Y.Y.Y.Y.Y.Y.T.Y.U.U.U.Y.Y.Y.U.H.Y.Y.H.J.U.G.M.] -.%.$ - :X5X@.` ~ ~ ( ~ ~ ( ! ~ ( ] +.@.@.@.@.+.+.@.-.-.@.O.+.+.+.[ +.@.-.>.,.>.>.q.w.i.i.i.",
"w.s.c.c.c.c.s.w.i.i.i.i.i.i.i.i.i.i.i.c.c.s.s.c.c.v.v.v.V.P.A.v.V.A.P.P.P.P.P.A.P.P.P.P.P.P.P.I.P.P.P.I.I.P.P.P.I.I.I.I.I.I.I.I.I.I.I.I.I.T.T.T.E.I.I.I.I.I.I.P.x.Z . S c Z Z Q F D D Z V V x 7 o A q.v.P.`._.Q.Q.Q.Q.Q.Q.Q.Q.Q.Q.Q.Q.Q.Q.Q.Q.)._._._._._._._._._._._._._._._._._.).Q.Q.Q.E.E.E.I.T.E.I.P.P.P.P.A.A.A.P.P.P.P.P.P.P.P.A.A.A.A.P.P.P.P.P.P.P.I.E.E.E.E.).Q.E.E.).E.Q.Q.Q.E.E.E.E.E.Q.Q.E.Q._. X X`.`.[.XXXX`._.`.`._._._._.)._._._._._.Q.Q.Q.E.E.E.E.E.E.E.T.I.I.I.P.P.A.A.A.V.v.v.v.v.c.c.c.s.s.i.i.i.w.w.w.q.q.q.q.>.-.-.-.=.@.@.@.+.+.+.+.] ] ] ` _ ( ( ~ ~ ! ! ! ! ! ! ! Q ! I Q ! ! ! ! Q I I I I I K K K K S S L K K K S S Q S Z k k c w j j q 5 j q O D iXpXaX<X/.H.Y././.T.Y.Y.Y.Y.Y.Y.Y.Y.Y.Y.Y.Y.Y.Y.Y.H.U.Y.~./.~.T.Y.U.Y.Y.Y.Y.Y.U.U.U./.Y.k.| s 7 E S S A b m m b m b m m m m Z S S S S A A A Z m m M M M n n l l l k b k l c k - = k pXuXr.| k . X : O x B r.Y.~.Y.Y.T.~.~.Y.Y.Y.Y.Y.Y.Y.Y.Y.Y.Y.Y./.~.~.~././.~.~.U.J.Y.Y.J.J.J.n.@.@.k X w V.0X_.] ~ ! ! ~ ! ! ~ ~ ` ` O.@.@.@.@.+.O.O.+.@.@.@.] ] ] [ [ +.@.-.,.q.q.q.q.q.w.w.w.",
"w.s.c.s.s.c.s.w.i.i.i.i.i.i.i.i.i.i.c.v.v.s.i.s.v.v.v.v.A.P.A.v.V.P.P.P.P.I.P.P.P.P.P.P.P.P.P.P.P.P.P.P.P.P.P.P.I.I.I.P.P.P.P.P.P.P.I.I.I.I.I.I.I.I.I.I.I.I.I.P.A.>.k 9 - v G G Q G Y Y F D N q - = l s._.Q.A.T.Q.Q.Q.Q.Q.Q.Q.Q.Q.Q.E.E.Q.Q.Q.Q.)._._._._._._._.).).Q.Q.).).).)._._.).Q.Q.E.E.E.I.T.E.I.P.P.P.P.A.A.A.P.P.P.P.P.P.P.A.A.A.A.A.P.P.P.P.P.P.P.I.I.Q.E.E.Q.Q.Q.E.Q.E.E.Q.Q.E.E.E.E.E.Q.Q.E.Q.`. X[._.`. X#XXX`._._.`._._._._.)._._._._.Q.Q.Q.E.E.E.E.E.E.E.E.T.I.I.P.P.A.A.V.V.v.v.v.v.v.c.c.s.s.s.i.i.i.w.w.q.q.q.q.>.>.-.-.-.@.@.@.@.+.+.+.+.] ] ] ` ` ( ~ ~ ! ! ! ! ! Q Q Q I I I I I Q Q I I I I I I K K K K K L L K K K K K S c Z G k : : o X , > 5 : c ].pXaXpX0XOXU.J.Y.T.T.T.T.Y.Y.Y.Y.Y.U.Y.Y.T.~.~.T.Y.Y.Y.Y.~./.~.Y.U.H.Y.Y.Y.Y.Y.U.U.U.J.^.U.Y.r.G X ( Q G m b m M m m b m m m Z A S K S S S A A A Z m M M M b n n l l l l k m v j # G pX9X@.Z : X y.T.y.| O 4 G.rX'.OXU.Y.Y.Y.Y.Y.Y.T.Y.Y.Y.Y.Y.Y.Y.Y.T.T.~.~././.~.Y.U.J.Y.Y.H.H.G.h.&.y - b  XuX X` ( ! ! ~ ~ ~ ~ ~ ` ` O.+.@.@.+.+.O.] ] O.@.@.+.] ] ] ] [ +.@.>.q.w.q.q.q.q.q.q.q.",
"i.i.s.s.s.s.i.i.i.i.i.i.i.i.i.i.i.s.v.V.c.i.i.c.V.V.v.V.A.P.A.v.V.A.A.A.A.P.P.A.A.A.A.A.P.P.P.P.P.P.P.P.P.P.P.P.P.P.P.P.P.P.P.P.P.P.P.P.P.I.I.I.I.P.P.P.I.I.I.I.P.L.>.j X 1 Z G Z Z H G F F D c l o 8 I.0XE.E.`.E.E.E.E.E.E.E.E.E.E.E.E.E.Q.Q.Q.Q.Q.)._._._._._.Q.Q.Q.Q.Q.Q.Q.Q._.).).Q.Q.Q.E.E.I.T.E.I.P.P.P.P.A.A.A.P.P.I.P.P.P.P.P.A.A.A.A.P.A.A.A.A.P.P.P.I.E.E.T.E.Q.Q.E.E.E.E.E.E.E.E.Q.Q.E.Q.Q.E.Q.`.`.`.Q.`. XXX`._.)._.`._._._._.)._._._.Q.Q.Q.Q.E.E.E.E.E.E.E.E.I.I.I.P.P.A.V.V.V.v.v.v.c.c.c.c.s.s.i.i.i.i.w.w.q.q.q.q.>.-.-.-.-.@.@.@.@.+.+.+.+.[ ] ] ` ` ( ~ ~ ! Q Q Q Q I I I I I I Q ! ! ! ! Q I I I K K K K K K K K K K S S S S I G w , 7 m.%X9X*X2X1X0XiXiXaXpXeX<X]./././.Y.U.Y.T.T.T.Y.Y.U.U.H.U.Y.Y.~.~.T.Y././.T.Y.U.U.Y.Y./.~.Y.Y.U.U.U.U.U.U.G.Y.n.#.> Z %.Q b b m m m b b b m m Z A S K S S S S A A A A M M M b b n l l l k k A w 7 , T.tX@.y o 1 P.%X}.c V , G 7XrX>Xb.U.U.U.U.U.U.Y.Y.Y.Y.Y.Y.Y.Y.Y.Y.Y.Y.Y.Y.Y.Y.Y.U.Y.U.Y.Y.H.H.b.3.Z o s.4X0XQ.@.! ~ ! ~ ( ` ` ` ` ` ] +.@.+.+.] ] ] ] ` ] O.O.] ` ] ] ] [ +.@.-.q.w.q.q.q.q.q.q.q.",
"i.i.s.c.c.s.i.i.i.i.i.i.i.i.i.i.i.s.c.c.s.i.i.c.V.V.V.V.A.P.A.v.v.V.V.V.V.A.A.V.A.A.A.A.A.A.A.A.A.A.A.A.A.P.P.P.P.P.P.P.P.P.P.P.P.P.P.P.P.P.I.I.P.P.P.P.P.I.I.P.I.A.m.@.b = - c Z c Z G Z V F G k 9 l 4XuX[._.P.E.E.E.E.E.E.E.E.E.E.E.E.E.E.Q.Q.Q.Q.Q.).).).).).Q.Q.Q.Q.Q.Q.Q.Q.).Q.Q.Q.Q.Q.E.E.I.T.E.I.P.P.P.P.A.A.A.A.P.P.I.P.P.P.P.A.A.A.A.P.A.A.A.P.P.P.P.P.E.E.T.E.Q.Q.E.T.E.E.E.E.E.E.E.Q.E.E.E.E.).`.`._._.[. X.X_.)._.`.`._._._._.)._._.).Q.Q.Q.E.E.E.E.E.E.E.E.T.I.I.I.P.P.A.V.V.V.v.v.c.c.c.c.s.s.i.i.i.i.w.w.w.q.q.q.q.>.-.-.-.=.@.+.@.+.+.+.+.] ] ] ] ` ` ~ ~ ~ ! Q I Q I I I I I I I I Q ! ! Q I I I I K K K K K K S S S S S S H H G m w > M.pXpX9XiXeXpXpXiXpXpX+XOX'./.'.'./.T.Y.Y.Y.Y.Y.Y.U.U.H.U.U.U.U.Y.Y.Y.T.T.Y.U.H.H.Y./.'./.~.T.Y.U.U.U.U.Y.U.G.Y.H.e.N : v.) b m b b b b b b m m Z A S K S S S S A A A A M M m b b b l l l k k m 9 7 X w.Q b + i.=X X Xc w > o H pXpX].T.U.U.U.U.U.U.U.Y.Y.Y.Y.Y.Y.Y.Y.Y.~.Y.Y.Y.Y.T.T.Y.Y.U.Y.U.H.H.h.( 7 k 0X%Xi.K ` ! ! ~ ~ ` ` ` ` ` ( ` +.+.O.` ` ` ` ` ` ` ] ] ` ` ] ] ] ] [ +.-.>.q.>.>.>.q.q.w.q.",
"i.i.i.s.s.i.i.i.i.i.i.i.i.i.i.i.i.i.s.c.s.i.i.c.v.V.V.V.V.A.V.v.v.V.V.v.V.A.A.V.V.V.V.A.A.A.A.A.A.A.A.A.A.A.P.P.P.P.P.P.P.P.P.P.P.P.P.P.P.P.P.P.P.P.A.P.P.P.P.P.P.P.E.c.&.k X - w 7 s N c z j j k 8 8 yXuX=XE.A.E.E.E.E.E.E.E.E.E.E.E.E.E.E.E.Q.E.Q.Q.Q.Q.Q.Q.Q.Q.Q.Q.Q.Q.Q.Q.Q.Q.Q.Q.Q.Q.E.E.E.I.T.E.I.P.P.P.P.P.A.A.A.P.P.P.P.P.P.P.A.A.A.A.P.A.A.A.P.P.P.P.P.T.E.E.E.E.Q.E.T.E.E.E.E.E.E.E.E.E.Q.Q.Q._.`.`.Q. X X X_.)._.`.`.`._._._._.)._._.Q.Q.Q.E.E.E.E.E.E.E.E.E.T.I.I.I.P.P.A.V.V.V.v.v.c.c.c.s.s.i.i.i.i.i.w.w.w.q.q.q.>.>.-.-.-.@.@.+.+.+.+.+.] ] ] ` ` ` ( ~ ~ ~ ! Q I I Q I I I I I I I I I I I I I I I K K K K K K S S S S S S S G K c c o <XpXpX&X3X7X3X+X3X*X/.'.~./.'./.T.Y.T.~.Y.Y.Y.Y.Y.Y.U.U.~.~.Y.Y.U.U.Y.Y.U.U.U.U.U.Y.T.~.T.Y.Y.Y.Y.Y.Y.T.Y.U.J.Y.n.6.N o E.` b m b n b l b m m m Z A S K S S S S A A A A m M m b b b b l l b k v k v o < 9   @.2X_.+.p b p o L.pX9XpX/.T.U.U.U.U.H.U.U.Y.T.T.T.T.Y.Y.Y.Y.~.~.Y.U.Y.Y.T.T.Y.U.Y.U.H.G.e.G # s.5X` I ( @.A I ! ~ ~ ~ ( ` ( ~ ` ] ] ` ( ( ( ` ` ` ` ` ` ` ` ] ] ] ] ] +.@.-.-.-.-.>.q.w.w.w.",
"i.w.w.i.i.w.w.i.w.w.w.w.w.w.t.t.i.i.i.s.s.s.s.c.c.V.V.v.v.v.v.v.v.V.V.v.v.V.V.V.V.V.V.A.A.A.V.V.A.A.A.V.A.A.P.P.P.P.P.P.P.P.P.P.P.P.P.P.P.P.P.P.P.A.A.A.P.P.P.A.V.T.E.v.i.-.v p 9 * * e j s w e w = I qXuX=X).`.E.E.E.E.E.E.E.E.E.E.E.E.E.E.E.E.E.E.Q.Q.Q.Q.Q.Q.Q.Q.Q.Q.Q.Q.Q.Q.Q.E.E.E.E.E.E.E.I.T.E.I.P.P.P.P.P.P.A.A.P.P.P.P.P.P.P.A.A.A.A.P.A.A.P.P.P.P.P.P.I.E.E.E.T.E.E.E.E.E.E.Q.E.E.E.E.Q.Q.Q.).`. X`.). X X X_.).`.`._.`._._._._.)._._.Q.Q.Q.E.E.E.E.T.I.E.E.T.T.I.I.P.P.A.V.V.V.v.v.c.c.c.s.s.s.i.i.i.i.i.w.w.q.q.q.q.>.-.-.=.=.@.@.+.+.+.+.] ` ` ` ` ` ` ~ ~ ~ ~ ! ! ! U Q Q I I I I I I I I I I I I I I K K K K I I K K S S Z Z Z Z Z c z * 1X0X&XU.U.Y.T.Y./.].].T.'.[.]./.Y.T./.T.~.~.~.Y.Y.Y.Y.Y./.~.~.Y.U.U.U.U.Y.Y.Y.Y.U.U.H.H.Y.Y.Y.Y.Y.Y.Y.T.Y.Y.Y.Y.e...> w [.] l Z b n m n m Z A A A A S K S S S A A A A Z m m m b b b b b c c p k k j > 7 l P.5Xv.~ ! y p - b 9XpXpX2XP.m.U.U.U.U.H.U.Y.T.Y.Y.Y.Y.Y.Y.Y.Y.Y.Y.U.Y.Y.Y.Y.Y.T.R.R.P.L.G.3.Z   _.#X! ! ~ ` Q I ! ~ ! Q ! ~ ~ ! ( ` ` ` ~ ( ` ` ` ` ` ` ` ` ` ` ` ` ` ` [ @.-.-.-.-.>.q.w.u.u.",
"w.q.w.i.i.w.q.w.w.w.w.w.w.w.w.w.i.i.i.c.c.c.s.s.c.v.V.v.c.c.v.v.c.v.v.c.v.V.V.v.v.V.V.V.A.V.V.V.A.A.A.V.A.A.P.P.P.P.P.P.P.P.P.P.A.A.A.A.A.A.P.P.A.A.V.A.A.A.A.V.P.V.V.P.P.A.%.m.I.O.c j j j j k p S yXuXuX_.T.A.W.T.T.T.T.T.T.T.E.E.E.E.E.E.E.E.E.E.Q.Q.Q.Q.Q.Q.Q.Q.Q.Q.Q.Q.Q.Q.E.E.E.E.E.E.E.E.I.T.E.I.P.P.P.P.P.P.A.A.P.P.P.P.P.P.P.A.A.A.A.P.A.A.P.P.P.P.P.P.P.E.Q.E.I.E.E.E.E.Q.Q.Q.E.E.E.E.)._._._.[.XX X_.[. X`.).).`._.Q.`._._._._.)._._.Q.Q.Q.E.E.E.T.T.I.I.I.T.I.I.I.P.A.V.V.v.v.v.v.c.c.s.s.s.i.i.i.i.i.w.w.w.q.q.q.q.>.-.-.=.=.@.@.+.+.] ] ] ` ` ` ` ` ( ~ ~ ~ ~ ! ! ! ! ! Q Q Q I I Q ! ! ! ! ! ! Q Q I I K K K I I K S A b c k j p j k > N iXpX[.P.U./.U.T.+XT.n.]./.].'.Y.T.'.'.Y.~.~.~.^.Y.T.~.~.T.Y.Y.Y.Y.U.U.U.U.U.U.U.U.U.U.Y.Y.Y.Y.Y.Y.U.U.U././.~.^.#.( o %.$X] l Z b b A b A A A A A S S K S S S S A A Z m m m m m b b b b k w 9 j 7 , Z y.!.oXv.! m b m y o XXpXuX#XL.T.Y.H.H.H.H.U.U.T.~.Y.Y.Y.Y.Y.Y.Y.Y.Y.Y.Y.T.~.~.Y.Y.T.R.R.P.L.m.&.c = Q.q.! I ! ~ I I ~ ~ ! I ! ~ ! ! ( ` ` _ ~ ` ] ` ` ` ` ( ~ ` ` ~ _ ` ` ` [ @.-.-.-.-.>.q.w.u.u.",
"w.w.w.w.w.w.w.w.w.w.w.w.w.i.i.i.i.s.i.w.i.s.s.i.s.c.c.c.c.c.c.c.c.c.c.c.c.v.v.v.v.v.V.V.V.V.V.A.A.V.V.V.P.P.P.A.A.A.P.A.A.A.A.A.A.A.A.A.A.A.A.A.V.V.V.V.V.V.A.A.v.V.A.A.V.A.`.=X5X#X).%X1X1X2X1X9XuXuXuX:XQ.P.I.I.I.I.I.I.T.T.T.E.I.I.E.E.I.T.Q.E.E.E.E.E.E.E.E.E.E.E.E.E.E.E.E.E.E.E.E.E.E.T.T.E.T.I.I.I.I.P.P.P.P.P.P.P.P.P.P.A.A.A.A.A.A.P.I.T.I.I.E.Q.Q.E.I.E.E.E.E.T.I.I.T.T.E.Q.Q.Q.Q._._. X`.[.XX X).Q._. X[._._._._.`.`._._._.).Q.Q.E.E.Q.Q.Q.E.E.E.E.T.E.E.E.I.I.P.P.P.A.A.V.V.v.v.c.c.c.c.c.s.i.i.i.i.w.w.q.q.q.q.q.q.-.-.-.=.@.@.@.+.+.+.] ] ` ` ~ ~ ~ ~ _ ~ ~ ~ ! ! ! Q I I ! ! ! ! ! ! ~ ~ ~ ~ ! ! I Q I K K ! ! I Z G v k 7 X X X X 7 Z 8XiXpX/.U.Y.Y.T.Y.Y.T.T.Y./././.~.T.T.~./././.~.~.T.Y.Y.Y.~.Y.Y.U.U.U.U.U.U.U.U.U.U.U.U.U.U.U.Y.Y.Y.Y.Y.Y.^.Y.G.Y.6.N % P.v.S l b b A b A S A m m A S I Q I K S S A A A Z m b m A b b c k p w , X   % * j M A I K M A b 8 1 5XuX9XL.L.P.U.L.H.H.H.H.U.U.U.Y.Y.Y.T.T.T.Y.Y.Y.U./.H.U./.R.L.m.L.M.L.x.-.` < p :Xq.! S ` ( K I I I Q ! ! ! ! ! ! ! ! ~ ( ` ` ` ` ` ` ( ( ( ` _ ` ` ` ` ] +.@.@.=.-.>.q.q.q.q.",
"w.w.w.w.w.w.w.w.w.w.w.w.w.i.i.i.s.s.i.i.i.s.s.i.s.c.c.c.c.c.c.c.c.c.c.c.c.c.v.v.v.v.v.v.V.V.V.V.A.V.V.V.A.P.A.A.A.A.A.A.A.A.A.A.V.V.A.A.A.A.A.A.V.V.V.V.V.V.V.V.P.A.A.V.v.v.A.E.%X&X8XpXpXpXuXpXuXuXyX0X$XE.P.T.P.P.P.I.I.I.I.I.E.I.I.E.E.I.T.E.E.E.E.E.E.E.E.E.E.E.E.E.E.E.E.E.E.E.E.E.E.I.T.T.T.T.I.I.I.I.P.P.P.P.P.P.P.P.P.P.A.A.A.A.A.P.I.E.Q.E.T.T.E.E.I.I.E.E.E.E.T.T.T.E.T.E.Q.Q.E.Q._.`. X_._. X`.Q.Q.[.XX X_._._._._._._._._.Q.Q.Q.E.E.E.E.E.E.E.E.E.E.E.E.E.I.I.P.P.P.A.A.V.V.v.v.v.c.c.c.c.s.i.i.w.w.w.w.q.q.q.q.0.0.-.-.-.=.@.@.+.+.+.+.] ] ` ` ~ ~ ( ( ( _ ~ ~ ~ ! I I I I Q ! ! Q ! ! ~ ~ ~ ~ ! ! I Q I K I ! ! I O.< > - k t.2X#X*X>X6XpXpX7XY.T.Y.T.T.Y.Y.T.T.Y./././.~././.~./././.~.~.~.T.Y.Y.T.Y.Y.U.U.U.U.U.U.U.U.U.U.U.U.U.U.U.U.U.Y.Y.Y.Y.Y.Y.H.U.6.V % k.O.c m A m A b m m m m A S I ! ~ I K S S S A A Z ~ l b A l l v y > , c %XeX( X * - b k y K L 9 y < 5XuX<XV.P.P.M.H.H.H.H.H.U.U.U.Y.Y.Y.Y.Y.Y.Y.Y./.H.U././.Y.M.y.y.t.t.&.] ] v O E.;X@.~ I ` ] K K I I I I I Q Q ! ! ! ! ~ ( ` ` ` ` ` ( ~ ( ( ( _ ` ` ` ` ] +.@.+.@.-.>.q.q.q.q.",
"q.q.q.q.q.q.q.q.q.w.w.w.w.i.i.i.s.s.s.i.i.c.c.i.s.s.c.c.c.c.c.c.c.c.c.c.c.c.c.c.c.c.v.v.v.V.V.V.A.A.V.A.A.A.A.A.A.A.A.A.A.A.V.V.V.V.V.V.V.V.V.A.V.V.V.V.V.V.V.V.V.B.v.V.V.V.v.v.s.V.).XX#X[.[.$X<X%X X_.I.A.V.A.P.P.P.P.P.P.P.P.I.P.P.T.E.I.T.E.E.E.E.E.E.E.E.E.E.E.T.T.T.I.E.E.E.E.E.T.I.T.I.I.I.I.I.I.I.I.P.P.I.P.P.P.A.A.A.A.A.A.A.A.A.P.I.E.E.I.P.P.P.P.P.P.Q.E.E.E.T.T.E.E.T.E.Q.E.E.E._.`.[._.Q._.).Q._. XXX X`._._.).).Q._._.).Q.Q.E.E.E.E.E.E.E.E.E.E.E.E.E.T.I.P.P.P.P.A.V.V.V.v.v.v.v.c.c.s.s.i.w.w.w.q.q.q.q.q.0.>.>.-.-.-.@.@.@.+.+.+.+.] ] ` ` _ ~ ( ` ` ( ( ~ ~ ! I I I I ! ! ! ! ! ~ ~ ~ ~ ! ! ! I ! Q I I ! Q K j S > ( aXpXuXpXpXpXpXiX9X/.U.Y.Y.Y.Y.U.U.Y.T.T.~.~.~./././.~.~.~.~.~.~.~.~.~.~.T.Y.Y.Y.U.U.U.U.Y.U.U.U.U.U.U.U.U.U.U.U.U.U.U.U.J.Y.H.U.e.Y * ( K c A A m A m m m A S K I ! ! ~ I K S S S S A A b b K l v b 1 : X Z eXpX9Xh.c e o < 9 9 p b k 7 > 4XpX`.L.R.T.n.H.H.H.H.H.H.H.H.U.U.U.Y.Y.Y.Y.Y.Y.Y.U./.H.b.r.$.Q 7 c G b < 1 i.9XP.! ! I K ( K K K K K I I I I ! ! ! ! ~ ~ ( ` ` ( ~ ~ ~ ~ ~ ~ _ ` ` ` ` ` [ @.@.=.>.q.w.i.i.i.",
"q.q.q.q.q.q.q.q.q.q.w.w.w.i.i.i.s.s.s.i.s.c.c.s.s.s.s.s.c.c.c.c.c.c.c.c.c.c.c.c.c.c.c.v.v.V.V.V.A.A.A.A.A.A.A.A.V.A.V.V.V.V.V.V.v.v.V.V.V.V.V.V.V.V.V.V.v.v.v.v.v.c.c.V.A.A.V.v.P.P.P.A.L.T.T.T.T.P.P.P.I.I.P.P.P.P.P.P.P.P.P.P.P.P.P.I.T.T.E.E.I.W.T.T.T.T.T.T.T.T.I.I.I.I.I.T.T.T.T.T.I.I.I.I.I.I.I.I.I.P.P.P.I.I.P.P.A.A.A.A.A.A.A.A.A.P.I.E.P.A.A.A.P.I.T.E.Q.E.T.I.I.T.T.T.I.E.Q.Q.E.E.Q._._.Q.Q.Q.Q.E._. X X.X_._.).).Q.Q._.).Q.Q.Q.E.E.E.E.E.E.E.E.E.E.E.I.I.I.I.P.P.P.A.V.V.V.V.v.v.v.v.c.c.s.i.i.w.q.q.q.q.q.q.q.>.>.-.-.-.=.@.@.+.+.+.+.+.] ] ` ` _ _ ( ( ( ( ~ ~ ! ! ! ! ! ! ~ ( ~ ~ ! ! ! ! ! ! ! Q Q ! ! I Q ! I S m < j uXpXtXtX{.[.[.*X/.OXG.H.U.Y.Y.Y.U.U.Y.T.T.Y.Y.T./././.~.T.~.~.~.~.~.~.~.~.Y.Y.Y.Y.U.U.U.U.Y.Y.U.U.U.U.U.H.U.U.U.U.U.U.U.U.H.Y.H.U.b.#.7 j O.G Z Z m m m S S K I Q ! Q I I K K S S S S A A A b l 8 v v - v #XpXaXaXpX'.m.t.>.=   8 k 7 > 1 R tXpX'.P.G.T.L.H.H.H.H.H.H.H.H.H.H.U.U.U.Y.Y.Y.H./.J.U.k.r.| j X = - . o p i.wX_.` K S K Z I ! K K K K K K I I Q ! ! ! ~ ~ ~ ~ ~ ~ ~ ~ ~ ~ ~ ~ _ _ ` _ _ ` ] +.=.-.q.w.i.i.i.u.",
">.>.>.0.0.q.q.q.q.q.w.w.w.i.i.i.s.s.s.i.s.c.c.s.s.i.s.s.c.c.s.s.c.c.c.c.c.c.c.c.c.c.c.c.v.V.V.V.A.A.A.A.V.V.V.A.V.V.V.V.V.V.V.V.v.v.v.v.v.v.v.v.V.V.V.m.v.v.v.v.B.B.B.B.V.V.V.B.V.V.V.V.L.T.P.m.P.P.I.T.I.P.P.A.P.P.P.P.P.P.P.P.P.P.P.I.I.E.E.T.T.T.T.T.T.T.T.T.I.I.I.I.I.I.I.I.T.I.I.I.I.I.I.I.I.I.I.I.I.P.P.I.I.I.P.P.P.P.A.A.A.A.A.A.A.P.I.E.A.P.I.E.E.Q.Q.).E.I.I.I.I.E.I.I.I.E.)._.Q.Q.Q.Q.Q.Q.Q.).Q.Q.).`.`._._.).)._._.).).Q.Q.Q.E.E.E.E.T.T.T.T.E.E.E.E.I.I.I.P.P.P.A.A.V.V.V.V.v.v.v.v.c.c.s.i.i.w.q.q.q.q.q.q.0.>.-.-.-.=.@.@.@.+.+.+.+.] ] ] ` ` ` _ ~ ~ ~ ~ ~ ~ ! ! ! ! ! ~ ( ` ( ~ ! ! ! ! ! Q Q I ! ! ! Q ! Q K m j w 0.pXpX`.R.H.G.H.U.n.Y.J.J.H.U.Y.Y.U.U.Y.T.T.Y.T.T.~./.~.T.T.~.~.~.~.~.~.~.~.Y.Y.Y.Y.Y.U.U.U.Y.Y.U.U.U.U.U.H.U.U.U.U.U.U.U.U.U.Y.H.U.G.e.g * 0.) b m A b m K K I ! ! Q K K K K K S S S S A A Z v c c 7   c pXpXtXpX0XH.G.b.{.N.T.>.w 1 7 7 c >XpXpXY.Y.n.H.H.H.H.H.H.H.H.H.H.H.H.H.U.U.U.U.U.U.^.n.H.k.$.s % O.E.T.V._.;X:X!.~ A Q m ! S K ~ K K K K K K I I I Q ! ! ! ! ! ! ~ ! ! ! ! ! ~ ~ ~ _ _ _ ` ` [ +.=.-.>.q.q.q.,.>.",
"-.-.>.>.>.>.0.0.q.w.w.w.w.w.w.w.i.i.i.i.i.c.c.i.i.i.s.s.s.s.s.s.s.s.c.c.c.c.c.c.c.c.c.c.v.V.V.V.V.A.A.A.V.V.V.A.V.V.V.V.v.v.v.v.c.c.c.c.v.v.v.v.v.v.v.v.v.v.c.c.c.B.B.B.c.v.V.V.v.A.P.A.A.L.P.I.P.I.I.P.V.V.V.V.P.P.P.P.P.P.P.P.P.P.I.I.I.E.E.I.I.I.I.I.I.I.I.I.I.I.I.P.P.I.I.I.I.I.I.I.I.I.I.I.I.I.I.P.P.P.P.I.I.I.P.P.P.P.P.P.P.P.P.A.A.P.I.E.A.P.E.Q.Q.Q.E.E.I.P.P.I.E.E.E.I.E.Q._._.).E.E.Q.Q.Q._._.).Q.Q._._.Q.Q.Q.)._._._.Q.Q.Q.E.E.E.E.E.T.T.T.T.T.T.I.I.I.P.P.P.P.A.A.A.A.V.V.V.v.v.v.v.c.c.s.s.i.w.w.w.q.q.q.0.>.-.-.-.=.@.@.@.+.+.+.+.] ] ] ] ` ` ` ` ~ ~ ~ ~ ~ ~ ! ! ! ! ! ~ ( ( ~ ! ! ! ! ! ! ! ! ! ! ! ! Q Q I A v > k 9XpX9X).G.m.H.T.U.G.H.J.H.U.U.Y.Y.U.U.Y.~.Y.Y.T.T.T.T.T.T.T.~.~.~.~.~.T.T.Y.Y.Y.Y.Y.Y.U.U.U.Y.U.U.U.U.U.U.H.U.U.U.U.U.U.U.U.Y.U.H.U.H.h.D X ( Q b m K m m A K I Q Q I K K K S S S S S S A m Z j p - 7 [.pX0XtXpX[.Y.Y.~.Y.R.{.L.m.$X9X0X8XpXpXpX2Xn.Y.G.G.H.H.H.H.H.H.H.H.H.H.H.H.H.U.U.U.U.^.^.F.Y.e.D ; ( 1X[.-.,.i.@.[ K m K I l ! I S S S S K K K K K K I I ! ! ! ! ! ! ! ! ! ! ! ! ! ! ~ ~ _ ` ` ] +.@.>.>.>.>.>.>.>.-.",
"-.-.-.-.>.>.>.>.w.w.w.w.w.w.w.w.w.i.i.w.i.s.s.i.i.i.s.s.s.s.s.s.s.s.c.c.c.c.c.c.c.c.c.c.V.A.V.V.V.A.A.A.V.V.V.A.V.v.v.v.v.v.v.v.c.c.c.c.c.c.c.c.v.v.v.v.v.v.c.c.d.B.B.c.c.B.V.V.V.V.V.V.M.M.A.I.P.T.E.P.P.P.T.T.P.P.P.P.P.P.P.P.P.I.E.I.I.E.E.P.I.I.I.I.I.I.I.I.I.I.P.P.P.P.I.I.I.I.I.I.I.I.P.P.P.P.P.P.P.P.P.P.I.P.P.P.P.P.P.P.I.I.P.P.P.P.I.E.A.P.E.E.E.I.P.P.I.P.P.T.Q._.Q.E.)._._._.Q.E.E.Q._._._._.).Q.Q.Q.Q.Q.Q.Q.Q._._.).Q.Q.Q.E.E.E.E.W.E.E.T.T.I.I.I.I.P.P.P.P.P.A.A.A.A.A.V.V.v.v.v.c.c.c.c.s.i.i.w.w.q.q.0.>.-.-.-.-.@.@.@.@.+.+.+.] ] ] ] ] ` ` ` ` ` ` ` ` ` ~ ~ ~ ~ ~ ~ ( ` ( ~ ! ! ! ! ! ! ! ! ~ ! ! ! Q I K m p > y.pX9X'.M.U.M.n.H.H.b.G.F.G.U.J.Y.Y.U.Y.T.T.Y.~.T.Y.Y.Y.Y.T.T.~.~.~.T.Y.Y.Y.Y.Y.Y.Y.Y.Y.U.U.U.U.U.U.U.U.U.U.U.U.U.U.U.U.U.U.U.U.U.U.U.H.b.O.7 w I A Z S m A m S K I K S S S K S S S S S S A m 9 Z X H 9XpXaXpX0X~.m.m.H.~.H.T.T.m.[.9XaXiXpXaXrX>X~.n.U.J.H.U.H.H.H.H.H.H.H.H.H.H.H.H.U.U.U.J.U.U.J.U.$.z * [.T.>.S A S S K L A K S b K S K m S S S S S K K K K I Q ! ! ! ! U ! ! Q Q ! ! ! ! ~ ~ _ ` ` ] @.=.q.q.,.>.>.>.>.>.",
"-.-.-.-.-.>.>.>.w.w.w.w.w.w.w.w.w.w.w.w.w.s.s.i.i.i.s.s.s.s.i.i.s.s.s.c.c.c.c.c.v.c.c.c.V.A.A.V.V.A.A.A.V.V.V.A.v.v.v.v.v.v.v.v.c.c.c.c.c.c.c.c.c.c.c.c.v.v.v.c.B.B.B.c.c.V.v.d.v.c.v.A.I.L.A.A.V.P.P.A.A.P.P.A.P.P.P.P.P.P.P.P.P.T.E.I.I.E.E.P.P.P.P.P.P.P.P.P.I.P.P.P.P.P.P.I.I.I.I.I.I.P.P.P.P.P.P.P.P.P.P.P.P.P.P.P.P.P.P.P.T.T.I.P.P.P.I.E.P.I.E.Q.E.I.I.I.P.P.I.E._._.!.E.`.`._.Q.E.E.Q._.`.`.`._.Q.Q.).).).Q.Q.Q.Q._.).Q.Q.Q.Q.E.E.E.W.W.E.E.T.I.I.I.I.P.P.P.P.P.A.A.A.A.A.A.V.V.v.v.c.c.c.c.c.s.i.i.i.i.q.q.>.-.-.-.-.-.@.@.@.@.+.+.] ] ] ] ] ] ` ` ` ` ` ` ` ` ` ` ( ~ ` ` ` ` ` ` ~ ! ! ! ! ! ! ~ ~ ( ! ! ! I I K b w 7 tXaXtXT.r.m.G.n.n.G.k.Y.G.H.n.H.U.Y.Y.Y.T.T.Y./.~.^.Y.Y.Y.T.T.~.~.~.T.Y.Y.Y.U.Y.Y.Y.Y.Y.U.U.H.U.U.U.U.U.U.U.U.U.U.U.U.U.U.U.U.H.H.U.Y.H.G.h.Z X Q ! m b m K m K I I K A A S S S S S S S A Z m c - c 4XpXaXpX{.Y.T.P.G.'.m.H.U.L.T.H.H.[.OX'.*X'.G.H.J.H.G.G.H.H.H.H.H.H.H.H.H.H.H.H.U.U.U.H.H.H.H.G.n.6.F o T.q.Z S K S I M S S Z m K A m Q S S S S S S S S S K I Q ! ! ! Q I U U Q Q Q ! ! ! ~ ~ _ ` ` [ @.-.>.>.-.-.-.-.-.-.",
"=.=.-.-.-.-.>.>.,.q.q.q.q.q.q.q.q.w.w.w.w.w.i.i.i.i.i.i.i.s.s.s.s.c.c.c.c.c.c.c.c.c.c.v.V.V.A.P.V.V.V.V.V.v.v.v.v.v.v.v.c.c.c.c.c.c.c.c.c.c.c.c.c.c.c.c.c.c.c.c.v.v.v.v.v.v.v.V.V.v.V.V.V.A.A.A.A.A.P.P.P.P.P.P.A.A.P.P.P.P.P.P.Q.E.E.T.I.I.I.I.I.I.I.P.P.P.P.P.P.P.P.P.P.P.P.P.I.I.I.I.I.I.I.I.I.I.I.P.P.P.P.P.P.P.P.P.P.P.P.P.P.P.P.I.E.E.I.P.I.E.Q.E.P.P.P.E.P.E.)._._.)._.`.[._.Q.Q.Q._._.`. X X[._._.Q.E.E.Q.Q.Q.Q.Q.Q.Q.Q.Q.Q.E.E.E.T.I.I.I.I.I.I.P.P.P.P.P.P.P.P.P.P.A.A.A.A.V.V.v.v.c.c.c.c.c.s.i.i.i.w.w.q.q.>.>.-.@.@.@.@.@.+.+.+.[ [ ] ] ] ] ] ] ] ] ] ] ` ` ` ` ` ` ` ` ` ` ` ` ` ` ! ! ~ ~ ~ ` ` ` ! ! ~ I K K v * e.iXiX/.n.G.H.H.n.n.m.n.n.n.G.H.U.U.H.H.U.Y.T.T.^.^.^.^.^.^.Y.T.Y.Y.Y.Y.Y.Y.Y.Y.Y.Y.Y.U.U.U.H.H.U.Y.Y.Y.U.H.U.U.U.U.U.U.U.U.U.U.J.Y.U.H.U.U.k.&.j - ] S b m S m I K K S S S S S S S A A S S b k w * {.pXuXpXL.R.P.P.U.U.U.U.U.U.H.U.U.U.U.U.U.U.H.H.H.H.G.H.U.Y.H.H.H.H.H.H.H.H.H.H.U.U.U.U.U.U.G.H.G.e.&.c X ).%.Q H K K K K L A A A A A A S S S S A A S S K K K I Q ! I I I I Q I I I I Q ! ! ~ ~ ~ ` ] +.@.@.>.-.@.-.-.@.@.-.",
"@.@.=.-.-.>.>.,.q.q.q.q.q.q.q.q.q.q.w.w.w.w.w.i.i.i.i.i.i.i.s.s.s.s.c.c.c.c.c.v.c.c.c.v.V.V.A.P.V.V.V.V.V.v.v.v.v.v.v.c.c.c.c.c.s.c.c.c.c.c.c.c.c.c.c.c.c.c.c.c.v.v.v.v.v.v.v.v.v.v.v.V.V.V.V.A.A.A.A.P.P.P.P.P.P.P.P.P.P.P.P.P.E.E.E.I.I.I.I.I.I.I.I.P.P.P.P.P.A.A.A.A.P.P.P.P.I.I.I.I.I.I.I.I.P.I.P.P.P.P.P.I.P.P.P.P.P.P.P.P.P.P.P.P.I.I.I.I.Q.E.E.E.E.E.T.T.Q.)._.Q.Q.E._.`.).).)._.`.[.[.`.`.`._._.Q.Q.Q.Q.Q.Q.Q.Q.Q.Q.Q.Q.Q.Q.E.E.E.T.I.I.I.I.I.P.P.P.P.P.P.P.P.P.P.A.A.A.A.V.V.V.v.v.c.c.c.c.c.s.i.i.i.w.w.q.q.0.>.-.-.@.@.@.@.+.+.+.+.+.[ [ ] ] ] ] ] ] ` ` ` ` ` ` ] ] ` ` ` ` ` ` ( ( ~ ~ ~ ~ ~ ~ ~ ( ! ! ! I K K k # '.pXiX~.b.k.k.b.G.G.G.G.m.m.G.G.n.n.m.m.H.U.Y.T.T.T.^.^.^.^.^.^.T.Y.Y.Y.Y.Y.Y.Y.Y.Y.U.U.U.U.U.U.H.U.U.Y.T.~.T.Y.U.U.U.U.U.U.U.U.U.Y.U.H.U.U.M.y.J 1 K ~ A b A m I K K S S S S S S S A A S A b p > Z tXtXaX).).L.P.P.U.U.U.U.J.H.H.H.U.U.U.U.U.U.H.H.H.H.G.H.U.U.H.H.H.H.H.H.H.H.H.H.H.H.H.H.H.H.L.m.H.t.( 7 c 2X>.) K Q K S S A A A A A A A A A S A A A A S L K S K K I K K K I I I I I I ! ! ! ! ~ _ ` ] +.+.@.+.+.+.+.+.@.@.@.",
"@.=.-.-.>.>.q.q.q.q.q.q.q.<.<.<.q.q.q.q.w.w.w.w.i.i.i.i.i.i.i.i.s.s.c.c.c.c.v.V.c.c.v.V.A.V.A.P.V.V.V.V.V.v.v.v.v.v.c.c.c.c.c.c.s.s.s.s.c.c.c.c.c.c.c.c.c.c.c.v.v.v.v.v.v.v.v.v.v.v.v.v.v.V.V.V.A.A.A.A.A.P.P.P.P.P.P.P.P.P.P.P.T.T.I.I.I.I.I.I.I.I.I.P.P.P.P.P.P.P.P.P.P.P.P.P.P.P.P.P.I.I.I.I.P.P.P.P.P.P.P.I.I.I.P.P.P.P.P.P.P.P.A.A.P.P.I.T._.E.I.T.Q._.Q.I._._._.Q.E.E.).`.E.E.).`. X X`._.).).Q.Q.Q.Q.Q.Q.Q.Q.Q.Q.Q.Q.Q.Q.Q.E.E.E.E.T.I.I.I.I.P.P.P.P.P.P.P.P.P.A.A.A.A.A.A.V.V.V.v.v.c.c.c.c.c.s.i.i.i.w.w.q.q.0.>.-.-.-.=.@.@.@.+.+.+.+.+.+.[ [ ] ] ] ` ] ] ] ] ] ] ] ] ( ` ` ` ` ` ` ` ` ` ( ~ ~ ~ ! ! ! ! ! I K S j X %X0X'.e.b.H.H.H.b.b.b.x.b.b.b.b.n.m.m.H.H.U.L.L.R.R.Y.Y.Y.^.^.T.T.Y.Y.Y.Y.U.U.U.U.U.U.U.U.U.U.U.U.U.U.Y././.~.Y.U.U.U.U.U.U.U.U.U.U.J.G.H.U.L.M.Q p k >.I b A A I I K S S S S S S S S A S A l y X ).pXpX$XM.T.L.P.P.U.U.H.H.H.H.H.H.U.U.U.U.U.U.H.H.H.H.G.H.H.U.H.H.H.H.H.H.H.H.H.H.H.H.H.H.H.H.L.M.m.0.Z & t.8X&.Q G Q K S S Z A A A Z Z Z A A A A A A S S S S A S K K K K I I I I I I Q ! ! ~ ! _ ] ] ] ] +.@.+.=.-.@.@.-.-.+.",
"-.-.-.>.,.q.w.w.q.q.q.q.q.,.,.,.q.q.q.q.q.w.w.w.i.i.w.i.i.i.i.i.i.s.s.s.c.c.V.A.c.c.v.A.A.V.V.A.v.V.V.v.v.v.v.c.c.c.c.c.c.c.c.c.s.s.s.s.s.s.s.s.s.c.c.c.c.c.c.v.v.v.v.v.v.v.v.v.v.v.v.v.v.v.V.V.V.V.V.A.A.A.A.A.P.P.P.P.P.P.P.P.I.P.P.P.P.I.I.I.I.I.I.P.P.P.P.P.T.I.I.I.P.P.P.P.P.P.P.P.P.P.P.P.P.P.P.P.P.P.I.T.I.I.P.P.P.P.P.P.P.P.A.P.P.I.E.E.Q.T.P.I.)._.Q.I.Q.Q.E.E.T.E._.`.E.E.Q._.`._.Q.E.Q.Q.Q.Q.Q.Q.Q.Q.Q.Q.Q.Q.Q.Q.Q.Q.E.E.E.E.E.I.I.I.P.P.P.P.P.P.P.P.A.A.A.A.A.A.A.V.V.V.V.v.v.v.c.c.c.c.c.s.s.i.i.i.w.q.q.q.>.-.-.-.=.@.@.@.+.+.+.+.@.+.+.[ [ ] ] ] +.+.O.] ] ] ` ` ` ` ` ] ] ] ] ] ` ` ( ~ ~ ! ! ! ! I I I K S k * Z 6.#.#.h.t.r.k.n.n.n.n.n.n.n.m.m.m.H.H.H.H.L.L.L.L.U.U.Y.Y.^.T.Y.Y.Y.Y.U.U.U.U.U.U.U.U.U.U.U.U.Y.Y.T./././.T.U.U.U.U.U.U.U.U.U.H.J.H.G.G.H.L.m.&.c < v.] M S K I I K K S S S S S S S A A A l w o 8XaXpXm.T.R.U.U.U.H.H.H.G.G.G.H.H.H.H.U.U.H.H.H.H.H.H.G.G.H.H.H.H.H.H.H.H.H.H.H.H.H.H.H.H.G.G.G.n.m.O.c , [.[.( G H G S S S Z A A A M m m m m A A A A A S S S S S K K K K I I K K I I ! ! ~ ~ ! ` +.+.[ ] +.@.@.q.q.-.@.>.-.+.",
">.,.,.q.q.w.w.u.q.q.q.q.,.,.>.>.q.q.q.q.w.w.w.q.i.i.w.i.i.i.i.i.i.s.s.s.c.c.V.A.c.c.v.V.A.V.V.V.v.v.v.v.v.c.c.c.c.c.c.s.s.s.s.s.i.i.i.i.i.s.s.s.s.s.s.c.c.c.c.c.c.c.c.c.v.v.v.v.v.v.v.v.v.v.V.V.V.V.V.V.V.V.A.A.P.P.P.P.P.P.P.P.P.P.P.P.P.P.I.I.I.I.I.P.P.P.P.P.T.T.T.T.I.P.P.P.P.P.P.P.P.P.P.P.P.P.P.P.P.P.I.E.E.I.P.P.P.P.P.P.A.P.P.I.T.E.E.E.T.I.P.T.Q.Q.E.T.I.I.T.T.E.E.Q._.E.E.Q.)._._.Q.E.).Q.Q.Q.Q.Q.Q.Q.Q.Q.Q.Q.Q.Q.Q.Q.E.E.E.E.T.I.I.I.P.P.P.P.P.P.P.P.A.A.A.A.A.A.A.A.V.V.V.v.v.v.c.c.c.c.c.s.s.i.i.i.w.w.q.q.>.>.-.-.=.@.@.@.@.@.@.@.@.@.@.+.[ [ ] ] @.@.@.+.] ` ` ( ` ` ` ] ] ] ] ] ~ ~ ~ ~ ~ ~ ! ! ! I I I K K l < , g e c O.%.t.m.M.M.M.x.h.h.x.M.M.M.m.m.G.G.L.R.G.L.L.L.R.Y.Y.Y.Y.Y.Y.U.U.U.U.U.U.U.U.U.U.U.Y.Y.Y.~././.~.Y.Y.U.U.U.U.U.H.H.H.H.H.H.J.H.H.H.H.m.0.m o I.=.A K I I I K K S S K K S S S A A A l w o `.tX<XP.P.T.L.U.L.H.H.G.G.G.G.H.H.H.H.H.H.H.H.H.H.H.H.G.G.G.H.H.H.H.H.H.H.H.H.H.H.H.H.H.H.G.G.H.G.n.#.N * L.#.Q Z G K H H H Z A A m m m m m m A A A A A S A S S S K K K K K I K I I I ! ~ ~ ( ` ] @.@.+.[ +.@.@.,.q.=.@.-.-.+.",
"q.q.q.q.q.w.w.w.q.q.q.q.,.,.,.,.w.q.q.q.w.i.w.w.s.i.w.i.i.s.i.w.i.s.s.s.c.c.v.V.c.c.v.V.V.v.v.v.c.c.c.c.c.c.c.c.s.s.i.i.i.i.i.i.i.i.i.i.i.i.i.i.i.s.s.s.s.s.c.c.c.c.c.c.c.c.c.c.v.v.v.v.v.v.v.v.v.v.v.V.V.V.V.V.A.A.A.A.A.P.P.P.P.P.A.P.P.P.P.I.I.I.I.P.P.P.P.P.P.P.I.I.I.I.I.P.P.P.P.P.P.P.P.P.P.P.P.P.P.P.I.T.E.I.P.P.I.I.P.P.P.P.E.E.E.E.E.E.P.P.I.T.E.E.E.T.I.I.I.T.E.E.E.E.Q.E.E.Q._._._._._._.Q.Q.Q.Q.Q.Q.Q.Q.Q.Q.E.Q.Q.Q.E.E.E.E.T.I.I.I.P.P.P.P.P.P.A.A.A.A.A.A.A.V.V.V.V.V.v.v.v.v.c.c.c.c.c.c.s.i.i.i.w.w.q.q.0.>.>.>.=.=.@.@.@.@.@.@.@.@.@.+.+.[ ] ] @.@.@.@.+.] ` ~ ~ ( ` ` ` ` ` ` ! ~ ~ ~ ~ ~ ! ! ! I I I K K A k Z F 0 * > w ) r.t.t.y.3.O.O.&.0.n.m.H.L.G.G.G.L.G.G.G.L.L.U.U.Y.U.U.U.U.U.U.U.U.U.U.U.U.U.U.U.U.U.Y.~.~.Y.Y.Y.Y.U.U.U.H.H.H.H.H.H.J.U.U.U.U.H.m.%.c o I.-.S K I I I K K S S K K S S A A A A b p o O.&X).L.L.L.R.L.L.H.G.G.G.G.G.G.G.H.H.H.H.H.H.H.H.H.H.G.G.G.H.H.H.H.H.H.H.H.H.H.H.H.H.H.G.G.G.H.n.b.e.F . Z j G Z S K H S H m A A m m m m A Z A A A A S S S S S S S S S S K K I I Q ! ! ~ ( ` [ @.=.=.@.@.@.=.@.>.q.-.-.>.,.>.",
"u.w.w.q.q.q.q.q.>.,.,.,.,.,.q.q.i.w.q.w.i.i.i.w.s.i.w.i.s.s.i.w.i.s.s.c.s.c.c.c.c.c.c.v.v.c.c.c.c.c.c.c.c.s.s.s.i.i.i.w.w.w.w.w.w.i.i.i.i.i.i.i.i.i.i.i.i.i.i.i.s.s.s.c.c.c.c.c.c.c.c.c.v.v.v.v.v.v.v.v.v.V.V.V.A.A.A.A.A.A.A.A.P.A.A.A.P.P.P.P.I.I.I.P.P.P.P.P.P.P.I.I.T.T.I.I.I.I.I.I.P.P.P.P.P.P.P.P.P.P.I.I.E.I.P.P.I.I.P.A.I.E.Q.Q.E.T.I.I.I.P.P.I.E.Q.E.I.E.E.T.T.W.T.W.W.Q.Q.E.E.Q._._._.Q.Q.Q.Q.Q.Q.Q.Q.Q.Q.Q.Q.E.E.Q.Q.E.E.E.E.T.I.I.I.P.P.P.P.P.A.A.A.A.A.A.V.V.V.V.V.V.V.v.v.v.c.c.c.c.c.c.c.s.i.i.i.w.w.q.q.q.>.>.>.=.=.@.@.@.@.@.@.@.@.@.@.+.+.+.+.@.@.@.@.+.O.` ` ~ ~ ( ( ( ( ~ ~ ! ~ ~ ( ~ ~ ! ! ! I Q Q K I I S 0.).T.%.k : j G O.&.*.Q J c S Q y.x.m.L.H.m.m.m.G.G.G.H.H.J.L.L.U.U.J.U.U.U.U.U.U.U.U.U.U.U.U.U.H.U.U.Y.Y.U.U.U.U.U.U.H.H.H.H.H.J.H.H.U.U.U.H.m.@.c + I.-.K K I I K K S S S S K S S A Z A S m v : q x.T.m.T.n.R.L.L.H.G.G.G.G.H.G.G.G.H.H.H.H.H.G.H.H.H.H.G.G.H.H.H.H.H.H.H.H.H.G.G.G.G.G.G.n.n.n.n.k.k...q > q w w c Z m Z H Z Z Z Z Z Z Z Z Z Z Z S H H H H H S S S S S S K I ! ! ! ! ~ ~ ` ` =.=.-.-.-.-.-.-.-.,.q.q.,.q.w.i.",
"i.u.w.q.q.,.>.>.>.>.>.,.,.q.q.q.i.w.q.w.i.s.i.w.c.i.i.i.s.c.s.i.i.s.c.c.s.s.s.c.c.c.c.c.c.c.c.c.c.c.c.c.s.s.s.i.i.i.w.w.w.w.w.w.w.w.w.i.i.i.i.i.i.i.i.i.i.i.i.i.s.s.s.s.s.s.c.c.c.c.c.c.c.c.c.c.v.v.v.v.v.v.V.V.V.V.V.A.A.A.A.A.A.A.A.A.A.P.P.P.I.I.I.P.P.P.P.P.I.T.E.E.E.E.I.I.E.E.E.T.I.I.I.P.P.P.P.P.P.P.P.I.Q.T.P.P.I.I.P.A.E.Q.).Q.E.P.P.P.T.P.P.I.Q.).E.P.E.E.I.I.T.E.E.E.).Q.E.E.E.E.E.T.Q.E.E.E.E.Q.Q.Q.Q.Q.Q.Q.Q.Q.Q.Q.E.E.E.E.I.I.I.I.P.P.P.A.A.A.A.A.A.A.V.V.V.V.V.V.V.v.v.v.v.c.c.c.c.c.c.c.s.i.i.i.w.w.q.q.q.0.>.>.-.=.@.@.@.@.@.@.@.@.@.@.@.@.+.@.+.+.@.@.@.+.] ] ` ` ` ` ` ( ~ ~ ~ ~ ( ( ~ ! ! Q ! I ! ! K Q ~ ! O.y.@.*.( G k * f j f < X o , 7 ! &.y.M.m.m.m.G.G.G.G.G.G.H.H.J.H.H.H.H.U.U.U.U.U.U.U.U.U.U.U.U.U.U.H.U.U.Y.U.H.U.U.H.H.H.H.H.G.H.G.F.H.U.H.G.m.%.b - E.>.I I I K K K S S S S K S S A Z A S A c k o O.P.T.P.G.L.L.H.G.G.G.G.H.H.G.G.G.G.H.H.G.G.G.H.H.H.H.G.G.H.H.H.H.G.H.H.H.H.G.G.G.G.m.n.n.n.b.Y.n.b.h.$.w c X * 7 k v Z G H Z Z Z Z Z S S H Z Z H H G H H H S S S S K K Q ! ! ! ! ~ ~ ( ` ` >.-.-.-.-.-.-.-.q.q.q.w.q.>.q.i.",
"q.q.w.q.q.q.>.>.,.-.-.,.q.,.,.q.i.w.q.w.i.i.i.i.i.i.i.i.i.i.i.i.s.s.c.c.c.c.c.c.s.c.c.c.c.c.c.c.s.s.s.s.i.i.i.i.w.w.w.q.q.q.q.q.w.w.w.w.w.w.w.w.w.w.w.i.i.i.i.i.s.s.s.s.s.s.s.s.s.s.c.c.c.c.c.c.c.c.c.c.v.v.v.V.v.V.V.A.A.A.A.A.V.V.V.V.A.A.A.P.P.P.P.P.P.P.P.P.P.I.Q._.).E.T.I.P.I.I.T.T.I.I.P.P.P.P.P.P.P.P.I.E.E.I.P.P.P.P.I.E.E.E.I.P.P.I.I.I.T.T.I.T.E.E.I.W.W.W.W.W.W.T.T.E.E.Q.Q.E.E.E.E.E.E.E.E.Q.Q.Q.E.Q.Q.E.E.E.E.E.E.T.T.T.T.I.I.P.P.P.P.A.A.A.A.V.A.V.V.V.V.V.V.A.A.c.v.V.i.A.V.c.c.c.s.v.s.c.s.0.s.q.q.w.w.q.q.q.q.-.-.=.@.@.@.@.@.@.@.@.@.@.@.@.@.@.+.+.+.+.+.] ` ` ` ` ` ( ( ~ ~ ! ~ ~ ( ~ ~ ! ! Q I I Q ! ! ! ! Q Q ( O.( S A G R v 8 )  X_.) 7 < p ` 0.M.t.m.G.m.m.m.m.G.G.H.H.G.G.H.H.H.H.H.H.U.U.U.U.U.U.U.U.U.U.U.U.U.U.U.U.U.H.H.H.H.H.H.H.U.H.G.G.G.U.G.y.@.l = Q.-.I K K S K K K S S A S S S S S S S S H j e > L.T.T.m.n.m.G.G.G.G.G.G.F.H.H.H.H.H.H.H.H.G.G.H.H.H.H.U.Y.H.H.G.G.G.G.G.G.m.m.n.n.n.n.n.n.b.G.n.n.H.r.r.'.U.| q ; 7 w c Z G m c Z Z m m Z G H H G G H S I K I I I I Q ~ ( ! ! ! ~ ~ ( ` ` @.@.-.@.@.@.>.q.i.w.q.q.w.i.i.i.",
"w.w.q.q.,.>.-.-.q.>.>.q.q.,.,.q.i.w.q.w.i.i.i.i.i.i.w.w.i.i.i.i.i.s.s.s.s.s.s.s.s.s.s.s.s.s.s.s.s.s.i.i.i.i.i.i.w.w.q.q.q.q.q.q.q.q.q.q.q.q.q.q.q.q.w.w.w.i.i.i.i.i.i.i.s.s.s.s.s.s.s.c.c.c.c.c.c.c.c.c.c.v.v.v.v.V.V.V.A.A.A.V.V.V.V.V.A.A.A.P.P.P.P.P.P.P.P.P.P.I.E.Q.E.E.I.I.I.T.E.E.T.I.P.P.P.P.P.P.P.P.P.P.E.I.P.I.E.Q.E.E.P.P.I.I.I.I.I.I.I.W.T.I.E.Q.Q.T.W.W.W.W.T.W.T.T.E.Q.Q.Q.Q.E.E.Q.E.E.E.E.E.E.Q.E.Q.Q.E.E.E.E.E.E.T.T.T.T.I.I.P.P.P.P.A.A.A.A.A.A.V.V.V.V.V.V.V.V.I.V.c.v.v.i.v.s.V.c.c.i.s.c.s.s.i.w.w.q.q.0.>.>.-.-.-.=.@.@.@.@.@.@.@.@.@.@.@.@.@.+.+.+.+.[ ] ` ` ` ` ` ` ( ~ ~ ! ~ ~ ~ ~ ~ ! ! Q I I Q ! ! ! ! ` ) Q ! ! ! @.w._.%X<X8XqX).! c j - < w Q M.G.m.m.m.G.G.G.G.G.H.G.H.H.H.H.H.H.H.H.H.H.H.H.H.H.H.H.U.U.U.U.U.U.U.U.U.H.H.H.H.H.H.H.G.H.H.G.H.m.0.( 1 Z 2Xq.A L K S K K S S S S S S S S S S S S S H j * O.L.{.P.L.G.G.H.H.G.G.G.G.H.H.H.G.G.G.G.G.H.H.H.H.H.U.Y.Y.H.H.H.G.G.G.H.H.G.m.n.m.n.n.n.n.b.H.n.b.H.n.H.>X8X[.y.F 8 * > k p c Z Z m m Z Z c c Z G Q Q Q Q I K K K I ! ~ ~ ~ ~ ! ! ~ ( ] ] -.-.-.-.-.-.q.w.w.q.q.q.u.i.i.u.",
"w.w.q.q.,.>.>.>.w.q.q.w.q.q.q.q.i.w.w.i.s.i.w.i.w.w.w.w.w.w.i.i.w.i.s.s.i.i.i.s.i.i.s.s.s.i.i.i.i.i.i.i.i.w.w.w.w.q.q.q.q.0.q.q.>.>.0.0.0.0.>.>.q.q.q.q.w.w.w.w.i.i.i.i.i.i.i.s.s.s.s.s.s.c.c.c.c.c.c.c.c.v.v.v.v.v.V.V.V.V.V.V.V.V.V.V.A.A.P.P.P.P.P.P.P.P.P.P.A.P.I.T.T.I.I.I.E.E.E.E.I.P.P.A.P.P.P.P.P.A.P.P.E.I.P.E.)._._.E.E.Q.Q.Q.E.I.P.P.P.P.P.P.I.E.E.I.T.T.T.T.T.T.T.T.E.Q.Q.Q.E.E.E.E.E.E.E.E.E.E.E.E.Q.E.E.E.E.E.E.E.T.W.T.T.I.I.P.P.P.P.P.A.A.A.A.V.V.V.V.V.V.V.V.V.v.V.v.P.i.-.w.] ! O.0.c.c.i.i.@.s.i.i.w.q.q.q.q.>.-.-.=.@.@.@.@.@.@.@.@.@.@.@.@.@.+.+.O.+.O.] ] ` ` ` ` ` ` ( ( ! ~ ~ ~ ~ ~ ! ! ! Q Q ! ! ~ ! ! ` ( ( ` ` ` +.q.w.c.N.i.q.! J L @.K v e 1 &.a.M.G.G.H.H.H.K.K.G.G.H.H.H.H.H.H.H.G.G.G.G.G.G.G.G.H.H.H.U.U.U.U.U.U.U.U.H.H.H.H.U.H.G.H.H.G.H.b.%.S # c.9X@.n I S S K S S S S S K S S S S S S S G K k 7 Z `.1X/.m.G.G.H.H.H.H.H.H.Y.Y.U.U.H.H.H.H.H.G.m.G.H.Y.Y.T.H.H.H.H.H.H.H.H.G.G.G.m.n.n.n.n.n.J.n.k.G.F.H.].'.'.].].G.( e o 7 e e 7 w c Z Z G Z Z G G G G G ! I K K ! ~ ~ ~ ~ ~ ! ! ! ` ] +.-.-.-.-.-.>.q.w.q.q.q.w.i.i.w.q.",
"q.q.q.q.q.q.w.u.q.q.q.w.w.q.q.u.w.w.w.s.s.i.w.w.w.w.w.q.w.w.w.w.w.i.i.i.i.i.i.i.i.i.i.i.i.i.i.i.i.w.w.w.w.w.w.q.q.q.q.0.>.>.>.>.-.>.>.>.>.>.>.-.>.0.q.q.q.q.w.w.w.w.i.i.i.i.i.i.i.i.i.s.s.s.s.s.s.c.c.c.c.c.c.c.v.v.v.V.V.V.V.V.V.V.V.V.V.A.P.P.A.P.P.P.P.P.P.P.A.P.P.P.P.I.I.T.E.E.E.T.I.P.P.P.A.P.P.P.P.P.P.I.Q.E.E.Q._._.Q.E.)._._.).E.T.I.I.P.I.I.I.I.E.E.I.T.T.T.T.T.T.T.T.E.E.E.E.I.I.T.E.E.E.E.E.E.E.E.E.E.E.E.E.E.E.T.T.E.E.T.I.I.P.P.P.P.P.P.A.A.A.A.V.A.A.A.A.V.V.V.V.c.V.c.i.@.@.! b b S ! q.w.q.v.c.i.i.i.w.w.q.q.q.>.>.-.-.@.@.@.@.@.@.@.@.@.@.+.+.+.+.O.O.+.O.] ] ] ` ` ` ` ` ` ` ~ ~ ~ ~ ~ ~ ! ! ! ! ! ! ~ ~ ! ! ! ! _ O.` ! ! ! _ ` ! ! ` ~ R ( ! ( K b = k 0.Z.m.G.H.H.H.H.H.H.G.H.H.H.H.H.H.H.G.G.G.G.G.G.G.G.H.H.H.H.U.U.U.U.U.U.U.U.U.U.U.U.H.G.H.H.G.H.x.&.v = `.[.K M ~ A S S S S S S K I K K K K K K K G S c j j 2XpX].M.G.G.G.G.G.H.H.U.~.~.Y.U.U.H.H.H.G.n.n.m.U.Y.Y.U.H.H.H.H.H.H.H.H.G.G.G.G.n.n.n.n.b.H.n.z.n.n.k.n.Y.n.M.R.'.T.t.$.j w 7 * X : j c Z Z Z G G G Q ( ! I K K Q ! ! I ~ ~ ! ~ ~ ` +.@.@.@.@.=.-.>.q.q.>.q.w.w.u.w.q.,.",
"q.q.,.,.q.q.w.u.>.>.q.w.w.q.w.i.w.w.i.s.s.w.w.w.q.q.q.q.q.w.w.w.w.i.i.s.i.i.i.s.i.i.i.i.i.i.i.i.w.w.w.q.q.q.q.q.q.0.>.>.>.-.>.>.-.-.>.>.>.>.-.-.>.>.0.q.q.q.q.w.w.w.w.w.i.i.i.i.i.i.i.i.s.s.s.s.s.c.c.c.c.c.c.c.v.v.v.v.v.v.V.V.V.V.V.V.V.A.A.P.A.A.A.A.P.P.P.P.P.P.P.P.P.P.I.E.I.T.I.I.I.I.P.P.P.P.P.I.I.I.E.Q.E.Q._._.Q.E.E.E.I.I.I.I.I.E.E.Q.Q.Q.Q.E.Q.).Q.E.T.T.T.T.T.T.T.T.T.E.E.T.I.I.E.E.Q.Q.E.E.E.E.E.E.E.E.E.E.E.E.T.T.E.E.W.I.I.P.P.P.P.P.P.P.A.A.A.A.P.P.A.A.A.V.V.V.v.c.c.@.` b o = X o < ~ s.s.i.w.w.w.i.w.w.q.>.>.>.>.-.-.@.@.@.@.@.@.@.@.@.+.+.+.+.+.] ] O.O.] ] ] ] ] ` ` ` ` ` ( ( ( ~ ~ ~ ! ! ~ ! ~ ~ ` ` ~ ! ! ! ! ! ! R ! ! K ~ ` ` _ K L K A K A A e = %.m.m.m.Z.H.H.K.K.K.G.H.H.H.H.H.G.G.G.G.G.G.G.G.G.G.G.G.H.H.H.U.U.U.U.U.U.U.U.U.U.U.H.G.H.H.G.H.b.%.k : `.0.A S K S S S S S S S K I K K K K K K K G G c j * &XpXOXG.G.G.G.G.G.H.U.Y.T.Y.U.U.H.G.G.G.G.m.m.H.Y.Y.U.H.H.H.H.H.H.H.H.H.H.H.G.G.F.F.F.F.b.F.F.l.F.H.F.n.k.b.H./.`.{.'.~.&X2X<XT.Q > 7 Z c Z G G G G Q ( Q K S K I Q I K ! ~ ~ ` ` ] O.+.@.@.+.@.-.>.>.>.>.,.q.w.w.q.>.-.",
">.>.>.>.>.>.>.>.-.-.,.w.q.q.w.s.w.w.i.s.i.w.q.w.q.q.q.q.q.q.w.w.i.i.s.s.i.i.i.s.i.i.i.i.i.i.w.w.q.q.q.q.0.0.>.>.>.>.>.-.-.-.-.-.-.-.-.>.>.-.-.-.>.>.>.>.0.q.q.q.q.q.w.w.w.w.i.i.i.i.i.i.s.s.s.s.s.c.c.c.c.c.c.c.c.c.c.c.v.v.v.V.V.V.V.V.V.V.A.A.A.A.A.A.A.A.P.P.P.P.P.P.P.P.I.E.I.I.I.I.I.I.I.I.I.I.E.E.E.E.)._.T.Q._._.E.I.T.E.I.I.I.I.I.T.E.Q.Q.Q.Q.E.Q.Q.Q.I.T.W.T.T.T.T.T.T.E.E.E.E.E.E.Q.).E.Q.E.E.Q.E.E.E.E.E.E.E.E.T.T.I.E.E.I.I.P.P.P.P.P.P.P.P.P.P.A.A.P.P.P.A.A.A.V.V.v.s.V.@.A $ k V.XX] 9 y @.v.w.s.i.i.i.i.w.q.q.0.>.>.-.-.=.@.@.@.@.@.@.@.@.+.+.+.+.O.] ] O.O.] ] ] ] ] ] ` ` ` ` ` ` ` ` ( ~ ~ ~ ~ _ ` ` ` ` ( ~ _ _ ! ! ! ! ! ! ! ! R R L K ! _ ~ ` K K m o ( m.Z.Z.H.H.H.H.H.H.G.H.H.H.H.G.G.G.m.m.m.m.m.m.G.G.G.G.H.H.H.H.U.U.U.U.U.U.U.U.U.H.H.G.H.G.G.G.x.&.k - Q.` I A b K A A S S S S S K S K K K K K K G S Z j o %XpX*XL.H.G.G.G.H.U.Y.^.~.Y.Y.U.U.H.H.H.H.H.U.Y.~.T.U.H.G.G.H.H.H.U.U.U.H.H.G.G.G.n.F.F.H.H.F.F.n.G.H.G.H.H.H.H.G.P.'.OXaXpXpX9XM.w o * 7 w c Z c c c Z K K K I ! ! ! I ! ~ ` ` ] ] O.O.-.@.+.@.-.>.>.-.-.>.q.q.>.-.-.-.",
"-.-.-.-.-.-.-.-.-.-.,.q.q.,.q.i.w.w.i.i.i.q.q.w.q.q.q.q.q.q.w.w.w.i.i.i.i.i.i.i.i.i.i.i.w.w.w.w.q.q.0.>.>.>.>.>.>.>.-.-.-.-.-.-.-.-.-.-.-.-.-.-.-.-.-.-.>.>.0.0.q.q.q.w.w.w.w.i.i.i.i.i.s.s.s.s.c.c.c.v.v.c.c.c.c.c.c.c.c.v.v.v.v.v.v.V.V.V.V.A.A.A.A.A.A.A.A.A.P.P.P.P.P.P.P.I.I.I.I.I.I.I.I.I.I.T.E.E.E.E.Q.Q.E.Q.).Q.E.T.T.E.E.Q.E.E.I.I.I.I.I.E.E.I.T.E.E.P.W.W.W.W.I.I.T.T.E.E.E.E.E.E.)._.E.E.E.E.Q.Q.Q.E.E.E.E.E.E.T.I.I.E.E.I.I.P.P.P.P.P.P.P.P.P.P.P.P.P.P.P.A.A.A.A.A.P.c.c.] p + _.uXV.S 8 9 v.;Xs.w.q.0.>.>.>.0.q.q.>.-.-.-.-.=.=.=.@.@.@.@.@.+.+.+.+.O.] ] O.O.] ] ] ] ] ] ` ` ` ` ] ] ` ` ` ( ( ~ ` ` ` ] ] ] ` ~ _ ' ` ` ` _ U K _ ! ! _ _ _ ! A K K K S m : p s.R.L.H.Z.F.K.H.K.H.H.H.H.H.G.G.G.n.n.n.n.n.n.n.n.H.H.H.H.H.H.H.H.U.U.U.U.U.U.H.H.H.G.H.H.G.G.h.O.f >  X] K A b S Z A A S A S S S S S K K K K S H Z Z w : <XpX%XL.L.L.H.G.H.U.~./.~.~.T.Y.Y.Y.U.U.U.U.Y.T.Y.Y.U.H.G.H.H.H.U.Y.Y.T.H.H.H.G.G.G.m.n.U.G.G.H.F.n.F.n.n.n.n.H.R.T.T.R.).).[.#XT.&.Z k > > 7 e w w j k b m S I ! ! ! Q ( ` ` ` ] ] O.+.-.@.+.@.-.>.-.@.-.>.>.-.=.@.=.-.",
"=.-.-.>.>.>.>.-.-.-.,.q.,.>.q.i.w.w.w.i.w.q.q.w.q.q.q.q.q.q.w.w.w.i.i.i.i.i.i.i.w.w.w.w.w.w.q.q.0.>.>.>.>.>.-.-.>.-.-.-.-.@.@.-.@.-.-.-.-.-.-.@.@.@.-.-.-.-.>.>.q.q.q.q.w.w.w.w.i.i.i.s.s.s.s.s.c.c.c.v.v.c.c.c.c.c.c.c.c.c.v.v.v.v.v.v.v.V.V.V.A.A.A.A.A.A.A.A.P.P.P.P.P.P.P.P.T.I.I.I.I.I.I.I.I.I.I.I.P.P.I.T._.).Q.Q.E.E.I.I.L.P.T.T.T.I.I.I.I.W.T.I.T.E.E.I.W.W.W.W.W.W.T.T.I.I.I.I.T.E.Q._.E.E.E.E.Q.Q.Q.E.E.E.E.E.E.T.I.I.E.E.I.I.P.P.P.P.I.I.P.P.P.P.P.P.P.P.P.A.A.A.A.A.A.c.c.q.S O i.k A y v b [.qX%.Q ] ( ( ( ] @.-.q.-.>.-.-.-.-.-.-.@.@.@.@.@.+.+.+.+.] ] ] O.O.] ] ] ] ] ] ] ` ` ` O.] ] ` ` ` ` ` ` ` ] ] +.O.` ` ! ! ! ! ! ! ! ! ! I ! ! L K ! I _ K ! I A v . I T.R.H.F.F.F.K.H.H.H.H.H.H.G.G.G.G.G.G.m.m.m.m.m.H.H.H.H.H.H.H.H.H.U.U.U.U.U.H.H.G.G.H.H.m.m.y.( 9 9 ;X@.b A K m m A A S A A S S S S S K K S S H H Z 7 , &XuX>XT.R.L.H.H.U.Y./.'.T.Y.Y.Y.Y.U.U.U.U.Y.Y.Y.U.H.H.H.H.H.H.U.Y.Y.~./.H.H.H.G.G.G.m.m.G.M.H.Y.J.F.F.n.n.G.H.U.R.T.R.U.Y.P.P.L.L.n.t.y.Q D j 7 > , % X 9 y l A S L S S ` ` ` ` ` ] +.+.-.@.[ +.-.>.-.+.-.>.-.=.@.+.@.-.",
"@.@.-.-.-.-.-.-.-.-.>.>.,.q.q.q.q.q.q.w.w.w.w.q.q.q.q.0.q.q.w.w.i.i.i.i.i.i.i.w.w.w.w.w.w.q.q.q.>.>.>.-.-.-.=.=.-.-.-.=.=.@.@.@.-.-.-.-.-.-.=.=.-.-.-.-.-.-.>.>.>.>.>.q.q.w.w.w.w.i.i.i.s.s.c.c.s.s.s.c.c.c.c.c.c.c.c.c.c.c.c.c.v.v.v.v.V.V.V.V.V.V.V.V.V.V.A.A.A.A.S.P.P.P.P.P.W.I.P.P.P.I.W.E.E.T.I.I.I.I.I.E.!.Q.E.W.I.W.P.V.x.&.t.L.T.).T.I.}.T.T.T.).T.P.E.E.E.E.E.I.I.P.P.I.I.I.I.T.E.E.E.).Q.Q.Q.Q.E.E.E.I.I.I.E.E.E.T.T.I.I.I.I.I.I.I.I.I.I.P.P.P.P.A.A.P.A.A.V.A.A.P.P.V.A.V.i.~ 9 = 7 k 8 = >.qXq.Q j w k 7 7 c Q &.@.%.>.%.&.0.-.@.;.=.=.=.=.@.@.+.+.+.[ ] ] ` ` ] ] +.+.[ ] ` ` ` ` ` ` ` ` ` ` ` ` ` ` ` ` ] ] ` ` ` ` _ ~ ! ! ! I I I ! Q U I I U I U K L L m p > m.P.G.b.n.H.n.n.n.H.H.G.G.H.G.n.n.n.n.n.n.m.G.G.U.U.H.H.H.H.H.G.U.T.T.R.L.R.L.M.n.I.M.m.A.y.&.S O W.2X` L A A m m m A A A S S S S S S S S S A A R j w o ~.pX'.T.U.U.Y.~.~./.~.~.T.~./././.~.Y.U.Y.Y.Y.Y.Y.Y.~.T.U.U.U.Y.Y.Y.Y.U.H.H.H.H.G.G.m.m.G.G.F.n.n.n.n.m.n.H.Y.U.U.U.U.U.Y.H.L.U.R.U.T./.G.3X0X2X2X1X~.( - : < w k l m S +.] ` +.@.+.@.] [ +.+.@.-.-.-.@.>.-.@.+.+.@.@.@.",
"@.@.@.-.-.-.-.-.-.-.-.>.,.q.q.q.q.q.q.q.w.w.q.q.q.q.q.0.q.q.w.w.w.w.i.i.i.w.w.w.w.w.w.w.q.q.q.q.>.>.-.-.-.=.=.@.=.=.=.=.=.@.@.@.-.-.-.-.=.=.=.@.-.=.=.=.=.-.-.-.-.>.>.q.q.q.w.w.w.w.i.i.i.s.c.c.s.s.s.s.c.c.c.c.c.c.c.c.c.c.c.c.c.c.v.v.v.v.v.v.V.V.V.V.V.V.V.A.A.A.A.S.P.P.P.P.I.I.P.P.I.I.W.E.E.T.I.I.I.I.I.E.`.W.A.I.E.E.S.s.#...Z | M.M.T.`.{.`.`.`.`.).Q.Q.T.E.E.T.I.I.P.P.I.I.I.I.T.E.E.E.Q.Q.Q.E.E.E.E.E.T.I.E.E.E.T.T.I.I.I.I.I.I.P.I.I.I.I.P.P.P.P.A.A.P.A.A.A.A.P.P.P.I.A.c.v.c.` v y b k v.wXuXc 7 ; o > 7 7 , , J | %.:.%.%.0.-.=.q.=.=.=.=.@.@.+.+.+.+.] ] ] ] [ [ +.+.[ ] ] ` ` ` ` ` ` ` ` ` ` ` ] O.O.O.+.+.+.+.` ( ~ ~ ! ! I I Q Q Q I I K I I S I ! ~ ! S w X ( L./.n.F.H.F.F.n.G.G.G.G.G.G.n.n.n.n.n.n.n.m.m.n.M.n.G.G.G.H.Y.H.m.m.G.L.H.m.m.m.t.c.I.v.q.` < p =X!.L b L L b m m Z A A A A A S S S S A A A Z v G k o #.OX>XT.Y.Y.Y.~.~.~.~./././././.~.Y.U.U.Y.Y.Y.T.T.~.~.~.H.H.H.H.H.H.H.H.H.H.H.H.G.G.m.m.G.G.m.n.n.G.G.G.H.U.U.U.U.Y.U.G.Y.U.U.U.Y.U.Y.~.*X0XiXiXiXiXeX#Xx.( k 1 + o 8 S I ` [ [ ` ~ [ =.[ +.+.+.-.>.-.@.>.-.@.+.+.@.@.@.",
"+.@.@.@.@.=.@.@.-.-.-.>.,.q.q.q.q.q.q.q.q.q.q.q.q.q.q.0.q.q.q.w.q.w.w.w.w.w.w.w.w.w.w.q.q.q.0.>.-.-.-.-.=.@.@.@.@.@.@.@.@.=.=.=.=.=.=.=.@.@.@.@.@.@.@.@.@.@.@.=.-.-.>.>.q.q.q.q.w.w.w.i.i.i.s.s.s.s.s.s.s.c.c.c.c.c.c.c.c.c.c.c.c.c.c.c.c.v.v.v.v.v.V.V.V.V.V.V.V.V.A.A.A.P.P.P.P.P.P.I.I.I.T.T.I.I.I.I.I.I.I.W.V.`.Q.P.E.c.O.] s ; o 0 Z %.{.L.{.{.`._.Q.).`.Q.E.E.E.T.I.I.P.P.I.I.I.I.I.E.E.E.E.E.E.E.E.E.T.T.E.E.E.E.E.T.I.I.I.I.I.I.I.I.I.I.I.P.P.P.P.P.A.P.A.P.A.P.P.P.P.P.I.P.V.A.A.s.w.c. XpXuXpX( - r ].0XeXeX<X3.0 7 7 D &.q.&.@.0.-.;.=.;.=.=.@.@.+.+.+.+.[ [ [ +.+.@.+.+.[ ] ] ] ] ] ` ` ` ` ` ` ` ` ` ` ] ] ] ] ] ] ( ~ ~ ! ! Q I I ! Q I I K K K K U L b M ! ` S 7 c #X7XY.b.F.F.H.n.G.G.n.n.G.G.n.m.n.n.n.n.n.n.n.G.n.F.H.H.n.G.U.T.U.m.M.y.&.O.%.0.&.q.%.] +.b o v.4X-.b M L A A m Z A A A S A A A A A A A A A Z c Q w : k `.aX`.~.~.~.~.^.~././.].].'.'./.~.Y.U.H.H.U.U.U.U.U.U.U.U.U.U.U.U.U.U.H.H.H.H.G.G.G.m.G.m.m.n.m.G.H.H.U.U.H.U.Y.~.U.n.T.U.J.U.Y.Y.U.U.H.T.].+X*X+X'.~.Y.T.OX%XM.v - 7 I ! ~ ! ( [ ] ` [ +.+.+.-.>.>.@.-.=.@.+.+.+.@.+.",
"+.+.@.@.@.@.@.@.-.-.>.>.q.q.q.q.0.0.q.q.q.q.q.q.q.q.q.0.0.q.q.q.q.q.q.w.w.w.w.w.w.w.q.q.0.>.>.-.-.-.-.=.@.@.@.@.@.@.@.@.@.@.=.=.@.@.@.@.@.@.@.@.@.+.+.+.+.@.@.@.-.-.-.-.>.>.q.q.q.q.w.w.i.i.i.i.i.i.i.s.s.s.s.c.c.c.c.c.c.c.c.c.c.c.c.c.c.c.c.v.v.v.v.v.V.V.V.V.V.V.V.V.A.A.P.P.P.P.P.I.I.I.I.I.I.I.I.I.I.I.I.I._.V.I.L.0.y.>.c X & #.w . Z ( T.{.T.Q.).I.T._.Q.E.E.E.T.I.I.I.P.I.I.I.I.I.T.E.E.E.E.E.E.E.W.T.T.E.E.E.E.E.I.I.I.I.I.I.I.I.I.I.I.P.P.P.P.P.P.P.P.A.P.P.P.P.P.P.A.V.P.P.A.v.c.E.;XuXpXqXQ N o ].iX2XH.3.e.3.| Q 3 , c ) ` @.-.=.=.;.;.=.=.@.@.{ +.+.[ ] ] [ +.@.@.+.+.[ ] ] ] ] ] ` ` ` ` ` ` ` ` ~ ~ ( ` ` ` ` ` ( ~ ~ ! ! ! Q I ! Q I I I I I K S ! ` ! K S Z c , &XpX'.b.F.n.n.n.G.G.n.n.G.G.n.m.n.n.n.n.n.n.n.G.H.H.H.H.G.m.n.M.r.:.%.&.Q Z c v c c c &.` 1 p 5X`.K A K m n K S S S S S S S S A A A A A Z m m H Z j j , $XtX*X/.~.T.Y.^./.(.'.[.].'././.~.Y.Y.~.~.~././.~.~.~.U.U.U.U.Y.T.~./.H.H.H.H.G.G.G.G.G.G.m.n.m.G.G.H.H.H.U.Y.~./.Y.G.T.U.H.U.Y.Y.U.H.Y.U.Y.Y.U.H.G.G.n.T.1XpX8Xy.w - : j I I Q ` ] +.@.@.@.+.-.q.>.@.-.@.+.[ +.+.+.+.",
"+.+.+.@.@.@.@.@.>.>.>.q.q.q.q.q.>.>.0.q.q.q.q.q.q.q.q.0.0.0.q.q.q.q.q.q.w.w.w.q.q.q.q.0.>.-.-.-.-.-.=.@.@.@.@.+.@.@.@.@.@.@.@.@.@.@.@.@.@.@.+.+.+.+.+.+.+.@.@.@.@.@.-.-.-.>.>.>.q.q.q.w.w.w.i.i.i.i.i.i.s.s.s.s.c.c.c.c.c.c.c.c.c.c.c.c.c.c.v.v.v.v.v.v.v.V.V.V.V.V.V.V.V.A.P.P.P.P.P.I.I.I.I.I.W.W.W.I.I.I.I.I._.I.t.y.0.G > X ^ *X3.E N . c &.m.L.E.{.Q.T.E.E.W.T.T.T.I.I.I.P.I.I.I.I.I.I.E.E.E.E.E.E.E.E.T.T.E.E.E.E.T.I.I.P.I.I.I.I.I.I.I.I.P.P.P.P.A.A.P.P.A.P.P.P.P.P.P.A.A.A.V.V.P.V.V.I.$Xc.0.Q , G iX>X7.$.#.$./ #.h.#.i 7 7 Z +.@.@.w.;.;.;.@.@.@.+.+.] ] ] ] ] ] +.+.[ [ ] ] ] ` ] ] ` ` ` ` ` ` ` ` ` ` ` ` ` ` ` ` ` ( ~ ~ ! ! ! ! Q I I I Q Q I K K S m b b c k w . OXiX].G.U.n.b.G.H.H.m.m.G.G.n.n.n.n.n.b.b.n.n.b.G.H.b.b.G.M.0.%.0.O.c , o o X o o + # = . < Q.5X@.L A L M m L S S S S S S S S A A A A Z Z m m Z c Z c . &.&X*X~.~.T.Y.~./.'.].'./.~.T.Y.Y.U.U.~.~././././.~.~.U.H.H.U.U.Y.Y.~.H.H.H.H.H.G.G.G.G.G.G.n.n.n.m.G.G.U.T.~.~.~.U.G.Y.U.H.U.Y.T.Y.H.U.U.U.G.n.m.G.G.G.k.n.~.'.b.) c * , e w c ! Q ( +.-.-.@.-.,.>.+.@.@.+.+.+.+.+.+.",
"@.@.@.@.@.@.=.-.>.>.,.q.q.q.q.q.>.>.>.0.0.0.0.>.q.0.0.0.0.>.>.>.q.q.q.q.q.q.q.q.q.0.>.>.-.-.-.-.-.-.=.@.@.@.@.+.@.@.@.@.@.@.@.@.@.@.+.+.+.+.+.+.+.+.+.+.+.@.@.@.@.@.@.=.-.-.>.>.q.q.q.q.w.w.w.w.i.i.i.i.i.i.s.s.s.s.s.c.c.c.c.c.c.c.c.c.c.v.v.v.c.c.v.v.v.v.v.v.V.V.V.V.V.A.P.P.P.P.P.P.P.I.I.I.I.W.W.I.I.I.I.I.m.T.y.Q c X ; $.<XU.( z F j o w Z y.E.).Q.T.I.E.I.T.T.T.T.I.I.I.I.I.I.I.I.I.T.T.E.E.E.T.T.T.T.T.I.I.T.I.I.I.I.P.I.I.I.I.I.I.I.I.P.P.P.P.A.A.P.P.A.P.P.P.P.P.A.A.P.A.v.V.I.A.c.c.P.x.%.G % b.aXk.X.X...$.3.e.r.E &.Q w - l @.-.[ ;.;.;.@.@.+.+.[ ] ] ] ` ` ] ] [ ] ] ] ` ` ` ` ` ` ` ` ` ` ` ` ` ` ` ` ` ` ` ` ` ` ( ~ ~ ~ ! ! ! I I I I ! Q K S S b l Z S v 7 , #.9XpX[.H.Y.J.H.H.H.H.m.n.G.G.n.n.n.n.b.b.b.n.n.n.H.G.r.e.e.#.Q H c 7 : k 5.E.XXXXL.v.O.c I I.9XP.b ! b m K K A A S S S S S S S A A A A A Z m m S Z Z k > * T.].~.~.~.~.~./.'.'././.~.~.Y.Y.Y.Y.U.U.U.Y.Y.U.U.H.U.U.U.U.U.U.U.U.U.H.H.H.H.G.G.G.H.H.G.m.n.m.m.G.H.T./.~.Y.U.H.G.Y.U.U.H.U.Y.Y.U.U.Y.Y.H.G.H.H.G.n.n.n.n.G.n.h.%.#.F Z 7 : w j G ` -.>.=.@.>.-.+.@.+.[ [ +.+.+.[ ",
"@.@.@.@.@.-.-.-.>.>.,.,.>.>.>.>.-.>.>.>.>.>.>.>.q.q.0.0.>.>.>.>.0.0.q.q.q.0.>.>.>.>.>.-.-.-.-.-.-.-.=.@.@.@.@.@.@.@.@.@.@.@.@.@.+.+.+.+.+.+.+.[ +.+.+.+.+.+.+.@.+.@.@.@.=.-.-.-.q.q.q.q.w.w.w.w.w.i.i.i.i.i.i.i.s.s.s.s.s.c.c.c.c.c.c.c.c.c.v.v.c.c.c.v.v.v.v.v.m.m.m.m.A.P.P.I.T.I.I.P.P.P.I.I.D.D.D.W.W.I.I.I.P.@.&.Z O x OX<XG.D N c q w 7 : > m.;X).T.T.I.E.I.I.T.T.T.I.I.I.I.I.I.I.I.I.I.T.I.I.I.I.I.I.I.I.P.I.I.I.P.P.P.P.I.I.I.I.I.P.I.I.P.P.P.A.A.A.A.A.A.P.P.P.P.A.A.A.V.P.A.V.V.v.v.P.N.m.O.7 : 6X>XW o.$..... ...r.r.a.c.Q - < K +.! ;.;.@.@.@.+.[ [ [ ] ] ` ` ` ] ] ` ` ` ` ` ` ` ` ` ` ` ` ` ` ` ` ~ ~ ~ ( ( ( ( _ ~ ~ ~ ~ ! ! ! ! I I I I ! I S m A p 1 - o o c y.eXpXiX].G.U.U.U.H.U.H.n.n.n.n.n.b.b.b.b.b.b.n.n.m.M.h.$.Q J z k X X w y.<X8XE.] -.` ! ` i.=X5XV.! b L b b K S S S S S S S S S A A A A A A A A A S Z m l v o &.P.~././././././.~.'.'.'././.~.~.T.T.~./././.~.Y.Y.U.U.Y.U.U.U.U.U.U.U.H.H.H.G.G.G.H.H.H.G.G.G.H.H.Y.~./.Y.H.H.H.G.Y.Y.Y.H.H.U.U.U.U.H.H.H.G.m.n.n.b.H.J.K.z.k.n.G.n.n./.0.k > , Z Q @.>.=.@.-.-.+.+.+.] ] +.+.[ ] ",
"-.=.@.@.=.-.-.>.>.>.>.>.>.-.-.-.-.>.>.>.>.>.>.>.,.,.0.0.>.>.>.>.>.>.>.>.>.>.-.-.-.-.-.-.-.-.-.-.-.-.-.=.@.@.@.@.@.@.@.@.@.+.+.+.+.+.+.+.+.[ [ [ +.[ [ [ [ +.+.+.+.+.@.@.=.-.-.-.q.q.q.q.w.w.w.w.w.w.i.i.i.i.i.i.s.s.s.s.s.s.c.c.c.c.c.c.c.c.c.c.c.c.c.c.v.v.v.v.m.m.m.m.A.L.P.I.T.T.I.P.L.P.P.I.S.D.D.W.W.I.I.P.-.y.j . | >X~.} F N v Z c c N * k 1XpX#XI.E.I.E.I.I.T.T.T.I.I.I.I.I.I.I.I.I.I.I.P.I.I.I.I.I.I.I.P.P.P.P.I.P.P.P.I.I.I.I.I.I.I.I.P.P.P.A.A.A.A.A.P.P.P.P.A.A.A.A.v.V.V.V.A.v.c.m.P.e.0.x O >XY...o.o.} 2.7.2.4.e.e.q.O.Z w 7 A w.;.;.@.@.@.+.[ [ +.[ ] ] ` ` ] ] ` ` ` ` ` ` ` ` ` ` ` ` ` ` ` ` ~ ~ ( ` ` ` ( ( ~ ~ ~ ! ! ! ! Q I I I I Q K m l 7 - j y.#X2X0XpXpXpX6X~.H.H.F.z.H.U.H.n.n.n.n.b.b.b.b.b.b.b.n.n.r.$...) z , * 7 M._.2X<XV.! Z S k K m K ! I ~ K b K n L L S l U S S S S S S S S A A A A A A A A Z Z S S w > > M.).).'.'./.~.Y.Y.'.'.'././.~.Y.Y.Y.T.~././.~.Y.Y.H.H.U.U.U.U.U.U.U.U.H.H.H.G.G.G.H.H.H.H.H.H.U.U.~.~.Y.H.G.H.H.U.Y.~.Y.H.G.H.U.H.U.G.m.U.U.G.n.H.F.l.k.l.F.F.n.k.k.h.+X&X].r.5 X S ] >.@.+.@.=.+.+.[ ] ] [ +.[ ] ",
"@.@.@.>.-.+.=.w.,.,.>.>.-.-.-.-.-.-.-.-.-.>.>.>.>.>.>.>.>.>.>.>.>.-.-.-.-.-.-.-.@.@.@.@.@.@.@.@.=.@.@.@.@.@.+.+.@.@.+.+.+.+.[ [ [ [ +.+.+.+.+.+.] ] +.+.+.+.+.+.] +.+.@.@.-.-.>.>.q.q.q.q.w.w.w.w.w.w.w.w.w.i.i.i.i.i.i.i.s.s.s.s.s.s.c.c.c.c.c.c.c.c.c.c.v.v.v.v.v.v.m.P.P.P.P.L.I.L.L.T.T.L.V.S.D.W.S.S.I.I.P.y.G X D ,XJ.Y N F V F H v c e X Q 0XpXXXT.).I.I.I.I.I.I.I.T.T.T.I.I.I.I.I.I.I.I.T.I.I.P.P.P.I.I.I.I.I.I.P.P.P.P.P.I.I.I.I.P.I.P.P.A.A.A.A.P.P.P.A.A.A.A.A.V.V.V.V.V.V.V.v.v.v.M.m.x.#.z 4 @XF.W $.o.$.6.7.7.8.e.e.y.y.( b l ` E.q.[ [ =.@.[ [ [ ] ] ] ` ` ` ` ` ` ` ` ` ` ` ` _ ` ` ~ ( ( ~ ~ ~ ` ` ` ` ` ` ( ~ ~ ~ ~ ! ! I I I I ! ! S ! Z Z 8 . x.uXuXpXpXuXpX8X*XU.G.G.n.n.m.n.n.n.n.n.n.n.n.b.n.b.k.b.n.b.r.#.O.Z 7 . v.2X3X<XP.@.! S m b b m m M A A A A M A A Z Z Z Z A A A A S S K K S S A A A A A A A A S A A K m 1 1 Z %.m.T.T.Y.L.U.~.'.~.~./.~.Y.Y./.T.T.Y.Y.Y.U.U.U.Y.Y.U.U.U.U.U.U.H.H.H.H.H.H.H.H.H.H.H.H.H.Y.T.~./.Y.U.H.H.H.H.H.H.H.H.H.H.H.H.H.H.H.H.G.G.m.n.n.F.F.F.F.F.n.l.z.k.r.k.n.h.6.^ 7 I d.>.+.,.+.U ] ] ] ] ] ] ] [ [ ",
"@.@.@.-.-.@.-.w.,.>.>.-.-.-.-.-.-.-.-.-.-.-.>.>.>.>.>.>.>.>.>.>.>.-.-.-.@.@.@.@.@.@.@.@.@.@.@.@.@.@.@.@.@.@.+.+.@.@.+.+.+.+.[ [ ] ] [ [ [ [ [ ] ] [ +.[ ] ] ] +.+.+.+.@.@.-.-.-.>.>.q.q.q.q.w.w.q.w.w.w.w.w.w.i.i.i.i.i.i.i.i.i.i.s.s.s.c.c.c.c.c.c.c.c.v.v.v.v.c.c.v.v.m.V.L.L.A.T.T.L.M.V.T.E.A.S.S.S.I.P.v.y.y.k X b.'.^ x T Y D Z Z v > e | 1XpXpX{.V.P.A.I.I.I.I.I.I.I.T.T.I.I.I.I.I.I.I.I.I.I.P.P.P.P.P.I.P.P.P.P.P.P.P.P.P.P.P.P.P.P.P.P.P.P.A.A.A.A.P.P.A.A.A.A.V.V.V.V.V.V.V.V.v.v.v.v.c.x.$.s & >XJ.X.7.2.o.#.$.2.6.e.0.a.y.O.A < ` 5Xp.;.[ ;.[ [ [ [ ] ] ] ] ` ` ` ` ` ` ` ` ` ` _ _ ` ` ` ` ( ( ~ ~ ` ` ` ` ` ( ~ ~ ~ ~ ! ! ! I I I I Q I A ! S 9 = P.tXpX0X8X%X`.'.~.H.n.H.U.G.m.H.n.n.n.n.n.n.n.b.b.n.n.b.n.m.k.0.Q * ; Z }.9XR.@._ S n n b b b S m m m m A A A m A A A A A A A A A A S S K K S S S S A A A A S S K S Z Z Z j - - G Q %.m.'.T.L.)./.~.~././.~.Y.Y.Y.Y.Y.Y.Y.Y.Y.Y.U.U.U.U.U.U.U.U.H.H.H.H.H.H.H.H.U.H.H.H.U.Y.T.~.T.U.H.G.G.H.G.G.G.H.H.H.H.H.H.H.H.H.G.G.G.m.n.n.F.F.F.F.F.l.l.z.n.r.r.k.r.e.| v m @.i.+.+.] ] [ ] ] ] ] ] [ [ +.",
"@.+.@.-.=.@.-.w.>.>.-.-.-.-.-.-.-.-.-.-.-.-.-.-.>.>.>.>.>.>.>.>.>.-.-.@.@.@.@.@.+.+.+.+.@.@.@.@.@.@.@.@.@.@.+.+.+.+.+.+.+.[ ] ] ] ] ] ] ] ] ] ] +.+.+.] ` ` ] ] +.+.@.@.@.-.-.-.>.>.>.>.q.q.q.q.q.q.q.w.w.w.w.w.i.i.i.i.i.i.i.i.i.i.s.s.s.c.c.c.c.c.c.c.c.c.c.c.c.M.M.M.m.m.m.H.M.M.m.L.L.T.P.c.B.A.S.A.V.V.c.s.( 7 o *Xk.h W D Y E F V j * G <XpXpX<XT.P.T.T.).I.I.I.I.I.I.I.I.I.I.I.I.I.I.I.I.I.P.P.P.P.P.P.P.A.A.A.A.P.P.P.P.P.P.P.P.P.P.P.P.P.P.P.A.A.A.A.A.A.A.V.V.V.V.V.V.V.V.v.v.v.v.v.v.c.c.%.j & &Xn.E X...X.2.7.r.h.k.e.x.%.( I = =.uXd.;.+.@.[ [ +.[ ] ] ] ] ` ` ` ` ` ` ` ` ` ` _ _ ` ` ` ` ` ~ ~ ( ( ( ( ( ~ ~ ~ ~ ~ ~ ! ! ! I I I K I I S K A = w 0XiX9XT.Y.H.n.k.n.n.G.U.U.m.n.G.n.n.n.n.n.b.b.b.b.n.n.n.G.G.t.#.Q % P.0X8Xv.Q ! S J m A A b n M b b m m m m A A A A Z Z Z Z Z A A A S S K K S S S S S S S S S S S K S b S S y - o j Q O.t.T.T.R.~.~.~.~./.'./.T.Y.Y.Y.Y.Y.Y.Y.Y.U.U.U.U.U.U.U.U.U.H.H.H.H.H.H.U.U.U.H.H.H.U.U.Y.U.H.H.G.G.G.G.m.G.G.G.H.H.H.H.H.G.G.G.G.m.n.n.n.F.F.F.n.l.l.l.k.k.r.t.k.r.0...Z 8 ~ _.,._ ` @.` ` ] ] ] [ +.+.+.",
"@.+.+.@.@.@.>.w.-.-.-.-.-.-.-.-.-.-.-.-.-.-.-.-.-.-.-.-.-.-.-.-.-.-.@.@.@.+.+.+.+.+.+.+.+.@.@.@.@.@.@.@.@.+.+.+.+.+.+.+.[ ] ] ] ] ] ] ] ] ] ] ] +.+.[ ] ` ` ] +.@.@.@.@.@.@.=.=.-.-.-.>.>.q.q.q.q.q.q.q.q.w.w.w.w.w.w.w.w.i.i.i.i.i.i.i.s.s.s.c.s.c.c.c.c.c.c.c.c.c.M.M.m.m.M.x.t.%.0.0.&.&.3.>.>.>.-.-.-.%.O.( j . m.6Xz V Y V Y / ) c q q L.pXpX2X).I.I.I.P.V.P.I.I.I.I.I.I.I.I.I.I.I.I.I.P.P.P.P.P.P.P.P.P.P.A.A.A.A.A.P.P.P.P.P.P.P.P.P.P.P.P.P.P.A.A.A.A.A.V.V.V.V.V.V.v.v.v.v.v.v.v.v.v.c.V.N.&.k , OXt.E X.X.X.3.6.3.3.3.:.t.&.I S w W.uXs.;.[ @.[ [ +.] ] [ ] ] ` ` ` ` ` ` ` ` ` ` _ _ ` ` ` ` ` ` ~ ~ ~ ~ ~ ~ ~ ~ ~ ~ ~ ! ! ! ! I I I K K ! Q A l - %.pXiX[.k.H.n.b.n.H.H.H.H.G.b.n.G.m.n.n.n.b.b.b.b.b.b.n.m.H.G.6.Q o Q yX[.( l Z k J b b M M b M S M M M M M A A A A A Z Z m m Z Z S S S K K K K S S S S S S S S S m Q K b Z S Z c v - * c &.y.x.T.Y.~./.Y.Y.~./.~.~.Y.Y.Y.Y.Y.Y.Y.U.U.U.U.U.U.U.U.U.U.H.H.H.H.U.U.U.H.H.G.G.G.H.H.H.H.G.G.G.G.G.m.G.G.G.G.G.G.G.G.G.G.m.n.n.n.n.n.n.F.n.n.l.l.k.h.e.h.k.r.e.0.#.Q o @.0Xi.` ] [ _ ` ` ] ] [ +.+.+.",
"@.+.+.@.@.=.>.q.-.-.=.=.@.@.=.=.-.-.-.-.-.-.-.-.-.-.-.-.-.-.-.-.-.@.@.@.+.+.O.O.+.+.+.+.+.@.@.@.@.@.@.@.@.+.+.+.+.+.+.[ ] ] ] ] [ ] ] ] ] [ +.+.+.+.[ ] ] ] +.@.@.@.@.@.@.@.@.@.-.-.-.-.>.>.>.>.0.0.q.q.q.q.q.q.w.w.w.w.w.w.w.w.w.i.i.i.i.s.s.s.i.s.s.c.c.c.c.c.v.M.M.M.m.M.y.%.( c j c Z Z c k m l v l S Z j > o ( G w w 7 v ..^ E / N 7 c &XpX0X[.L.A.V.L.P.V.P.P.P.P.I.I.I.I.I.I.I.I.I.P.P.P.P.P.P.P.P.P.A.A.A.A.A.A.A.P.P.P.P.P.P.P.P.P.P.P.P.P.A.A.V.V.V.V.V.V.V.V.V.v.v.v.v.v.v.v.v.c.c.c.P.i.@.c X 0.O./ ^ ^ / #.3.e.r.k.&.%.Q c y O.wXyXq.@.[ @.[ @.+.] ] ] ] ] ] ` ` ` ` ` ` ` ` _ _ _ ` ` ` ` ` _ ( ( ~ ~ ! ! ! ! ! ! ! ! ! ! Q I I I I S Q ! A p < c.iX0XH.n.^.H.n.G.H.n.b.b.n.n.G.H.n.n.n.n.b.b.b.b.n.n.G.H.H.n.#.Z . Q.%X( A K L S M n n n m m M A A A A A A A S S H A A Z Z A A A S S K K I I K K S S S S S S S S A I L m b b b A m G k * > Z &.e.n.U.~.T.Y.U.Y.Y.~.~.~.T.Y.Y.Y.Y.Y.Y.Y.Y.U.U.U.U.U.H.H.H.H.H.H.U.H.H.H.G.G.G.G.G.G.H.H.H.H.G.G.G.G.G.G.G.G.G.G.G.n.n.n.n.n.n.n.b.n.n.n.b.z.k.h.h.t.x.y.$.%.%.( Z - P.uXw.+.] ~ ] ` ` ] ] +.+.+.+.",
"+.+.+.+.@.=.-.>.=.@.@.@.@.@.@.@.@.@.@.-.-.-.-.-.-.-.-.-.-.-.-.-.@.@.@.+.O.O.] ] +.+.+.+.+.+.+.+.@.@.@.+.+.+.+.+.+.+.[ ] ] ] ] ] ] ] ] ] ] +.+.@.] [ +.[ ] [ +.@.+.+.+.+.+.+.+.@.@.@.=.-.-.-.>.>.>.>.>.0.q.q.q.q.q.q.q.q.q.w.w.w.w.w.w.i.i.i.i.s.s.s.c.c.c.c.c.c.M.M.x.x.x.y.O.Q w 7 o . X o o X o X % o o o , : y.G 7   * X 7 z ..D G Z w v 2XpX`.L.M.A.L.I.E.I.P.P.P.P.P.P.I.I.I.I.I.I.I.P.P.P.A.P.P.P.P.P.A.A.A.A.A.A.P.P.P.P.P.P.P.P.P.P.P.P.A.A.A.V.V.V.V.V.V.V.V.V.V.V.v.v.v.v.v.v.c.c.c.c.v.i.w.Q X 1 e q c c D ^ ( | | ( ..Z w k S #XuX-X=.[ @.@.[ +.+.` [ ] ] ] ] ` ` ` ` ` ` ` _ _ _ ~ ` ` ( ( ( ~ ~ ~ ~ ! ! ! ! ! ! ! ! ! ! ! Q I I I ~ S S Q K k < ( >X>Xh.b.Y.F.b.G.n.b.b.b.n.G.G.m.n.n.n.n.b.b.b.b.G.H.H.H.H.b.#.Z * &.) Q G l l S K L L L L L A b A A A A A S S L S S H H H H S S K K K I I I K S S S A A A A S A S A m M S Z l m Z Z Z c e * 7 G | %.k.H.Y.Y.T./.~.~.~.T.~.T.Y.Y.~.~.T.Y.Y.U.U.U.H.H.H.H.H.H.H.H.U.H.H.H.H.G.H.H.G.H.H.H.G.G.G.G.G.G.G.m.m.m.m.n.n.n.n.n.b.b.b.b.b.b.b.z.l.k.h.t.h.x.e.&.&.Q j < q.5XuXq.+.] ! +.` ` ] [ +.+.+.[ ",
"] [ +.+.@.=.=.@.@.@.@.@.@.@.@.@.@.@.@.@.@.-.-.-.%.@.@.@.@.@.@.@.@.+.+.O.] ] ] ] O.O.O.O.+.+.+.+.+.+.+.+.+.+.+.+.[ [ ] ] ] ] ` ` ` ` ` ` ] [ @.@.] [ +.+.] ] [ +.+.+.+.+.+.+.+.+.@.@.@.=.-.-.-.-.>.>.>.>.0.q.q.q.q.q.q.q.q.q.q.q.w.w.w.w.i.i.i.i.s.s.s.c.c.s.s.s.t.t.y.%.( G c w o %.).).).T.P.`.T.].[.~.P.T.[.%Xk e Z P.I.< Z %.| Y G c j j &XpX).P.m.P.T.A.v.V.P.P.P.P.P.P.P.P.I.I.I.I.P.P.P.P.P.P.P.P.P.P.A.A.P.A.A.A.A.A.A.A.A.A.A.A.A.A.A.A.A.A.V.V.V.V.V.A.A.V.V.V.V.V.V.V.v.v.v.v.c.c.c.c.s.c.v.>.v > c w # * : w c H Y Q G 9 p t.Q.uX0Xs.@.[ @.=.] [ +.] [ [ ] ] ] ] ` ` ` ` ` _ _ _ ~ ~ ( ( ~ ~ ~ ~ ~ ~ ~ ! ! Q I Q ! ! ! ! ! ! Q I I I ! K K S ! b 9 9 *X7X^.J.H.n.b.l.m.m.n.n.n.n.n.b.n.n.n.b.b.b.b.b.H.H.G.G.H.G.r.O.e 8 y G Z ! _ k n n m A L K L L A A A A A S L K S S H H H S S S K K K K K K S S S S A A A A S S M A m M K S m A c Z c v G G w @ c v D ..e.h.m.T.Y.Y.Y.T.~.~.~.~././.~.T.Y.Y.U.U.H.H.H.H.H.H.H.H.H.H.H.H.H.H.H.H.H.H.H.H.G.n.m.G.G.m.m.m.n.n.n.n.b.b.b.b.b.b.b.b.b.b.b.k.k.k.h.t.t.y.0.&.Q p j ` 0XqX$X-.[ ` _ ] ` ] ] +.+.+.] ] ",
"] [ +.+.@.@.@.+.@.@.@.@.@.@.@.@.@.@.@.@.@.@.-.-.@.@.@.@.@.@.@.@.+.+.+.] ] ] ] ] ] ] ] ] ] ] O.O.+.+.+.+.+.+.+.+.[ [ ] ] ] ] ` ] ` ~ ( ` ` [ +.@.] [ +.+.] ] ] ] ] ] ] ] +.+.+.+.@.@.@.@.=.-.-.-.>.>.>.>.>.0.q.q.q.q.q.q.q.q.q.q.w.w.w.w.w.i.i.i.i.i.s.s.i.w.w.q.&.&.O.Q c 7 * X [.eX*X%.3.a.y.e.t.e.3.e.h.r.| Z c o L.pX9Xc X q.Q O./ j k k <XpX`.P.c.V.T.A.V.).P.P.P.P.P.P.P.P.I.I.I.I.P.P.P.P.P.P.P.P.P.P.P.A.A.A.A.A.A.A.A.V.V.V.V.A.A.A.A.V.V.V.V.V.V.V.A.A.A.A.V.V.V.V.V.V.v.v.v.c.c.c.c.c.v.c.s.q.-.( Q.x.P.y.Q p > - > 7 7 w %.uXpXuXI.=.@.@.=.=.] ] +.] [ [ ] ] ] ] ` ` ` ` ` _ _ ~ ~ ~ ~ ~ ~ ~ ~ ~ ~ ~ ! ! Q I I I ! ! ! ! ! ! Q I I I S ! ! A I m b = +XiX+XU.b.F.G.b.n.n.n.b.b.b.b.n.b.b.b.b.b.b.b.b.m.m.n.n.H.Y.H.h.Q 8 j R K b l K S L L L L L L A A A M M A A S K S A A Z Z A A A K K K K K S A A S S S A A S S S m K K m b m m A m Z S H G Z G ( w ; * w Z E #.r.R.R.T.T.~././.'.'././.~.Y.Y.U.U.H.H.G.G.G.G.H.H.G.G.G.G.G.H.H.H.H.H.H.G.n.n.n.G.m.m.m.n.n.n.n.n.b.b.b.b.b.b.b.b.k.k.k.k.k.k.h.t.x.y.&.Q j - &.uXuX-Xq.[ ` ] @.` ` ] [ +.+.[ ] ] ",
"` ` ] ] +.+.@.@.+.+.@.@.@.&.&.&.@.@.@.@.@.@.@.@.@.@.@.@.@.@.@.@.O.O.O.O.O.O.] ] ] ] ] ] ] O.O.O.+.[ [ @.+.+.] ] ` >.K &.-.( Q Z Z m Z G I I ( @.( ` @.@._ ` @.+.` ] [ [ ` ` [ [ =.@.=.=.=.[ @.-.-.%.-.>.>.-.0.y.t.y.-.&.@.@.>.0.%.-.>.0.q.q.q.q.y.y.q.-.O.` ] O.) F q , o q T.0X8X~.#.F Y ^ ) Q ( Q Q Q Q G c k - ] uXpX#XK 8 k M.( Q w , Z pXuXT.L.v.M.L.I.P.P.I.P.P.P.P.P.P.I.I.I.I.P.P.P.P.P.E.E.I.P.P.P.A.A.A.A.A.V.V.V.V.V.V.V.V.V.V.V.V.V.V.V.V.V.A.A.A.A.V.V.V.V.V.V.V.V.A.v.c.c.c.s.i.s.c.v.v.s.w._.tXuXuX5XP.y.c.-.Q ( `  XuXuXXXs.=.+.+.+.+.+.[ ] ] ] ] ] ] ] ] ` ` ` ` ` ` ( _ ~ ~ ~ ~ ~ ~ ~ ~ ! ! ! ! Q I I I I I I I I I I I I K K K I L ~ K M b o ].aX+XG.b.n.n.b.n.n.n.n.n.n.n.n.b.b.b.k.b.b.n.m.H.H.H.H.H.H.H.H.$.G o Q R S L A S S L S S S A A m m m m A A A A m A A A A Z S S S S S S S S S S S S S S S S S S K S S A A A m m b b b b b m m m O.&.` v X o e G &.N.L.L.P.T.T.T.).T.T.Y.U.T.T.L.H.H.H.H.G.F.G.H.H.H.H.H.H.G.G.G.G.G.G.G.G.G.G.G.G.G.G.m.n.n.n.n.n.b.b.b.k.k.k.k.k.k.k.k.k.h.h.h.k.h.( Q * y.yXuX Xc.+.( ] ] ` ] ] ] ] ] ] ] ] ] ",
"` ` ] ] O.+.+.@.+.+.+.+.@.@.&.&.@.@.@.@.@.@.@.@.@.@.@.@.@.@.@.+.+.O.O.O.O.] ] ] ] ] ] ] ] ] O.[ +.[ [ [ +.+.] ] ` ~ &.%.K I Q S k 7 X o 1 m Q ) @.O.O.@.+.@.] Q ] [ +.[ [ [ @.@.-.=.@.@.@.@.=.-.-.%.%.%.0.y.0.&.) ( &.O.( Q Q Q Q ! ) ) ) ) ) ) ( ( ) Q G b p 7 & X % E '.8X9X].#.^ D F ^ / ^ E E G Y Q Q G k 7 Z #XpXuXv.@.9 - ).%.9 v , Q.pXpXI.L.M.M.A.P.P.L.I.I.P.P.P.I.I.T.P.I.T.E.E.I.P.P.E.E.I.P.P.P.A.A.A.A.A.V.V.V.V.V.V.V.V.V.V.V.V.V.V.V.V.V.A.A.A.A.V.V.V.V.V.V.V.V.V.v.v.v.v.c.w.>.-.I i.V.i.P.P.c.q.c.V.`.4X2XXX%XuXuXqX.Xi.+.] ` +.+.+.[ ] ] ] ] ] ] ] ] ] ` ` ` ` ` ` ( _ ~ ~ ~ ~ ~ ~ ~ ! ! ! ! Q Q I I I I I I I I I I I I I K ! _ K S b M M + [.iX+Xb.k.n.b.n.n.n.n.n.n.n.n.b.n.b.b.k.b.b.n.m.H.H.U.U.Y.Y.Y.Y.h.^ 7 Q y.( b S S S S S S S Z Z Z Z m m m m A A m Z A A A A S S S S S S S S S S S S S S S S S S K S S A A A m b b b b b b b b b S A S ( @.` j X y Z @.i.c.i.v.).m.L.T.T.L.G.U.U.U.H.H.G.G.G.G.H.H.H.H.H.H.G.G.G.G.G.G.G.m.m.m.n.G.G.m.n.n.n.n.n.n.b.b.b.k.k.k.k.k.k.k.k.k.h.h.h.e.8.Q Z k 8XyXP.q.O.~ ` +.O.] O.] ] ] ] ] ] ] ] ",
"` ` ` ] ] +.+.+.+.+.+.+.+.+.@.@.@.@.@.@.@.@.@.@.@.@.@.@.@.+.+.+.] O.O.] ] ] ] ] ] ] ] ] ] ] ] ] +.[ [ [ +.[ [ [ -.! >.( K Q w # 7 ( b.&.i * 7 k Z S Q ( ( O.%.@.` ` ` ` ` ] +.+.-.-.@.+.@.@.-.@.&.%.0.&.&.&.O.Q &.( Q c w 7 7 7 7 7 7 7 7 7 7 7 > e j e , X * > ) /.7XrX7X].r.F D D F E ^ ^ ^ ^ E Y Y Q / F w , M.uXpX%Xv.@.m . P.k Z 7 I pX9XtXP.A.m.m.V.P.L.P.I.I.P.P.P.I.I.T.P.I.E.Q.Q.E.I.P.E.E.I.P.P.P.A.A.A.A.V.V.V.V.V.V.V.V.V.V.V.V.V.V.V.V.V.V.A.A.A.A.A.A.A.V.V.V.V.V.v.V.v.v.v.c.@.Q l ~ ] c.c.@.w.w.i.i.-.-.c.V.E.=X5X Xi.] ~ ] @.@.+.+.+.[ ] ] ] ] ] ] ] ] ] ` ` ` ` ` ` ( ( ~ ~ ~ ~ ~ ~ ~ ! ! ! ! I I I I I I I I K K I I I I I I ! K A ! ~ S a o [.pX+Xb.n.G.b.n.n.n.n.n.b.b.b.b.b.b.b.b.n.n.G.H.G.H.U.Y.Y.~.~.~.n...k k T.&.b S S S S S S S A Z A A A m m m m Z m Z A A A A S S S S S S S S A A S A S S K K K K K K S S A A m b m m b b b b b b b Z S S S A Z Z < - - j S ! O.0.x.y.0.x.P.).R.n.U.U.H.G.G.H.H.H.H.H.H.H.H.G.G.m.m.n.n.n.n.n.n.n.m.n.n.n.n.n.n.n.b.b.b.k.k.k.k.k.k.k.k.k.k.h.h.h.r.6.) q Z pX;X` ( ~ ` +.+.] ` ] ` ` ` ` ` ` ` ` ",
"` ` ` ` ] ] O.O.+.+.+.+.+.+.+.+.+.+.+.@.@.@.@.@.@.@.@.@.+.+.+.+.] ] ] ] ] ] ] ] ` ] ] ] ] ] ] ] [ [ [ [ [ [ [ [ +.` ] I ( c 1 ( pXpXiX8X+Xy.N * > 7 Z ( *.( ( Q ( ( ( ~ ` ` O.O.~ O.-.-.@.+.` Q G G G F G ^ ) ) N w > * > g Z G Z Z Z Z N c c c Z w 7 k %.{.2X0XiXaX+Xe.#.| E D / / / / ^ E ^ / ( ) Q ^ ) Y j , $XpX0XA.V.@.K + y < w G 2XsXpX).m.m.m.m.m.A.L.P.P.P.P.P.P.P.I.I.P.I.E.Q.Q.Q.E.I.E.T.I.P.P.P.A.A.A.V.V.V.V.V.V.V.v.v.v.v.v.v.v.v.v.V.V.V.V.A.A.A.A.A.A.A.V.V.V.V.v.V.V.c.c.i.] m - Z ;X2Xs.w.w.s.>.w.y.q.q.@.` @.q.+.` ] @.+.+.+.+.[ [ ] ] ] ] ] ] ] ] ] ] ` ` ` ` ` ` ( _ ~ ~ ~ ~ ~ ~ ! ! ! ! ! I I I K K K K I K K K I I I I I I I ! ~ K b y < {.iX].b.G.H.b.n.n.n.b.b.b.b.b.b.k.b.b.n.G.H.H.H.n.G.H.U.Y.T.~.Y.h.$.w > `.&.L L S S S S S S A A S A A M m m m m m A A A S S S S A A A A A A A A A S S S K I I I K K S S A A m b m m m b b b l l n n l v k v b S S Q Z - O X y S J Z G Q &.0.M.~.U.U.H.G.G.H.H.G.H.H.H.H.G.G.m.m.n.n.n.n.n.n.n.n.n.n.n.n.n.n.b.b.b.b.b.k.k.k.k.k.k.k.k.k.k.h.h.h.h.#.Q , ( tXV.+.O.] ] O.] ~ ~ ` ` ` ` ` ` ` ` ` ",
"( ` ` ` ` ] ] ] ] ] O.O.+.+.+.+.+.+.+.+.+.+.+.+.@.@.+.+.+.O.] ] ] ] ] ] ] ] ] ] ` ` ` ` ] ] ] ] [ [ [ ] [ [ [ [ ` O.! H w - ( aXpX6X].U.H.n.F.U.F 0 : e N F Y Z Z Z Z Z Z Z Z Z ) ( *.Q F H G Q F g 3 5 7 4 ; , X w O.T.2XeXrX9XtXeXrXeXeX0X0X8X9X1X2X0XiXeX*XG.e.e...Y ^ ^ Y ^ G E / / / / / ^ | / ^ ^ / Y j ; L.1XQ.L.s.t.Q k 7 G G #XpXuX8Xx.c.v.m.m.m.m.A.L.P.P.P.P.P.P.P.P.P.P.I.T.E.E.E.E.I.I.I.P.P.P.A.A.V.V.V.V.v.v.v.v.v.v.v.v.v.v.v.v.v.V.V.V.V.V.V.V.A.A.A.V.V.V.V.V.v.V.v.c.c.s.@.S b 2XuX0XQ.-.w.0.w.q.>.-.-.@.-.q.+.[ +.-.=.` _ ] [ ] ] ] ] ] ] ] ] ] ] ] ] ` ` ` ` ` ( ~ ~ ~ ~ ~ ~ ! ! ! ! ! ! ! I I I K K K K I K K K I I I I I ! ! K m S A 8 o >XiX/.k.n.n.k.n.n.b.b.b.b.b.b.n.b.n.G.H.H.H.G.m.n.G.H.H.U.Y.Y.U.6...: Z 2X( Q S S S S S A A A A S S A A m m m m Z A S S S S S S A A A A A A A A S S S K K I I Q K K S S S A m m m m m b b b l l l l l Z Z m v y b K ` @.@.! y o + o   o j G &.m.L.U.H.G.G.H.H.G.G.G.G.G.G.G.n.n.n.n.n.n.n.n.n.n.n.n.n.n.b.b.b.b.b.b.k.k.k.k.k.k.k.k.k.h.h.h.h.h.r./ F X M.5X>.+.` ~ ! ~ ( ` ` ] ` ` ` ` ` ` ` ` ",
"~ ( ( ` ` ` ` ` ] ] ] ] ] ] O.O.O.O.O.O.+.+.+.+.+.+.+.O.] ] ] ] ] ] ] ] ] ` ` ` ` ` ` ` ` ` ] ] [ [ [ ] ] [ [ +.+.@.Q j X y.sXpX6X~.7.2.6.7.n./.>Xh.D q 3 ; > : ; , ; , ; , * X 7 j Y ( Q c w 5 & 0 D ..#...$.e.].2XiXiXrX,X(.U.Y.Y.Y.U.H.G.F.n.b.n.G.n.h.8.3.$.#.^ ^ E | | Y ^ E ^ / / / / / ^ ^ ^ / ( | Q z , c y.x.c.c.c.y.@.L. XtXpXtX0Xc.m.c.c.M.v.m.m.V.A.A.A.P.P.P.P.P.I.P.P.P.P.I.I.T.E.I.I.I.P.P.P.A.A.V.V.V.v.v.v.v.v.v.v.v.v.v.v.v.v.v.v.V.V.V.V.V.V.V.V.V.V.V.V.V.V.v.V.v.c.c.c.w.@.8XyXuX X@.s.s.-.-.-.>.>.>.-.+.` +.` ` ] +.] ] +.] ] ] ] ] ] ] ] ] ] ] ] ] ` ` ` ` ` ( ~ ( ~ ~ ~ ! ! ! ! ! ! Q Q I I I I I I I I I I I I I I I I ! A m l p 1 7 I iXpX/.b.b.b.b.n.b.b.b.b.b.n.n.n.G.G.H.H.H.G.n.b.n.H.U.H.H.Y.U.m.%.G X M.8XQ S S S S A A A A A A S S A A Z m Z Z A S S S S S S S A A A A A A S S K K K K K I I I K K S S S A A m Z m m m b b b b b Z S b p y l S v b K ! I S ( q.%.t.0.Q w * w %.m.L.U.G.G.H.H.m.G.G.G.G.G.m.n.n.n.n.n.n.n.n.n.n.b.b.b.b.b.b.b.b.b.b.k.k.k.k.k.k.k.k.k.h.k.h.h.h.r.$.Q @ %.T.+.( ( ~ ! ~ ` ] ] ` ( ( ( ( ( _ ( ~ ",
"~ ~ ~ ( ` ` ` ` ] ] ] ] ] ] ] ] ] ] ] ] O.O.O.+.+.O.O.] ] ] ] ` ] ] ] ` ` ` ` ` ` ` ` ` ` ` ` ] [ [ ] ] ] ] [ +.+.` I w > 8XpX<Xr.7.r.g.9.2.7.z.h.$.3.k.k.e.r.g.k.k.x.k.x.t.e.6.c 5 % o % > N | '.7XiXiXrXeXaXiXiXiX6X/.h.2.7.g.r.r.e.7.6.2.2.$.#...} ..$.$.../ ..^ #.| Y E E ..$.$.#.( / / / ^ E / | ....| H w > 0 ( O.m.s.m.M.%XyXuXyX=Xi.c.c.c.c.c.v.v.V.V.V.V.A.A.P.P.P.P.P.P.P.P.P.P.P.I.I.I.I.I.P.P.P.A.A.V.V.V.v.v.v.v.v.V.V.V.V.V.V.V.V.v.v.V.V.V.V.V.V.V.V.V.V.V.V.V.V.v.v.v.c.c.c.c.c.:XyX$Xv.c.i.i.-.q.-.-.-.@.@.@.+.>.@.+.+.@.@.[ ` ] ] ] ] ] ] ] ] ] ] ] ] ] ` ` ` ` ` ` ~ ( ~ ~ ~ ! ! ! ! ! Q I I Q Q I I I I I I I Q Q Q Q I I I G Z Z e - w y.pXpXaXU.G.b.b.n.n.b.b.b.b.b.n.G.G.H.H.G.G.n.n.b.b.n.H.U.H.H.U.H.n.3.c o `.).Q b S S S A A A A A H S S A A A A A A S S K K S S A A A A A A S S S S K K K K K K K K K S S S S S A Z Z Z m m m b b b S b l l b b l v K l y p l b S ~ @.&.Q G H e > c x.H.R.H.m.G.H.G.G.G.G.G.G.n.n.n.n.n.n.n.b.b.b.b.b.b.b.b.b.b.b.b.b.k.k.k.k.k.k.k.k.k.k.h.k.h.h.h.h.h.O.i e O.q.` ` ` ` ` ` ` ` _ ~ ~ ~ ~ ~ ~ ~ ~ ",
"~ ~ ~ ( ( ` ` ` ] ] ] ] ] ] ] ] ] ] ] ] ] ] O.O.O.O.] ] ] ] ` ` ] ] ` ` ` ` ` ` ` ` ` ` ` ` ` ] [ ] ] ] ] ] [ +.@.! G y . q.( %.r.r.7.8.8.8.6.6.e.#.h.*XeXaXiXpXpXiXpXiXpXiXrX9X*XH.e.e.F.'.7XiXiXiX6XJ.n.^./.G.J.l.7.2.3.7.7.8.g.g.r.7.8.4.2.2...#.2.2.o.X.X.2.$.Y ../ E ..^ E / ..$.#.....| / / ......#.$.( H j * e &.y.c.0.m.c.V.I.c.i.c.s.c.c.c.c.v.v.V.v.v.v.V.V.A.A.A.A.A.P.P.P.P.P.P.P.P.P.I.I.P.P.P.A.A.V.V.V.V.v.v.v.v.V.V.V.V.V.V.V.V.v.v.V.V.V.V.V.V.V.V.V.V.V.v.v.v.V.v.v.v.c.s.c.V.A.v.c.w.w.w.q.i.q.>.>.-.+.@.@.O.[ +.[ ] ] +.] ` ] ] ] ] ] ] ] ] ] ] ] ] ] ` ` ` ` ` ` ~ ( ~ ~ ~ ! ! ! ! Q Q I I ! Q I I I I I I ! ! ! ! ! Q I I Z l 7 - >.9XpXpXaX2Xk.n.b.k.n.k.b.b.b.b.n.n.G.H.G.G.n.b.b.b.n.n.b.G.H.G.G.U.H.b.6.v o T.( Q Z S S S A A A A A H S A A A A A A A S S K K S S A A A A A S S S S S I I K K K K K S S S S S S S A A Z Z m m m m m b Z Z Z b b l l l y b Z l k v l v v v p Z ! v , 7 t.G.Y.L.m.G.H.G.G.G.G.G.m.n.n.n.b.b.b.b.b.b.b.b.b.b.b.b.b.b.b.b.k.k.k.k.k.k.k.k.k.k.k.h.k.h.h.h.k.r.O.( * ( A.O.( ` ` ~ ! ~ ` ` ~ ~ ~ ~ ~ ~ ~ ~ ",
"~ ~ ~ ~ ~ ~ ( ( ! ~ ` ` ( ~ ~ ( ` ` ` ] ] ] ] ] O.] ] ] ] ` ` ` ` ` ` ` ` ` ( ~ ` ` ` ` ` ` ] ] ` ` ` ` ` ] [ [ ] +.` p > 7 9 / 6.9.9.8.7.8.9.8.8.3.7.l.G.Y.(.OX]./.~.~.~.Y.U.Y.b.+X9XiXiXiXaX6XF.k.8.o.2.4.8.7.8.8.6.8.8.7.7.7.g.g.9.7.7.8.8.8.4.4.2.2.o.o.......( / / / / ( ..| | | / / ( | | ..X.#.$.#...( / Z Z > : Q y.y.c.w.s.i.w.s.d.i.s.c.c.c.c.c.c.c.c.v.V.V.V.V.V.A.P.P.P.P.P.P.P.P.P.P.P.P.P.P.A.A.A.V.V.V.v.v.v.v.v.V.V.V.V.V.V.V.V.V.V.V.V.V.V.V.V.v.v.v.v.v.V.V.V.V.V.v.c.c.c.c.c.c.c.s.i.w.w.q.q.>.>.-.@.@.+.+.+.] ] ] ] ] ] ] ] ] ] ] ] ] [ [ [ O.] ] ] ` ` ` ` ` ` ( ~ ~ ! ! ! Q Q I I I Q ! ! I I I I I I I I ! ~ ~ U I Q Q Q c 7 X {.pXpXeX1Xm.n.b.b.b.n.n.b.b.b.b.b.n.n.G.G.n.n.n.n.M.n.n.n.b.b.b.n.n.n.n.m.6.D o &.( S S L S S A A A S S S S S A A m m A A K K S S A A m m Z A A S S K K K K K K S S S S S S S S S S S S S Z Z m m m m b b n n n b l l l l l l l l l v v v k l m A S m 9 X %.M.m.{.M.L.T.e.m.m.n.n.n.n.n.n.n.n.n.n.n.n.n.n.b.b.k.k.k.k.k.k.k.k.k.k.k.k.h.k.k.k.k.k.k.k.k.k.n.6.r.( e Q V.q.~ ~ ( ` ` ! ! ( ~ ~ ~ ~ ~ ~ ~ ~ ",
"~ ~ ~ ~ ~ ~ ~ ~ ~ ~ ` ` ( ~ ~ ( ` ` ` ] ] ] ] ] ] ] ] ] ` ` ` ` ` ` ` ` ` ` ( ~ ( ( ` ` ` ` ` ` ` ` ` ` ] ] [ [ ` ] &.I Z k 7 H k.l.9.9.g.7.9.7.e.7.7.g.g.h.l.F.h.g.r.g.g.7.7.7.6.b.J.J.J.J.n.g.8.6.2.4.8.8.8.8.6.4.6.8.7.g.g.g.g.g.g.9.7.7.8.8.4.4.2.2.o.o.......( / | | ( | ..$.#.#...| / / / } | | | | ( / / E H s > e G %.t.i.d.i.q.i.i.u.d.c.c.c.c.c.c.c.c.v.V.V.V.V.V.A.P.A.P.P.P.P.P.P.P.P.P.P.P.A.A.A.A.V.V.V.v.v.v.v.v.V.V.V.V.V.V.V.V.V.V.V.V.V.V.V.V.v.v.v.v.v.v.V.V.V.v.v.c.c.c.c.c.c.s.s.i.w.q.q.q.>.-.-.@.@.+.+.+.] ] ] ] ] ] ] ] ] ] ] ] ] ] ] [ ] ] ] ` ` ` ` ( ( ( ~ ~ ~ ~ ~ ~ ! ! ! I I I Q ! I Q ! ! ~ ~ ~ ~ ! ~ ~ ! Q Q I H Z : 0.iXpX2XT.n.k.k.k.k.k.b.k.k.b.b.b.b.b.n.m.G.n.n.n.n.n.n.b.M.b.b.b.n.n.n.n.m.r.E : ) t.( A b S S A S A S S S S S S A A A A A K K K S S S A A A A S S S K I I K K S S S S S S S S S S S S S S m m m m m m b b b b b n l l l l l l l l l l l l l b A S G S p : 7 x.L.m.x.m.m.G.m.m.n.n.n.n.n.n.b.b.b.b.b.b.b.b.b.b.k.k.k.k.k.k.k.k.k.k.k.h.h.k.k.k.k.k.k.k.k.k.k.e.r.( j 9 -.] ~ ! ! ~ ( ~ ~ ` ~ ~ ~ ~ ~ ~ ~ ~ ",
"~ ~ ~ ! ! ! ! ! ~ ~ ` ` ~ ~ ~ ~ ( ` ` ` ` ` ` ` ] ] ] ` ` ` ` ` ` ` ` ` ( ( ~ ~ ~ ( ` ` ` ` ` ~ ` ' ` ` ] [ +.@.] ` @.&.O.H 9 j J.J.9.g.k.9.7.r.e.7.7.e.r.e.g.g.g.r.r.g.g.g.r.g.e.g.g.7.6.4.2.2.2.2.2.2.6.8.3.2.6.6.8.7.g.g.g.g.g.g.r.e.e.7.7.8.4.2.2.$.X.........| | ........#.#.#.#...............| | | ....#.$.| Q z * 7 Q %.w.i.u.w.i.w.w.c.c.c.c.c.c.c.c.c.v.v.V.V.V.V.A.A.A.A.A.A.P.P.A.A.P.P.P.A.A.A.A.V.V.V.V.v.v.v.v.v.V.V.V.V.V.V.V.V.v.v.v.v.v.v.v.v.v.v.v.v.v.v.v.V.v.v.c.c.c.c.c.c.s.s.i.i.w.q.q.q.-.-.%.@.@.+.+.O.] ] ] ] ] ] ] ] ` ` ] ] ] ] ] ] ] ] ] ` ` ` ` ( ~ ~ ~ ~ ~ ~ ~ ~ ! ! ! Q I I I Q I Q ! ! ~ ~ ( ( ~ ~ ~ ~ ~ ~ I Z c o *XpX8XH.h.e.k.k.b.n.b.b.k.k.k.k.k.k.b.n.m.G.n.n.n.n.n.n.b.b.b.b.n.n.n.n.n.n.b.&.k c ).&.S Z S S S S S K G G S S S A A A S S K K K S S S S A S S S S S K Q ! K K S S S S S S L S S S S S S S Z m Z m m m m b b b b n l l l l l l l b b b b b m Z S K I K c w O ) >.t.m.P.n.m.m.m.n.n.n.n.n.n.b.b.b.b.b.b.b.b.b.b.k.k.k.k.k.k.k.k.k.k.k.k.h.k.k.k.k.k.k.k.k.k.k.k.h.&.G + ] q.` ! Q ! ~ ~ ~ ( ~ ~ ~ ~ ~ ~ ~ ~ ",
"! ! ! ! ! ! ! ! ! ~ ~ ~ ! ! ! ~ ~ ~ ( ` ` ` ` ` ` ` ` ` ` ` ` ` ` ` ( ~ ~ ~ ~ ~ ( ` ` ] ] ` ` ~ ` ' ' ] ] +.@.@.@.] O.@.&.Q j 7 U.@Xz.g.g.r.7.7.7.7.e.g.h.l.b.b.h.g.g.k.k.g.g.g.r.e.r.g.7.8.8.7.8.6.2.2.4.6.7.7.7.7.g.g.g.g.g.r.8.7.7.7.7.7.7.7.4.4.2.$.o.o.o.X.......#.$.#.#.$.#.#.#...........#.o.#.X.#.#.$.%.$.#.&.^ w > c ] w.i.w.i.c.s.i.c.c.c.c.c.c.c.c.c.c.v.V.V.V.V.V.A.A.A.A.A.A.A.A.A.A.A.A.A.V.V.V.V.V.V.V.v.v.v.v.v.v.V.V.V.V.V.V.v.v.v.v.v.v.v.v.v.v.v.v.v.v.v.v.v.v.v.c.c.c.c.c.c.s.i.i.w.w.q.q.0.-.-.@.@.+.+.+.O.] ] ] ] ] ] [ [ ` ` ` ` ` ] ] ] ] ` ` ` ` ` ( ( ~ ~ ! ! ! ! ! ~ ! ! ! ! ! ! ! ! ! ! ! ! ! ! ! ! ` _ ~ ~ ` ` I m w 7 8XiX'.h.b.n.k.b.m.G.n.b.b.b.k.k.k.k.b.n.m.G.n.n.n.n.n.M.b.b.b.b.n.n.n.n.n.n.k.6.Z 7 #X&.K Q L K K K I I I I S S S A A A S S S S S S A A A A S S S S K I I ! K S S S S S S S S S S S S S A A A A m m m m m m b b b n l l l l l b b b Z Z Z Z m A S K I K Z v < : j %.M.m.m.M.m.m.n.n.n.n.n.n.b.b.b.b.b.b.b.b.b.k.k.k.k.k.k.k.k.k.k.k.k.k.k.k.k.k.k.k.k.k.k.k.k.k.h.y.( < ` [.+.( Q ! ! ! ! ! ! ! ! ! ! ! ! ! ",
"! ! ! ! ! ! ! Q ! ! ! ! ! ! ! ~ ~ ~ ( ` ` ` ` ` ` ` ` ` ` ` ` ` ( ~ ~ ~ ~ ~ ~ ~ ` ` ] ] ] ] ` ` ` ' ` ` ] [ +.+.&.+.( ( ] ( m , M.7XY.r.9.g.7.6.e.e.e.r.r.h.h.h.r.e.e.r.g.e.7.6.e.6.6.r.e.3.3.6.6.3.2.3.6.e.h.k.r.r.h.h.k.h.r.e.6.6.7.7.e.e.7.6.6.3.$.$.#.#.#.$.$.#.$.3.3.$.$.$.$.$.#.#...| | / X.X.X.....X.X.#./ | / ( Q w 0 ) d.d.p.u.d.d.d.c.d.d.d.c.c.d.d.c.c.v.V.V.V.V.V.V.V.V.V.V.V.A.A.A.A.A.V.V.V.V.V.V.V.V.V.v.v.v.v.v.v.v.V.V.V.V.v.v.v.v.v.v.v.v.v.v.v.v.v.v.v.v.v.v.v.v.v.c.c.c.c.c.i.i.i.w.q.q.0.>.-.-.@.@.+.+.+.O.] ] ] ] ] ] ] ] ` ` ` ` ` ` ` ` ` ` ` ` ` ` ( ( ~ ~ ! ! ! ! ! ! ! ! ! ! ! ! ! ! ! ~ ~ ~ ~ ~ ~ ~ ` _ ! ! ~ ~ G c , 0.pXaXU.k.z.h.k.b.G.G.n.b.k.k.k.k.k.k.b.n.G.G.n.n.n.n.n.b.b.b.b.b.n.n.n.n.n.b.e...j 7 &X@.K R K K I ! ! Q I I S S A A A A S S S S S S A A A A S S K I Q Q I I S S S S A S S S S S S S S S A A A A m m m m m m Z Z b b l l l l b b Z Z Z m m b m A A S S K S m l X * Z t.m.m.H.m.m.n.n.n.n.n.n.n.n.b.b.b.b.b.b.b.k.k.k.k.k.k.k.k.k.k.k.k.k.k.k.k.k.k.k.k.k.k.k.k.r.h.t.Q k l `.@.` ! ! ! ! ! ! ! ! ! ! ! ! ! ! ",
"Q Q Q Q Q I I I I Q ! ! ! ! ~ ~ ~ ~ ( ` ` ` ` ` ( ( ( ( ( ( ( ( ~ ~ ~ ! ! ! ~ ~ ` ` ] ] ] ] ] ] ` ' ' ` ] ] ] +.] @.] ] ] ] S X h.aX(.g.8.g.7.6.6.e.e.6.e.r.r.r.h.r.r.h.h.r.e.r.r.e.e.e.e.7.e.r.3.6.6.7.e.r.r.r.g.g.h.k.k.k.h.r.e.e.r.r.r.e.6.6.6.3.2.$.$.$.2.2.3.$.%.3.3.$.#.$.#.#.#.#....................... .| #.^ ( #.c 3 Z d.V.c.<.u.d.d.c.d.d.d.d.d.d.d.d.c.v.v.V.V.V.V.V.V.V.V.V.V.V.V.V.V.V.V.V.V.v.v.v.V.V.V.v.v.v.v.v.v.v.V.V.V.V.v.v.v.v.v.v.v.v.v.v.v.v.v.v.v.v.v.v.v.v.v.c.c.c.s.s.i.i.w.w.q.q.0.0.-.-.@.@.@.+.+.+.] ] ] ] ] ] ] ] ` ` ` ` ` ` ` ` ` ` ` ( ` ( ( ( ( ~ ! ! ! ! ! ~ ~ ~ ~ ( ~ ~ ~ ~ ( ` ` ` ] ] ] ] ` ' ~ ! ~ ! S c o OXpX7Xn.z.k.k.F.G.H.G.m.n.b.b.k.k.k.k.b.n.m.G.n.n.n.n.n.b.b.b.b.b.n.n.n.n.b.b.6.E > ) 4Xy.! S K K ! ! ! Q K G S S A A A A S S S S S S S K K K K I ! ! ! ! I K S S S A A S S S S S S S S A A A A A A m m m m m Z b b l l l b b Z Z Z Z m b b b b M A A A S S Z b k : e {.2XT.m.m.m.n.n.n.n.n.n.n.n.n.b.b.b.b.b.k.k.k.k.k.k.k.k.k.k.k.k.k.k.k.k.k.k.k.k.k.k.k.k.k.r.k.x.! m $ -.+.( ! ! ! ! ! ~ ! ! ! ! ! ! ! ! ",
"I I I I I I I I I Q ! ! ! ! ( ` ~ ~ ( ` ` ` ` ` ~ ~ ~ ~ ~ ~ ~ ( ~ ~ ! ! ! ! ~ ~ ` ` ` ` ] ] ] ] ` ' ' ' ` ] ] ] ] +.] @.O.( G * r.iX/.r.6.r.6.e.3.0.0.3.e.h.k.h.h.r.e.r.r.e.e.e.e.e.e.6.6.e.r.e.8.e.r.r.r.r.r.r.h.k.k.k.k.k.t.r.e.e.r.r.r.e.6.3.6.3.%.$.$.3.6.6.6.3.%.3.$.#.#.#.| ..#.#.$.$.$.$.#.X.X.X.o.o.#.#.$.3.....O.F w 7 @.B.S.p.q.i.d.d.d.d.d.d.c.c.c.c.c.c.v.V.V.V.V.V.v.V.V.V.V.V.V.V.V.V.V.V.v.v.v.v.V.V.V.v.V.v.v.v.v.v.v.V.V.v.v.v.v.v.v.v.v.v.v.v.v.v.v.v.v.v.v.v.c.c.c.c.s.i.i.w.w.w.w.q.q.0.>.>.-.-.@.@.@.@.+.+.+.[ [ ] ] ` ` ` ` ` ` ` ` ` ` ` ` ` ` _ _ _ ( ~ ( ~ ~ ! ~ ( ` ] ` ` ` ` ` ~ ! ! ` ` ` ` ` ` ` ` ` ' ~ ! ! S l e D 6XpXOXg.l.F.H.U.U.H.G.G.n.n.b.k.k.k.k.b.b.n.n.n.n.n.n.n.b.b.b.b.b.n.n.n.n.b.b.$.D ; T.1X-.~ S ! ! ! ~ ~ ! I G S S S A A S S S K K K K K I I I ! ! ! ! ! I K K S S A A A S S S S S S S S A A A A A A Z m m m m b b b l l b b b m m m m b b b b b M A M Z A A A Z G w - ).tX`.b.F.F.n.n.n.n.n.n.n.b.b.b.b.b.k.k.k.k.k.k.k.k.k.k.k.k.k.k.k.k.k.k.h.h.k.k.k.k.k.k.z.k.x.M.%.I = b O.` ~ ~ ! ! ! ~ I I I I I I I I ",
"K K I I I I I I I Q ! ! ! ~ ` ] ~ ~ ( ` ` ` ` ` ~ ~ ~ ~ ~ ~ ~ ~ ~ ~ ! ! ! ! ~ ~ ` ` ` ` ` ` ] ] ` _ ` ` ` ` ` ] ] ] ( &.] I G : r.iXU.e.6.6.$.e.6.e.e.6.e.h.x.x.t.e.e.r.r.e.e.r.e.r.r.e.e.r.e.%.6.8.e.r.t.k.b.n.b.b.k.k.k.t.r.e.6.6.8.e.e.e.6.3.6.3.%.%.3.6.6.e.6.3.%.%.$.......$.$.$.$.$.$.$.$.$.$.#.X.#.$.$.2.....$...) ) Z , A d.W.B.p.d.s.i.i.s.d.d.c.c.c.c.c.c.v.V.V.v.v.V.v.v.v.V.V.V.V.V.V.V.V.v.v.v.v.v.V.V.V.V.V.v.v.v.v.v.v.V.V.v.v.v.v.v.v.v.v.v.v.v.v.v.v.v.v.v.v.v.c.c.c.c.s.i.w.q.w.w.w.q.q.0.>.>.-.-.-.@.@.@.@.@.+.+.[ ] ] ` ` ` ` ` ` ` ` ` ` _ ` _ _ _ _ _ ~ ~ ~ ~ ~ ~ ( ] +.@.+.+.O.] ` ~ ! Q ( ( ~ ~ ~ ! ! Q U ! ! I S b e , ~.iXpX^.g.F.z.F.Y.H.G.n.n.n.b.k.k.k.k.k.k.b.b.n.n.n.n.n.n.b.b.b.b.b.n.n.n.M.b.b.( Z ; 2X%X! Q ! ! ( ` ` ` ~ I I S S S S S S S S K K K K I I I Q ! ! Q I K S S S S S A A A A S S S S S S S A A A A A A Z Z m m m b b l l l b b Z b b b b b b b b m A S A Z A A A A c j X ( `.#XU.G.F.n.n.n.n.n.n.b.b.b.b.k.k.k.k.k.k.k.k.k.k.k.k.k.k.k.k.k.k.k.k.k.k.k.k.k.k.k.k.h.b.r.x.x.( k j +.] ` ` ! I I ! I I I I I I I I ",
"K K I I I I I Q I ! ( ~ ! ! ` @.~ ~ ~ ` ` ` ` ` ~ ~ ~ ~ ~ ~ ! ! ! Q I I I ! ! ~ _ ~ ~ ~ ` ] ] ] ] ] ` ` ` ` ` ` ] +.] ` ] ` b > ..aXJ.2.7.7.8.r.7.6.3.6.r.k.k.k.e.r.r.r.r.r.r.r.e.e.e.e.e.e.r.r.e.r.h.h.k.k.k.k.b.b.b.b.k.h.e.8.6.6.e.r.r.r.e.e.7.6.3.3.6.3.6.e.3.3.2.$.$.#.X...$.#.#.$.3.6.6.3.$.$.$.#.#.#.....#.| / | / / G k b B.4XS.q.d.V.,.s.s.s.s.c.c.c.c.c.c.v.v.V.V.v.v.V.V.V.V.V.V.V.V.v.v.v.v.v.v.v.v.V.v.v.c.c.c.c.c.V.V.V.v.v.v.v.v.v.v.v.v.v.v.c.c.c.v.v.v.v.c.c.c.w.v.v.0.` ] ` ~ ` +.w.@.i.>.-.w.-.-.@.@.@.@.@.@.@.+.O.] ] ] ` ` ` ` ` ` ( ~ ~ ~ ~ ~ ~ ~ ~ ~ ~ ( ! ! ! ~ ( ( ` ] ( ( ( ( ) Q Q Q ! Q Q ! ( ( ! Q ! ! R K A j O [.pXpX2XJ.n.H.J.Y.H.G.m.G.n.b.k.k.k.k.k.k.k.b.n.G.n.n.n.n.n.n.b.b.b.b.n.n.b.z.k.h.%.> v 3Xi.Q ! ! ! K K U U L L L S S S S S S K K S K I I I I ! ~ ~ ~ ~ ! Q K S S S A A Z Z A S S S S S S S S A A S A A Z m m m m b b b l b b m m m m b b b b b b m m m A A A A A m A w 7 e 1XtXY.G.G.n.n.M.b.b.b.b.b.b.b.k.k.k.k.h.k.k.k.k.k.k.k.h.h.h.h.h.h.k.k.k.k.k.h.k.k.k.k.h.h.h.h.r.0.G : G @.O.] I O.K I I I I I I I I I ",
"K K I I I I I ! ! ! ! ~ ( ` ] ] ~ ~ ( ` ` ` _ _ ~ ~ ~ ~ ~ ~ ! ! ! Q I I I ! ! ~ ` ` ` ` ] ] ] O.] ` ` ` ` ` ` ` ` O.] ` +.] S 7 z @X^.4.e.g.e.8.8.8.e.h.z.b.k.g.r.h.h.h.h.t.t.h.k.k.k.h.h.h.h.h.r.k.k.b.b.n.n.b.k.k.k.k.h.r.e.6.e.e.7.6.6.6.6.6.e.6.6.6.6.6.6.e.3.3.2.$.#.#.X.X.$.$.$.3.6.6.6.6.6.6.3.$.#.#.....#./ / ( / / Y z < c.qX!.w.w.c.i.i.i.i.s.s.s.s.c.c.c.c.v.v.v.v.v.v.v.v.v.v.v.v.v.v.v.c.c.c.c.v.v.v.v.c.c.c.v.v.v.V.V.V.v.v.v.v.v.v.c.c.c.c.c.c.c.c.c.c.c.c.c.c.c.v.c.s.] ] m - l v K w.>.>.q.>.@.>.-.@.@.@.-.@.@.@.+.O.] ] ] ` ` ` ` ( ( ~ ~ ~ ~ ~ ~ ~ ~ ~ ~ ~ ~ ~ ~ ~ ~ ~ ~ ( ` ( ( ( ( ( ( ( ( ) ! ! ) ( ( ! Q R ] R S J + t.9XpX8X'.n.H.Y.J.J.U.H.G.G.m.n.n.n.k.k.k.k.k.b.n.m.n.n.n.n.n.n.b.b.z.b.b.n.b.z.k.h.O.j l E.0.Q K ! _ ! U U U I K L K K S S S S S S S K K I I ! ! ~ ( ( ( ~ ! I K K S S A A A A S S S S S S S S A A S A A Z m m m m b b b b b b m m m m b b b b b b Z Z A A A A A A n M y - G eXiX'.G.G.n.n.n.b.b.b.b.b.k.k.k.k.k.k.k.k.k.k.k.k.k.h.h.h.h.t.t.h.h.h.h.k.k.k.k.k.k.k.k.h.x.x.x.h.| j k @.@.~ I ~ ! ~ I I I I I I I I ",
"K K I I I I Q ! ! Q I ! ` +.] ` ~ ( ( ` ( ~ ~ ~ ~ ~ ~ ~ ~ ~ ! ! ! Q I I Q ! ! ~ ~ ` ] O.] ] ] O.] ` ` ` ` ` ` ` ` ] ] ] @.@.I k 4 H.@Xg.g.h.g.7.e.r.h.k.n.n.k.g.h.k.k.h.h.t.t.h.h.h.h.h.h.t.t.r.r.k.k.k.b.b.b.k.h.h.h.h.r.e.8.6.e.e.6.6.3.6.6.6.e.6.6.e.e.6.6.7.3.3.$.$.#.#.#.#.$.$.3.6.6.6.6.6.6.3.$.#.....| | ../ / / / / E c + V.uX`.i.q.i.d.i.i.i.i.i.s.s.s.s.c.c.v.v.v.v.v.c.c.c.c.c.c.c.c.c.c.c.c.c.c.c.c.c.c.c.c.v.v.v.V.V.V.v.v.v.v.v.c.c.c.c.c.c.c.c.c.c.c.c.c.c.c.c.c.c.w.q.@.I + = o $ 1 O.i.@.q.q.@.>.-.-.-.-.-.-.-.@.@.+.O.] ] ` ( ( ~ ~ ~ ~ ~ ! ! ! ! ~ ~ ~ ~ ~ ~ ~ ~ ~ ~ ! ~ ~ ~ ~ ~ ~ ~ ~ ~ ` ` ` ` ` ` ] ` ` ( ! ] R S 8 - 9XpX0X[.n.G.U.U.J.H.H.H.G.n.b.b.b.b.b.k.k.k.k.b.b.n.b.M.n.n.n.b.b.b.b.b.b.b.b.z.l.k.| j X c c Z S ! ( ( ! I U ! I L K K S S S S S S K K K I ! ! ~ ~ ! ! ! Q I K S S S S S A A S S S S S S S S S A A A A Z m m m m m b b b b b m m A m m m b b b b b Z Z A A A A A A A m 9 X L.pXiX~.m.m.n.n.n.b.b.b.b.k.k.k.k.h.k.k.k.k.k.k.h.h.h.h.h.h.r.r.r.r.h.h.h.k.k.k.k.k.h.h.k.k.x.x.x.x.0.Y = ` c.+.` Q ~ Q ! Q Q I I K K K ",
"K K I Q Q Q Q ! ! I I ! ] O.] ( ( ( ( ( ( ~ ~ ~ ~ ~ ~ ~ ~ ! ! ! ! Q I I Q ! ! ~ ! ` ] O.` ` ` ] ] ` ` ` ` ` ` ` ` ] ] ] @.@.! Z 4 r.eXJ.r.r.h.e.k.h.h.k.z.z.k.k.t.t.t.r.r.e.r.r.e.e.e.r.r.r.r.r.h.k.k.k.k.k.h.r.h.h.h.r.r.r.e.e.6.6.6.6.7.e.r.r.e.6.6.e.e.6.6.6.3.3.$.$.#.#.#.#.X.$.3.6.3.2.2.3.%.$.#............./ / ( / / E N $ E.uX!.i.w.w.i.i.i.i.i.i.i.i.i.s.s.c.c.c.c.c.c.c.c.c.c.c.c.c.c.c.c.c.c.c.c.c.c.c.c.c.c.v.v.v.v.V.v.v.v.v.c.c.c.c.c.c.c.c.c.c.c.c.c.c.c.c.c.c.c.w.V.q.+.= o yX:Xl l v.=Xi.>.-.-.>.-.-.-.>.>.>.-.@.@.+.O.] ] ` _ ( ~ ~ ~ ~ ! ! ! ! ! ! ! ! ~ ~ ~ ~ ~ ~ ! ! ~ ~ ! _ ~ ~ ~ ~ ~ ~ ~ O.O.+.O.] ] ` _ _ ! K S X &.pXpX{.m.G.T.H.n.H.H.G.H.G.n.b.b.b.b.b.b.k.k.k.k.b.b.b.b.b.b.b.b.b.b.b.b.b.b.b.b.b.b.&.c * > * e m ~ Q ! ! I I U I L S S S S S S K K K K K ! ~ ~ ~ ! K K K S S S A A S S S S S S S S S S S S A A A A A A m m m m m m b b b b m m Z A m m m m b b b m Z Z A A A A A A S l w # <XpX7XU.m.m.n.n.n.b.b.b.b.k.k.k.h.h.h.h.k.k.k.k.h.h.t.t.t.r.r.r.t.h.k.k.k.k.k.k.k.k.k.k.b.k.k.h.h.x.e.( 7 I XXi.` Q ( I ! ! Q I I K K K ",
"K I Q ! ! I Q ! I I ! ~ ` ` ` ` ( ( ( ( ~ ~ ~ ! ~ ~ ~ ~ ~ ! ! ! ! Q I I Q ! ! ~ ! ` O.O.` ( ` ` ] ` ` ~ ` ` ` ( ` ` ` ` O.+.~ H 4 } eX~.r.7.g.r.k.k.k.k.k.k.h.h.r.r.r.e.e.e.r.r.h.h.h.k.k.k.b.b.b.n.n.b.k.k.h.e.h.r.r.r.r.e.e.e.6.6.6.e.r.r.h.h.r.e.e.r.e.6.6.6.3.3.$.$.$.$.$.$.$.3.6.6.6.3.2.3.3.%.$.#.#.#.#.#.#.| | | / / E N = W.yXT.i.i.w.q.i.i.i.i.i.i.i.i.i.i.s.s.c.c.c.c.c.c.c.c.c.c.c.c.c.c.c.c.c.c.c.c.c.c.c.c.c.c.c.c.v.v.v.v.c.c.c.c.c.c.c.c.c.c.c.c.c.c.c.c.c.c.c.c.v.V.+.+.p - =XK y ! ;XuXV.-.-.0.-.-.-.-.>.>.-.-.@.@.+.+.O.] ` ( ( ( ~ ~ ! ! ! ! ! ! ! ! ! ! ! ! ! ! ! Q ! ` ` ~ _ _ ~ ~ ~ ~ _ _ ` ` ` ` ` ~ ~ ! ! ! S S + {.pX9Xb.x.U.Y.b.b.H.H.m.H.U.G.n.n.n.b.b.x.k.k.k.k.k.k.b.b.b.b.b.b.b.b.n.n.b.b.M.M.n.n.t.%.t.t.k : w G G Q Q I K I I K K K K K K K I I K K Q ~ ` ( ! K K K K K K S S S S S S S S S S S A A A A A A A A Z m m m b b b m b b b b m m m Z m m m b b b m m Z Z A A A A A A m k v > 1XaXOXH.m.m.n.n.n.b.b.b.b.k.k.k.k.k.k.k.k.k.k.h.h.h.h.t.r.r.h.h.k.b.b.b.M.z.k.k.k.k.k.b.M.k.x.k.h.x.r.O.c m 2Xs.K ! ( ! ! ! Q I I K K K ",
"K I ! ! ! Q I I I Q ! ~ ! ! ~ ` ~ ~ ~ ~ ~ ~ ~ ~ ~ ~ ~ ~ ~ ! ! ! ! Q I I Q ! ! ~ ` ` ] ] ` ` ` ` ` ` ~ ~ ` ` ` ( ` ` ` ` ] ] ~ G 5 x *XY.z.g.h.h.r.g.k.z.k.h.r.e.r.r.e.e.e.r.h.k.m.n.n.n.n.n.n.m.G.H.H.n.b.k.h.r.r.r.r.e.e.e.e.e.6.6.7.e.e.r.r.r.h.r.r.r.r.7.6.e.6.3.2.$.$.$.2.3.6.6.e.e.7.6.6.6.3.%.$.#.........#.| ..| / / E Z + >.%Xv.w.w.w.w.i.i.i.i.i.i.i.i.i.i.i.i.s.s.s.c.c.c.c.c.c.c.s.s.c.c.c.s.s.c.c.c.c.c.c.c.c.c.c.c.c.c.c.c.c.c.c.c.c.c.c.c.c.c.c.c.c.c.c.c.c.c.c.c.w.v.i.` y o S y $ >.yXyXc.>.q.q.-.-.-.-.>.>.-.-.@.@.+.+.O.] ` ` ` ( ~ ~ ! ! ! ! ! ! ! ! ! ! ! ! Q ! ! I ~ ] ] ~ ~ _ ` ` ] ] ] ] ` ` ] ` ` ~ ~ ~ K @.K k , T.pX&Xx.M.H.n.k.n.J.H.b.H.U.G.n.n.n.k.b.b.b.k.k.k.k.k.b.b.b.b.b.b.b.b.n.M.b.b.b.M.n.m.L.n.#X*X&.w > v ( Q I I I K S I K K S S S S S K K I ! ~ ( ~ I K K K K K K S S S S S S S S S S S A A A A A A A A m m m b b b b b b b b b m m m m m m b b b b m m Z Z Z A A A A A I k y > 2XuX'.n.m.m.n.n.n.b.b.b.b.k.k.k.k.k.k.k.k.k.h.h.h.h.h.h.r.h.k.b.n.n.n.n.n.M.k.k.k.k.k.b.n.k.x.b.h.h.0.( < k :Xi.K ` ! ! ! Q Q I I K K K ",
"I ! ~ ~ ! I I I I ! ! ! ! ! ! ~ ~ ~ ~ ~ ~ ~ ~ ~ ~ ~ ~ ~ ~ ! ! ! ! Q I I U ! ! ~ ` ` ` ` ` ` ` ` ` ` ~ ~ ` ` ` ( ` ` ` ` ` ` ~ Q z : 3.e.k.k.h.h.r.r.h.k.h.r.e.e.r.r.r.e.r.h.b.n.n.n.b.k.k.b.n.n.G.H.H.n.M.b.k.r.k.h.r.e.e.e.e.e.e.e.7.6.7.e.e.r.h.r.e.r.e.6.6.e.6.6.3.$.$.2.3.6.7.6.6.6.6.6.3.2.#.#.#.#.......| #.| ..../ } ^ H - j O.` >.y.y.t.i.i.i.i.i.w.w.w.w.w.i.i.i.i.s.s.s.s.s.s.s.s.s.i.s.s.s.s.i.s.s.s.s.s.s.c.c.c.c.c.c.c.c.c.c.c.c.c.c.c.c.c.c.c.c.s.c.c.c.c.c.c.s.s.c.s.>.` b 1 l A w.:XuX=Xi.q.0.@.>.>.-.>.>.>.-.@.@.@.+.+.+.O.] ` ` ` ( ~ ~ ! ! ! ! ! ! ! ! ! ! ! ! ~ ! I ~ O.] ~ ~ ` ` ] ] ] ] ` ` ] [ [ ` ` ` ` Q O.G f * L.iX'.M.m.n.k.b.n.G.H.b.G.H.n.b.n.b.k.b.b.b.b.b.b.b.b.b.b.k.k.k.b.b.b.M.M.x.x.x.M.M.m.P.b.U.Y.k.F 7 c t.O.G I Q G S G S S S S S S S S I ! ~ ~ ! I K K K K K S S S S S S S S S S S A A A A A A A A Z Z m m b b b b b b b b b b m b b b b b b b b b b m m Z m m A A A A ! l 9 X P.aX'.b.m.m.n.n.n.b.b.b.k.k.k.h.h.h.h.h.h.h.h.h.h.h.h.h.h.k.b.n.m.n.n.M.M.z.k.k.k.k.k.k.n.k.h.k.g.0.| Z - >.4Xq.! ~ I K I I I I I I I I ",
"Q ! ~ ~ ! I I K ! ! I I I ! ! ! ! ! ~ ~ ~ ~ ~ ~ ( ( ~ ~ ~ ! ! ! ! Q I I I ! ! ~ ` ` ~ ~ ~ ( ~ ~ ` ` ( ( ` ` ` ( ` ` ( ( ` ` ` ) G o s Y 3.h.e.e.h.h.g.r.e.e.g.g.e.e.e.e.r.h.b.G.k.k.h.t.h.k.n.n.H.U.U.H.G.n.b.k.k.k.h.r.r.e.r.r.r.e.6.6.6.e.r.h.g.e.6.6.6.3.3.6.6.6.3.2.2.3.6.6.6.3.$.$.$.$.$.#.#.#.#.#.#.#.#.#...| ....( | / G k o , k &.y.y.w.w.w.w.w.w.w.w.w.w.w.w.w.i.i.s.s.i.i.i.i.i.i.i.i.s.i.i.i.i.i.i.s.i.i.s.s.c.c.c.c.c.c.c.c.c.c.c.c.c.c.s.s.s.s.s.s.c.c.c.c.c.c.s.s.s.c.q.s.Q S P.V.wXuXwXc.q.0.0.>.>.>.>.>.>.>.-.@.@.@.+.+.+.O.] ` ` ` ` ~ ~ ! ! ! ! ! ! ! ! ! ! Q ! ~ ! Q ~ +.O.~ _ ` ] ] ] ` ~ ! ` ` ] ] ` _ _ ` ) K G z X #XpX'.h.m.m.n.G.M.z.J.n.U.U.m.b.n.m.n.b.b.b.b.b.b.b.b.b.k.k.k.k.b.b.b.b.x.x.k.x.c.M.M.m.n.b.t.n./ 9 ) T.:.S G ! I H S S S S K K I ! ! ! ~ ~ ! I K K I I K K K S S S S S S S S S S A A A A A A A Z Z Z m m b b b b b b b b b b b b b l b b b b b b b b m m m m M M M M n m v o Q &XY.H.m.m.n.n.n.b.b.b.k.k.h.h.h.t.t.h.h.h.h.h.h.h.h.h.h.k.n.G.G.n.b.k.k.l.k.k.k.h.h.h.M.r.r.r.0.O.F w G 0XyX@.I K K ! I I I I I I I I ",
"Q ! ! ! ! Q I I I I I I I I ! ! ! ! ! ! ~ ~ ` ` ( ( ~ ~ ~ ! ! ! K I I I ! ! ! ! ~ ( ` ` ~ ~ ~ ~ ~ ( ( ` ` ( ( ~ ~ ~ ~ ( _ ` ` ( G v 3 , Q $.r.e.h.k.r.e.k.k.g.k.h.r.6.e.k.n.n.b.h.h.h.k.n.m.G.G.H.G.n.b.k.k.k.b.b.k.h.r.r.e.e.e.r.e.6.3.6.e.r.h.r.r.r.e.e.e.e.e.e.e.6.3.3.2.3.3.$.$.$.$.$.$.$.$.#.#.#.#.#.#...........| | ( / / Y F 0 , Z 0.t.t.t.y.q.w.u.i.w.w.w.w.w.w.w.w.w.t.s.i.i.i.i.i.i.i.i.t.i.w.w.i.i.i.i.i.s.s.s.s.s.s.s.s.s.s.c.c.c.c.s.s.s.s.s.s.s.s.s.s.s.s.s.s.i.i.i.i.w.w.c._.5XuXuX9X[.s.>.q.w.q.>.>.>.>.>.-.-.-.@.@.@.+.+.] ] ] ` ` ` ~ ~ ! ! Q ! ! ! Q Q I I I ! ! Q ! ] +.] ~ ` +.` ` ] U I @.` ` [ ] ! I _ ` Q Y Z 7 j 1XpX'.b.M.n.n.n.n.G.H.n.m.G.G.n.b.n.n.b.n.n.n.b.b.b.k.l.l.k.k.k.b.M.M.M.%.O.&.%.-.s.s.M.U.b.b.x...c 7 }.) I Q H I ) A S S S K I ! ! ! ~ ! Q I I Q ! ~ K K K K S S S S S S S A A A A A A A A A A A A A b b b b b b b b b b b b b l l l l l b b b b b b c c b b m m m M A m l > c <X7XU.G.G.n.n.n.b.b.b.k.k.k.k.h.h.h.t.r.t.h.h.r.r.h.h.r.h.b.H.H.n.k.k.k.l.k.k.h.k.k.k.n.U.h.r.$.} % N 1XyXQ.! ! ! S ~ ! Q I I I I I I ",
"I I I I I I I I I I I I I I ! ! ~ ~ ! ! ~ ~ ~ ~ ~ ~ ~ ~ ~ ! ! ! I I I Q ! ! ! ! ~ ~ ( ( ~ ~ ~ ~ ~ ( ( ` ` _ ( ~ ~ ~ ~ ( _ _ ` ` ] G c 7 c 3.r.h.b.k.r.h.n.F.n.n.b.k.h.k.n.m.n.b.h.k.k.b.n.G.G.G.n.n.n.n.M.b.b.b.b.k.k.h.r.r.e.e.r.e.e.e.r.h.h.h.h.g.g.r.r.r.r.r.e.7.6.3.3.3.3.3.$.$.$.$.$.$.$.$.#.#.#.#.#.#.#.#.........| | ( / / ( N 0 Z y.M.y.y.y.q.q.q.q.q.q.w.w.w.w.w.w.w.w.i.i.w.w.w.w.w.w.i.i.i.i.i.i.i.i.i.i.i.i.i.s.s.s.i.i.s.s.s.s.s.s.s.s.s.s.s.s.s.s.s.s.s.i.i.i.i.i.i.i.i.q.q.s.A.E.P.v.w.@.@.>.>.@.>.>.>.>.-.-.-.@.@.@.@.+.+.O.] ] ` ` ` ( ~ ! ! ! ! ! Q Q Q I I I Q ! ! ! ~ ` ` ~ I K ] ~ b ~ -.A ~ ! ~ ] ] ] ! S c F > : }.pXpXR.b.n.n.m.m.G.G.H.n.m.G.G.n.b.b.b.b.b.b.b.b.k.b.b.k.k.k.h.k.k.h.y.Q 0.Q v H ) O.&.y.x.b.m.k.$.Z . O.O.P I G S A I S S S S I ! ! ! ! Q I K K I Q ! K K K S S S S S S S S A A A A Z m m m m m m m m b b b b b b b b b b b b l l l l l l n b b b b b c c b b b b m m S b S 1 j >XiX~.G.G.n.n.n.b.b.b.k.k.k.h.h.h.t.r.r.r.t.t.r.r.r.h.h.h.b.G.G.b.k.k.k.k.k.k.k.k.b.b.n.G.x.M./ z w *XuX`.` A I ! K I Q Q I I I I I I ",
"I I I K K K K K I I I I I I Q Q ! ! ! ~ ~ ~ ~ ~ ~ ~ ~ ~ ! ! ! Q I I I ! ! ! ! ! ! ~ ~ ~ ~ ~ ~ ~ ~ ( ( ` ` _ ( ~ ~ ~ ~ ~ _ _ ( ` +.( Q k : $.x.n.k.r.e.h.F.F.n.M.b.b.b.n.n.n.b.k.h.k.b.n.G.G.G.m.n.n.G.H.H.G.n.b.b.k.k.h.r.r.e.e.e.e.r.h.k.k.h.g.h.h.h.g.r.r.r.r.e.7.6.3.3.3.3.3.$.$.$.$.$.$.$.#.$.$.#.#.#.#.#.#.#.#.....| | ( ( ..#.E s j #.x.0.q.y.w.w.q.q.q.w.q.q.q.q.q.q.q.y.w.w.w.q.w.w.w.w.i.i.i.i.i.i.i.i.i.i.i.i.i.i.i.i.i.i.i.i.i.i.i.i.s.s.s.s.s.i.i.i.i.i.i.i.i.i.i.i.w.w.w.w.q.>.>.>.-.0.q.q.w.w.q.>.>.>.>.>.-.-.@.@.@.@.+.+.+.O.] ] ] ` ` ` ~ ~ ! ! ! Q Q Q I I I I I ! ! ! Q ! ~ ! K v l H b l S ( ! Q ! ) ( ) Q S v , q m.pXaX2Xn.n.n.G.H.G.G.G.G.n.m.G.G.n.b.b.n.n.b.b.b.b.b.b.b.z.b.z.k.k.k.e.#.Q Z > = + + 9 m Q ( &.t.y.0.( = c m.( H G K n I S S S S K I ! ! K K K K K K K K K K S S S S S S A S A A A A Z m m m m m m m m m m m b b b b l l l l n l l l l l l l l l l b b b l l l l b b b m m A v j ; 8XpX'.n.n.n.n.n.b.b.b.k.k.k.h.h.t.r.r.r.t.h.t.r.r.r.t.h.h.b.n.n.k.k.k.k.g.k.k.k.b.n.n.G.n.x.G.| s j 0X#X` A ! I K ~ K I I I I I I I I ",
"I K K K K K K K K K K K I I I Q I Q ! ! ~ ` ` ` ~ ~ ~ ~ ! ! ! Q Q Q ! ! ! ! ! ~ ! ! ~ ~ ! ~ ~ ` ~ ( ( ` ` ( ( ~ ~ ~ ~ ~ ~ ( ( ( ( ( ! Z - G P.T.k.e.e.z.n.z.k.k.b.b.n.n.b.k.k.h.r.h.b.m.G.G.G.m.G.H.J.U.J.H.n.n.k.k.k.k.h.r.e.e.e.e.r.g.h.k.h.r.r.r.r.r.r.e.e.e.7.6.6.3.3.3.3.3.$.$.$.$.$.$.#.#.$.$.#.#.#.#.#.$.#.#.....| | | ( X.#.| x 7 H e.t.q.q.q.q.q.q.w.w.q.q.q.q.q.q.q.q.q.q.q.q.q.q.w.w.w.w.w.w.w.w.w.w.i.i.i.w.w.w.w.w.w.w.i.i.i.i.i.i.i.i.i.i.i.i.i.i.i.i.i.w.w.w.w.w.w.q.q.q.w.w.w.w.w.w.w.w.q.>.-.-.>.>.>.-.-.@.@.@.+.+.+.+.+.O.O.+.] ] ` ` ( ~ ~ ! Q Q Q I I I I I I ! ! Q Q ! I S c j > X , 1 e j b c l c F G Z Z > F 1XpXtXuXn.m.n.m.H.H.H.H.G.G.b.n.G.H.G.n.n.m.n.n.n.n.n.n.b.n.b.F.F.n.n.k.$.Q 7 - Z P.i.~ A o 7 j Z ( &.( H - &.2X%.S S ~ M S S S S S K I I I S S K K K K S S S S S S S S S A A A A A A A m m m m m m m m m m m m b b b l l l l l l l l l l l l l l l l l l l l l l l b b m m m A 7 9 c aXpXY.n.n.n.n.n.b.b.b.k.k.h.h.h.t.r.r.h.h.h.h.t.t.t.h.r.h.b.n.b.k.k.k.h.g.k.l.b.n.G.H.U.U.m.M.#.N j #X%.S ! +.K K ` K I I I I I I K K ",
"I K K K K K K K K K K K K I I Q I Q ! ~ ~ ( ` ` ! ! ! ! ! ! ! Q Q ! ! ! ! ! ! ! ! ! ! ! ! ~ ( ` ~ _ ( ` ` ( ~ ~ ~ ~ ~ ~ ~ ~ ( ( ~ ` ~ Q y 7 P.+Xb.e.h.H.F.z.F.F.F.G.m.n.b.k.k.b.k.b.m.G.G.m.n.n.H.J.J.J.H.G.n.n.k.k.k.h.h.r.r.r.r.r.r.r.h.h.h.r.r.e.e.e.e.e.7.7.6.6.6.3.3.3.3.2.$.$.$.$.$.$.$.#.#.#.#.#.#.#.#.$.#.....| | | | | ..X.$.E q g O.t.0.q.>.-.>.q.q.>.q.q.q.q.q.q.q.q.q.q.q.q.q.q.q.w.q.q.q.q.q.q.q.q.w.w.w.w.w.w.w.w.w.w.w.w.i.i.i.i.i.i.i.i.i.w.w.w.w.w.w.w.w.w.w.w.w.w.q.q.q.w.w.w.w.q.q.>.-.@.-.>.>.>.>.-.-.@.@.@.+.+.+.+.O.O.] ] ] ] ` ` ` ~ ~ ~ I I I I I I I I I I Q Q ! ! S l k : ) T.y.D j 7 , , * > c N k k r sXiXiX7Xm.Z.Z.m.H.U.U.H.H.G.G.b.n.G.G.m.n.n.n.n.n.m.G.G.n.n.n.n.G.H.H.H.b.O.N : E.uXyXw.>.P.q.S c o * v k w j =X4X] K S ! S A S S S S S K K K S S S K K S S S S S S S A A A A A A A A A Z m m m m m m m m m m b b b b l l l l l l l l l l l l l l l l l l l l c c l b b b m m S p 9 # ).aXpXH.n.n.m.m.n.b.b.n.k.k.k.h.h.t.r.r.t.t.r.r.t.t.r.r.r.k.n.n.n.b.k.h.k.k.k.z.n.G.H.J.Y.~.R.h.| c x $X%.~ ! I S I ! K K I I I I K K K ",
"I K K S S K K K K K K K K I I Q ! ! ~ ~ ~ ~ ! ! ! ! ! ! ! ! Q Q Q Q ! ! ! ! ! ! I ! ! ! ! ~ ` ] ~ _ ( ` ` ( _ ~ ~ ~ ~ ~ ~ ~ ~ ~ ` ` ~ ~ m X 0.%XU.r.h.J.F.z.F.J.H.H.G.n.b.n.n.G.m.G.H.H.G.n.n.n.H.H.H.G.G.n.M.b.k.k.k.h.g.h.h.h.k.k.h.h.h.h.h.g.r.e.e.e.e.7.7.7.6.6.6.3.3.3.2.2.$.$.$.$.$.$.$.$.#.#.$.$.$.$.$.$.#.......| ......X.2.7.#.N 5 g H &.>.q.>.,.q.<.-.q.q.q.q.q.q.q.q.q.0.0.0.0.q.q.q.q.q.q.q.q.q.q.q.q.q.q.q.q.q.q.w.w.w.w.w.w.w.w.w.w.w.w.w.w.w.w.w.w.q.q.q.q.q.q.q.q.q.q.q.q.q.0.>.q.0.q.q.q.>.0.q.-.-.-.-.%.@.@.@.+.+.+.O.O.] ] ] ` ` ` ` ( ~ ~ ~ I I I I I I I I I I I I ! K b w X m.pXpX8X&X{.M.m.H.6.Z w * X 5 ].9XiX'.U.h.e.U.H.H.U.U.H.G.G.G.G.G.H.G.n.n.n.n.G.G.G.G.G.G.n.n.F.J.H.J.U.b.( j 7 2XXXq.K ` _ M q.P.@.S l 7 Q $X9X).S ! K A A K S S A S S S S S S S S S S S S S S S S A A A A A A A A A Z m m m b b b b b b b b b b b l l l l l l l l l l l l l l l l l l l l l c c b b b b m m b 8 - m eXpX7Xm.n.G.H.G.n.b.b.n.k.k.k.k.h.h.t.t.r.r.r.r.r.t.r.r.r.b.G.G.n.b.k.k.k.z.M.n.H.H.U.U.T.U.L.k.#.g j %X%.~ S I Q K S ! K K I I I K K K ",
"K K S S S S S K K K K K K I I I ~ ~ ~ ( ~ ~ ! ! ! ! ! ! ! ! Q Q Q Q Q U ! ! ! ! ! ! ! ! ~ ( ] +.~ _ ~ ` ` ( ~ ~ ~ ~ ~ ~ ~ ~ ~ ~ ` ~ ~ ! Z - G 2X+Xk.g.F.l.k.K.F.G.m.n.b.b.n.n.G.G.G.H.G.n.b.n.G.H.H.H.H.G.n.n.b.b.k.k.h.h.k.k.b.n.b.k.k.k.h.r.r.e.e.e.e.7.7.6.6.6.6.3.3.3.3.2.2.2.2.2.2.2.$.$.$.#.$.$.3.3.3.$.$.#.#.......X.#.#.$.6.6.$.W g > : Z ` >.q.>.q.,.-.q.0.0.0.0.0.0.0.>.>.>.>.>.>.>.>.>.>.>.>.>.>.>.>.>.>.0.q.q.q.q.w.q.q.q.w.w.w.w.w.q.q.q.q.q.q.q.q.q.q.q.q.q.q.q.q.>.0.q.q.q.q.q.q.>.-.-.0.0.-.@.@.-.-.-.-.%.@.@.@.@.+.+.O.] ] ] ` ` ` ` ` ( ~ ~ ~ I I I I I I I I I I I K S A k 7 6.aXpX6X*X'.*XpXiXpXeX*X].~.OX0XiXiX9Xk.6.U./.k.U.U.U.H.H.G.G.G.H.H.U.H.H.H.U.U.Y.Y.U.H.H.H.H.H.U.U.U.H.H.n.| j y %X-.A L ! L _ K ` K 0.+X&X2XyXW.=.A K K S M L S S A A S S S S S S S S S S S S A A A A A A A A A A A Z Z m m b b b b b b b b b b l l l l l l l l l l l l l l l v v l l l l l l l l l l b b b m y 8 - `.uXpX/.G.n.G.H.H.m.n.b.n.k.k.k.k.k.h.h.h.r.r.r.r.h.k.h.h.h.n.H.G.n.b.b.b.n.n.F.H.H.J.U.U.Y.G.m.r.#.s j *X] S K ` ! S K ! K K I I I K K S ",
"K S S S A S S S S S K K K I I I ! ! ~ ~ ( ~ ~ ! ! ! ! ! ! ! Q I I I I I ! Q Q Q ! ! ! ! ~ ` ] +.~ ~ ( ` ` ( ~ ~ ~ ~ ~ ~ ~ ~ ~ ~ ` ! ` ! Z j k eX6XH.g.F.l.k.G.F.b.k.k.k.k.b.b.b.b.n.n.b.k.b.n.H.G.H.H.J.H.H.G.n.b.b.k.h.k.k.M.n.n.b.b.k.k.h.r.7.e.7.7.6.6.6.6.6.3.3.3.3.3.3.2.2.2.3.3.3.3.2.$.$.$.$.3.6.6.6.3.$.#.#.#...#.#.$.$.$.8.$.#.6.| z 7 3 Z @.-.@.=.-.-.>.>.>.>.>.>.>.>.>.>.-.-.-.-.-.-.-.-.-.-.-.-.-.-.>.>.>.0.q.q.q.w.q.q.q.q.q.q.q.q.q.q.q.q.q.q.q.q.q.q.q.q.q.0.0.0.q.q.q.0.>.>.0.q.w.>.>.q.q.>.-.-.-.-.-.-.@.@.@.@.@.+.+.O.] ] ` ` ` ` ` ( ~ ~ ~ ~ I I I I I I I I K Q Q G Z l y 7 9XpXeXU.e.k.n.H./.].Y.'.8XaXaXpXiX0XH.Z.H.n.h.H.U.U.U.H.G.m.G.G.H.U.Y.Y.Y.T./.].'./.Y.U.U.U.Y.T.~.^.U.H.H.n.O.v 9 T.~ K A L M S S K Z ! O.O.@.` K Q ! m L ! L A S S A A S S S A S A A A A A A S A A A A A A A A m Z Z Z m m m b b b b b b b b b l l l l l l l l l l l l l l l b v v v l l l l l c c l l l b b b y 8 v uXpX0XH.n.m.H.U.H.G.n.b.n.b.b.k.k.k.h.h.h.h.r.t.h.k.b.b.k.k.m.H.m.b.b.n.n.n.F.K.H.J.U.U.U.H.H.L.$.Y 7 Z 8X0.K K ! S I ( Z K K K I I K K S ",
"S S S A S S S S S S A S K I I I ! ~ ~ ~ ~ ~ ! ! ! ! ! ! ! ! ! ! I I I I ! ! ! ! I I ! ! ~ ~ ` ` ( ( ( ~ ~ ~ ! ! ~ ~ ! I ! ` ` ! ) G ^ D Z 7 ( iXiXU.h.G.h.l.J.b.b.k.h.k.k.k.k.k.k.h.h.b.n.n.n.n.U.H.G.H.G.n.b.n.b.b.b.b.k.b.b.b.k.k.h.r.r.r.r.r.e.e.6.6.6.6.6.6.3.3.3.3.3.3.3.3.3.3.3.3.3.3.2.2.$.$.2.3.2.$.$.#.$.#.X.X.#.$.3.6.3.e.e.7.3.#.^ D : 7 D &.5.5.5.@.-.0.>.>.q.>.-.>.-.-.-.-.-.-.-.-.-.-.-.-.-.-.-.-.-.-.-.-.>.0.q.q.>.0.q.q.q.q.q.q.q.q.q.q.0.0.0.0.>.>.>.>.>.q.q.q.>.>.>.>.>.>.>.-.>.>.>.>.>.-.-.-.-.-.=.=.@.@.@.@.+.+.+.[ ] ] ` ` ~ ` ` ( ( ! Q Q I S S Q ( ) I G Q I Z G D 7 > '.pXrX].r.r.b.k.k.n.n.m.U./.].OXOXY.U.m.b.b.n.G.H.U.H.G.G.H.H.U.H.~.U.H.Y./.'././.Y.Y.~././././.~.~.Y./.(.U.n.$.c # v.K S A S m S S S S S S S S S S S S S S S S S A A A Z m A A A A A A A A A m m A A A A A A Z Z m m m m m m b b b l l l l l n b l l l b b l l l l l l l l l l l v v k k k k k k l p Z p b c c k 9 . ].aXpX#Xh.Y.~.Y.Y.U.H.m.n.b.n.b.b.k.k.k.h.h.h.h.h.k.k.k.k.k.n.U.Y.H.n.b.m.G.F.F.G.G.H.H.H.G.H.G.m.%.Z X T.0X( ! K K I I I K I K K K K K K K ",
"S S S A S S S S S S S S K I I I ! ! ! ! ! ! ! ! ! ! ! ! ! ! ! ! I I I ! ! ! ! Q I I ! ! ~ ~ ~ ` ~ ~ ~ ~ ~ ~ ! ! ~ I ! ~ ! Q I G c E v D w % 0XiX2Xn.e.b.h.h.G.k.n.k.h.k.k.k.k.k.k.h.h.b.n.n.n.n.U.H.G.G.G.n.b.n.b.b.b.b.b.b.b.b.k.k.h.r.r.r.r.r.e.e.e.6.6.6.6.6.3.3.3.3.3.3.3.3.3.3.3.3.3.2.$.$.$.$.$.$.$.$.$.$.$.#.#.#.$.3.6.6.2.5.e.3.3.$...W V 4 > H &.&.%.0.@.>.-.@.>.>.>.>.-.-.-.-.-.-.-.-.@.@.@.@.@.@.@.@.@.@.-.-.>.>.0.0.>.>.0.q.q.q.q.q.q.q.0.>.>.>.>.>.-.-.-.-.-.-.-.>.>.>.>.>.>.>.-.-.>.>.>.>.-.-.-.-.-.-.=.@.@.@.@.@.@.[ [ [ ] ` ` ` ~ ( ( ( ( ) Q Q Q ~ ( ! G H Q ] G Q k Z , 3 T.pXpX2XH.k.k.r.r.n.G.G.G.G.H.H.H.H.Y.U.H.G.G.G.H.U.U.H.G.H.H.U.U.U.U.U.Y.T.~.~.~./.T.Y.Y.Y.Y.Y.Y.Y.Y.'.~.H.~.H.0.Z o ! +.S A A A K A S A A S S S S S S S S S S S S A A A Z m A A A A A A A A m m m Z Z Z m m m m m m m m m b b b b b l l l l l l b l l b b b b l l l l l l l l l l v v k k k k l k b p b k m v c j : Q aXiXeXG.G.H.Y.Y.U.H.H.m.n.n.n.b.b.b.b.b.k.k.k.k.b.n.n.G.H.H.U.U.H.b.k.b.n.m.n.G.H.H.G.G.G.H.H.H.M.&.c o {.T.Q K S S K K I K K K K K K K K K ",
"S S S A S S S S S S S K I I I K I Q ! ! ! ! Q Q ! ! ! ! ! ! Q ! ! ! ! ! ! ! ! ! I I Q ! ! ~ ~ ( ~ ~ ~ ~ ~ ! ! ! ( K ! ` I K S c v o , , 5 +XiXaX~.h.e.h.h.l.b.l.n.b.k.k.k.k.k.k.k.h.k.b.n.n.n.n.U.G.m.G.G.n.b.n.n.b.b.b.b.b.b.b.k.k.h.t.r.r.r.r.e.e.e.6.6.6.6.6.3.3.3.3.3.3.3.3.3.3.3.3.2.$.$.$.$.$.$.#.#.$.$.$.#.#.#.$.$.3.6.6.3.3.3.2.$.$.$...| N 3 > N #.0.-.@.-.-.@.@.>.>.-.-.-.-.-.@.@.@.@.@.@.@.@.@.+.+.+.@.@.@.-.-.-.>.>.>.>.>.0.0.0.0.>.>.>.>.-.-.-.-.-.-.=.=.=.=.-.-.-.>.>.>.>.>.>.-.-.>.>.>.-.-.-.-.-.=.=.@.@.@.@.@.@.[ [ [ [ ] ` ` ` ~ ~ ( ) ) ) Q Q I K S K Q Q Q G c c N 7 : {.pXaX8X~.h.b.b.t.h.n.b.b.b.b.b.b.n.G.U.U.U.U.U.U.U.U.H.H.H.H.U.Y.Y.Y.H.Y././.~.T.~./././.T.Y.Y.Y.~./.^.OXY.n.'.n.r.Q > m c.H A K S S A A A A A A A S S S S S S S S S A A Z Z A Z A A A A A m Z Z m m m m m m m m b b b b b b b b b b l l l l l l l l l b b b b b b l l l l l l l l l v v v k l l l l b j k c Z k c 7 X [.pXpX{.G.U.H.Y.U.U.H.G.m.n.n.n.n.n.n.n.n.n.n.b.b.n.n.G.H.U.U.U.G.b.k.b.n.n.b.n.G.H.H.m.n.m.L.H.L.M.O.c o T.( S S S S S K K K K K K K K K K K ",
"S S A A A A S S S S K K I I K K I I I I I I I I ! ! ! I U U Q Q ! ! ! ! ! ! Q I I I Q ! ! ! ~ ~ ! ! ~ ~ ! ! ! ! ( K I ! K K S y o #.*XY.2XrXpX0Xk.k.h.h.b.b.b.n.n.b.k.k.k.h.h.k.k.k.k.b.n.b.b.n.H.m.n.m.G.n.b.n.n.b.b.b.b.b.b.b.k.k.h.t.r.r.r.r.e.e.e.6.6.6.6.6.6.6.3.3.3.3.3.3.3.3.2.2.$.$.#.#.$.$.$.$.$.$.$.$.#.#.$.2.3.6.6.6.e.e.3.2.$.$.$.#.....Z > r H O.&.@.-.>.-.@.-.>.@.@.@.@.@.@.@.@.@.@.@.+.+.+.+.+.] +.@.@.@.@.-.-.-.-.-.>.>.>.>.>.>.>.>.-.-.-.-.%.%.-.-.-.-.-.-.-.-.-.-.-.>.-.-.-.-.>.-.-.-.-.-.-.-.@.@.@.@.@.@.@.+.[ [ [ ] ] ` ` ` ~ ~ ) ) ) ) Q Q S K Q Q Q G Z c k 7 > k Y.pXeXaXY.b.k.b.k.m.H.h.h.k.b.b.b.m.U.Y.U.U.U.U.U.U.U.U.H.H.H.U.U.U.U.U.U.~././.~.~./.'./.~.T.Y.Y.~.'.'././.U.J./.6.y.( , ] $X` A K S m A A A A A A A A S S S A S A A A A A m m m Z A A Z m Z Z m m m m m m m b b b b b b b b b b b b b l l l l l l l l b b b b b b b b l l l l l l l l v v k l l l l l l l j c b p w * Z aXiX9XM.T.R.H.U.U.H.H.G.G.n.n.b.n.n.n.n.n.m.m.b.b.b.b.b.b.n.n.b.b.k.k.n.G.n.k.n.G.H.H.m.n.m.G.H.R.m.%.Z * &.G S S K S S S S K S S S S S S S S ",
"S S S A A A A S A S K I I K K K K K I I I I I I I I I Q Q Q Q Q ! ! ! ! ! Q I I I I I Q ! ! ! ! ! ! ! ! ! ! ! ! I K ! I K I b - O.pX9XiXpXpX2XG.g.n.b.h.b.b.b.F.n.b.k.k.k.h.h.k.k.k.k.n.n.b.b.n.G.n.b.n.n.n.b.n.n.n.n.b.b.b.b.b.k.k.h.t.r.r.r.r.e.e.e.6.6.6.6.6.6.6.6.3.3.3.3.3.3.3.3.2.$.$.#.#.#.$.2.3.3.3.2.$.$.2.3.6.7.e.e.e.e.3.3.4.$.#.X.$.#.#.) N w r l &.@.+.-.>.+.@.-.+.@.@.@.@.@.+.+.+.+.+.+.+.+.+.] ] +.+.+.@.@.@.@.@.-.-.-.-.-.-.-.-.-.-.-.-.@.@.@.@.-.-.-.-.-.-.-.-.-.-.-.-.-.-.-.-.-.-.-.-.-.=.=.@.@.@.@.@.@.+.+.+.[ [ [ ] ` ` ` _ ~ ! ! Q ! ! Q Q ] ! S Z Z l j e > w 0.pXpXpXaXb.k.k.m.n.k.G.H.r.b.n.n.n.n.n.H.Y.U.U.H.H.G.G.G.G.H.H.U.U.U.U.H.H.Y.~.~.Y.Y./.'./.Y.U.U.U.Y.Y.T.~./.U.Y.Y.H.$.O.w , T.2X-.m A A A A A A A A A A A A A A A A A A A A m m m m m A A Z m m m m m m m m m b b b b b b b b b l l l l l l l l l l l l l l b b b b b b l l l l l l l l l v v v l l l l l k b k v c p > * [.pXpX{.T.G.Y.H.U.H.H.H.G.G.m.m.b.n.n.n.m.m.m.n.b.b.k.k.k.k.k.k.k.k.k.k.b.n.n.k.H.G.G.G.G.G.m.m.L.T.P.M.Q 7 e ) S S S S S S S S S S S S S S S S ",
"S S S A A A A A A S K I K K K S K K K K K K I I I I I I I I Q Q Q Q ! ! ! Q I I I I I I Q Q Q ! ! ! ! ! ! ! ! I S ! ! I Q S y # <XaXiX/.Y.H.b.k.h.b.l.h.l.l.l.F.n.k.k.k.b.k.h.k.k.k.b.n.n.b.k.b.n.b.b.n.n.n.b.n.n.n.n.n.b.b.b.k.k.k.h.t.r.r.r.r.r.e.e.6.6.6.6.6.6.6.6.6.3.3.3.3.3.3.3.3.2.$.$.$.$.2.6.7.7.6.3.$.$.$.2.3.6.6.6.6.4.2.2.3.3.$.$.2.#.6.$.( Z e f ` w.O.@.-.+.+.-.+.+.+.+.+.+.+.+.O.+.+.+.+.+.+.+.+.+.+.+.+.@.@.@.@.@.@.-.-.-.-.-.-.-.-.-.@.@.@.@.@.@.@.@.@.@.@.=.-.=.=.-.-.-.-.-.-.-.-.-.-.=.@.@.@.@.@.@.@.+.+.+.+.[ [ ] ] ` ` _ _ ~ ! ! Q ) Q I G c l m Z k 7 > e e.9XpXpXrX2XT.Y.U.G.G.G.b.k.b.b.n.n.n.n.n.n.G.H.U.H.H.G.m.n.m.G.H.H.U.U.U.H.H.H.Y.Y.U.H.U.~./.T.U.U.U.U.U.U.U.U.Y.U.Y.J.h.6.Z o w.2XI.! l S L A Z A A A A A A A m A A A A A A A m m m m m m A Z m m m m m m m m b b b b b b b b l l l l l l l l l l v v v v l l l l l b b l l l l l l l v v k k v v l l l l l l k b v k k w , Z pXpX8XT.R.G.G.~.U.U.H.H.H.G.G.G.n.n.n.m.m.n.n.n.b.b.k.k.k.b.b.n.b.b.k.h.h.k.b.b.H.G.m.G.H.H.G.G.P.'.T.T.%.Z X ) S A A A S S S S S S S S S S S S ",
"S S A A A A A A A S K K K S S S S S S S S K K I I I I I I I I I I I I I Q I I I I I I I I I I I I Q ! ! ! ! Q Q K ~ I K ! b 8 y 0XaX[.Y.%.k.h.b.h.h.g.g.h.k.b.n.n.b.k.b.n.b.k.k.k.k.b.n.n.k.k.b.n.k.k.b.n.b.b.n.n.n.n.n.n.b.b.k.k.k.h.t.r.r.r.r.r.e.e.e.6.6.6.6.6.6.6.6.6.3.3.3.3.3.3.3.3.2.$.$.6.6.7.e.e.6.6.3.$.$.$.$.2.3.3.3.2.2.2.3.3.$.2.6.$.h.e.#.( N l ( _.>.] -.] ] @.+.+.+.O.O.O.] ] ] ] ] ] ] O.O.+.+.O.O.+.+.+.@.@.@.@.@.@.@.-.-.@.@.@.@.@.@.@.+.@.@.@.@.@.@.@.@.@.@.@.@.=.-.-.-.-.-.-.-.-.=.@.@.@.@.@.@.@.@.+.+.+.+.] [ ] ` ` ` _ ~ ~ ! ! ! ) Q G H G c 9 - X e x.eXpXpXpX0X*X/.#.Y.U.H.n.G.m.h.r.n.k.k.k.b.n.H.H.H.U.H.H.H.G.G.G.G.H.H.U.U.U.U.U.U.U.Y.U.G.H.T.~.U.Y.Y.U.U.U.U.U.U.H.^.Y.G.e.#.3 j 8X[.! b b L L M m m m m Z Z Z A m m Z Z A A A A m m m m m m m Z m m m m m m b b b b b b b l l l l l l l l l l v l l v k k v l l l l l l l l l l v l k k k k k k v v l l l l l l k l c k k 9 : ).pXuX{.T.M.T.n./.U.U.U.H.H.G.G.G.m.G.G.G.G.n.n.b.b.b.k.k.b.b.n.G.n.b.k.h.h.b.b.k.G.H.G.G.G.H.L.L.T.].).T.x.O.7 k K S A A S S S S A A A A S S S S ",
"S S A A A A A A A S K K S S S S S S S S S S K K K I I I I I I I K K I I I I I I I I I I I I I I I I Q ! ! Q Q I ! ` S S I p 9 ( pXiXU.r.k.b.h.k.h.e.r.h.h.l.F.n.n.b.b.n.m.n.b.b.k.k.b.n.n.k.k.b.b.k.k.b.n.b.b.n.n.n.n.n.n.b.k.k.k.k.h.t.r.r.r.r.r.e.e.e.6.6.6.6.6.6.6.6.6.3.3.3.3.3.3.3.3.3.2.2.e.e.e.e.e.7.6.6.6.6.6.6.6.6.7.7.3.4.4.3.2.#.$.6.r.6.$.r.5.f w -.8Xc.O.@.] ] @.] O.O.] ] ] ] ] ] ` ` ` ] ] O.O.O.+.+.+.+.+.@.@.@.@.@.@.@.@.@.@.@.@.@.@.+.+.+.+.+.@.@.@.@.@.@.@.@.@.@.@.=.-.-.-.=.-.-.=.@.@.@.@.@.@.@.@.+.+.+.+.+.] ] ] ` ` ` ~ ~ ~ ! Q ) ( Q G Z y # < %.&X9XiXpXpX0XY.H.r.n.Y.n.k.n.b.b.H.n.t.b.b.b.b.n.H.U.U.U.H.U.U.U.U.U.H.H.H.H.U.U.U.U.Y.T.H.Y.Y.H.H.T.~.U.U.U.H.H.U.U.Y.Y.H./.J.H.6.F . b.2X&.l K L n b A m m m m m m m m m m m Z m A A A M m m m m m m Z m m m m m b b b l l l l l l l l l l l l l v v v l v k k k v v l l l l l l l l l k k k k k k k k v v l l l l l b l k c v k 7 > uXpX9X~.G.R.L.Y.G.U.U.U.H.H.G.G.G.G.H.H.H.G.m.n.b.b.k.k.k.k.b.n.n.k.k.k.k.n.m.b.h.F.H.H.H.G.G.L.Y.~.[.).T.L.y.Z X ( I S S S S S A A A A A A S S S ",
"A A A S S S S A S S S S S S S A A A A S S S S K K K K K K K K K I I I I I K K K K I I K K K I I K I I Q ! Q Q I ! Q ! S m b + ;XpX7Xb.n.t.t.b.k.r.g.h.h.h.k.b.n.b.b.n.n.b.h.k.n.n.n.n.n.n.b.b.k.k.k.k.k.k.b.b.n.b.b.b.b.b.b.b.b.k.k.k.h.r.r.r.r.e.r.r.e.6.6.6.6.6.6.6.6.6.6.e.r.r.7.6.e.6.$.2.6.6.6.6.6.3.2.$.$.3.6.6.7.6.6.3.2.3.3.2.2.2.6.6.8.3.7.6.%.$.G ; 0.yXi.O.@.+.O.] ] ] ] ] ` ` ` ` ` ` ` ` ` ] ] O.+.O.O.O.+.+.+.+.+.@.@.@.@.@.@.@.@.@.@.@.+.+.+.+.+.+.+.+.+.+.@.@.@.@.@.@.@.@.@.@.@.@.@.@.@.@.@.@.@.@.@.@.+.[ [ ] ] ] ] ` ' _ _ ~ ~ ` ! ) K ] S Z c > Z aXpXtXpXeXtXU.G.b.k.z.b.b.z.b.n.n.b.k.k.b.G.n.m.G.H.U.U.U.U.H.U.U.U.H.H.H.H.Y.U.U.U.Y.~.~.T.H.Y.Y.G.H.Y.Y.U.U.U.U.U.U.U.U.U.H.J./.H.$.F o '.m.H S b S M m b m b b b m m m m m m m m m Z Z Z Z m m m m b b b b m m b b b b l l l l l l l l l l l l v k k k k l k k k k k k k k k k k k k k k k k k p j k k k k k l l v v l l p m v y w w : pXpX%XY.Y.L.L.U.G.U.U.U.H.H.H.G.G.G.G.G.G.G.n.n.b.b.b.b.b.b.b.k.k.t.k.b.n.b.n.m.G.J.U.U.H.G.H.T.~.).T.`.T.L.c.( 7 S q.K m S b I b A A A Z A A A A ",
"A A A A A A A A S S S S S S A A A A A A S S S K K K K K K K K K K K K I K K K K K K K K K K I Q I I Q ! ! ! Q I K ~ I ! m 9 < 5XpX].3.b.n.t.r.t.g.h.h.h.h.h.b.n.b.b.b.n.b.k.k.b.b.b.b.b.b.k.k.h.k.k.k.k.k.b.b.n.b.b.b.b.b.b.b.b.k.k.k.h.r.r.r.r.e.r.e.e.6.6.6.6.6.6.7.7.6.e.r.r.r.e.e.r.7.3.3.6.e.e.7.6.6.6.6.3.3.3.3.6.3.3.$.$.$.2.2.2.2.2.6.6.6.e.e.%.$.G 7 ` 1X>.-.+.` ` ] ] ` ` ` ` ` ` ` ` ` ` ` ` ] ] ] O.] O.O.O.+.+.+.+.@.@.@.+.+.+.+.+.+.+.+.+.+.+.O.O.+.+.+.+.+.+.+.+.@.@.@.@.@.@.@.@.@.@.@.@.@.@.@.@.@.@.@.+.[ [ ] ] ` ` ' ' _ _ _ ~ ] K Q ] Z @.k k o 0XpXyXtX'.R.m.H.n.b.k.b.b.b.b.b.b.n.b.k.k.b.n.H.H.H.H.H.G.G.G.G.H.H.U.U.H.U.U.Y.Y.Y.T./././.~.U.Y.Y.H.H.Y.Y.U.U.U.U.U.U.U.U.U.U.H.Y.H.$.V o T.-.c S b b m A b b b b b b b m m m m m m m m m Z m m m m b b b b b b b b b b l l l l l l l l l l l l l v k k k k k k k k k k k k k k k k k k k k k k p p j j k k k k l l v v l l k y j c y < k 1XuX*XY.T.P.R./.Y.U.U.U.H.H.H.G.G.G.G.G.G.m.n.n.b.b.b.b.b.b.b.b.b.k.k.k.k.k.n.G.H.Y.Y.Y.U.U.U.Y.Y.[.R.m.L.T.L.%.v < V.@.K A m ! m A A Z Z m m A A ",
"Z Z A A A A A A A A S S S S A A A A A A A S S S S S S S S S S S K K K K K K K K K K K K K K I ! ! ! ! ! ! ! Q I K ` S I k - Z pXiXU.e.t.b.t.h.k.h.h.h.g.g.h.b.n.b.k.b.b.b.k.k.b.k.k.k.k.k.k.h.h.k.k.k.k.k.b.b.b.b.b.n.n.b.b.b.b.k.k.k.h.t.r.r.r.e.r.e.e.6.6.6.e.e.r.r.r.r.e.r.r.r.e.e.r.e.6.6.e.e.e.e.e.e.e.e.7.3.3.3.3.2.$.$.$.#.$.$.2.$.6.6.6.6.r.r.6.0.Y v Z P.@.-.O.` ` ` ` ` ` ( ( ~ ~ ( ( ` ` ` ` ` ] ] ] ] ] ] ] O.+.[ [ +.+.+.+.+.+.+.+.O.O.O.] ] ] ] ] +.+.+.+.+.+.+.+.+.+.@.@.@.@.@.@.+.+.@.@.@.@.@.@.@.@.+.+.[ [ ] ] ' ' ' ' ` ` _ _ Q ] ) ] I v S + y.pXiX{.L.G.U.b.b.b.b.z.b.b.n.n.b.n.n.n.b.b.n.m.G.G.G.G.G.H.H.H.G.H.U.Y.T.Y.T.T././././.~.T.U.H.G.U.H.G.G.U.U.H.U.U.U.U.U.U.U.U.Y.H.U.H.3.V o x.Q k S m k b S n b b b b b b b b b b m m m m m m m m m m b b b b b b b b b b l l l l l l l l l n l l l v k k k k k k k k k k k j k k k k k k k k j j p p p p p k k k l l l k k l b l c Z 7 < k tXiX*X~.T.P.P.Y.U.U.U.U.H.H.H.G.G.G.G.G.m.n.n.n.b.b.b.b.b.b.b.n.n.G.n.k.k.b.m.H.U.H.U.U.U.Y.~.T.L.M.m.M.M.m.M.&.c = E.O.S Z b S Z A A Z m m m A A ",
"Z Z A A A A A A A A S A A A A A Z Z Z A A A S S S S S S S S S S S S K K K K K K S S K K K K I ! ! ! ! ! ! ! I Q ! ~ S I k < m tX<Xn.m.r.t.k.b.k.h.h.h.g.h.l.n.F.b.k.k.b.b.b.k.k.k.k.k.k.k.k.k.h.h.h.h.k.k.k.b.b.n.n.n.n.b.b.b.b.k.k.k.h.t.r.r.r.e.r.e.e.6.6.e.e.k.l.k.k.g.r.e.e.6.6.e.e.e.6.7.e.e.e.e.e.e.e.e.e.6.6.3.3.2.2.2.2.$.$.2.4.4.6.6.6.6.e.r.6.r.^ Z 7 O.A.+.O.] ] ( ` ( ( ~ ~ ~ ~ ~ ( ( ` ` ` ` ` ] ] ] ] ] ] ] ] ] ] ] ] O.O.O.O.O.+.] ] ] ] ] ] ] ] ] ] ] ] ] +.+.+.+.+.+.+.@.@.+.+.+.+.+.+.@.@.@.@.@.@.+.+.[ ] ] ] ' ' ' ' ` _ _ _ I @.Q Q ` w Z # uX8X0XP.0.T.H.h.k.b.b.z.z.b.b.n.n.m.G.G.G.m.G.G.G.G.G.G.H.H.U.U.H.U.T./././.~.~././.~.~.Y.U.H.G.H.U.H.G.G.U.U.H.H.U.U.U.U.U.U.U.Y.H.U.H.r.Y * ) Q l A A l b A l b b l l l l b b b b b b b b m m m m b b b b b b b b b b b l l l l l l l l l b b l l v k k k k k k k k j p p p p j j j j p p p j p p p p p p p a k k l l l k k l k b k k > 7 * pXpX%XT.T.U.L.Y.H.U.U.U.H.H.H.G.G.G.G.m.n.n.n.n.n.n.n.n.b.n.n.G.G.H.G.n.n.G.U.U.U.G.H.U.U.T.~.L.x.$.e.&.O.&.0.( c + `.` A b b A m Z Z m m m m m m ",
"A A A A A A A A A A A A A A Z Z m m m m Z A A A S S S S S S S S S S S K K K K K S S S S S K I ! ! ! ! ! ! ! ! ! ! S ~ _ A 9 - c.P.r.H.t.b.b.k.r.h.g.g.h.l.b.F.G.b.k.k.b.b.b.k.b.b.b.k.k.k.k.k.k.k.k.k.b.b.b.b.b.b.b.b.b.b.b.k.k.k.k.h.h.r.r.r.r.r.r.e.e.e.e.e.r.b.n.b.b.k.g.r.r.e.r.r.e.e.7.6.6.6.6.6.6.6.6.6.6.6.6.3.2.$.2.3.3.3.3.4.4.6.6.6.8.6.7.r.e.t.( Z , @.0X` ` ] ] ~ ~ ~ ~ ~ ~ ~ ~ ~ ( _ _ ~ ` ` ` ` ` ` ` ` ` ` ` ` ` ] ] ] ] ] ] ] ] ] ] ] ] ] ] ] ] ` ` ` ] ] ] ] ] ] +.+.+.+.+.+.+.+.+.+.+.+.+.+.@.@.+.+.+.[ ] ] ] ` ' ' _ _ _ ~ ~ ] K I Q H G - >.pXpX].m.G.h.b.k.k.l.z.z.z.z.l.M.F.G.G.G.G.G.G.G.U.H.H.G.G.G.G.G.H.U.T.~.~.T.Y.Y.U.U.U.U.Y.Y.Y.~.Y.Y.Y.Y.Y.Y.T.Y.H.H.H.H.U.U.U.U.J.Y.U.H.k.#.0 w ( H l A m m M l l l l l l l l l b b b b b b b b b b b b b b b b b b b b b l l l l l l l l n n n l l k k k k k v k k p p p p p p j j p a p p j j p p p p p p j k v l l l l v v l k b w k j < Z aXpX$XR.T.Y.T.~.U.U.U.U.H.H.H.G.G.G.G.n.n.n.n.n.n.n.n.n.b.n.n.G.H.H.G.G.H.U.Y.U.H.U.Y.Y.Y.~.Y.M.3.O.F c c Z Z 7 X v ;X-.A l S S b m m m m m m m m ",
"A A A A S S A A Z A A A A Z m m m m m m m m Z A A A A S S S S S S S S S S S S S S S S S S K I Q ! ! ! ! ! ! ! ! ~ S ] ~ K b * H [.H.n.k.m.b.h.k.h.h.h.h.b.F.F.F.b.k.b.b.b.b.b.b.n.b.b.b.k.k.k.k.b.n.n.n.n.n.n.b.b.b.b.b.b.k.k.k.h.h.h.r.r.r.r.r.r.r.e.e.e.e.r.t.z.b.b.k.k.h.h.k.h.k.k.g.e.e.6.3.3.3.3.3.3.3.3.3.3.3.2.$.$.$.2.3.7.7.8.6.6.6.8.8.7.6.h.r.r.( c 7 E.uX` ~ ~ ~ ! ~ ~ ~ ~ ~ ~ ~ ~ ~ ~ ~ _ ( ( ` ` ` ` ` ` ` ` ` ` ` ` ` ` ` ` ] ] ] ] ] ] ] ] ` ` ` ` ` ` ` ` ` ` ` ] ] ] +.+.+.+.+.+.+.+.+.+.+.+.+.@.+.+.+.[ ] ] ] ` ` ' _ _ ~ ~ ~ ` S ) K k - k 8XaXaXx.0.m.r.G.H.k.k.k.z.l.b.n.n.G.G.m.n.n.n.n.n.n.n.n.m.G.G.H.H.Y.T.~./.~.Y.Y.U.U.Y.Y.U.U.Y.T.~.Y.Y.Y.Y.Y.Y.Y.Y.H.H.H.H.H.H.U.U.H.Y.U.H.G.r.Z , Q ( b m A A b b l l l l l l l l l l l l b b b b b b b b b b b b b b b b b b l l l l l l l l l l l l v k k k v l k k k p p p p p j j p p p p j k p p p p p p k k l l n l l k v l l b j j 9 X $XpXuX$XT.T.T.T.~.H.U.U.U.H.H.H.G.G.G.G.m.n.n.n.n.m.n.n.b.b.n.n.m.G.m.G.H.U.U.U.H.G.H.Y.~.~././.m.3.G O , o o X - Z #X%XK Z S m b S m m m m m m m m ",
"m m A A A A A A M Z Z Z Z m m m m m m b m m m m Z A A A A S S S S S S S S S S S S S S S S S K I ! ! Q Q Q ! ! ! ~ I ( Q I S y p #X&XU.b.M.b.k.m.h.h.h.k.b.F.n.b.b.b.b.n.b.k.b.n.G.G.n.n.b.b.b.b.b.n.n.n.b.b.b.k.b.b.b.b.k.k.k.h.h.h.r.r.r.r.r.r.r.r.e.e.e.e.r.h.k.k.k.k.h.h.h.k.h.k.k.g.r.e.6.3.3.3.3.3.3.3.3.3.3.3.3.3.3.3.3.3.7.7.8.8.6.6.6.8.r.7.k.k.%.) s Z 4XqX` ~ ( ! ( ! ! ! ! ! ! ! ~ ~ ~ ~ ~ ~ ( ( ( ( ` ` ` ` ` ` ( ( ( ` ` ` ` ` ] ] ` ` ` ` ` ` ` ` ` ` ` ` ` ` ` ` ] ] ] ] ] ] ] ] [ [ +.+.[ +.+.+.+.+.+.+.[ ] ] ] ] ` ` _ ~ ~ ! ! K ! Q l y - Q.pXiX~.m.M.b.G.t.e.k.k.g.k.b.F.F.n.G.G.n.n.n.b.b.b.k.b.n.G.H.U.Y.Y.~./././.~.Y.Y.Y.Y.Y.T.Y.U.H.H.H.H.H.H.U.U.U.H.U.H.H.H.H.H.H.H.H.H.U.H.H.H.k.( 7 Z y.I b m S b m b l l l l l l l l l l l l l l b b b b b b b b b b b b b b b l l b b l l l l l l l v v k k k v l k k k k j p j j k k k k k k k k p p p p j k k v l l n n l k v l y k w > = G pXpX0X[.T.'.T.Y.Y.H.U.U.U.H.H.H.G.G.H.G.G.m.m.m.G.G.n.n.n.n.n.m.G.G.G.H.H.H.H.H.H.H.H.^././.'.'.G.0.V 3 $X$X[.T.T.=X1Xi.p b S b l S m m m b b m m m ",
"m m Z A A A Z Z m m m Z m m m m m m b b b m m m m m m Z A A A A S S S S S S S A S S S S S S K I ! ! I I I ! ! ! S ` ( ( ~ A l = r.<X'.m.k.M.k.h.k.h.h.l.b.b.b.k.k.b.n.n.b.k.b.G.U.J.H.G.n.n.n.n.b.b.b.b.k.k.h.h.b.b.b.k.k.k.h.h.t.r.r.r.e.e.e.e.r.r.e.e.e.e.r.h.k.k.k.h.r.r.r.h.e.g.h.r.e.r.e.6.6.6.3.3.3.3.3.3.3.3.3.6.6.6.6.6.6.6.8.8.6.6.7.7.r.r.n.k.#.Q 0 ( sX_.` ~ ] ! ] Q ! ! ! ! ! ! ! ! ~ ~ ~ ~ ~ ~ ~ ( ` ` ` ` ` _ ( ~ ~ ( ( ` ` ` ` ` ` ` ` ` ` _ ( ( _ _ _ ` ` ` ` ` ` ] ] ] ] ] ] ] [ [ [ +.+.[ +.+.+.+.+.+.] ] ] ] [ ] ` _ ~ ! ! ! I G v 7 1 T.pXuX8Xe.y.m.k.h.h.H.k.h.g.k.F.K.H.G.U.H.m.n.n.n.b.b.n.G.H.U.U.U.Y.Y.Y.T.~.T.Y.U.U.U.H.U.Y.Y.U.H.H.H.H.H.H.H.U.H.H.H.H.H.H.H.H.H.H.H.U.H.n.H.H.h.$.k k L.@.m b S b M b b l l l l l l l l l l l l l l b b b b b b b b b m m b b b b l b b b l l l v v v v k k k v l l k k k k k k j j k k k k k k k k j p p j k k v v l l b l l v v l v c 9 > c 9XpXiX%XY.R.'.T.Y.~.Y.U.U.U.H.H.H.G.G.H.G.G.G.m.G.G.G.G.G.G.H.H.H.H.G.U.U.H.H.G.G.U.Y.~.].].'.'.~.b.&.j & $Xx.%.%.&.&.Q m A m l A S b m m m b b m m m ",
"m m m m m m m m m Z A m m m b b m b b b b b b m m m m m Z A A A S S S S S S S S S S A S S S K K K K K I ! ! ~ ( Q ! ` ~ K K l - G OX+XM.b.b.r.k.h.k.k.k.k.k.k.h.k.M.n.z.k.M.H.H.J.H.m.n.m.F.H.Z.n.n.b.k.k.k.k.k.h.k.k.k.k.k.h.h.r.r.e.e.e.e.r.r.e.e.e.e.e.e.e.e.k.h.r.r.r.r.e.e.h.h.g.r.r.e.6.6.6.6.6.3.3.3.3.3.3.3.6.3.3.3.e.r.g.e.8.4.2.8.r.g.r.h.x.h.O.( * O.yXi.` ` ! ` ` I I I I I I Q Q ! ! ! ! ! ! ! ~ ~ ~ ~ ~ ~ ~ ~ ~ ~ ~ ~ ~ ~ ~ ~ ( ( ~ ~ ~ ~ ~ ( ( ( ~ ~ ~ ( ( ` ` ` ` ` ` ] ] ] ` ` ` ` ] ] O.+.+.+.@.@.@.+.] ] ] ] =.! ! ` ` ~ ( ( Z G 7 , Y.iXaX7Xb.b.k.k.k.h.h.h.h.h.k.k.n.H.H.m.G.n.b.b.n.n.n.n.b.G.U.U.H.H.U.Y.'./.~.Y.Y.Y.Y.Y.U.H.U.Y.Y.U.H.U.H.H.U.Y.Y.T.~.~.U.U.H.G.G.G.G.H.H.J.G.U.r.3.%.X w 1X+.l K M A l b b l l l l l l l l v k k k k v l l l l l l b b b b b b b b b l b l l l l l v v k v v l l v v k k k p p j k k k p k k k k k k k j j p p p j k k k v c l c c v c j w e X <XpXpXeX'././.~.T.Y.Y.U.Y.U.U.U.U.U.U.U.U.H.H.G.G.G.G.G.H.G.G.G.G.H.H.H.U.H.H.U.U.U.U.~./.'.]./.U.U.M.3.j * {.&.Z G Z Z Z m m m m m m m m b b b b b b m ",
"m m m m m m m m m m m m m m b b b b b l l b b b m m m m Z A A S S S S S S S S S S A A A S S K K K K K I Q ! ~ ~ ! ~ ` ! I I A 9 j $X6Xm.r.k.h.h.k.k.k.k.k.k.k.k.l.M.n.z.k.n.K.K.H.n.n.M.n.n.n.n.n.n.b.k.k.k.k.k.h.k.k.k.k.h.h.t.r.r.e.e.e.e.r.r.e.e.e.e.e.e.e.e.g.r.r.r.g.h.h.h.r.r.r.r.r.e.7.6.7.7.6.7.e.e.r.r.r.r.e.7.6.6.7.e.r.7.7.8.7.e.g.h.n.k.r.0.Q c > M.tXw.! ` ! ! ! Q I I I I I I Q Q I Q Q ! ! ! ! ! ! ~ ~ ~ ~ ~ ~ ~ ~ ~ ~ ~ ~ ~ ~ ~ ~ ~ ~ ~ ~ ~ ~ ( ~ ~ ~ ~ ( ( ( ( ( ` ` ` ` ` ` ` ` ` ` ] ] O.+.+.O.O.O.] ] ] ] +.K @.,._ L ! Q v G > > }.iXaX9XJ.b.k.k.k.k.k.h.h.h.k.k.k.n.H.H.G.G.n.n.b.n.n.n.n.n.n.G.H.H.U.T././.~.Y.U.H.H.H.U.U.H.U.Y.Y.U.U.U.U.Y.Y.Y.T.~.~.~.U.U.H.G.G.G.G.H.b.F.H.H.h.| 0 > [.1X` k b M b b b b l l l l l l l l v k k k k v l l l l l l l b b b b b b b b l l l l l l v k k k l l l l l l k p j k k k v v l k k k k k k k k k k j j j j k k k k v v v k v k k s ; w pXeXiXY././.~.~.T.Y.Y.Y.Y.U.U.U.U.U.U.U.U.H.H.G.G.m.G.G.m.n.n.n.n.G.G.H.U.H.H.U.U.H.U.~.(././.Y.H.U.n.$.c * T.&.G G Z G Z m m m m m m m m b b b b b b m ",
"m m m m m m m m m m m m m b b b b b l l l l b b b b b m m A A S S S S S A A A A A A A S S S K K K K K I Q ! ~ ~ ! ! ~ ! I ! K k : OXtXT.h.b.k.h.k.k.k.k.k.k.k.k.l.M.M.k.k.M.F.H.n.n.z.z.z.M.M.z.n.b.b.k.k.h.k.k.k.k.k.h.h.h.r.r.r.r.r.e.e.e.e.e.e.e.e.e.e.e.e.e.r.r.r.r.h.k.z.b.g.g.r.r.r.e.e.e.7.7.7.e.r.g.h.k.k.h.r.e.e.e.e.e.e.7.7.7.e.r.r.g.n.h.e.0.( z E 8X8X-.K ` ! I K ! I I I I I I I I I I I I Q ! ! ! ! ! ! ! ~ ~ ~ ~ ~ ~ ~ ~ ~ ! ! ! ! ! ~ ~ ~ ~ ~ ~ ~ ~ ~ ~ ~ ~ ~ ~ ~ ~ _ ` ` ` ( ( ( ` ` ] ] O.+.+.] ] ] ] ] ] ] ] =._ ! ` ` Q S H 7 7 U.iXiX0XM.k.k.k.k.k.k.k.k.k.k.k.k.b.m.H.H.G.G.n.n.n.n.n.n.b.n.n.G.H.U.~./.'.~.Y.H.H.H.U.U.H.U.H.H.U.Y.U.U.Y.Y.T.T.T.Y.Y.Y.Y.U.U.H.G.G.G.G.G.G.H.H.k.6.Y o y.8Xm.K m m L l M b b l l l l l l l v k k k k k k v v l l l l l l b b b b b b l l l l l l v k k k k k l l l l l k p j k l l l l l k k k k k k k k k k j j j j k k k k k v k k k k z , o &XpXiX[./.Y.Y.T.T.T.T.T.T.Y.Y.U.U.U.U.U.U.H.H.H.G.m.m.G.G.b.n.n.n.n.n.G.U.U.H.H.U.U.H.U.~.'.~.U.H.H.U.n.$.N X t.( G Z Z Z Z m m m m m m m b b b b b b b b ",
"m m m m b b b m m m m m m b b b l l l l l l l l b b b b m A A S S S S A A A A A A A A S S K K K K K K K I ! ! ~ ! I ! I K ! K v X T.aX~.b.b.k.h.k.k.k.k.k.k.k.k.k.k.z.l.k.z.n.n.n.M.z.z.z.M.M.M.b.b.b.k.k.h.h.h.k.h.h.h.t.r.r.r.r.r.r.r.e.e.e.e.e.e.e.e.e.e.e.e.h.h.r.g.h.k.k.k.z.k.k.h.g.r.e.e.e.r.r.g.h.h.k.k.h.r.e.e.r.g.r.r.g.g.r.e.r.r.r.g.b.b.r.6.^ 5 ^ 9X XO.I ~ ! I K I I I I I I I I I I I I I I Q ! ! ! ! ! ! ! ! ! ! ~ ~ ~ ! ! ! ! ! ! ! ! ! ! ! ~ ~ ~ ~ ~ ~ ! ! ! ! ! ~ ~ ~ ~ ~ ~ ~ ( ` ` ] O.+.+.+.+.+.O.O.] ] ` ` _ ` ! I Q G v 7 > T.iXpX1XH.h.t.t.h.k.k.k.k.k.k.k.k.b.b.G.U.U.G.n.n.n.n.b.b.b.b.n.G.H.Y./.'././.U.U.H.U.Y.T.Y.Y.H.H.U.Y.Y.U.U.U.Y.Y.Y.Y.U.U.U.J.U.H.H.H.G.G.G.G.H.Y.H.k...V X {.m.I A S S A a A b b l l l l l v v v k k k k k k k k k k l l l l b b b b b l l l v l k k k k k k k k k v l k k k k k l l b b l l k k k k k k p p k j j j j j j k v k v v v c v k q 5 z iXaXrX/.Y.Y.T.T.T.T.T.T.T.Y.Y.Y.U.U.U.U.U.H.H.G.G.m.m.m.G.b.n.G.G.n.m.H.Y.H.H.H.H.H.U.Y.~./.Y.H.G.G.U.m.0.F X ( ( G c Z c Z m m m m m m m b b b b b b b b ",
"b b b b b b b b m m m m b b b b l l l l l l l l l l b b m m A A A A A A A A m m A A S S S K K K S S K K K I ! ! I K I Q I ! K v X T.pXT.r.h.k.r.k.k.k.k.k.k.k.k.k.k.k.k.k.k.M.M.M.b.k.b.M.M.M.b.b.b.b.k.k.h.h.h.h.h.h.t.r.r.r.r.r.r.r.r.r.r.e.e.e.e.e.e.e.e.e.e.k.h.r.r.r.g.h.g.b.z.k.k.h.g.r.r.r.h.k.b.n.b.z.k.r.e.6.6.e.r.r.r.g.g.r.r.r.h.k.k.h.n.b.3.E 7 Q 1Xs.~ ~ ! I ! K K I I I I I K K K I I I I I Q ! ! Q Q ! ! ! ! ! ! ~ ! ! ! ! ! Q Q ! ! ! ! ! ! ! ! ~ ~ ! ! ! ! ! ! ! ! ! ! ! ! ~ ~ ( ` ] ] +.+.+.+.+.] O.+.O.] ~ ! ! K A S K c 8 7 T.tXpX7XU.e.M.h.r.h.k.k.k.k.k.k.k.b.b.n.G.U.U.G.n.n.b.b.b.b.n.n.G.H.~.'.].'.~.U.H.H.U.Y.~./.T.Y.G.H.Y.~.~.U.H.U.U.U.U.U.U.J.H.H.H.H.H.H.G.G.G.G.b.H.n.J.$.V X Q G G Z m S l l M b b b l b l l k k k k k k k k k k k k k k l l l l n b b l l l l k k k k k k k k v k l l l l v v v l l b b l l k k k k k j j p p j j j j j j j k c v c c c c v k w q : iXaX+X[.H.T.T.T.T.T.T.T.T.Y.Y.Y.Y.U.U.U.U.H.H.H.G.m.n.m.m.b.n.G.G.n.G.H.Y.G.H.H.H.U.Y.T.~.Y.H.H.G.G.U.L.k.O.> H 3.Q c Z m Z m m m m m m m b b b b b b b b ",
"b b b b b b b b b b b b b b b l l l l l l l l l l l l b b m Z A Z Z Z Z Z m m m A A S S S S S S S S S S K K I I Q K Q ! ! ! K v * T.pXR.y.x.n.h.k.k.k.k.k.k.k.k.h.k.k.h.k.k.k.k.k.k.k.k.b.b.b.k.b.b.b.k.k.k.h.h.h.h.h.r.r.r.r.r.r.r.r.r.r.r.e.e.e.e.e.e.e.e.e.e.r.r.e.e.r.r.g.r.h.h.h.h.h.h.h.h.r.g.k.b.b.b.k.h.r.e.6.6.6.6.6.6.6.6.6.7.e.g.k.b.k.G.M.0.^ v G %X@.! ` ! I ~ I K I I K K K K K K K I I I I Q Q ! I I I I Q Q ! ! ! ! ! ! Q Q I I Q Q Q Q ! ! ! ! ! ! ! ! ! ! ! ! ! ! ! ! ! ! ! ~ ( ` ] ] +.O.] ] ` ` ] ] ] ( I S A S b k -   j P.pXpXeXn.r.H.$.k.h.k.b.b.k.h.k.k.k.b.b.n.H.U.U.G.b.b.b.b.b.n.G.H.U.T.'.].]./.U.G.H.U.Y.T.T.Y.U.H.H.U.Y./.~.U.H.U.U.U.U.U.U.U.U.U.H.H.H.H.G.G.G.G.n.G.k.Y.k...0 * , c v j S b S b m b b b b l l k k k k p j k a k j j k k k k v v l l l l l l l l k k k k k k k k l l n b b l l l l l l l l l k k k k k k j j j j j j j j k k v v c c c c m c k w 5 * c pXpX'.H.'.T.T.T.T.T.T.Y.Y.Y.Y.Y.Y.Y.U.U.U.H.H.G.G.n.n.n.n.b.n.m.m.n.G.H.U.G.H.U.U.U.Y.T.Y.J.H.H.H.G.U.R.m.3.w j M.( Z Z m Z m m m m m m m b b b b b b b b ",
"b b b b b b b b b b b b b b l l l l l l l l l l l l l b b b m m m m m m Z Z A A A S S S S S S S S S S S S K K K ! K I ! ! ! K c , %.1XM.h.x.b.b.k.k.b.b.b.b.k.k.k.k.k.k.k.k.k.k.k.k.k.b.M.M.b.b.b.b.b.b.k.k.k.h.h.h.t.r.r.r.r.t.r.r.r.r.r.r.e.e.e.e.e.e.7.e.e.e.r.e.e.e.r.r.r.r.h.h.g.g.h.h.k.k.g.h.h.h.h.g.r.r.e.e.7.6.3.3.6.6.7.7.e.g.h.k.z.b.H.m.M.e.Q z * 0.%.~ ~ I I ~ K I K K K K K K K K K K K K I I I I I I I I I I I Q ! Q ! ! I I I I I I I I Q Q Q ! Q Q Q Q ! ! ! ! ! ! ! ! ! ! ! ~ ~ ` ` ] ] ] ` ` ` ` ` ` ~ K b p + 1 X # ( #X9XpX0XpXU.6.M.e.k.r.k.b.n.b.k.h.h.k.k.k.b.n.H.U.U.G.b.n.n.b.n.G.U.Y.~./.'.'./.U.H.G.H.U.Y.Y.U.H.H.H.U.Y.~.~.Y.U.U.Y.U.U.U.U.U.U.U.H.G.H.H.H.G.G.G.G.H.H.b.F.G.n...z * 7 w 7 k j S k m b b b b l l k k k k p p p j j p j j k k k k k l l l l l l l v k k k k k k v v l l l n l l l l v v k v k v k k p j p j j j k k k k k k v c c c m m b b c v w 1 ; ^ eX9XiX+X/.Y.Y.Y.Y.Y.Y.Y.Y.Y.Y.Y.Y.Y.Y.U.U.H.H.H.G.G.n.n.n.n.n.n.n.m.G.H.H.U.H.U.Y.Y.Y.Y.Y.U.H.G.H.H.G.U.Y.H.0.j : P.Q Z c c Z m m m m m m m b b b b b b b b ",
"b b b b b b b b b b b b b b l l l l l l l l l l l l l b b b b m b b m m m A A A S S S S S S S S A A A S S S K K ! K K I I Q K b # e t.0.m.r.0.M.k.b.M.n.n.n.b.k.k.k.k.k.k.M.M.k.M.b.b.M.n.n.n.M.n.b.b.b.b.k.k.h.h.h.t.r.r.r.t.h.r.r.r.r.r.r.e.e.e.e.e.e.e.e.e.e.r.r.e.e.e.r.r.r.k.k.k.h.h.h.k.k.n.b.k.h.r.r.e.e.e.e.e.6.3.3.6.e.z.l.n.F.G.G.F.n.G.k.x.n.#.Y o O.t.` I K ! ! S ! K K K K K K K K K K K K K K I I I I I I I I I I I I I I I I I I I I I I I I Q Q I I I Q ! ! ! ! ! ! ! ! ! ! ~ ~ ~ ~ ` ` ` ` ~ ~ ] ` ` ( Q m y < Q v.[.<XuXpXaXpX9Xx.r.n.k.k.k.z.k.b.n.n.k.h.h.k.h.k.b.n.H.U.U.G.n.n.n.n.n.H.Y./.'.'.'.~.U.G.G.H.H.U.Y.U.H.G.U.Y.~.~.~.~.Y.H.U.~.U.U.U.U.U.H.H.H.G.G.H.H.H.G.G.G.n.G.J.k.H.T.h.$.Z 7 j , o # j j m b b b b l l k k k p p p p p j p p j j k k k k l l l l l l l v v v v k k k v v k v v l l v v k k k k k k k k l p p p j j k k k k k k v c c m Z Z m m b l p 7 , F 8XpXpX1X].~.Y.U.U.U.Y.Y.Y.Y.Y.Y.Y.Y.Y.Y.U.U.H.H.H.G.G.n.n.n.n.H.G.G.G.H.U.U.U.H.T./.T.Y.Y.U.G.U.G.G.H.H.U.Y.G.0.j X T.Q G c m Z m m m m m m m b b b b b b b b ",
"b b b b b b b b b b b b b b l l l l l l l l l l l l k l b m m m m m m m A S S S K K S S S A A A A A S S S S S S K K I Q Q I K S w < w Q y.y.r.x.m.m.n.b.b.x.k.h.k.k.t.r.k.G.m.k.t.n.n.n.n.n.n.H.b.n.n.b.b.b.k.h.h.h.h.t.t.r.r.r.r.r.r.r.r.h.r.6.e.e.e.8.8.8.e.e.e.e.r.r.e.e.e.r.h.h.h.k.z.k.h.r.h.h.h.g.r.r.r.r.r.7.6.6.r.g.h.h.l.n.F.F.b.z.b.n.b.k.r.x.t.Y z G c.O.I Q I K I ! K K K K K K S S S S S S K K K K K K I I I I I I Q Q Q I I I I I I I I I I I I I I I I Q ! ! ! ! ! ! ! ! ! ! ! ! ` ` ( ~ ~ ( ( ` ] I ~ ` S y $ i.pXuXpXpXpX9X[.'.x.k.k.k.k.k.b.b.b.b.b.b.b.k.k.h.h.b.n.n.G.U.H.m.b.b.n.G.U.~.'.].]./.T.Y.U.H.H.H.H.U.Y.Y.U.H.H.U.H.H.U.U.U.U.U.U.U.U.U.U.U.H.H.H.G.G.G.G.G.G.G.G.H.G.G.H.Y.U.H.m.0.{.1X`.( > * - l b m b l l l l j k k p p p j k v k k k k v l l l b b l l l l k l l l l l l l l k k k l v v k k k k v k k k j j p j k k k k k k c c c c c b Z Z b S Z 9 w 1 : m iXiXpX7X].U.U.T.Y.Y.Y.Y.Y.Y.Y.Y.T.T.Y.Y.Y.U.U.U.G.G.G.G.G.G.G.G.G.H.U.U.U.U.Y.Y.'./.~.U.H.H.H.H.G.H.H.H.Y./.T.m.%.c X P.&.c Z m b m m m m b b m b b b b b l l l ",
"b b b b b b b b b b b b b b l l l l l l l l l l l l l l b m m b m b m m A S S S K K S S S A A A A A A S S S S S S K K I I I I I S 9 = 9 G &.e.b.k.M.H.G.k.h.h.b.r.k.b.n.k.t.r.t.k.m.n.b.m.n.k.k.n.n.n.b.b.b.b.k.h.h.h.t.r.r.r.r.r.h.r.r.r.r.r.e.e.e.e.8.6.6.8.8.7.e.e.e.e.e.e.r.h.h.h.k.k.k.h.r.h.h.h.g.r.r.r.r.e.6.6.e.r.k.k.k.F.n.l.z.k.k.b.n.G.G.m.m.t./ g 7 Q K K K K ~ ~ A K K K K S S S S S S S S K K K K K K K K I I I I Q Q Q I I I I I I I I I I I I K I I I Q ! ! ! ! ! ! ! ! ! ! ! ! ( ( ~ ~ ~ ~ ( _ ! ~ ( I m - ] sXpX0X2X#X[./.M.M.k.k.k.k.k.k.b.b.k.b.b.b.k.k.k.k.b.n.n.n.G.H.G.n.b.n.G.H.T./.].].'./.~.~.T.U.U.U.G.U.Y.U.H.H.H.H.H.H.H.U.U.U.U.U.U.U.U.U.H.H.H.G.G.G.G.G.m.G.G.G.H.H.H.U.Y.U.U.H.#X8XpXaX&Xh.Z , v m A b l b b k k k k p p p j k v k v v v l l l b m m b l l l k l l l l l l l l v k k l v v k k k k k k k k j p j k k k k l l l c c c c c b m Z c H p m 7 > j aXiXpX0X'.G.T.T.H.Y.Y.Y.U.U.U.Y.Y.Y.Y.Y.Y.Y.U.U.U.H.H.H.H.H.H.H.H.U.Y.Y.Y.Y.U.Y.Y./.~.Y.U.H.H.H.H.G.H.H.H.Y.~.Y.G.$.V o m.Q Z Z m m m m m m m m m b b b b b b b b ",
"b b b b b b b b b b b b b b l l l l l l v v l l l l l b m m m b b b m Z S S S S K S S S A A A A A A A A A S S S S S S K I I ! ! ) Z e > < p G O.t.h.x.M.M.M.n.n.n.h.y.t.h.x.M.L.x.m.x.h.M.G.M.n.b.n.n.b.k.b.b.k.k.h.h.t.r.r.r.r.r.h.h.r.r.r.r.e.e.e.e.8.6.6.6.6.6.6.6.7.e.e.e.r.r.g.h.h.h.g.g.g.h.h.g.r.r.r.r.r.r.r.r.g.k.b.n.n.n.l.l.k.k.b.G.H.G.H.L.G.x.0.G 7 > y S ! K I ! K K K S S S A A S S S S S S K K K K K K K K I I I Q Q I I I I I I K K K K K K K K K I I I Q ! ! Q ! Q Q Q Q ! ! ! ~ ~ ~ ~ ~ ~ ~ ~ ! ` ! K K + V.uX0X*X/.m.b.b.r.b.h.h.h.k.k.b.n.n.b.b.n.n.n.n.b.b.n.n.n.n.n.G.m.b.m.G.H.Y.'.].].].'./.~./.~.Y.U.U.U.Y.Y.Y.U.H.H.U.H.H.H.H.H.U.U.U.U.U.U.H.H.H.G.G.G.m.m.n.n.m.G.G.G.H.H.H.J.U.U.U.U./.OX+X+XY.| 7 9 b S m l b b k k k k p p p p k k v v l l l l l m A A b l l v k v v k k k k v v k k k k k k k k k k k p p p j p p j k k l l l b c c c c b m m m Z Z m > , H uXuXpX7X].U.U.U.Y.Y.U.U.U.U.U.U.U.U.U.U.Y.U.U.U.U.U.U.U.U.H.H.U.U.U.T.T.T.Y.Y.Y.T.~.Y.U.H.H.G.G.G.H.H.G.H.Y.Y.Y.P.P.$.D o y.G Q Z c Z m m m m m m m b b b b b b b b ",
"l l l l l l n n b b b b b b l l l l l v k k v v v l b m m m m b m m m Z S S S S S S S A A A Z Z Z Z A A A A A A S S S K I Q ! ! Q Q I b w 9 e w Q ( 0.M.H.G.M.b.k.k.x.k.k.t.e.0.y.k.r.e.h.x.x.b.b.n.n.k.k.x.b.b.k.k.h.r.r.r.r.r.r.k.k.h.e.r.r.r.e.e.e.8.6.6.6.6.6.6.6.6.e.r.r.r.r.g.h.h.r.r.r.h.h.g.g.r.r.r.r.r.r.r.g.h.k.z.b.b.z.l.l.l.n.H.Y.^.H.G.L.G.M.m.y.G 7 - w S I S K ! K K S S A A A S S S S S S S S S S S K K K K I I I I I I I I I I K K K K K K K K K K I I I I Q Q I I I I I Q ! ! ! ! ! ! ! ! ~ ~ ~ ~ ~ I K + q.8X%XR.H.m.n.m.k.b.h.h.k.l.b.n.F.F.n.n.n.n.n.n.n.n.n.n.n.n.n.G.G.n.G.H.U./.].OX].'.]./.~.~.T.U.H.H.U.Y.Y.Y.U.H.H.H.H.H.H.H.H.H.H.H.H.H.H.H.H.G.G.G.n.n.n.n.n.n.m.G.m.H.H.H.H.U.Y.Y.Y.~.Y.H.U.U.e.G - 9 l m b l l l k k k j p p p k l v l l l b b b m A Z b l l v k k k k k k k k k k k k k k k k k p p p p p p j j p p j k k l l b c c c c m Z Z Z K Z j 7 * ;X0XpX8X].G.Y./.U.H.T.U.H.H.H.H.U.U.U.U.U.U.U.U.U.U.U.U.H.H.H.H.H.H.H.Y.U.U.U.U.Y.~.~.H.H.G.G.G.G.H.H.H.G.H.Y.^.J.L.T.y.G o Z w G c c Z m b b m m b b m m m b b b b b ",
"l l l l l l l l b b b b b l l l l l k k k k k k k l b m Z m m b Z m m A A S A A S S A A Z m m m m m m m A A A A A S K I I I I K I Q Q ! ( ) Z e > j / y.M.b.x.x.t.M.M.h.y.0.3.#.( &.#.#.&.$.3.k.k.b.b.k.k.k.b.b.k.k.h.r.r.r.r.r.r.k.k.h.e.r.r.r.r.e.e.8.6.6.6.6.6.6.6.6.e.r.r.r.r.r.h.r.r.e.r.h.g.r.r.r.r.r.r.r.e.r.r.h.h.h.h.h.k.l.F.F.G.Y.Y.Y.Y.m.G.H.M.m.n.0.( 9 + 7 l A K I K K S S S A S S A S K K S S S S S S S K K K K K I I I I K K K K S S K K K K K K K K I I I I I I I I I I I I Q Q ! ! ! ! ! ! ! ! ! Q ( Q k = K 1X+Xm.n.m.n.n.h.g.k.l.b.n.F.F.G.G.n.n.n.n.b.b.k.k.b.b.b.n.G.H.H.H.H.U.Y./.].].'./.'./.Y.Y.U.H.H.H.H.H.H.H.G.G.G.G.H.H.H.H.H.H.H.H.H.H.H.H.H.G.G.G.n.n.n.n.n.n.m.G.G.U.U.H.H.Y.T.Y.U./.~.J.H.H.h.#.w < - y b b l l k k k k p p k k l l l n b b b b b m b l v l l k k k k k k k k k k k k k k k k k p p p p p p a k j k k v l l b b c c c m Z S Z Z m S 9 p w &XpXaX~.Y.U.G.U.T.Y.G.H.H.H.H.H.U.U.U.U.Y.Y.Y.Y.Y.U.U.U.H.H.H.H.H.H.H.U.H.H.H.H.U.U.Y.H.H.G.G.G.H.H.H.H.G.H.Y.Y.H.L.T.L.&.e : X > w Z Z m m m m m b b m m m m b b b b ",
"l l l l l l l l l l l l l l l l l v k k k k k k v l m m m m m m A Z m Z A A A A A A A m m m m m m m m m m Z A A A S S K I K K S I K K Q ( O.( Q c e e Z &.r.x.b.m.b.y.3.$.| F k w w e w s j Q h.t.k.b.k.k.k.k.k.k.h.t.r.r.r.r.h.k.k.k.r.r.r.r.r.r.e.e.e.8.6.6.6.e.6.6.e.r.h.g.r.r.r.r.r.r.r.r.h.r.r.r.r.r.r.r.r.e.r.h.k.k.k.z.b.k.n.F.F.G.J.J.F.n.k.M.m.M.x.b.x.q.! l 1 = 9 Z K S S S S S S S S A S K K S S S S S S S S S K K K K K K K K K K K S S S S K K K K K K K I I I I I I I K K I I I I I I I I Q ! ! ! ~ I ! ! b k y %X7XY.m.n.b.n.n.b.n.n.F.G.G.G.G.G.F.m.n.n.n.b.b.b.b.k.b.m.H.H.U.U.H.U.~.'.'.'.~.T.~.Y.U.U.U.U.U.Y.H.H.H.H.H.G.G.G.H.H.H.H.H.H.H.H.H.H.H.H.H.G.G.G.n.n.n.n.n.m.G.G.U.Y.Y.U.U.~.~.Y.Y.~././.(.].^.G.O.k + = p b l k k k k k p j k l k l l b b l l l l b b v k v l k k k k k k k k k k k k k k k k k p p p p p p k k l l l l l l b b b c c b Z Z m c c - y 7 p pXpX[.P.U.U.U.U.H.H.U.H.H.H.H.U.U.U.U.Y.Y.Y.Y.Y.U.U.U.U.U.U.H.H.H.H.H.U.H.G.G.G.G.G.G.H.H.H.H.H.H.H.H.H.H.H.U.U.H.L.R.L.x.%.c e , : i b m A S A m m b m m m b b b b b ",
"l l l l l l l l l l l l l l l v v k k k k k k k l b m m m m m Z m m m m A A A A A Z m m m m m m A A A A A A A A Z A S S K K K K K K I K G G ) O.O.c > 7 c ^ #.e.y.%.#.&.Q g > > G Z c c s , q ) e.k.b.k.k.k.k.k.h.h.r.r.r.r.h.h.k.k.k.r.r.h.r.e.r.e.e.e.e.e.e.e.r.e.7.e.g.h.h.r.h.g.r.e.r.r.g.g.r.r.r.r.r.r.r.r.h.k.b.n.n.n.n.b.k.n.F.n.F.H.G.b.r.k.x.x.M.b.x.M.c.s.i._ w - y m A A S S S S A A S S I I K S S K S S S S S S S S K K K S S S S S S S S S S K K K K K K I I I I I K K K K K I I I I I I I I I ! ! ~ Q K ! I A - T.iX].J.J.n.U.U.U.G.G.J.J.J.J.J.G.G.G.G.G.G.m.n.n.n.b.n.H.U.H.H.U.H.Y./.'./.~.Y.Y.Y.U.H.U.U.U.U.U.U.U.H.H.H.H.H.H.G.G.H.H.H.H.H.H.H.H.H.H.H.H.G.G.n.n.n.n.n.G.G.G.Y.~.Y.U.U.~.~.U./.Y.J.H.J.J.J.H.V.@.v - - y k y j k k k j k v l l l n b l l l k l l l k k k l k k k k k k k k k p j j j j j p p p p p p p k k l l l l l l l v v v k k k v k p w e 7 : c yX9XuXL.T.G.G.T.Y.n.m.T.H.H.H.H.H.U.U.U.Y.Y.Y.Y.U.U.U.H.U.U.U.H.H.H.H.H.U.H.G.G.H.H.G.G.H.H.H.H.H.H.H.H.G.H.H.H.H.U.U.L.G.L.T.y.0.G , : j l A S A m m m b b b b b b b b ",
"l l l l l l l l l l l l l l v k v k k k k k k k l b m m m m Z A b b b m A A A A Z Z m m m m m m A A A Z A A A A Z A A S S K K K I S S I Q I G G I G Z j > : k ( &.( ( G 7 : O.<X1X<X<X<XP.Z > g 0.t.b.k.k.h.h.h.h.h.r.r.r.r.h.k.b.k.h.r.r.h.h.e.e.e.e.e.e.e.e.e.g.r.e.r.h.k.h.g.k.g.e.e.r.g.h.g.r.r.r.r.r.r.r.r.h.z.n.n.b.k.k.k.k.n.F.b.n.J.H.b.r.n.x.y.x.M.x.m.).L.P.P.&.j < 7 Z Z S A S A S A S K I I K S S K K K S S S S S S S S S S S S S S S S S S S S K K K K K K I I I I K K K K K K I I K K K I I I I ! S ~ I S H 9 = [.pXOXY.Y.H.U.J.n.L.L.U.U.U.L.J.H.n.m.m.G.G.m.n.n.m.n.n.H.U.H.G.H.H.T.'.'./.Y.Y.Y.Y.U.U.Y.Y.U.H.H.H.H.H.H.H.H.H.H.G.G.G.H.H.H.H.H.H.H.H.H.H.H.G.G.n.n.n.n.m.G.G.G.Y.Y.U.H.U.T.Y.m.Y.U.U.U.U.J.^.].T.P.%.w X - e w j k k k j k l c l l n c l l k k l b b k p k v k k k k k k k k k p j p j j j j p p p p p p k l l l l v k k p j j p w e e e e 7 : o j c tXpXuX2XP.m.U.U.n.m.U.U.n.H.H.H.H.H.H.U.U.Y.Y.U.U.U.H.H.H.U.U.H.H.H.H.H.H.H.H.H.H.U.U.U.H.H.H.H.H.H.G.G.G.G.H.H.G.H.Y.R.m.T.R.P.Z.R.b.0 : 9 j m Z m b b Z b b b b b b b b ",
"l l l v v l l l k k k k k k k k k p p p p k k v l b m A A m m b l b b b m m Z Z m m m b b m m m Z Z Z Z A Z Z Z A A S S K K S S S S S S K K K K K I ! ` ( H 9 # w l 7 * Q &XuXyX`.v.0.q.%.H 9 - ( m.M.x.M.e.e.x.r.r.r.r.r.h.k.k.r.r.t.h.t.r.r.r.r.r.e.e.e.e.e.e.r.r.r.g.k.k.h.r.h.h.r.e.r.k.k.g.h.r.r.r.r.r.r.r.b.b.b.h.r.r.h.k.h.h.b.G.H.G.b.k.m.n.n.G.m.n.n.H.~.Y.T.L.x.#.c o 7 H c S G S K b S S K K K K S S S S S S S S A A A S S S S S S A A A S S S S S S K K K K K K K S S S S S S K K K S K K K K K I I ~ Q G m l 9 i yXiX].U.H.G.U.n.G.H.H.H.G.F.n.n.n.b.b.b.b.b.b.b.n.n.n.n.G.H.H.H.H.Y.~./.~.Y.U.U.U.U.U.U.U.H.H.H.H.G.H.H.H.H.H.H.G.U.H.H.G.H.H.H.H.G.G.H.H.H.H.G.G.G.m.n.n.n.G.H.U.~.Y.H.H.U.U.U.H.Y.U.U.U.U.Y.~./.~.T.H.%.Z r * * 0 > 0 k f w k c c c b k Z k v l v v l v l k k k k k k k k k k k p p p p j j j p y l u y n a p l m 7 p p < > > e s : X * 3 7 w z OX6XpXpXpX2X~.n.G.G.G.G.G.G.G.G.H.H.H.G.H.H.U.U.Y.U.U.U.U.U.U.U.U.U.U.H.H.H.H.H.H.H.H.Y.T.Y.U.H.T.Y.U.H.H.H.U.Y.~.Y.Y.U.U.H.H.H.U.Y.U.U.L.n.#.D > * c Z m A b M m m m b b b c l ",
"l l l v v v l l k k k k k k k k k k k k k v l l l b Z A A m b b b b b b b m m m m m b b b b m m m m m m m m m m Z A S S S S S S S S S S S S K K S K Q ~ ` ] ` ` ! b k >.5XuX=Xw.] ! K K I S y - R P.P.y.t.x.b.r.r.r.r.r.r.g.g.g.r.r.t.t.t.r.r.r.r.r.e.e.e.e.e.e.r.e.r.r.h.h.r.r.r.g.r.e.r.h.k.h.h.g.r.r.r.r.r.e.h.k.b.k.g.r.g.h.r.h.b.G.H.n.b.b.G.n.b.b.b.b.m.H.^.Y.Y.Y.|.k.| j * v G Z S A K S S S S S S S S S S S S S A A A A A A S S S S A A A A S S S S S S K K K K K K S S S S S S S S S S S S S K K K K K Z ) ! k w = P.uXiX'.H.G.G.U.H.U.G.G.G.m.n.n.n.b.b.b.b.b.b.b.b.n.b.n.G.H.H.U.U.U.Y.~./.~.Y.H.H.U.U.U.U.U.H.H.H.H.H.H.H.H.H.H.H.H.H.G.G.G.H.U.U.H.G.G.H.H.G.G.m.n.n.n.n.n.G.H.U.Y./.T.U.H.U.U.U.U.U.U.U.U.U.Y.~./.Y.]./.n.k.k...j s : . o 0 Z c 0 k e w j k c c j v v v v k k k k k k k k k k k k p p p p j j p p p l y y p y 9 9 = k = = : * j 7 3 4 W +XrX9X9XpXpXpXiX9X,X'.H.b.G.G.G.G.G.G.G.G.H.H.H.H.H.U.U.Y.Y.U.U.U.U.U.U.U.U.U.H.H.H.H.H.H.H.H.U.Y.~.~.Y.U.Y.U.U.U.U.Y.~.~.Y.Y.U.U.H.H.H.H.H.U.U.U.Y.U.k.#.z 4 : c l A b m m m m m b b c l ",
"l l l v k k k k l l v v v v v v k k k k v l b b b m A A Z m b b b b b b b b b b m b b b b b b m m m m m m m m m Z A A S S S S S S S S S S S K K K I Q ! ~ O.0.s.=X:X0XuXqXQ.] S K ! Q K ! ( S w : y.m.t.y.t.x.e.e.r.r.t.h.g.r.r.r.r.t.t.r.r.r.r.r.r.r.e.e.e.e.e.e.e.e.r.r.r.r.e.e.r.r.e.r.h.k.k.k.h.r.r.r.r.r.e.g.h.k.k.h.g.g.g.r.h.b.G.G.n.b.n.G.b.k.k.b.b.G.U.T.L.L.T.~.T.x.( 7 z 0.G S J H S S A S S S S A A A A A A A A A A A A A S S A A A A A A S S S S S S S S S S S S S S S S S S S S S S S S L K K K K I H I v # >.uXpX0X'.H.n.n.G.b.n.n.n.n.n.n.b.b.b.b.b.b.b.b.b.b.n.k.n.G.H.H.U.Y.T.Y.~./.~.U.H.H.U.U.U.U.U.H.H.H.H.H.H.G.G.H.H.H.H.G.G.G.H.U.Y.Y.Y.H.H.H.H.G.G.n.n.n.n.n.G.H.Y./.'./.T.U.H.H.U.U.U.U.U.U.U.Y.Y.T.~.Y././././.].[.[.aX>X*.X o > 3 > 7 , w Z j j v p v v v v k k k k k k k k k k k k j j p p j j k k y a p y p v y 1 = # c 7 c #XeXaXrXiXiXaXiXpXpXiXaX7X*X~.H.G.G.G.G.G.G.G.G.G.G.G.H.H.H.H.H.U.Y.Y.Y.U.U.U.U.U.U.U.U.H.H.H.H.H.H.H.U.U.Y.~./.~.Y.U.J.U.U.U.Y.Y.~.~.U.U.H.H.H.H.H.H.G.H.H.H.U.T.U.n.#.z * 7 b m Z b m m m m b b c l ",
"l l l l k k l l l l l l l l l l v k k k l b b m m A A A Z b b b b b b b b b b b b b b b b b b b b b b b b b b b m Z A A S S S S S S S S S S K K K I ! ! I ! ] @.@.s.v.i.-.( ! ` Q ~ ~ I ! ` K k . c ( y.M.y.r.r.e.r.r.h.k.k.h.h.r.r.r.r.r.r.r.r.r.r.r.e.e.e.e.e.e.e.e.e.r.e.e.7.7.e.r.r.r.g.k.b.k.h.g.r.r.r.r.r.h.k.k.h.h.r.r.r.r.k.n.H.G.b.b.m.n.b.k.k.b.n.H.U.R.G.G.R.~.'.m.#.j z T.) S J Z S S A A A A A A A A A A A A Z m m A A A A A A A A A A A A S S S S S S S S S S S S A A S S A S S S S S S S L K K K ] m Z l # P.uX9X'.m.k.b.m.H.H.U.n.b.b.b.b.b.b.b.b.b.b.b.b.b.b.n.b.n.G.H.H.H.U.Y.U.T./.T.H.G.G.U.U.U.H.H.H.H.H.H.G.G.G.G.G.H.H.H.H.H.H.U.Y.T.T.T.U.U.U.H.H.H.G.G.n.n.G.H.U.~./.'.T.U.H.G.G.H.U.U.H.H.U.U.Y.Y.Y.Y.Y.Y./.~.U.T.<XiXuXeXL.J j j w j w o * c w j c c v v v k k k k k k k k k k k j j k k j p k k p p y u a p p v 8 $ m =XaX9XiXpXpXpXiXaXiXpXaX3X].'./.U.n.b.n.H.U.U.G.G.G.G.G.G.G.G.G.G.G.G.H.U.Y.T.Y.U.U.U.U.U.U.U.U.U.H.H.H.H.H.H.Y.Y.~././.T.U.H.H.U.U.U.U.U.H.H.H.H.H.H.H.H.H.H.G.H.H.G.H.U.U.H.H.^ c , J Z S b m m m m b b c c ",
"l l l l l l l l v v v v v v v v v v k l l b b m m A A A m b b b b b b b b b b b b b b b b b b b m b b b b b b b m m Z A A A A S S S S S S K K K S K ! ~ ~ ~ ~ ~ ~ ` K m K ~ ! K Q I K I Q ! K A w 7 > G 0.0.y.r.r.t.k.b.b.b.b.b.r.r.r.r.r.r.r.r.r.r.r.e.e.e.e.e.e.e.e.e.e.e.7.e.7.e.r.r.r.r.h.b.h.h.g.r.r.r.r.g.n.b.k.h.r.r.r.r.h.b.G.H.m.b.b.G.b.b.k.b.n.H.U.U.J.G.H.Y./.'.m.#.s 3 }.( G Z Z S A A A A A A A A Z Z Z m m m m m Z Z A A A A m m A A A A A S S S A S S S S A A A A A A A S S S A S L L L L K K K K ! A v 1 9 Q.M.x.n.n.m.G.n.G.H.b.b.b.b.b.b.b.b.b.b.b.b.b.b.b.n.n.G.H.H.H.H.U.Y.U.Y.T.Y.H.m.G.H.U.U.U.H.H.H.H.H.G.G.G.G.G.H.H.H.H.H.H.U.Y.Y.Y.Y.U.U.H.H.H.H.H.H.n.m.G.H.U.Y.~.~.U.H.G.G.G.H.U.Y.H.H.U.U.U.Y.Y.Y.J././.H.H.].#XOX<X&X|.x.OX8X0XtX$XG * e Z Z c k v v k k k k k k k k k j k j p p k k k j j p p p k 9 k y y 8 + = 0XpXpXpXpXpXpX[.>X+X].]./.H.G.Y.H.H.H.U.U.H.G.n.m.m.m.m.m.m.m.G.m.m.m.G.H.U.Y.Y.Y.U.U.U.U.U.U.U.U.U.U.U.H.H.H.H.Y.~././.~.Y.H.G.H.H.H.H.H.G.G.m.H.H.H.H.H.H.H.H.H.H.H.H.G.H.H.H.T.e.&.7 e Q K A m m m m b b c c ",
"l l l l l b b b b b b b b b b b l l l l l b m m m A A Z m b l l b b b b b b l l b b l l l l b b b b b b b b b b m m m m m A A A S S S S S K K K K K ! ! ~ ~ ~ ~ K ! ~ ~ ! S S ~ ( Q I ! ~ Q I ! H k , > w c O.0.t.k.b.n.n.n.b.k.r.r.r.r.r.r.r.r.r.r.e.e.e.6.6.6.6.e.e.e.7.7.e.e.r.e.r.r.r.r.g.k.g.g.r.r.r.r.h.h.F.n.b.h.g.g.g.h.k.b.G.H.n.k.b.m.k.k.b.b.G.U.U.H.J.H.Y./.{.'.G.$.k * L.( S Z Z Z Z Z A A A A Z m m m m m m m m m m m Z m Z Z m m m Z A A A A S S A S S S S A A A A A A A S S S S L L L L L K K K S ! K Z 8 X k P e.H.m.n.n.h.k.k.n.b.b.b.b.b.b.b.b.b.b.b.b.b.n.n.H.H.H.H.H.U.U.U.H.U.U.U.H.G.G.H.Y.U.U.H.H.H.H.H.H.H.H.H.H.H.H.H.G.G.H.U.U.U.U.U.U.H.H.H.H.H.H.H.H.H.U.Y.Y.T.T.Y.H.H.G.G.H.U.Y.Y.H.H.H.U.U.U.U.U.U.Y.T.T./.'.T.L.T.~.}.&XpXpXpXiXpXM.j e O.G k j v v k k k k k a k k k k j p p p k k k p j p p p p 9 j w u < - Q tXpXpX$X$X$XM.OXn.Y.~.G.G.~.~.G.U.U.Y.U.H.G.n.n.n.n.n.n.n.n.n.n.m.m.n.m.G.H.U.Y.Y.U.U.U.U.U.U.U.Y.U.U.U.U.H.H.U.Y.Y.~.~.Y.U.H.G.H.H.H.H.H.H.G.G.G.G.G.G.G.H.H.H.G.H.H.H.H.G.G.G.G.G.0.G X ( ! U m m m m m b c c ",
"l l l l b b m m A A A A A A A A b b b b b b m m m m Z m b b l l l l l l l b b b l l l l l l l l b b b b b b b b b b b m m Z A A A A S S S S K K K I Q ! Q I Q Q ! ! I ~ ( K S ! ! I I ! Q K K I G H c k 7 > c G %.0.t.M.n.M.k.h.h.r.r.r.r.r.r.r.r.e.e.e.6.6.6.6.6.7.e.e.6.7.e.r.h.r.e.r.g.r.r.g.r.r.r.r.r.r.h.b.n.n.b.b.k.k.k.k.b.b.n.G.n.k.k.b.k.k.k.k.m.U.U.H.L.U./.'.'.'.H.0.H X t.( Z J Z b m m m m m m m m m m m m b b b b m m m m m m m m m m Z A A A A A S S S S S S A A A A A S S S S S L L L K K K K R ! S Q K j m o Z 0.H.b.k.n.b.H.G.n.b.b.b.b.b.b.b.k.b.b.b.b.b.n.n.H.G.m.G.H.U.H.H.H.H.H.H.H.H.H.H.Y.Y.U.H.H.H.H.H.U.U.Y.Y.Y.U.H.H.G.G.H.U.Y.Y.U.U.Y.Y.U.U.H.H.H.H.H.U.Y.~.~.~.Y.U.G.H.H.H.H.U.U.Y.H.H.H.H.U.U.U.U.T.H.U.'.'.U.R.{.].{.~.~.{.$X&X<XT.0.k * %.G v b v v k k k k a k k k k k j j p p k k k p j p p p y 9 j 9 w - j %XpXpX[.).T.m.'.Y.].Y.H.T.Y.n.n.Y.H.G.G.n.n.m.m.G.n.n.n.n.n.n.n.n.G.G.G.G.H.H.U.Y.Y.U.U.U.U.U.U.U.U.U.U.U.H.H.H.H.H.U.Y.Y.U.H.H.H.G.G.G.G.G.H.H.H.G.G.G.G.G.G.G.G.G.G.G.H.H.G.G.G.n.U.r.O.> S w.~ m m M m m b c c ",
"l l l b b m Z A m m m m m m m m m m b b b m m Z b m m m b l l l l l l l l b b b l l l l l l l l n l l l l l l l b b b b m m A A A A A A S S K K A K ! ! I I I Q I ! K S I ! I ! K I ! ! ! ! ! ! ( I Q %.O.c w < ) O.0.h.b.b.h.r.h.r.r.r.e.r.r.r.e.e.e.6.6.6.6.6.6.7.e.e.6.7.e.r.k.r.e.r.h.r.e.r.e.r.r.r.r.g.b.n.n.b.b.b.n.n.b.b.b.b.n.n.b.h.h.k.h.k.h.k.n.U.Y.H.U.Y./.'.'./.G.0.F . &.Q c b Z m b b b m m b b b m m b b b b b b m m m m m m m m m m Z Z A A A A S S S S S S A A A A A S S S S S L L K K K K R Q K K ! S ! p 9 j '.>XY.n.n.k.n.k.b.b.b.b.b.b.k.k.k.b.b.b.b.b.n.n.G.n.b.b.G.H.G.n.H.G.G.G.H.H.H.G.Y.Y.U.H.H.G.H.H.U.Y.T.~.T.Y.U.H.H.H.H.Y.Y.~.Y.Y././.T.Y.U.U.U.U.m.H.U.Y.Y.U.H.G.m.G.G.H.H.H.H.H.H.H.H.H.H.U.U.U./././.Y.Y./.T.U.Y.T.'.).~.{.{.R.P.M.Z . y.( v k v v k k k k k k k k k k k p p p k k k p j p p p p y k 8 7 + c pXpX0X[.m.{.].M./.H.Y.Y.H.U.~.T.G.H.H.G.G.H.H.m.b.G.G.G.m.m.m.m.F.G.G.G.G.H.U.U.Y.Y.U.U.U.U.U.U.U.U.U.U.H.H.H.H.H.G.H.U.H.H.H.H.U.H.G.G.G.m.m.G.G.m.m.n.n.n.m.m.G.G.n.n.G.G.G.m.G.H.Y.M.&.J w E.~ m m m m m m c c ",
"l b b b m Z A A m m m A A S A A A Z b b m m m b b b b b l l l l v v l l l l l b l l l l v k k k l l l l l l l l l m m m m Z A m m m Z Z A A S S S K I I I Q Q I I I I I I I I I Q I I I I I I Q I ! ! ~ O.O.H 7 X c Q ( k.e.y.e.k.h.r.e.e.r.r.r.e.e.e.6.6.6.6.6.6.6.7.e.e.r.h.k.r.g.h.k.h.g.r.e.r.r.r.r.g.k.n.G.k.b.b.n.n.b.b.x.b.b.b.b.k.k.k.k.k.h.n.k.m.T.H.H.H.Y.OX].Y././.b.^ s v 0.G k Z k b m m m m Z b v b b b b b b b b b b m m m m m m m m A A S S S S S S S S S S S S m A S S S S S K S L K K K ! K S K S ! S S G p : [.iXY.n.k.b.r.m.b.b.b.b.b.b.b.b.b.b.b.b.b.b.n.m.m.n.n.n.n.n.n.n.m.m.G.G.H.H.H.H.U.H.H.H.H.H.H.U./.Y.U.U.U.H.H.U.Y.Y.Y.~.Y.U.Y./.U.U.U.U.Y.U.H.G.U.U.H.H.H.G.G.G.H.G.G.G.G.H.H.H.G.H.H.U.U.U.U.U.T.~.Y.U.U.T.T.R.T.T.T.T.T.~.).~.T.t.Z o y.( e k k k j j k k k l k k k p p j k k v l l k k p p j y c p > e > 1XuXpX[.R.{.~.U.~.Y.Y.U.U.U.H.H.H.H.G.G.G.G.m.n.n.n.G.G.n.n.n.n.m.G.G.G.H.Y.U.H.H.U.Y.Y.U.U.U.H.H.U.H.H.H.G.G.G.G.H.H.H.H.H.H.H.H.H.G.G.m.n.n.n.n.n.n.n.n.n.n.G.G.G.m.n.n.m.m.n.n.n.G.H.0.O.l -  X+.A A M m m b b c ",
"n b b m Z A A A m m Z A S S S A A m b b b m m b m b b b l l l l l l l l l l l l l l l v k k k k l l l l l l l l b m A m m A A Z A A A A A A S S S K K K I I I I I I I K I I I I Q I I I I I I Q I ! ! Q ( ( K l Z e > w Z O.e.h.r.r.r.r.r.r.r.e.e.e.e.6.6.6.6.6.6.6.e.e.e.r.r.h.g.h.h.h.g.r.r.e.r.r.e.r.h.b.n.b.h.h.k.b.b.x.k.h.k.b.b.b.k.k.k.k.k.h.n.b.G.~.U.H.Y.~.OX].Y././.m.6.k 7 e.Q Z c Z Z b b l k j l A l l l l b b b b b b m m Z A A A m A A S S S S S S S S S S S S S Z A A A A A S K K K L S S Q ` @.K S b O.Z c p : &XpXY.k.h.n.h.b.k.k.b.b.b.b.b.b.b.b.b.b.b.b.n.n.m.n.n.b.n.n.n.b.n.n.G.G.H.H.H.H.H.H.H.H.H.H.H.H.Y.U.H.U.U.H.H.U.Y.U.Y.Y.U.H.U./.Y.U.U.U.U.Y.U.U.U.U.H.H.H.G.G.G.H.G.G.G.G.H.H.H.H.H.H.U.U.Y.Y.Y.Y.Y.Y.U.U.Y.Y.U.~.~.~.~.~.~.~.T.P.y.G o 0.( c k k k p k k v l l l k k j p j k k k l l k k p p p 7 A 9 j = p 0XpX9X{.R.{.~.Y.~.Y.U.U.U.H.H.H.H.H.G.G.G.m.n.n.n.n.n.n.n.n.n.m.G.G.G.G.H.Y.Y.U.H.U.U.U.U.H.H.H.H.H.H.H.H.H.G.G.H.H.H.H.H.H.H.H.G.G.n.n.n.n.n.n.m.m.G.G.n.n.n.n.n.G.n.n.n.n.n.n.n.n.G.e.e.#.X H $X-.A A M m m b b b ",
"l b m Z A A A A A A A A S S S A m b b b b b b b m m b b l l l l l l l l l l l l l l v k k k k k l l l l l l l l b A S A Z A S A A A A A A A S S K K K K K K K I K K K K K I I I I I I I I I I I I ! ! K K ! ! I t.Q Z c * k | e.r.r.e.r.r.r.r.e.e.e.6.6.6.6.6.6.6.6.7.e.r.r.h.h.h.h.h.g.r.r.r.e.g.r.e.r.l.b.b.h.g.h.h.h.h.h.h.g.k.k.k.k.h.h.h.k.k.h.n.n.H.~.U.H./.(.].'.Y./.'.U.6.x @ O.G D 7 w m l b A m l b S l l l l b b b b b m m A A S S S A A S S S S S S S S S A A A A A A Z m m A A S S S R ! ) K S R ( J &.G w ( w i v 9XpXU.r.t.G.k.h.k.k.k.k.k.k.b.b.b.b.b.b.k.b.b.n.m.n.b.b.n.n.n.b.F.F.G.G.H.H.H.H.H.H.H.H.H.H.H.H.U.H.H.U.U.H.H.H.U.U.U.U.H.H.U.~.Y.U.H.H.U.U.U.U.U.H.H.H.H.G.G.G.G.G.G.G.G.H.H.H.H.H.H.U.U.Y.Y.Y.U.Y.Y.U.U.U.P.U.L.U.R.T.~.~.~.).).0.Z o t.( v j j k p k k l n b l l k k j j k k l l l l k k k k j c y e , e aXpX>X~.Y./.T.Y.~.U.U.U.H.H.H.G.G.G.G.m.n.n.n.n.n.n.b.b.b.b.n.G.H.H.G.G.U.Y.Y.U.H.U.U.H.H.H.H.H.H.H.H.H.H.H.G.G.H.H.H.H.H.H.H.G.G.m.b.n.n.n.G.G.G.G.G.G.m.n.n.n.n.n.n.n.n.n.n.n.n.n.k.#./ 7 , [.2X` M A M m m m m b ",
"l b m A S S A A A Z m A S S A A m b b b b b b b Z m b b l l v v l l l l l l l l l v k k k k k k v k k k l l b b Z S S S A S S S S S A A S S S S K K K K K K K I K K K K K K I I I I I I I I I I I ! Q K K ! ( ( O.&.t.( > j y.{.h.r.e.r.r.r.e.e.e.e.6.6.6.6.6.6.3.3.6.e.g.h.h.h.k.h.g.r.r.r.r.r.r.r.g.h.b.b.k.h.g.r.g.g.h.g.r.r.h.h.k.h.h.h.h.k.k.h.n.n.U.~.H.H./.(.]./.~././.Y.r.G o 7 , j c Z c v v b m b v k l l n b b b m m m m A S S S S K A S S S S S S S S S A A A A Z Z A Z Z A S S A m G Z l Z R ( O.&.O.Y G Z k j o 3XpXaXG.t.k.n.h.h.k.k.k.k.k.k.k.k.k.b.k.k.k.k.b.n.n.n.b.b.n.n.n.b.F.F.G.G.H.H.H.H.H.H.H.H.H.H.H.H.H.H.H.Y.U.H.H.H.H.H.H.H.H.H.Y.~.U.U.U.U.U.U.U.U.H.H.H.H.H.H.G.G.G.G.G.G.G.G.H.H.H.H.H.U.U.U.Y.Y.U.Y.T.Y.U.U.U.P.R.Y.T.'.{.{.{.[.P.x.G . x.Q k p j k k k l b b b l l v k k k k k l b b b l l v l Z w w 7 , Q aXpX[.T.Y.~.Y.T.~.H.H.H.H.G.G.G.G.G.n.n.n.n.n.n.b.b.b.b.b.b.n.m.G.H.G.G.U.Y.Y.U.H.U.H.H.H.H.G.G.G.H.H.H.H.G.G.G.G.H.H.H.H.H.G.G.n.n.b.n.n.n.m.G.G.G.G.G.m.n.n.n.n.n.n.n.n.n.n.G.n.b.6...e : L.8XE.S M A M M m m m m ",
"b m Z A S A A Z m m m m Z A m m b b b b b b b m Z m b b l l v v k k k l l l l l v v k k k k k k k k k k l l b m A S K S S S S S S S S S S S S S I K K I I K K I K K K K K K K I I I K K K K I I I U U I ! ~ ~ ! Q ( %.G c w T.aXn.h.e.r.r.e.e.r.e.0.6.6.6.6.6.6.6.6.7.e.g.h.h.g.h.h.r.r.e.e.r.r.r.g.k.b.b.k.h.k.g.g.g.g.g.g.r.r.h.h.h.h.r.t.h.k.b.h.n.n.U.T.H.H.~.(././././.Y.U.b.$.v 7 * * 7 > k l b l l b b b b b m m Z A A A Z A S S K K K K S S S S S S S S S S A A A Z m m A A A S S S b l f j v k j c Z G Z D k c e o *XpXiX2Xk.h.b.k.r.k.h.k.k.k.k.k.k.k.k.k.k.k.k.k.b.n.n.n.b.b.n.n.n.b.m.m.G.G.H.H.H.H.H.H.H.H.H.H.H.H.H.H.U.Y.Y.H.H.U.H.H.H.H.H.U.Y.~.H.U.Y.Y.Y.Y.U.U.H.H.H.H.H.H.G.G.G.G.G.G.G.G.H.H.H.H.H.H.H.U.U.Y.J.U.Y.Y.U.H.L.P.T.T.T.T.T.P.R.T.t.m.G   t.( c j k k v l l b b m b l l k k k k v l b b b b l l l c j > e * &XpXpX/.~.~.Y.U.Y.Y.J.H.H.H.G.G.m.m.m.n.n.n.n.n.b.b.b.n.b.b.b.b.n.n.m.m.G.H.Y.Y.H.H.H.H.H.H.G.G.G.H.H.H.H.G.G.G.G.G.G.H.H.H.G.G.G.n.n.n.n.n.n.n.m.m.m.m.m.m.m.m.G.G.G.n.G.n.n.m.G.n.k.$.E X M.pXL.K S A A A A A A Z Z ",
"m m A A A A m m b b b b m m b b b b b b b b b m m m b b l l l l k k k k v l l l l l k k k k v v l l k v l b m A S K K S S S S S S S S S S S K K ! I I ! ! K K I K K K K K K K K I K K K K K K I I I ! ! ( ( ! I &.O.( Z c o T.pXG.k.e.r.r.e.e.r.e.e.6.6.6.6.6.6.r.e.e.e.r.h.r.r.g.r.r.r.e.e.r.r.e.h.b.b.k.h.h.b.g.g.g.g.g.g.g.g.t.t.t.r.r.t.h.k.b.h.n.n.H.Y.G.H.Y.(./.Y././.U.J.Y.b.M.t.O.k i . * 1 k m m m A A A A A A S S S S A S S K K K S S S S S S S S A A A A A A Z m m m m Z A S S m v p r , o . , w v j c D D 7 > *XiXrX2XU.e.h.k.h.t.b.h.h.k.k.k.k.k.k.k.k.k.k.k.b.n.G.n.n.b.b.b.n.b.b.m.m.G.G.H.H.H.H.U.U.H.H.H.H.U.U.H.H.Y.~.Y.U.H.U.H.U.H.H.H.Y.T.T.U.Y.~./.~.Y.U.U.H.H.H.H.H.H.H.H.G.G.G.G.G.G.H.H.H.G.G.H.H.U.U.Y.J.H.U.U.U.H.L.R.T.L.G.m.x.y.r.x.M.( : : T.&.v c v v l b b b b b l l l v v l l l l b b b b l l k f j e , G pXpX0X~.~.T.Y.U.Y.U.J.H.H.G.G.m.m.n.n.n.n.n.n.n.n.b.b.n.n.b.b.b.b.n.n.m.m.H.U.U.G.G.H.H.G.G.G.G.G.G.G.G.G.G.m.m.m.m.m.G.G.G.G.G.n.n.n.m.n.n.n.n.n.n.n.n.n.n.n.m.G.G.G.n.G.G.n.G.H.b.r.#.x X 7X%X~ b K A A A A A A Z Z ",
"A A A A Z m m b b b b b b b b b l b b b l l b m m b b b l l l l k k v v v v k k l l l l v v l l l l l l b m A S S K I K S S S S A S S S S K K I ! I ! ` ( I K I I I K K K K K K K K K K K K K K I U ! ~ ~ ~ ~ ! ( O.Q G j X <XpXG.h.e.r.t.e.e.r.e.e.e.e.6.e.0.e.r.e.6.e.r.h.h.r.r.r.r.r.r.r.r.r.r.g.h.h.h.h.k.b.g.g.r.r.r.r.g.g.r.h.t.r.r.t.h.k.G.k.n.n.H.Y.G.H.Y.(.Y.U./.^.H.U.].Y./.'.}.'.[.0.7 $ = k S m l b S S S S S S S K S S K K K S S A A A A A A A A Z A A A m m m m m b m m m l k y 9 e k.<X{./ 7 , : X O & q Y.iXiX0XU.r.r.k.h.k.k.h.k.k.k.k.k.k.k.k.k.k.k.k.k.b.m.H.n.n.b.b.b.n.b.b.m.m.G.G.H.H.H.H.Y.U.H.G.G.H.U.Y.H.U.Y.~.Y.H.H.U.H.U.H.H.H.Y.Y.Y.Y.T.~.~.T.Y.U.U.H.H.H.H.H.H.H.H.G.G.G.G.G.G.G.H.H.H.H.H.H.U.U.Y.Y.J.H.U.Y.Y.Y.T.T.G.x.y.O.Q Q ( ( > , &.[.( v c c c b b b b b b l l l l l l l b b b m m b l l v k e w , *XpXpX[.T.~.Y.U.Y.U.H.U.H.H.G.G.m.m.m.m.m.n.n.n.n.n.n.n.n.n.b.b.b.b.n.n.n.n.m.H.G.n.n.G.G.G.m.m.m.m.G.G.G.m.n.n.n.n.n.n.m.m.m.m.G.n.n.n.m.m.n.n.n.n.n.n.n.n.n.n.n.n.n.n.b.m.G.n.G.G.k.6.^ 5 D 8XO.Q I A S S S S S S H H ",
"A A A Z m m b b b b b b b b b l l l b l l l b m b b b b l l l l k k v v v v k k l l l v v l l l l l l l b Z S S S K I K S S S S A A S S K K I I ~ Q ! ] ` Q K I Q I I K K K K K K K K K K K K K I U ! ~ ! ! ~ ] ` -.H Z : w pXuXn.r.6.r.h.r.e.e.e.e.e.e.e.e.e.e.7.6.3.6.r.k.k.k.e.e.e.r.r.r.r.r.r.r.r.r.g.h.h.k.g.r.r.r.r.r.r.g.r.t.t.r.r.t.k.b.H.k.n.G.U.Y.G.J.^.(.Y.J./.~.H.U.U.Y.Y.'.{.uXpXL.m.m = k ) I S K S S S S K K K K K G K I K S A A A A A A A Z Z m Z m Z m Z m Z m b b b v j 9 9 9 2XpXpX0X*X*X+X/.@X/.[.iXiXiX7Xm.h.6.b.b.r.k.b.r.k.k.k.k.k.k.k.k.h.k.k.k.k.b.G.H.n.n.b.b.b.b.b.b.m.m.G.G.H.H.H.H.T.Y.H.G.G.H.Y.T.H.U.Y.~.Y.H.H.U.H.U.H.H.H.Y.Y.U.Y.Y.T.Y.U.H.H.U.H.H.H.H.H.H.H.H.G.G.G.G.G.G.G.H.H.H.H.H.H.U.Y.Y.~.U.U.Y.T.T.~.).G.y.O.G e X o + . # O.XXM.c S c c b b b b b n l l l l l l l b b m Z A A Z m b c l e X c pXpX9X{.Y.Y.U.Y.~.U.G.J.H.H.G.G.G.m.m.m.m.m.n.n.n.n.n.n.n.b.b.b.b.b.n.n.n.n.n.G.m.n.n.G.n.n.n.n.n.n.n.m.m.n.n.n.n.n.n.n.n.n.n.m.G.n.n.n.n.n.n.n.n.n.F.m.n.n.n.b.b.b.b.b.b.n.m.n.m.m.h.$.V * P.aX) K S A S S S S S S G H ",
"A A A A Z m m b b b b b b b b b l l l l l l l b b b b b l l l l l v k k k j k k l l l l k k k k k k k l m A A A S S S S S A m m m Z A S S K I ! ! ! ~ ! Q I I ! I I I I I K K K K K S S K K Q ! ` ~ ! _ ~ U _ ] ` +.! c e c tX1Xt.e.h.8.6.r.e.h.6.6.6.6.e.r.r.h.r.r.r.h.b.b.k.t.e.r.r.r.r.r.r.r.r.r.r.r.t.h.h.h.r.r.t.t.r.r.t.h.h.r.r.r.r.r.k.G.H.b.b.H.U.U.U.Y.T.'./.~./.Y.U.Y.H.U.U.Y.~./.'.'.M.*.7 c 0.Q S Z A A S L L K K I Q ! Q I G G G Z Z Z m S G Z b S c Z c Z S Z Z w j e y k - o Q 2XpXpX0X'./.2XiXpXiXiXpXpXaX&XU.h.h.h.h.h.h.t.r.r.t.t.h.h.k.k.k.k.k.k.k.b.b.b.n.n.n.n.b.b.n.n.n.n.n.n.n.G.H.H.H.H./.Y.H.G.H.Y.~.~.U.Y.~.T.U.H.H.U.U.H.G.G.G.H.U.U.U.U.U.U.U.U.U.U.H.H.H.H.H.H.H.H.H.G.G.G.G.G.G.G.G.G.G.G.H.U.Y.U.Y.H.U.~.~./.).T.L.%.G o - b q.b >.T.XXv.! b l l l l l l l l b m b b b b m m Z Z S A m A m b l c f e o 2XpXpX{.'.Y.Y.Y.Y.U.U.J.H.H.G.G.G.m.m.m.m.n.n.n.n.n.n.b.b.n.n.b.b.b.b.b.M.M.M.m.m.m.m.m.m.n.n.n.n.n.n.n.n.n.n.n.n.n.n.n.n.n.n.n.n.n.n.n.n.b.n.F.F.G.F.F.b.U.y.x.y.| &.$.*.e.( #.k.x.t.0.( : c 9XT.I K I S S S S S K K S A ",
"A A A A Z m m b b b b b b b b b l l l l l l b b b b b l l l l l l k k k k j k k k k l l v v l l l l l b A A A m S S S S S A A A A S S S S K Q ! Q ! ! Q K K I ! I I I I K K K K S S S S K I ! ~ ~ ! ! _ _ ! _ ] ] ] ` H f 7 [.*Xk.r.k.r.e.r.8.e.e.e.e.r.r.k.k.k.k.k.k.b.n.n.b.h.e.e.r.r.r.r.r.r.r.r.r.r.r.r.t.t.r.r.t.r.r.r.r.t.r.r.r.h.r.r.k.G.G.b.b.H.Y.U.U.Y./.'./.~.~.U.H.U.U.U.U.U.Y.Y.Y.Y.U.$.c * t.I I Z S L K K K K U U I I I P G G G Z m S Z v v l l v k Z c Z k e j w > X X : Z P.tXpXtX&XU.n.n.G.U.~.'.~.Y.Y.H.n.h.h.k.k.h.h.h.r.r.r.r.t.h.h.h.k.k.k.k.k.k.k.b.b.n.n.b.b.b.b.b.b.b.b.n.n.n.m.G.H.H.H.T.U.H.G.U.T.~./.Y.T.~.Y.U.H.H.H.H.H.H.H.U.U.U.U.Y.U.U.U.U.U.U.U.H.H.H.H.H.G.G.G.m.n.n.n.n.n.m.G.H.H.G.G.H.U.U.U.^.H.U.Y.Y.Y.T.Z.0.Q 8 <  X$Xq.s.P.v.@.S b A A b b b b b b m m Z m m m m m m A A S A m m m b l c f e 7 aXpXaX~.U.R.R.U.U.U.U.H.H.G.G.G.m.n.n.n.n.n.n.n.n.n.n.b.b.b.b.b.b.x.x.x.b.M.M.M.M.M.M.m.m.n.n.n.n.n.n.n.n.n.n.n.n.n.n.n.n.n.n.n.n.n.n.n.n.n.n.n.n.n.n.n.n.y.m.%.( Z g c c w j D ( &.3.( c # P.5Xw.A S l A S S S K K K S A ",
"S A A A m m b b b b b b b l l l l l l l l b b b b b l l l l l l l k k k k j k k p k k l l l b b b b m Z A A Z m S S S S S S S S S K K K K I ! ! I I I I K K I ! I I K K K K K K S S S K I ! ~ ` ~ ~ ~ _ _ _ _ ' ] _ +.! c * $.+XG.e.h.r.r.h.8.e.e.e.r.r.h.k.k.k.k.h.h.k.b.b.k.r.e.e.r.r.r.r.r.r.r.r.r.r.r.r.r.r.r.r.r.r.r.r.r.r.r.r.h.h.r.r.k.G.G.n.m.U.Y.Y.U.Y.'.]./.Y.Y.U.G.U.U.U.U.U.U.H.H.H.U.r.G . &.Q G Z K K K K K U U I K K G H H H Z b j w w y f v k 9 7 j w j k e 0 * c T.8X8XaXpXpXaX<XU.t.b.G.h.r.b.b.k.h.h.h.h.h.k.k.k.h.h.r.r.r.r.r.r.t.h.h.h.k.k.h.k.h.k.k.b.b.b.b.b.b.k.k.k.b.b.n.n.n.n.m.G.G.H.U.H.G.H.Y.~././.Y.T.~.Y.U.G.G.H.H.H.H.U.Y.Y.U.H.Y.Y.Y.U.U.U.H.H.U.H.H.H.G.G.G.m.n.n.n.n.n.n.m.G.G.H.H.H.G.H.H.U.Y.J.U.Y.U.U.L.M.%.( + @.2X-.M ] ~ I A m A A b p b b b m m Z A A Z Z Z Z A A A A A m m M m b l c j > 7 &X8X<XT.R.U.U.U.U.H.H.H.G.G.G.m.n.n.n.n.n.n.n.n.n.n.n.b.b.b.b.k.k.k.k.k.k.M.M.M.M.M.M.M.M.n.n.n.n.n.n.b.b.n.n.n.n.n.n.n.n.n.n.n.n.n.n.n.n.F.n.n.n.n.n.n.G.L.L.O.Z , 7 7 e 7 7 , : e w 7 < G 8XE.~ m ! S ! S S K K I K S S ",
"S S A Z m b b b b b b b l l l l l l l b b b b b l l l l l l l v l k k k k j k k j k l l l b b m m b b m m Z A A K S S S S S K K K K I I I I Q ! S K I I K K K I K K K K K K K K K K I Q ! ~ ( ` ~ ~ ~ _ _ _ _ ' ` ~ +.) Z : Z *X~.e.e.r.e.r.e.e.e.e.r.h.h.h.h.h.t.r.r.h.h.h.t.r.r.r.t.r.r.r.r.r.r.r.r.r.r.r.r.e.r.r.r.r.e.e.r.r.r.h.k.h.t.h.n.H.G.G.H.Y.~.Y.Y.~.(.'.~.U.Y.H.G.U.U.U.U.U.U.U.U.U.m.n.( 7 k O.Z G K L L L K K K L K I K G S S Z l b > * - * * , : 7 X o 3 , . Z G.pXuXpXpXtXuX8XH.m.b.b.b.b.b.b.n.k.k.k.b.b.k.h.r.k.k.h.r.r.r.r.r.r.r.r.t.h.h.h.h.h.h.h.h.k.k.k.b.b.k.k.k.k.k.k.k.b.n.n.n.n.n.G.G.H.H.H.U.Y.~././.Y.Y.Y.U.H.H.H.H.H.H.H.U.Y.U.U.H.U.Y.Y.U.U.U.U.U.U.H.H.H.G.G.n.n.n.n.n.n.n.m.G.H.G.G.G.H.H.G.H.Y.Y.H.U.Y.U.H.M.y.%.7 < $XP.n L y k l b b l k l A l b b m m m Z Z A A A A A A Z Z A m m m m b b m v > * O.{.).T.R.L.L.U.U.H.H.G.G.G.m.n.n.n.n.n.n.n.n.n.n.n.b.b.b.k.k.k.k.k.k.k.k.b.b.M.b.b.b.M.b.n.n.n.b.b.b.b.b.n.n.b.b.b.b.b.b.n.n.n.n.n.n.n.n.n.n.b.n.n.n.n.m.r.%.@.k f 2X&X%X&XL.*.Q G f 8 Z 4X5X@.Q b I I m S S K I I K S S ",
"A A A m m b b b b b b b b l l l l l b b b b b b l l l l l v v v l v k k j p k k k l l l l l b b b b l l l m A S K K S S K K I I I I I I I I I I S K Q Q I K K K K K K K I I ! ! ~ ~ ~ ~ ~ ~ ~ ~ ! ~ _ _ _ ' ' ' _ ` +.) G w w [.>Xk.e.r.e.r.e.e.r.h.k.k.k.h.h.r.r.t.t.h.k.k.h.h.h.h.h.t.r.e.e.r.r.r.r.r.r.e.e.e.r.r.r.e.e.e.r.h.k.k.k.h.h.b.G.U.G.H.Y.~.~.Y.Y.~././.Y.U.U.U.H.U.H.H.H.H.U.U.U.U.H.H.0.G * Q G Q G S S S L L L L ! ~ ! I I K Z l o b m.2X8X1X2X2X&X[.O.e G [.pXuXaXpX1X#X`.M.y.m.r.M.G.b.k.b.b.k.k.k.h.r.r.h.k.b.k.k.h.r.r.r.r.r.r.r.r.r.t.t.h.h.t.t.t.t.h.h.k.k.k.k.k.k.k.k.k.k.b.b.n.n.n.n.n.G.H.H.H.U.Y.Y.Y.Y.U.U.U.J.H.H.H.H.H.H.H.H.U.U.H.H.H.U.Y.Y.U.U.U.U.H.H.H.H.G.m.n.n.n.n.n.n.G.G.G.G.G.n.G.H.H.H.U.Y.U.J.U.Y.H.n.e.( 7 X v.2X` I A m S m l b l l l m l b b m m Z Z A S S S S S A A A S Z m A m m b m c w : > P.P.T.m.L.L.U.H.H.H.G.G.n.n.n.n.b.b.b.b.n.n.b.b.b.b.b.b.k.k.k.h.h.h.k.k.b.b.b.b.b.b.b.b.b.b.b.b.b.b.b.b.n.n.b.b.b.b.b.b.b.b.n.n.n.n.b.b.b.k.b.n.b.k.h.k.t.t.( , S sXT.w.-.*.( y.}.}. X0X0XV.S S A A S m S K K I K K S S ",
"A A m m b b m m b b b b b b b b b b b b b b b l l l l l v v k k l v k k j p k k l l b l l l l l l l l l l m S K K K K K K I I I I I I I Q Q I I K I ! ! Q K K I I I I I Q ! ~ ~ ` ` ` ` ` ` ~ ~ ! ~ ` ` _ ` ] ] _ +.] ] Q c , m.rXH.h.k.e.e.r.e.r.r.h.h.h.r.r.e.r.r.t.h.h.h.h.h.h.h.h.t.r.e.e.r.r.r.r.r.r.r.r.r.r.r.r.e.e.r.h.k.n.b.b.k.k.m.H.U.m.H.Y.~.Y.U.U.Y.~.~.U.H.U.U.H.U.H.H.H.H.H.H.H.H.Y.n.n.( : j Q I S G S L L L K K ! ! U K K L b j # A.pXiX9XaXpXpXpXtX&X<X0XaXpXpXtX#XP.m.t.M.L.x.G.n.n.n.m.n.k.k.k.k.k.h.h.k.k.b.h.h.h.r.r.r.r.r.r.r.r.r.r.r.r.r.r.r.r.r.r.t.h.h.k.k.h.h.k.k.k.k.b.n.n.n.n.n.n.G.U.U.U.U.U.U.U.U.H.H.H.H.H.H.H.U.U.H.H.G.H.H.H.H.H.U.Y.Y.U.U.U.Y.H.H.H.G.G.m.n.n.n.n.m.G.G.G.G.m.G.n.m.U.Y.U.H.U.Y.J.U.U.m.h.( j * v.4XP.b l 9 S l l m S S m v j b b m m A A S S S S K K S S S A S A A A A m m Z Z c 7 . y.L./.R.L.L.H.H.H.G.G.G.n.n.b.b.b.b.b.b.b.b.b.b.b.k.k.k.k.h.h.h.h.h.k.k.z.z.l.b.b.b.b.b.b.b.b.b.b.b.b.b.n.n.n.b.b.b.b.b.b.b.b.n.n.b.b.b.n.b.k.b.h.3.$.$.O.( o b %X4X] S K ! ( O.-.5.-.-.@.Q K m ! Z Z ~ S S K K S S S S ",
"A Z m b b m m m b b b b b b b b b b m m b b l l l l l l l k k k l v k k k p k k l l b l l v l l k l l b m A S I K K I I I I I I Q I I Q ! ! Q I ! ! ~ ! I I I ! ~ ! ! ! ! ! ~ ~ ~ ~ ` ` ` ` ` ~ ! ` ] ` ` [ [ ] ] @.! +.( c * b.pXU.r.k.e.e.r.e.e.e.e.r.r.r.e.e.e.r.r.r.r.r.r.r.r.r.r.r.e.e.e.r.e.e.r.r.r.r.r.r.e.r.r.e.r.r.k.b.n.n.b.k.n.H.H.G.n.H.Y.Y.H.H.H.U.T.~.U.H.U.U.G.H.H.H.H.H.G.G.G.G.U.M.H.%.Z > Z k Z H K K L L I ! U U K K K S n y = %XpXsX&X*XfX[.OX[.[.9XpXpX8X~.G.m.y.r.U.R.x.x.n.k.h.k.b.b.k.h.e.h.k.h.r.r.r.e.t.t.t.t.t.r.r.r.r.r.r.r.r.r.r.r.r.r.r.r.r.r.t.t.t.t.t.t.h.h.k.k.b.n.m.n.n.b.n.G.U.U.U.H.H.H.H.H.U.H.H.H.H.H.H.H.U.H.H.H.H.U.H.H.H.U.Y.Y.U.H.U.U.H.G.G.G.G.m.n.n.n.G.H.H.H.H.G.n.U.m.m.Y.~.U.H.H.Y.J.J.J.n.e.H * @.8Xv.K K m b l k l b l k v b A m m m m A S S K S S S S S S A Z S A A S S A A H S Z e X j %.H.U.H.H.H.H.G.G.F.n.n.n.b.b.b.b.b.b.b.b.k.k.k.k.k.k.h.h.h.h.h.h.k.k.k.k.k.k.l.l.z.z.b.b.b.b.b.b.b.b.n.n.n.n.b.b.b.b.b.b.b.b.b.b.b.b.m.h.y.3...F N c k 8 = P.yXQ.R ~ S S K K L R ! L A ! ! S ! b b S S S S S A A A A ",
"Z m m b b m m Z m m m b b b b b m m m m m b l v l l l k k k k k l k k k k p k k l l l l l v l l k l m A A S K K K K I Q Q Q I I ! Q I ! ! ! ! I ( ( ~ ! I I ! ~ ` ` ~ ! ! ! ~ ~ Q ! ~ ` ` ` ` ` ! ` ] ` ` [ [ ] @.=.L +.) c : G.pXH.e.k.e.r.r.e.e.e.r.r.r.h.h.h.r.r.r.r.e.e.e.e.e.e.e.e.e.e.r.r.e.e.r.r.r.r.r.t.e.e.e.e.r.t.k.b.b.b.b.b.G.U.H.b.n.H.Y.U.G.m.G.H.T.~.U.H.U.U.G.G.H.H.H.H.H.H.H.H.n.H.m.n.#.7 e 7 c Z K K S S I _ ! ! U U U K Z j X ).9X].H.Z.M.H.H.L.m.T.T.L.R.L.G.M.m.L.m.x.M.m.b.m.G.k.k.b.n.k.r.k.k.r.e.h.k.h.r.r.t.h.h.t.r.r.r.r.r.r.r.r.r.r.r.r.e.r.r.r.r.r.r.r.r.r.t.h.k.k.b.n.G.m.n.b.n.G.H.H.H.H.H.H.H.H.U.H.H.G.G.H.H.H.U.U.H.U.U.U.U.H.H.Y.T.Y.U.H.H.U.G.G.G.G.G.m.m.n.G.H.U.Y.Y.U.H.m.Y.G.G.Y./.Y.G.n.Y.H.J.U.G.e.Z o {.T.` l b l b b b m b l b Z m l m m m m A S L K A S S S A A m b S A A S S A A H G Z c j o G %.0.G.G.G.G.G.n.n.n.n.b.b.b.b.k.k.b.k.k.k.k.k.k.h.h.h.h.h.h.h.k.k.k.h.k.k.k.k.k.k.k.k.b.b.b.b.b.b.b.n.n.n.n.n.b.b.b.b.b.b.b.b.b.b.b.x.6...^ N 7 , - 9 A %XyXQ.[ K K ! A K ! L A K K ! I m S S A ~ A S S S S Z m Z A ",
"m b b b b b b m m m b b b b b b b b b b l l l l v k k k k k k v k k k k k k k k l l l v k j k k k l b A S K I Q K K I I K K K K ! ! ! ~ ` ` ~ Q ` ( ~ ~ ~ ` ] ] ( ( ( ~ ~ ! Q I ! ~ ` ` ` ~ ~ ! ~ ( ] @.=.=.=.=.@.` ` +.( Z % U.iXU.r.h.r.h.r.e.r.r.h.k.k.k.k.h.r.r.r.r.e.e.e.e.e.e.r.r.r.r.e.e.6.e.t.k.k.h.r.e.r.e.e.r.h.k.b.b.b.n.n.n.G.H.G.n.m.H.U.H.G.G.G.H.U.H.H.H.H.H.G.G.H.H.H.H.H.H.H.H.H.H.H.n.k.$.c @ , j Z v ~ ~ ! _ ] ' ' _ ! S b v o Z y.m.m.Z.H.Z.m.L.H.G.H.m.n.L.M.M.M.n.n.n.M.M.n.n.n.b.b.k.k.k.k.h.r.r.r.t.t.t.r.r.r.r.r.r.r.r.e.e.r.r.r.r.r.r.e.e.e.e.r.r.r.t.r.r.r.r.r.r.h.k.b.n.m.G.G.G.G.H.H.H.H.H.G.G.G.G.H.H.H.G.G.G.G.H.H.H.H.H.H.H.U.L.U.Y.~.Y.H.G.G.H.G.G.G.m.m.m.G.G.H.H.U.U.H.m.n.n.H.n.G.G.U.U.n.Y./.U.J.J.m.6.N o i.( l S b m n b b b b b b b b m m b b m S S K S S S S A A A A A Z Z A A A A A Z c G c w 7 * > Y r.m.G.n.n.b.b.F.b.b.b.k.k.k.k.k.m.3.n.k.b.t.h.e.t.n.r.r.3.g.e.b.k.b.z.e.7.l.z.l.k.k.k.k.k.b.b.n.b.n.n.n.b.b.b.b.k.n.n.b.n.m.n.x.3.%.Q e , Z ).:X=X0X4XP.] R K L K K K K K K K K K K S S S S S S S S A A A Z m m ",
"m m b b b b m m m m m b b b b b b b b b l l l l l v k k k k k k k k k k k k k k l l l l k k k v k l m A S K I I K I ! I K S K I U ! ~ ~ ( ( ~ ~ ` ` ` ` ` ` ] ] ` ` ` ` ~ ~ ~ ! ` ` ] ] ] ] ] ] ] ] +.@.@.@.[ ] [ ] +.&.! Z X m.iXU.r.h.e.r.r.r.e.r.r.k.k.k.h.r.r.r.r.r.r.r.r.r.6.e.e.e.e.e.r.r.k.k.k.k.h.h.r.r.t.r.r.t.k.b.n.n.b.n.G.G.G.G.n.k.n.G.H.H.m.n.m.G.H.H.H.H.H.H.H.H.H.H.H.H.H.H.H.H.H.J.H.G.n.k.| N , X w S ( ( ` ` ' _ ! ! K L S Z 9 1 k &.n.Z.n.H.H.m.n.m.G.G.M.x.M.n.n.M.M.M.M.M.b.b.b.b.b.k.k.k.k.h.r.r.r.t.t.t.r.r.r.r.r.r.r.r.e.e.e.r.r.r.r.e.r.r.e.e.e.r.r.r.r.r.r.r.r.r.h.k.k.n.G.H.H.G.G.G.G.H.H.G.G.m.G.G.H.H.H.H.H.G.H.H.H.H.H.H.H.H.U.U.Y.~.~.Y.H.H.H.U.G.G.G.G.G.G.G.G.m.G.H.H.G.n.n.n.m.n.G.G.Y.T.G.~./.U.H.U.H.t.F * O.] b m b m n b b b b b b b b b b b b Z S S S S S S S S S A A A A A A A A A A Z c Q Z j c c > . ( x.G.n.H.G.k.b.b.b.b.k.k.k.k.k.k.b.n.6.h.t.b.b.M.0.%.3.| O.2.6.e.k.k.k.k.k.l.r.k.k.k.k.k.b.b.b.b.n.n.n.b.b.b.n.b.n.n.k.k.b.x.h.%.Q , > #X9XuXT.i.i.q.] ! K K L K K K K K K K K K K S S S S S S S S A A A Z m m ",
"m m m b b m m m m m m b b b b b b b b l l l l l l l v k k k k k k k k k j j k k l l l l k k l l v b Z S S K K I K ! ! I S A K ! I ! ( ` ( ( ` ] ` ` ` ] ] ] ] ] ] ] ` ` ( ( ` ` ] ] +.+.+.+.@.@.+.+.+.+.[ ] ' ' ] [ @.O.Q Z X m.iXU.r.h.e.r.r.r.h.h.k.b.M.b.k.h.r.r.r.r.r.r.r.r.r.r.r.r.r.r.h.h.k.k.h.r.r.e.r.r.k.k.h.k.b.n.n.n.n.G.H.G.m.n.b.h.n.n.G.G.n.b.n.n.n.m.G.G.H.H.H.H.G.G.G.G.G.G.G.G.H.J.H.F.H.H.k.3.Z X 7 O.O.( O.` _ ! U K K L S S l 7 , e Q y.b.n.m.m.H.H.b.n.G.m.n.n.n.n.b.b.b.b.b.b.b.b.b.k.k.k.k.h.r.r.r.t.t.r.r.r.r.r.r.r.r.r.e.e.e.e.e.e.e.e.r.r.e.e.e.e.e.e.r.r.r.r.r.h.k.b.b.n.H.U.J.G.n.b.m.G.G.m.n.n.m.G.H.H.H.H.H.H.H.H.H.H.H.H.H.H.H.H.Y.T.Y.U.H.G.H.U.H.H.G.G.G.G.G.G.n.m.G.G.n.n.n.m.n.n.H.H.T.~.H.~.^.H.H.U.U.b.( 0 b >.K b n m n m b b b b b b b b b b m A S S S S S S S S S S A A S S S S S A A Z K c k G Q c q q ) /.].b.n.G.k.n.b.b.b.k.k.k.k.k.h.n.h.6.n.k.r.3.#.) *.G f N *.( #.6.r.k.k.h.k.k.k.k.k.k.k.b.b.b.b.n.n.b.b.b.n.n.n.z.h.b.H.U.x.3.( Z = `.qX=Xs.! _ L b L K L L K K K K K K K K K K S S S S S S S S S A A A m m m ",
"m m m m m m m m m m m m b b b b b b b l l l l l l l v k k k k k k k k k j k k k k l l l v l l b l b A S K K K K I Q Q K S S I ! ! ~ ` ` ` ` ` ] ` ` ` ` ` ] ] ] ] ] ` ( ( ` ` ` ` ] +.@.@.+.+.+.] ] ] ] ] ] ] ] [ [ +.( S Z * m.iXU.r.h.e.r.r.r.h.k.k.M.n.b.k.h.t.r.r.r.r.r.r.r.t.r.r.r.r.r.h.h.t.r.r.e.e.r.r.t.k.k.k.k.b.b.b.b.n.H.H.G.b.b.k.h.n.n.G.m.n.b.b.n.n.n.n.m.G.G.H.H.G.G.G.G.G.G.G.F.G.H.F.n.n.G.m.b.y.z e @.0.*.` ] ] _ ! I K S S S G c e : > c O.t.b.b.G.n.h.k.n.b.b.b.b.b.b.b.b.b.k.k.k.k.k.k.k.h.h.t.r.r.r.t.r.r.r.r.r.r.r.r.r.e.e.e.e.e.e.e.e.e.e.e.e.e.e.e.e.e.e.r.r.r.r.h.b.b.n.m.H.U.U.G.n.b.n.n.n.n.n.n.n.G.m.G.H.H.G.G.G.H.H.H.H.H.H.H.H.H.U.U.U.H.G.G.H.H.H.H.H.G.G.G.G.G.G.G.G.G.n.n.m.G.n.m.U.H.T.~.G.U.Y.H.H.U.U.G.$.k 7 v.O.b b A n M m m b b b b b b l b m A S S S S S S S S A A A A S S A S A A Z m v Z G G c c j > c $X1Xn.h.n.b.F.b.b.b.k.k.k.k.k.k.k.r.b.G.e.3.| R b c < * . > 7 j D ..6.r.r.k.b.k.k.k.b.b.b.b.b.b.b.b.b.b.b.b.n.k.n.H.n.h.6.$.$.Q 7 ) tX=XI I I _ K L U U L L ! L K K K K K K K K S S S S S S A S A A A m m m m ",
"m m m b b m m m m m m b b b b b b l l l l l l l l l l l k k k v v v k k k k k k v l l l l l l b b m S K K K K K ! I K K K Q ! ~ ` ( ~ ` ` ` ` ( ` ` ` ( ` ` O.+.+.O.] ` ` ` ] ] ] +.@.@.@.O.` ` _ _ _ _ ' ` ] ] [ ] ] ( R G * n.iXU.r.h.e.r.r.r.r.r.h.k.k.k.r.e.t.r.r.r.e.e.e.e.e.e.e.e.e.r.h.h.k.k.k.k.k.k.k.k.k.h.h.h.k.k.k.k.G.H.G.b.k.k.b.b.n.m.G.m.n.n.n.n.n.n.n.n.n.m.m.m.n.n.n.n.n.n.n.n.n.F.n.M.M.n.n.n.k.) 7 Q v.-.` +.` ` ~ Q ! I G S ( S c b w : w Q e.h.b.n.n.G.G.k.b.b.b.b.b.b.k.k.k.k.k.k.k.k.h.h.h.t.r.r.r.r.r.r.r.r.r.r.e.e.e.e.e.e.e.e.6.6.e.e.6.6.6.6.e.e.e.e.e.r.r.e.r.k.b.n.G.H.H.H.H.G.n.b.n.n.n.n.b.n.n.G.m.G.H.H.G.G.G.G.G.G.H.H.H.H.H.H.H.H.H.H.H.H.H.H.U.H.H.H.G.G.G.G.H.H.G.m.n.n.n.G.n.m.U.H.Y.~.G.U.U.H.J.J.U.H.%.c * P.-.b b A b A m m m b b b b b l b Z S S S A A A A A A Z Z Z Z A A A A Z m m m Z Z Z k e k k 7 > %XaXY.h.G.n.b.b.b.b.k.k.k.k.k.h.h.b.G.6.$.#.Q < - f =.$Xv.O.] > 7 v Q 6.a.k.t.k.b.b.b.b.b.b.n.b.b.b.b.b.b.b.b.n.k.r.e.e.3.O.) - S &X9Xi.U _ _ I K K I K S L I L L L L K K K K K S S S S S S A A A A Z m m m b ",
"m b b b b b b m m m b b b b b b l l l l l l l l l l v v v v l l l l v k k k k k l l l l l l l b m A S K K K I I ! I K K Q ~ ~ ~ ] ` ~ ( ` ` ` ~ ` ` ~ ~ ` ] +.@.@.@.+.+.O.O.O.+.+.@.-.-.@.] ` ~ ~ ~ _ _ _ ' ' ' ] ] ] ] Q Z % n.iXU.r.r.8.r.r.r.r.r.r.h.h.h.r.e.r.r.r.r.r.r.r.r.e.e.r.r.h.k.b.n.n.n.n.b.b.k.k.k.h.t.t.h.h.k.k.h.G.G.n.k.h.k.b.b.n.n.n.n.n.n.n.n.n.n.n.n.n.n.n.n.n.n.n.n.n.n.n.n.n.n.n.n.n.n.n.n.r.#.w G `.i.` ` ( ~ ~ ) ) ) Q Q ) K Q ( Q l e 7 z ^ #.6.k.b.b.n.b.b.x.x.k.k.k.k.k.k.k.k.h.h.t.r.h.r.r.r.r.r.r.r.r.r.e.e.e.e.e.e.e.e.e.6.6.e.e.e.e.e.e.e.e.r.r.r.e.t.h.r.r.b.m.m.U.H.H.H.H.G.m.n.b.n.n.b.b.n.m.G.G.H.U.U.H.H.G.G.G.G.G.G.H.H.H.H.H.H.H.U.U.H.H.H.U.H.H.H.G.G.G.G.G.G.G.n.n.b.n.n.b.n.U.G.Y./.H.U.J.H.J.H.H.G.%.c o P.@.l m A m A m m m b b b b b b m A S S A Z Z m m m m m m m m m m m m m m b b b k g j 7 * X ; &.aXpX'.k.n.b.k.b.b.b.k.k.k.k.k.h.t.n.b.$.$.D 7 K $XpXyXqXQ.c.).( Z e 9 H :.a.h.k.b.b.b.b.b.b.b.n.n.b.n.n.n.b.k.b.7.X...| E j 7 S ;XuX XA ] m K K K S A K I K A L L L L L L K K S S S S S S S A A A A m m m b b ",
"b b b b b b b b b b b b b l l n l l l l l l l l k k k v v l l l l l l l v v l l l l l l l l l b A S S K K K I I ! ! I I ! ~ ( ` ] ` ` ` ` ( ( ~ ( ( ` ` ] +.@.@.@.@.@.@.+.+.+.+.@.@.@.@.O.` ` ( ~ ~ _ _ ' ` ' ] [ _ ` ( S c ; /.pXU.r.r.8.r.r.r.r.r.r.h.h.h.r.r.e.r.r.r.t.h.k.k.k.k.b.b.n.n.m.G.n.n.b.k.k.h.t.r.t.r.r.h.h.k.k.h.G.G.b.k.h.k.b.k.b.b.b.b.n.n.n.b.n.n.n.n.n.n.n.n.n.n.n.n.n.n.n.M.n.n.n.n.n.n.n.n.k.$.g Z %Xi.@.~ ( ~ ) ) ~ ~ ( ) G ( ` ~ ( ` S e ; s q z 2.k.r.z.k.k.k.k.k.k.k.k.k.k.k.h.h.t.r.r.t.r.r.r.r.r.r.e.e.e.e.e.e.e.e.e.e.e.e.6.e.e.e.r.r.r.r.r.r.r.h.h.r.k.k.r.h.n.H.H.U.H.H.H.H.H.m.n.b.b.b.b.b.n.G.H.H.H.U.U.H.G.G.G.G.G.G.G.H.H.H.H.H.H.H.H.H.H.H.H.U.H.H.G.G.G.G.G.G.G.G.G.n.n.n.G.n.G.U.G.Y./.H.U.H.H.H.H.G.G.%.c X L.+.b m m m m m m b b b b b b b m S S A m m m m m m m m m m m b m m m m m b b l D 7 X Z L.2X0X9XpXaX~.k.b.b.b.b.b.b.k.k.k.k.k.k.t.b.r.$.| 4 G 0XuX4XB.w.d.>.%.s.%.m > 7 P y.x.k.k.k.b.b.b.b.b.b.b.b.b.n.b.k.h.2.2...F 0 , w G 9X0X%XI _ I ` _ ! I K K I I K A S S S S S S S S S S S S S S A A A A Z m m b b b ",
"b b b b b b b b b b b b l l l l l l l v l v l v v k v v l v l b l l l l l l l l l b b l l l l b A S K K K K I Q ! ! ! ! ! ! ~ ` ` ` ] ` ~ ~ ~ ` ~ ( ` ] +.@.@.@.@.@.@.@.+.+.] ] @.@.+.] ` ( ` ` ! ! _ ` ' [ [ [ +.~ ! I c v 7 <XpXU.r.r.6.r.r.r.e.e.e.e.r.r.r.e.e.e.r.r.h.b.b.n.n.n.n.n.n.n.n.n.n.n.b.k.h.t.t.t.t.t.t.h.k.k.k.k.G.m.b.k.k.b.k.h.k.k.k.k.b.b.b.b.b.b.b.b.b.n.n.n.n.n.n.n.n.n.n.n.n.z.z.M.n.n.b.b.b.| w c $Xw.0.( ` ( ) ) ) ) ( ( ) ! ( _ ! K ( &.| F X : b.*XH.h.k.k.k.k.k.k.k.k.k.k.k.h.h.r.r.e.r.r.r.r.r.r.r.e.e.e.e.e.e.e.e.e.e.e.e.6.e.e.r.r.k.k.h.h.h.h.h.h.t.b.b.h.k.G.U.U.U.H.H.H.H.H.G.n.b.b.b.b.b.n.G.H.G.H.U.H.H.m.n.n.m.G.G.G.G.H.H.H.H.G.n.n.G.H.H.H.H.H.H.G.G.G.m.m.G.G.H.H.G.G.H.H.H.U.Y.H.Y.~.G.H.G.H.H.G.G.G.%.c , I.+.m M b m b m m b b b b b b b A S S A m m m b b b m m m m m b b m m m m m m j e > Q <XpXpXaXpXtX*XG.n.m.n.n.b.b.b.k.k.k.k.k.k.k.n.e.| v : 2XyX=Xs.-.' @.` +.! &.` j r c &.k.h.h.k.k.b.b.k.k.k.k.k.b.b.k.h.e.6.F 5 ; j 0.$XyXtX_.-.] ! S ~ L K S I ! I A S I S S S S S S S S S S S S S S A Z A A Z m m b b b ",
"b n b n b b b b l b b l c Z m c c k j k c Z c e f p j j y w c Z Z b b b l k l b n b b b b b A S b S U ! K L ! ` ! ~ _ ! ! ` ` _ ~ _ ` _ ~ ~ ~ ` ( ` ] ] +.@.-.-.-.=.@.[ ] ] ] ] @.+.[ ] ` ~ ! ! U _ _ _ +.+.] ] @.G G D 0 q k.iXiXb.8.k.3.e.r.r.r.r.e.e.8.8.6.6.r.r.r.r.k.n.b.h.h.k.b.b.k.k.n.G.G.n.b.k.h.h.r.r.r.r.t.h.h.h.h.h.G.G.n.k.h.k.k.k.h.k.k.b.b.b.k.k.b.b.b.b.b.b.b.b.b.b.b.b.b.b.b.b.l.z.z.z.z.z.M.n.M.3.s > T.M.( @.! ) ) ( ~ ( ` ` ~ ! ! ! _ ` ` ] Q F > / 8XpXk.k.k.k.k.k.g.r.g.g.h.h.t.r.r.r.r.r.r.r.r.r.r.r.e.e.r.r.e.e.e.e.e.r.r.r.e.r.h.k.k.k.k.k.h.r.r.r.g.h.z.h.g.h.b.G.U.^.H.U.U.U.U.H.G.n.n.b.b.b.b.n.n.G.H.H.G.G.G.G.G.G.G.G.G.G.G.G.G.G.H.H.H.H.H.H.H.H.G.H.H.H.H.G.G.H.U.U.U.H.G.m.m.G.H.H.H.U.U.U.H.H.J.G.H.U.U.m.&.c , L.-.b M b K m m m m m m m m m A A A A Z m m m m m m b b b b b m A m b m m l j 7 w q eXpXiX[.e.3.$.r.e.M.L.h.m.m.b.x.M.M.h.r.t.x.e.h.r.O.w F tX2Xi.=.=.[ >.-.] ` ] ( / w v U.+Xz.g.k.k.h.k.b.h.k.z.b.k.k.G...$.( X l XXuX0XqX$X-.] ! I Q ! I K K K K K K K S S S S S S S S S L S S S S S A A A m m b b b b b b ",
"n n n n n n b b b m m l c c c l c G G c c w w Z w w e 7 7 7 w v K S A A A m b b b m A S A m m m K A A S I ! ! ! ! _ _ ! ! ! ` [ @.] ~ U I ! ~ ` ~ ` O.+.@.-.>.-.>.;.[ [ [ [ ] ] ] ] ` ` ( ~ ~ ~ _ _ ! ! +.@.O.` Q ( ^ j , e.iXiX>Xe.e.h.6.r.r.8.e.e.e.e.e.e.r.r.e.r.r.r.k.b.b.h.k.b.b.k.k.b.n.n.n.b.k.h.h.t.r.r.r.r.r.r.r.t.t.h.k.b.b.k.h.k.k.h.h.k.k.b.b.b.k.k.b.b.k.k.b.b.b.b.b.b.b.b.b.b.b.b.z.z.z.z.z.z.M.M.e.#.Z o q.O.` ! ) ( ( ( ~ ~ ~ ! ~ ~ ! ~ _ ` ] [ ( N : 5 '.3Xn.r.k.k.k.k.k.g.g.g.h.h.h.r.r.r.r.r.r.r.r.r.r.r.e.e.e.e.e.e.e.e.e.e.r.e.6.e.r.h.h.h.z.k.k.h.h.h.h.h.k.h.h.k.n.H.U.Y.H.U.Y.Y.U.H.m.n.b.b.b.b.b.n.n.n.G.G.G.G.G.G.G.m.G.G.G.G.G.G.G.G.H.H.H.H.H.H.H.H.H.H.H.H.G.G.H.H.H.H.U.U.H.H.U.Y.G.G.H.H.H.U.U.U.H.F.G.U.U.G.$.c X L.@.m m b I S A Z m m m m m m A S S A Z m m m m m m b b b b b m A m b m b l y , V uXaXuX/.y./ Z c Z Q 3.x.t.n.r.r.e.e.e.r.x.m.k.R.M.%.) w H 2XW.-.-.=._ ] [ ] +.O.O.) z 5 l.iXF.h.g.l.k.k.z.k.k.g.h.h.h.r.3.G o ` :XuX:Xs.q.I ` ! K K I ! I K K K K K K S S S S S S S S S K K S S S S A A A A m m b b b b b b ",
"n n n n b b b b l m m l v c c c Z 7 j c w e w : : o X > > X , y S S A b Z S S b A A S S A Z b b b L ! ! ! ! ` @.` ! Q ( O.O._ ! ] _ ~ ~ ` ` _ ~ ! ` +.@.-.>.>.-.>.;.[ [ [ [ ] ] ` ` _ ~ ~ ~ ~ ~ ! _ ! ~ +.@.Q G Q c 7 * k.iXrX7Xk.6.r.r.e.h.r.6.e.e.e.e.e.r.r.r.e.r.r.r.h.b.b.k.n.b.k.k.b.b.b.n.k.h.t.r.r.r.r.r.r.r.r.r.r.t.h.h.r.h.k.h.k.k.k.h.k.k.k.b.b.b.k.k.k.k.k.k.k.k.b.b.b.b.b.b.b.b.b.k.z.z.z.z.z.M.M.M.M.r.( : K ( 5.! ( ( ( ] ` ` ~ ! ~ ! ! ~ _ ` ] ] ` G e X ..m.n.b.t.k.k.k.k.k.k.k.k.h.h.r.r.r.e.e.r.r.r.r.r.e.e.e.e.e.e.e.e.e.e.e.r.e.6.e.r.h.h.h.k.k.h.h.h.h.h.h.r.g.k.b.G.J.U.U.H.U.Y.T.U.G.n.b.b.b.b.b.b.b.b.b.n.n.n.n.n.m.m.m.G.G.G.G.G.G.G.G.H.G.G.G.G.G.G.H.H.H.G.G.G.H.H.H.G.H.H.U.U.U.Y.Y.G.G.G.G.H.H.U.U.H.n.G.U.Y.G.$.c o T.@.S A A ! K A A A m m m m m A S S A m m m m m m m m m m m m m Z m m b b k w - m.pXuX1Xx.%.e o * X 7 Z ( &.( &.&.&.&.y.x.t.0.@.y.%.0.O.< G 9Xc.+.=.=.~ _ _ [ ~ [ &.( E : 3.iXJ.h.r.k.h.g.k.k.k.r.h.k.h.#.0.e - =XyX$X-.I ] ! K K K K I I K K K K K K K S S S S S S S K S K K S S A A A A A A m m b b b b b b ",
"n n n n b b b n l l b b c c c c c G k 7 7 * o w 7 ( #XpX$XZ * 7 v b b n l b A Z S S A Z b b b Z A S L K ! _ ( ! L K Q Q S S ! @._ _ ` ` ] ` _ ~ ` +.@.-.>.0.>.-.-.=.[ ] ] ] ] ] ] ` ` ~ ! ! ! ! K _ ` ( ] ( S Z j : > H.aXiX7Xr.6.e.r.8.e.r.e.r.r.r.e.e.e.e.e.e.r.r.r.t.k.b.b.k.n.k.h.k.b.n.n.b.k.h.r.r.r.r.r.r.t.r.r.r.r.t.h.k.r.t.h.h.k.k.k.k.k.k.k.k.k.k.k.k.k.k.k.k.k.k.k.k.k.k.k.k.k.k.b.k.n.b.z.z.z.M.M.b.n.k.( c 7 ( -.( ] ] O.O.] ` ~ ! ! ! U ! _ ' ` ` ) O.Z e 7 Q %.n.t.k.k.k.k.k.k.k.k.h.h.r.r.e.e.e.r.r.r.r.r.e.e.e.7.7.e.e.e.e.e.e.r.e.e.r.h.k.k.h.g.g.r.r.r.r.r.r.e.g.k.n.H.U.U.H.H.U.Y.Y.H.m.n.n.b.b.b.b.b.b.b.b.n.n.n.n.n.n.n.n.n.n.n.n.m.m.m.m.G.G.m.n.n.G.G.H.H.H.G.G.H.H.H.H.H.H.H.H.H.H.H.H.H.H.G.m.m.G.H.U.H.n.H.U.Y.H.$.c X T.@.I K K ! K S S A A m m m m A A A m m b b m m m m m Z Z Z Z m Z m m b b p 9 - uXpXtXL.( G X M.I.0.c + # b c j j f c ( y.q.( 0.&.K ) c : 0.uXV.=.+.[ ] @.[ ] +.:.( Z F , n.pX^.g.7.g.g.r.r.h.h.k.h.t.t...E : y.uX$X-.K ! ` Q I I Q Q I K K K K K K K S S S S S S S S S S S S S S S A A A A Z m b b b b b b b ",
"n n b b b n l l l l c c m c c j w : 7 > X Z [.uXaX0XaXpXtXm.k X < y b Z n l b b Z Z m m m b m b l b b l b Z A Z k y y l S S S Z ! ~ ( ~ ! ! ` O.+.@.-.-.-.>.>.-.=.;.] ` ` ` ` ` ] ` ` ~ ~ ! ! ! ! _ ! ! ( G l c > Y 2XpXiX7Xn.6.e.r.e.e.r.e.8.h.r.r.e.e.e.e.e.e.k.r.r.h.n.n.b.h.k.h.r.h.b.n.n.b.b.k.h.r.r.r.r.r.r.r.r.e.r.r.h.h.h.h.t.t.h.h.k.k.k.k.k.k.k.k.k.k.k.k.k.h.h.k.k.k.k.k.k.k.k.k.b.b.n.b.z.z.M.M.b.k.b.t.&.Q : Z O.&.( O.O.] ( ( ! ! ! ! ! ! ~ _ _ _ Q O.Q Z t 7 Z O.0.t.x.k.h.k.k.k.h.h.t.r.r.e.e.e.r.r.r.r.e.e.e.e.6.6.e.e.e.e.e.e.r.e.e.r.h.k.h.g.r.r.r.e.e.e.e.e.e.h.b.F.H.Y.U.G.U.U.U.H.m.n.b.n.b.b.b.b.k.b.b.b.b.b.b.n.n.n.n.n.n.n.n.n.n.n.m.m.G.G.m.n.m.G.H.H.H.H.G.H.H.U.H.H.H.H.G.G.G.G.G.G.H.G.m.n.m.G.U.U.J.G.H.Y.Y.H.%.Z + s.+.I I I ! L K S S A A Z m m m m m m b b b m A A A A A A A A Z A m m b b k 9 + XXpXQ.i.` - p 0XXX0.O.] ) I > y 9 - # 8 S ~ I y l u - - >.yXuXv.=.[ [ @.-.] ] ` %.( / V & OXrXY.g.6.h.g.e.r.t.e.x.r.e.3.( 7 j ;XyXc.~ ( ~ K K Q ! ! I K K K K K K K S S S S S S S S S S S S S A A A A A Z Z Z m b b b b b b b ",
"n n b b n l l l b l c c c j w e e > X c #XpXpXpXpXpXpX8X%XR.&.c t - y b Z l l l k v l b b c v j w y w 7 9 j l v l 9 * + < j l v y b S Q ! ~ ` @.-.>.>.-.-.>.-.-.=.[ ] ` ' ' ` ` ` ` ( ~ ~ ~ ! ! ( Q K ! Q l 7 7 y.pXpXrX,Xk.e.h.e.r.6.h.k.8.e.r.e.e.e.e.r.r.r.h.k.t.r.b.m.n.k.t.k.h.h.k.n.n.n.b.b.k.h.h.h.t.r.r.h.h.h.h.h.k.k.k.k.h.r.r.r.r.h.k.k.k.k.k.k.k.k.k.k.k.h.h.k.k.k.k.k.k.k.k.k.k.b.b.F.n.z.z.n.n.b.k.n.h.m.&.k 1 H R Q ( &.@.] ( ! ! ~ ! ! ~ ~ ` _ ~ ( ) ( Z j * j k ) %.h.x.h.h.h.h.h.t.r.r.r.e.e.e.r.r.e.e.e.e.e.6.6.6.e.e.r.e.e.e.e.e.7.e.g.h.r.r.r.r.r.r.r.r.r.r.e.k.n.n.H.U.H.n.U.U.H.m.n.n.n.n.b.b.b.k.k.b.b.n.b.b.b.n.n.n.n.n.b.n.n.n.n.n.n.n.m.m.m.G.G.H.U.U.H.H.H.U.Y.Y.U.H.H.G.G.G.H.H.H.G.n.n.n.n.G.H.Y.~.U.H.U.Y.U.H.e.G t ( @.I I K I S K K S S A A A A m m m m b b m A S S S S S S S S A A Z m m b l p + 9 -.~ -.S o v.4Xc._ @.,.s. X;X:X=XP.~ 9 < < > < k K I -.5XuXQ.=.[ =.@.@.@.~ [ ) ] ) / w : ,XiXH.r.e.h.r.e.r.r.0.h.e.:.O.G < q.uX#X~ S ( ~ ! +.I I I K K K K I K K S S S S S S S S S S S S S S A A A A Z Z m m b b b b b b b b ",
"b b b b l l l l c l c v w 7 7 7 O F *XpXpXpXiX8X[.#X{.L.U.~.m.&.f > , e v j w e e e e e w e e 7 t , , * * , * X O k O.( v > t X 7 9 j c m G ( &.-.>.>.-.-.>.>.-.=.[ ] ' ` ` ` ` ~ ~ ( ~ ( ! Q Q G Z m Z c 7 z &.pXeX8X/.e.r.r.r.8.h.e.k.k.6.r.e.e.e.e.r.r.r.h.h.h.h.k.n.n.k.h.h.k.k.k.n.m.m.n.b.b.k.h.h.h.h.h.h.k.k.k.k.k.b.b.b.k.h.t.h.h.r.t.k.k.k.k.k.k.k.k.k.k.k.k.k.k.k.k.k.b.k.k.k.k.b.b.M.F.n.z.M.n.n.b.k.k.t.m.%.Q 7 7 7 c G O.&.O.( ( ( ~ ~ ! ~ ~ ~ ~ ! ` ( ! R Q v Z f w Q e.k.h.r.g.r.r.r.r.r.r.r.r.r.r.r.r.e.e.e.6.6.6.7.e.r.r.r.e.e.e.7.7.e.g.h.r.e.r.r.r.r.r.r.r.r.r.z.n.n.G.J.G.z.U.H.G.m.G.G.n.b.n.b.k.k.k.b.n.m.n.n.n.n.n.b.b.b.b.b.b.n.n.n.n.n.n.m.G.H.H.U.Y.Y.H.H.H.Y.~.T.U.G.H.G.G.G.H.H.H.G.n.n.n.n.H.U.T.~.U.J.Y.Y.U.H.h...> Z s.` ! S K K K K S S S A A A A A A A A A S K K K K K S S S S A A Z m m Z b v 1 - < M y $ M 5X.X` K [ =.<.i.c.i.d.u.! n m _ @.0X:X0XqXwXuX$X,.+.+.-.;.@.@.` =.-.) c 7 5 $.aXpXb.e.e.r.e.e.e.0.e.0.%.%.Q w G <XyXs.( ! ` ~ I K I K K K K I I I K K S S S S S S S S S S S A A A A A A A Z m m m b b b b b b b b ",
"b b b n l l l l k v v j 7 , > e 1XaXpXpXiX9X&X).~.T.T.T.Y.R.L.L.%.c * , e 7 , t 9 > , * * , > > Z T.0X#X) w Q v.dXuXpX0X3X#X}.M.Z k > # , y K O.@.-.>.>.>.>.>.-.@.[ ] ' ` ` ` ` ( ` ` ( ) Q G S Z v w 1 X : t.pXiX8XH.3.h.e.6.h.r.b.h.k.r.6.k.6.r.r.e.e.e.e.e.e.r.h.n.G.n.t.r.h.k.b.n.m.G.m.n.b.k.h.h.h.h.k.k.k.r.r.t.h.h.h.h.h.k.h.k.b.b.k.h.k.k.k.k.k.k.k.k.k.k.k.k.k.k.k.k.k.b.k.k.k.k.b.b.n.G.n.z.M.n.n.b.k.b.b.t.x.y.( w > : j Q O.O.( ) ( ~ ! ! ! ! ! ! I I O.G O.( ` ( Z t c 3.h.h.r.r.r.r.r.r.r.r.r.r.r.r.r.r.e.e.e.6.6.6.7.e.r.r.r.r.e.r.e.e.r.h.h.g.r.r.r.r.r.r.r.r.r.g.b.n.n.n.H.G.k.U.H.m.G.H.H.n.b.n.b.k.k.k.b.n.G.n.n.n.n.n.b.b.b.b.b.b.b.n.n.n.n.n.n.G.H.U.Y.Y.Y.H.H.U.Y.~.~.U.G.H.H.G.G.H.H.G.n.n.n.n.G.H.U.Y.~.H.H.Y.Y.U.H.M.%.j m E.>.` S K U K K S S S S S S S S S S S S K Q I I I K K S S S A A Z m m A m b a k M < $ n .XqXd.' >.=._ =.@.` ] ] ' _ =.S.:XyXyX-XE.B.B.d.] ,.q.-.-.@.=.>.@.q.) S c 7 ..iXpX*Xr.6.6.e.3.0.e.%.y.O.( O.S X w.pX#XI ] ! K ! ] I Q I I I Q I I K K K S S S S S S A S S S A A A A A A A Z m m m m b b b b b b b b ",
"b m k m k m j j p c k > > v >XpXpXpXpX9X>X{.T.T.T.T.T.Y.R.R.R.R.M.y.c w c e G ].8X9X+X( e Q ).9XuXpXpXtX#X3XuXpXpXpXtX1X8XuXpX9X*X+XT.&.j * w Q ] &.@.@.>.-.@.q.[ [ [ ] ` ` ~ ( ! @.G ) ( ( Z Z j , * ^ {.9XpXpX2XT.r.r.h.r.r.h.h.h.h.h.r.r.e.e.r.r.e.e.e.r.g.h.b.n.G.n.b.k.k.b.n.G.G.m.n.k.k.k.b.h.h.k.k.h.k.n.k.k.b.b.b.b.b.k.n.n.b.k.k.k.k.b.k.k.k.k.k.k.k.k.k.k.k.k.k.k.k.k.k.k.k.k.b.b.n.n.H.n.n.G.G.M.k.k.b.b.k.k.a.y.%.O.; > j P Q ( ] ( ] ( ! ~ ~ Q I ! ! ! *.*.! ` ( c j v OX6Xn.e.k.r.r.r.r.r.r.r.r.r.r.r.r.r.r.e.e.6.6.e.r.r.r.r.e.e.e.e.e.e.r.r.r.r.r.r.r.r.r.r.h.k.n.n.n.n.G.J.H.n.G.G.G.n.n.n.n.b.b.b.b.k.b.n.H.U.n.n.n.b.b.b.b.k.k.b.n.b.b.n.n.b.G.G.H.H.Y.T.Y.G.H.H.H.U.H.H.G.G.G.G.G.G.G.G.G.n.n.n.n.G.H.U.Y.~.G.Y.n.H.Y.G.M.&.c - E.c.K S ~ I S S S S S S S S S S K K K I ! ! ! I I K K S S A m A S S S S S L I M ,.!..X:X4XS.[ [ [ [ =.=.[ ] [ ] ] [ -.p.B.D.d.,.[ ;.=.=.=.-.=.-.w.q.-.<.q.@.G G * Z pXpX2X6.3.3.#.$.0.( Q O.O.S ( m - -.wXyX-.` ! ~ ~ ! ! ~ ! Q I I I I K K K K S S S S S S S S S S S A A A m m Z A Z Z m m b m b l l b b k ",
"9 l b S p k j b c > > > j pXpXpXiXeX1X#X).T.~.'.T.T.T.Y.R.R.R.R.R.L.M.`.9X8X8XpXpXpX9X3X3X9XpXpXpXaX0X2X#XdXpXpX[.`.T.m.m.T.T.L.M.&XaX2Xy.w 7 c ( &.>.>.>.>.-.>.[ [ ] ] ` ` ( ~ ~ I %.Q S G k k * O.8XpXpXpX0X8XH.k.r.b.F.k.r.e.r.r.r.h.h.h.h.h.e.e.e.r.k.b.n.G.b.n.G.G.n.b.n.m.G.G.G.G.n.n.b.b.n.b.b.b.b.k.b.n.n.n.n.m.G.m.m.n.n.b.k.k.k.b.b.n.n.b.b.k.k.k.k.k.k.k.k.k.k.k.k.k.k.k.k.k.k.b.b.n.G.n.n.G.H.n.n.n.n.b.x.x.x.x.t.y.&.g 3 Z ( O.( ( ) ) ~ ` ] ` ` ( ! O.Q Q %.( J H , Q 0XiXY.g.h.e.r.t.r.r.r.r.r.r.r.r.r.r.e.e.6.6.6.e.r.g.g.r.r.r.e.e.e.e.e.e.e.r.r.r.r.e.r.r.h.k.b.b.b.b.n.H.G.b.n.G.G.n.b.b.b.b.b.b.k.k.b.G.H.U.n.n.n.n.b.b.b.b.k.b.n.b.b.n.n.b.G.G.H.H.Y.Y.U.G.G.H.H.H.H.H.G.G.H.H.H.G.G.G.n.n.m.m.n.m.G.H.U.U.b.Y.H.G.n.n.G.%.w < ).q.! K S S S S S S S S S S S K K I I ! ! ! I K K S S S A A A S S K K K K K _ K [ <.,.d.B.;.[ [ [ [ [ [ [ [ ' ' [ ;.;.-.,.<.,.=.;.;.;.[ [ =.,.q.u.,.=.>.>.[ I Z @ &XaX3X7.6.6.$.t.( O.Q G 7 < 1 < < ~ 0XuXXX@.` ! ` ` ! ! ! ! I I I I I K K K K S S S S S S S S S S A A A A A A A A A Z m m b m m b l b b l ",
"S m y p y v j j k e > V pXeXeXpX>X*X]./.~./././.~.T.Y.Y.Y.U.U.U.T.U.~.1XpXpXiXpX0X2X*X&X9XpXiX0X*XY.G.n.b.Y./.n.H.G.b.k.k.b.b.h.b.m.H.n.y.Q e o k Q @.-.@.-.>.-.] ] ] ` ` ` _ ~ ( ` Q c c Z c o U.iXpXiX,X'.'.r.r.r.r.k.b.k.l.k.b.b.b.b.k.k.k.k.k.k.k.b.n.n.G.H.n.m.G.G.G.m.G.H.G.G.n.n.m.m.n.n.n.b.b.n.b.k.b.n.n.n.n.n.n.n.n.n.n.b.k.k.b.n.m.m.n.n.b.k.k.k.k.k.k.k.k.k.k.k.k.k.h.k.k.k.k.k.b.n.G.G.G.H.H.G.n.n.n.b.k.k.k.x.k.k.r.F 7 , s ^ O.Q ] ] ( ( ~ ~ ! I O.( ( ) G c k w 0 M.pXiXR.h.h.r.t.t.t.r.r.r.r.r.r.r.r.e.e.e.6.6.6.e.r.r.r.e.e.e.e.e.e.e.e.e.e.e.e.e.r.e.e.r.h.k.k.k.k.k.b.F.n.b.n.G.H.m.b.b.b.b.b.k.k.b.n.H.H.H.n.n.b.b.b.b.b.b.k.b.b.b.b.n.n.b.G.H.H.H.U.Y.U.G.G.G.H.H.H.H.H.G.H.H.H.G.G.m.n.n.G.G.n.n.n.m.G.G.G.G.G.J.G.H.m.( b 1 `.>.I L K S K S S S S S S S S S S K K I I Q I I I K K S S S S K K I K K I I _ ! _ _ U ` [ _ ] [ [ [ ` ` [ @.[ @.=.-.=.=.@.[ =.[ =.-.=.[ @.>.u.q.q.,.=.>.>.] H < w tXeXG.$.e.r.&.G ( H w o ( I ` @.S.wXuXXX@.] ~ ~ ` ] ~ ! ! Q I I I I I K K K K K S S S S S S S S S A A A Z A A A A A A A m m m m b b b b l ",
"9 p v b l v w e > o g pXiXpXpX'.~.~.~./.].]./.Y.~.T.Y.Y.Y.U.U.U.~.U.T.[.*X*X*X+X[.Y.n.H./.[.[.'.Y.U.Y.Y.H.J.G.t.m.n.b.n.n.b.b.n.z.k.r.r.x.t.Q e - Z @.@.] +.-.+.] ] ` ` ` ( _ ~ ( G G k c e o {.pXuXaXU.6.n.e.h.b.n.b.h.h.k.b.n.n.n.n.M.b.b.k.k.M.n.n.n.n.n.n.M.G.G.H.H.G.m.G.G.b.b.b.n.n.n.n.b.k.b.b.b.b.k.k.b.k.k.k.k.b.b.b.b.b.k.h.k.n.G.m.n.k.k.k.k.k.k.b.b.k.k.k.k.k.k.k.k.h.k.b.b.k.k.n.G.L.H.H.H.G.n.n.b.b.b.k.a.t.t.a.a.e.3.Q 7 * z ) ( ( ` ( ! ! ( ` ] ( G G Z w s j * L.0XpX,Xx.e.g.k.r.r.t.r.r.r.t.r.r.r.r.e.e.e.6.6.6.6.e.e.e.6.6.6.6.7.7.e.e.e.e.e.e.e.e.e.e.r.g.h.g.h.h.h.z.n.n.b.b.G.H.G.b.b.b.b.b.b.k.b.G.H.H.G.b.b.k.k.k.k.b.b.b.n.b.b.b.m.m.n.H.H.U.U.U.Y.U.G.G.G.G.H.H.H.H.H.H.H.G.G.m.n.n.n.G.G.m.n.n.n.n.m.U.k.b.Y.H.n.k.#.c > #Xw.K K ~ S K K S S S S S S S S S K K I I I I Q Q I K K K K K K I I I I Q ! K _ _ _ ] [ [ [ ] ] ] ` ' ' [ @.-.=.=.=.=.=.=.-.-.=.@.=.=.=.,.u.w.,.,.-.=.<.<.+.I > *.eX1X#.6.#.| ( ( G + ] P.sXyX0X5XuXuXoXq.>.` ~ ~ ` ] ~ ! ! I I K K I I K K K K K S S S S S S S S S A A A A A A S S S A A A b m m b b l l l ",
"c v j w 9 1 > ; 7 Z pXpXiXrX'.>X].'./.~.~.~.~.~.~.Y.Y.Y.Y.U.U.U.J.H.T./.U.U.T.U.Y.U.U.Y.U.H.H.J.m.H.U.H.M.n.H.m.k.k.k.n.n.k.k.b.e.k.k.g.h.r.O.Z 1 Z -.0.` ` [ ` ` ` ` ` ` ( ( ( I Z G j , Q 0XiXiX7XM.k.b.k.Y.b.b.n.G.F.F.F.b.r.l.k.b.b.M.n.n.n.k.k.b.M.n.n.n.n.H.H.G.G.n.b.b.b.k.k.b.n.n.n.b.k.k.k.b.b.b.k.k.k.k.k.k.k.k.k.k.b.b.k.k.b.n.m.n.k.h.k.b.b.n.n.b.b.b.b.b.k.k.k.k.k.k.b.n.n.b.b.m.H.H.H.H.G.n.n.b.b.n.n.M.b.k.k.k.h.k.r.6.^ w : e c Z Q ( ] ` ( ( ) Z Z v w > X Q 8XpXpX7XU.h.e.r.h.r.r.r.r.r.r.r.t.r.r.r.e.e.e.e.6.6.7.e.e.7.6.6.6.6.6.7.e.e.e.e.e.e.r.r.r.e.r.r.h.r.g.h.h.k.n.F.n.b.H.U.G.b.b.b.b.n.b.b.n.G.H.m.b.b.b.k.k.k.k.b.b.n.n.n.b.n.G.G.n.H.U.U.U.U.U.U.G.m.G.G.G.G.H.H.H.H.H.G.m.n.n.n.n.G.G.m.m.m.n.m.m.G.b.H.H.h.r.3.*.X H 4Xi.` ! ! K K S S S S S S S I K K I Q ! ! I K K I K K S K K K I I Q I Q ! ~ ! ] ] ] @.@.` ] [ ] _ _ ` ] +.+.@.@.+.[ +.@.-.>.-.=.@.=.>.>.q.w.q.-.-.-.=.<.q.@.H 1 F 8XG.|  .#.Q Q Z o c.9XuXuX-X_.P.B.i.=.] ` ` ( ( ` ` ~ ~ ~ I I K K I I I K K K K K S S S S S S S S S S A A A S S S S A A A m m m m b l l b ",
"e w k 7 1 - e k #XpXeXpXpX/.'.H.'.'.'./.~.~.~./.~.T.Y.Y.Y.U.U.U.J.H.J.U.J.U.Y.J.H.J.U./.T.J.H.U.U.J.H.n.n.n.n.n.n.n.n.m.n.b.k.k.F.n.k.g.k.n.r.| j v ` q.[ _ [ ] ` ` ` ` ( ( ( ( O.j e X ).aXpXpX0XH.e.6.k.G.6.k.h.k.b.n.F.F.b.g.F.n.n.n.n.G.G.G.b.n.n.G.H.H.H.H.G.G.n.b.b.k.k.h.k.b.n.m.n.b.b.k.k.n.n.b.b.b.b.k.k.k.k.k.k.k.k.k.k.k.k.b.n.n.b.k.b.n.n.n.n.n.n.b.n.n.n.b.b.b.b.b.n.n.m.n.n.n.H.U.F.G.H.n.n.n.n.n.b.b.M.M.b.k.k.k.h.r.r.$.E N j > > e c Q ( Q G Z c c > ; O.dXpXpXaX7XH.r.k.h.r.r.r.r.r.r.t.t.t.t.r.r.r.e.e.e.e.e.e.r.r.r.r.e.e.e.6.7.e.r.r.r.r.e.r.r.r.r.r.e.r.g.r.g.h.h.k.n.G.G.n.H.U.H.n.n.n.b.n.n.b.n.m.m.n.b.n.b.b.b.b.b.n.n.n.n.b.b.n.G.G.n.H.U.Y.U.U.U.H.G.G.G.G.G.G.G.G.G.H.G.G.n.n.n.n.m.G.G.G.G.G.G.G.G.n.H.U.k.h.e.H 7 7 [.qX] ` ! M ! S S S S S S S S I K S K I Q I K K I Q I K K I Q I ! ! ! ! ! ~ ( ` ] ` ` +.[ _ ` [ ` ~ _ ] +.@.+.@.@.@.@.=.=.-.-.@.@.-.>.q.q.>.-.q.-.-.-.=.>.,.@.Z 7 , O.N } ^ H Z * p t.uXuX5Xi.>.+.-.>.[ =.-.' ` ` ` ( ~ ~ ~ ~ Q I I I I I I I K K K K K S S S S S S S S S S S A S S S S A A A A Z Z m l j j v ",
"9 9 9 X : Z [.pXpXpXpX1X/.OX~./.Y.~./.'.'.(./.~.^.^.Y.Y.Y.U.U.U./.Y.H.H.U.Y.U.U.U.J.H.U.U.Y.Y.Y.U.U.H.G.J.G.k.k.n.n.M.b.b.b.k.h.2.g.n.n.k.t.e.%.Z w A >.=.` [ ] ` ` ` ` ~ ~ ( ( c G 7 O.tXpXpXU.k.n.l.K.b.2.h.b.b.k.h.l.b.b.n.F.J.H.H.G.G.G.G.G.H.H.H.H.H.G.n.n.n.b.k.k.k.k.k.k.b.n.G.m.b.k.b.b.n.G.G.n.b.b.k.h.h.h.h.h.h.h.k.k.k.k.k.k.k.k.k.b.G.m.n.n.b.b.b.b.G.G.n.n.n.n.n.n.n.n.n.m.G.G.H.U.F.H.H.m.b.n.n.n.k.b.x.k.k.t.h.h.h.k.k.e.0.x.h.O.k 7 > w c c c m w , ( 1XpXpXiX1XY.U.6.7.M.g.g.r.r.r.r.t.r.h.h.h.h.t.r.r.e.e.e.e.r.r.g.r.r.r.r.r.r.r.r.r.r.r.e.7.h.h.h.g.r.e.r.r.r.g.h.h.k.n.G.G.m.H.U.H.G.m.n.b.b.b.n.n.n.n.b.b.n.b.b.b.b.n.n.G.n.n.b.k.b.G.G.n.H.Y.Y.Y.U.U.H.G.G.G.G.G.G.G.G.G.G.G.n.n.n.n.G.G.G.G.G.G.m.n.n.n.b.z.k.3.3.^ 0 w P.0X`.I U I A U S S S S S S S S K S A S K K S S K Q ! ! I I ! ~ ! ! ~ ~ ! ~ ` ` ` ` ` ` ` ` ` ` ` _ _ ` ] +.@.@.=.-.-.-.-.-.@.@.+.-.q.q.q.0.-.-.,.=.-.,.=.=.>.=.O.H 7 : s N D s - w.E.uXuX:XB.i.,.+.[ =.] _ ' =.` ` ` ` ~ ~ ~ ! Q I I I Q ! Q I I I I I I K K S S S S S S S S S A A A A A A A A A Z m b p 8 8 9 ",
"w , 7 G $XuXpXpXpX1X*X`.Y.Y.]./.'./.~.~././.~.^.~.^.Y.Y.Y.U.U.U.H.U.J.U.~.U.H.J.J.J.H.H.H.J.H.H.H.J.m.n.G.n.n.H.b.n.b.k.b.n.M.k.F.z.g.r.h.k.k.a.O.w l >.,.] ` _ ` ` ` ( ~ ~ ) ) G w : 8XpX9XU.k.M.k.k.e.r.k.h.r.b.b.b.F.F.b.b.F.b.b.b.b.n.n.G.G.n.n.n.n.M.b.b.b.k.h.h.h.k.k.k.k.b.n.G.n.h.h.k.n.m.H.G.b.k.k.k.r.k.k.k.k.k.k.k.b.h.h.h.t.t.h.b.n.G.n.b.k.k.k.b.n.H.G.G.m.n.n.n.n.G.n.n.n.G.H.H.H.G.U.L.m.b.b.n.b.n.n.M.k.k.t.t.k.k.6.e.h.r.x.'.&X*Xy.c 7 > * * : : m.iXpXiX<XU.k.8.k.e.k.b.8.g.g.r.r.r.t.t.h.h.h.h.t.r.r.e.e.e.r.r.r.r.r.r.e.r.r.h.h.h.h.g.r.e.6.h.k.h.h.r.e.e.r.e.g.h.h.k.n.G.H.G.H.H.H.G.G.n.b.k.b.b.n.b.b.n.n.b.b.k.k.k.b.n.m.n.b.k.k.b.m.m.b.U.Y.Y.Y.U.U.H.G.G.G.G.m.m.m.G.m.G.m.n.n.n.m.G.G.G.G.G.G.n.n.M.b.r.3.$.^ Z ; 7 L.uXXX] ~ ! I ~ b S S S A A A A S K S S S K K K S S I Q Q K K I ! ~ ~ ~ ~ ~ ( ` ] ~ ! ] +.` ( ` ` ! _ ` ] ] ] @.-.-.=.@.@.+.+.@.@.-.q.w.q.-.-.>.q.-.;.-.q.=.-.,.>.] ) G Q ( j z $._.yXuXuX:Xw.i.@.=.>.[ ` =.@._ ` ` ` ] ` ( ~ ! ! ! Q I I ! ! ! I Q Q ! Q I I K K S S S S S G K G S Z S A S Z A Z A m b k 9 - - > ",
"9XeXtXuXpXpXpXrX+X]./././././.~././.'.'././.~.~./.~.~.T.Y.Y.~.~./.~.T.Y.Y.Y.U.H.U.U.U.U.U.H.H.H.G.G.G.G.m.n.n.b.n.n.n.b.b.b.k.k.g.h.k.l.k.k.k.a.&.G + ! E.@.K ] U ~ ` ] ] ~ ! Q v q F iXiX(.z.k.h.h.h.k.k.b.n.n.G.n.n.b.k.k.k.k.k.k.k.k.b.n.G.G.n.b.b.k.k.k.k.k.h.k.k.k.k.k.b.b.n.b.b.b.n.G.G.G.H.H.m.n.b.k.k.k.k.k.k.k.k.k.k.h.h.k.k.k.k.k.b.n.b.b.k.k.k.h.k.n.G.m.n.G.H.U.U.U.U.U.U.H.H.H.H.H.H.H.G.n.b.b.b.b.b.b.k.k.k.h.h.h.r.r.r.r.r.t.k.n.t.m.~.'.U.M.L.{.8XpXpX6XY.h.r.h.h.h.t.h.h.h.h.h.r.r.r.t.t.h.h.r.r.r.r.r.r.e.e.e.g.r.r.r.g.h.h.h.k.g.r.r.r.6.e.h.k.r.r.r.r.e.e.r.e.k.b.b.b.G.H.m.b.G.G.n.n.G.n.b.b.n.m.G.G.G.n.n.n.b.b.k.k.k.b.b.n.b.b.n.G.G.n.b.G.Y.U.H.Y.Y.H.G.G.G.n.n.n.G.G.H.F.G.G.G.G.m.m.m.G.G.n.m.M.M.e.&.&.) m > * G _.9X).q.Q I ! K S I S S S S A S S K K K K K K K S S K ! ~ ! K K K K K K K K I Q ! ~ ( ` ` ] ] ` ` ` ] ` ` ` ] +.@.@.=.@.=.-.=.@.=.-.,.>.>.>.q.q.,.>.,.-.-.-.>.,.,.>.>.@.-.w.w.s.XXyXuXyX;XI.w.-.-.>.@.@.@.@.+.+.[ ] ] ` ` ` ( ~ ~ ~ ! ! I Q ! ~ ~ ~ K ~ I K ` ! S I G S G G G G G H H G G Z c Z Z c c p f 7 : Z ).tX",
"iXpXpXpXiXeX2X+X].'.'.'.].].'.~././././././.~.~.~.~.T.Y.Y.Y.Y.Y./.~.T.Y.Y.Y.U.H.U.U.U.U.H.H.H.H.G.G.G.m.n.n.n.n.n.n.n.b.b.b.k.k.k.h.k.l.k.k.h.t.0.] p I  X<.] ' [ _ ! ! ` ( ) I G & Y.aX0X^.g.k.k.k.k.k.k.b.b.b.k.k.k.k.k.k.k.k.h.h.k.b.n.G.H.U.G.G.n.b.b.b.b.b.n.n.n.n.n.n.n.G.G.m.m.G.H.U.U.H.H.G.n.b.b.k.k.k.k.k.k.k.k.k.k.k.k.k.k.k.k.b.n.n.b.k.k.k.k.k.b.n.G.G.H.H.G.G.m.m.G.m.n.m.G.G.G.G.H.G.m.n.b.b.b.b.b.b.b.k.k.h.h.t.r.r.t.r.r.r.h.k.k.k.U.3XaXpXpXiXpXaX<XY.r.6.e.r.h.g.t.t.h.h.h.h.r.r.r.t.h.h.h.h.r.r.r.r.r.e.e.e.r.r.r.r.r.r.g.g.g.e.e.e.e.6.e.h.k.r.r.r.r.e.r.r.h.n.n.b.k.n.m.n.b.n.m.n.n.m.n.b.n.n.G.H.H.H.G.n.n.b.b.k.k.b.b.n.G.n.k.k.b.m.G.G.H.Y.Y.U.Y.Y.H.H.U.H.G.m.n.n.n.m.F.n.n.n.n.n.n.b.h.L.R.h.M.0.&.O.Z < + l V.8X9X#Xq.` K I I S A S S S S S S S K K I I I K K S S S K ! ~ Q K K I Q ! ! ! ! ! ~ ( ` ` ` ` ] ] ` ` ( ( ~ ~ ~ ` ] +.@.@.[ =.=.@.[ =.,.-.-.>.>.>.,.q.q.w.q.,.>.,.q.q.,.=.q.w.i.P.;XwXuX$X_.V.w.-.-.-.>.=.@.@.@.+.[ ] ] ` ` ` ` ( ~ ~ ~ ! ! Q ! ! ~ ~ ~ ` ~ K I ! S m ! I G S G Q Q G Z Z c k c D Z c k k c 7 , Q 2XpXaX",
",X,X,X&X*X+X'.Y./././.'.].].'.~./././././././.~.~.~.~.~./././.'./.~.T.Y.Y.Y.U.H.U.U.U.H.H.H.G.G.G.G.m.n.n.n.n.n.n.n.n.b.b.b.k.k.k.h.k.k.k.k.h.t.0.G p I 5X<._ ` ! U ! ~ ` ~ I Z w : 0XiX*Xn.g.k.k.k.k.k.h.h.h.h.h.h.k.k.k.k.k.k.k.k.b.n.G.H.U.U.H.G.m.n.b.b.b.b.n.n.n.n.n.n.n.G.m.G.G.H.U.H.G.n.m.n.n.b.b.k.k.k.k.k.k.k.k.b.b.b.b.k.h.k.b.n.n.n.k.k.k.k.k.k.b.m.G.G.H.m.b.b.n.m.G.G.G.G.G.H.H.H.G.G.n.n.n.b.b.b.b.b.b.k.k.h.h.t.r.r.h.h.r.r.e.e.e.3.e.m./.].].].+X~.b.r.r.k.k.k.g.g.g.g.r.r.r.r.r.r.t.t.t.h.h.h.r.r.r.r.r.e.e.e.e.e.e.e.e.r.r.r.e.7.7.e.e.e.r.k.h.r.r.r.r.r.r.h.b.m.n.k.k.b.n.b.b.b.n.n.n.n.n.b.b.n.n.m.G.m.n.n.n.n.b.b.b.b.n.n.H.m.b.b.n.m.G.G.H.Y.Y.U.T.Y.H.H.U.U.H.G.n.n.n.n.G.F.n.n.G.G.n.n.m.m.M.x.&.( c ,   m Q.qXqX$Xi.S ~ ! I Q I K S K S S K K K K I Q I K K S S S S S ! ~ ~ I K I ! ~ ` ` ` ` ` ` ` ` ` ` ` ` ` ` ` ( ( ` ` ` ` ] +.@.[ [ @.@.[ [ =.<.@.-.>.>.>.>.q.w.w.q.,.>.>.>.>.>.+.>.-.] >.V.P.c.d.w.-.@.-.-.-.-.-.=.@.@.+.[ ] ] ` ` ` ` ~ ~ ~ ~ ! ! ! ~ ~ ~ ~ ! A ` _ K ! ` ~ K G H Z Z Z Z Z c c k k c j 7 7 e o X k L.aXpXpXuX",
"T.~.~././.'.].OX~.~./.'.'.'./.~././././././././.~.~././.'.].].]./.~.T.Y.Y.Y.U.H.U.U.H.H.H.G.G.G.G.m.n.n.n.n.m.m.n.n.n.b.b.b.k.k.k.h.k.k.h.h.t.t.k.I e c  X+.K I ~ _ ` ) G Z m Z o #.rXiX^.g.n.k.b.b.b.k.k.k.k.k.k.k.b.n.n.b.b.k.b.b.n.G.H.H.H.H.G.m.n.b.b.b.b.b.b.b.b.k.k.k.b.b.H.H.H.H.H.m.b.k.n.n.b.b.b.k.k.k.k.k.h.k.k.b.n.n.b.k.k.k.n.m.n.b.b.k.k.b.b.b.n.G.H.G.n.b.k.b.G.U.H.H.H.G.G.G.G.H.n.n.n.n.n.n.n.n.n.b.b.k.k.h.h.t.r.r.h.h.r.r.e.e.k.k.b.b.h.e.k.H.k.h.k.b.k.r.e.r.g.g.g.r.r.r.r.r.r.r.r.r.r.t.h.h.r.r.r.r.r.r.e.e.e.e.e.e.e.e.e.r.e.e.r.r.g.g.h.k.t.r.r.r.r.r.t.k.b.n.b.k.k.n.m.n.k.b.b.b.b.b.b.b.b.b.b.n.n.n.n.b.n.n.b.b.b.n.n.G.m.n.m.G.H.H.m.n.H.Y.U.U.T.Y.H.H.H.H.G.n.n.n.m.G.F.F.F.F.m.m.n.n.M.P.0.%.Q e X G $X2X0XXX>.I ! ` ! ! ! K K K I I S K K I I I Q ! K K K S S K K K ~ ~ ! I I ! ( ` ` ` ` ` ` ` ` ] ] ] ` ` ` ` ( ( ` ` ] ] ] ] O.+.[ [ [ [ [ [ =.,.+.@.-.-.-.-.q.u.,.>.-.-.-.-.-.-.>.>.q.w.q.>.>.w.q.>.-.-.>.>.-.=.-.-.@.@.+.] ] ` ` ` ` ( ~ ~ ~ ~ ! ! ~ ~ ` ( ~ ! ! I I ! ! S m m k v c k k k k j 3 X . . X > w k P.9XpXaXpXpX8X{.",
"^./.].OXOX'./././././././././.~././.~./././././.~.~./././.'.'.'./.~.Y.Y.Y.Y.U.U.U.U.H.H.G.G.G.G.G.G.m.m.m.m.F.n.n.n.n.b.b.b.k.k.k.k.g.g.h.h.t.t.0.%.k + H I ~ ! ! S m Z G Z w , G 7XiXeXF.z.n.k.n.n.n.n.n.n.n.n.b.b.n.G.G.n.n.b.b.n.n.G.G.G.G.G.n.b.b.b.b.b.b.n.b.b.k.k.k.k.b.n.U.U.U.U.H.m.n.n.b.b.b.b.b.b.k.k.k.k.h.k.k.b.n.n.b.k.k.b.m.G.n.k.n.b.n.m.G.m.G.U.H.G.n.n.n.G.H.H.m.m.n.n.n.n.n.n.n.n.n.n.n.n.n.n.n.b.b.k.k.h.h.h.h.t.r.r.r.t.t.r.e.e.r.b.n.b.k.b.b.n.m.n.k.e.r.k.t.t.t.r.r.r.r.r.r.r.r.r.r.r.t.h.r.r.r.r.r.r.e.e.r.r.e.e.e.e.e.r.e.r.k.k.k.h.h.g.r.r.r.r.r.r.h.b.k.b.k.k.k.n.m.n.k.k.k.b.b.b.b.b.b.b.n.n.n.n.n.n.n.n.b.b.n.n.G.G.m.G.G.H.H.H.G.m.U.Y.U.U.~.Y.G.H.H.G.m.n.n.n.m.G.n.G.G.G.n.n.M.m.H...x.G e : P.2X9X Xi.` I ` ` I ! ! I S S I I K K I Q Q I I ! ! ! ! ! ! ! ! ! ! ~ ~ ! I I ~ ` ` ~ ( ` ` ` ] ] ] ] ] ` ` ` ` ` ` ` ` ` ` ` ` ~ ! ~ ` ] [ [ +.@.@.] @.-.-.=.-.<.u.-.-.-.-.=.-.-.-.=.+.>.i.u.=.-.d.-.-.-.-.-.-.>.>.-.-.@.@.+.] ] ` ` ` ` ( ( ~ ~ ~ ~ ~ ~ ` ` ` ~ ! ! ~ ! S A S Z p w - o . o , % . k M.1X8X&X$X2XtXpXpXuXpXaX$XL.T.",
"'././.'./.~.~.~.'.'.'./././././././././.'.'./.~.'.'.'.'.'././.~./.~.Y.Y.Y.Y.U.U.U.U.H.H.G.G.G.H.G.G.G.G.G.G.m.n.n.n.n.b.b.b.k.k.k.k.g.g.h.h.k.k.:.r.G > = w k c k m A i X X w P 7XpXiX'.F.H.g.k.b.b.b.b.b.n.n.m.b.n.n.G.G.G.m.n.b.b.n.n.m.G.G.G.b.b.b.b.b.n.n.n.n.n.n.n.n.n.G.H.U.U.U.H.G.G.G.G.b.b.b.b.b.b.k.k.k.k.k.k.k.b.b.b.k.k.k.b.n.n.b.k.G.G.G.H.H.H.U.Y.H.H.G.H.U.U.G.b.n.n.b.b.b.n.n.n.b.n.n.n.n.n.n.n.b.b.b.k.k.k.h.h.k.h.r.r.t.h.h.k.b.h.h.b.n.b.b.n.b.b.k.k.h.k.b.n.t.t.t.r.r.r.r.r.t.r.r.r.r.r.t.h.t.r.r.r.r.r.r.r.r.r.r.e.e.e.e.r.e.g.k.k.h.g.r.7.r.e.e.r.r.r.k.n.b.b.k.b.b.n.n.b.b.k.k.b.b.k.k.b.b.b.b.b.b.b.n.n.n.n.b.b.n.n.G.H.H.H.G.G.G.H.U.U.Y.~.Y.Y./.Y.H.U.H.H.G.n.n.n.m.G.H.U.Y.Y.U.G.m.m.t.&.Z Z o [.yX$X-.` Q I I ~ ~ I I I K K I ! I K Q ! ! ! ! I I Q ~ ~ ! ! ! Q Q Q ! ! I I ! ` ` ( ~ ( ` ] O.+.+.+.+.] ] ` ` ` ` ] ] ` ` ] ] ` K A M U ] +.+.+.+.+.+.@.@.@.@.-.>.q.-.>.>.>.-.>.,.q.i.i.i.i.i.w.q.,.=.-.-.-.=.=.-.>.-.=.@.@.+.[ ] ] ` ` ` ` ` ( ( ( ~ ( ` ` ` ` ~ ! I K I K l p e - 7 >.&X8X%X`.$X2XaXpXpX9X9XpXpXpXpX0X#X).T.L.P.{.",
"OX'././././.].OX'.'.'.'./././.'./././.'.].].'.~.].].].'.'././.~.~.~.Y.Y.Y.Y.U.U.U.U.H.H.G.G.H.H.G.H.H.H.H.G.m.n.n.n.n.b.b.b.k.k.k.g.k.k.h.k.k.k.Z.k.0.*.v k 1 - 9 = o > ( T.7XiXiXeX2XM.K.H.7.l.k.k.k.k.b.b.n.n.m.G.G.H.H.G.G.m.n.n.n.n.n.n.n.m.n.b.b.b.b.b.n.n.G.G.m.n.n.G.H.U.G.G.G.G.n.n.n.m.b.b.n.b.b.b.k.k.k.k.k.k.k.k.k.k.k.k.k.k.k.b.b.b.G.n.G.H.H.G.H.U.H.H.H.H.H.G.n.b.G.G.m.n.n.n.n.n.b.n.n.n.n.n.b.b.b.b.b.k.k.k.k.k.k.h.r.r.h.h.h.h.k.h.h.h.r.e.k.H.b.n.n.k.h.k.t.6.t.t.t.t.h.h.h.h.h.h.t.r.r.h.h.k.t.t.r.r.r.r.r.r.r.r.e.e.e.e.e.e.e.h.k.r.r.r.r.6.e.e.e.r.r.r.k.G.b.b.b.n.G.m.n.b.b.k.k.b.b.k.k.b.k.k.k.k.k.k.b.n.b.b.b.b.n.n.G.H.H.H.H.H.H.H.U.Y.~.~.Y.~./.Y.G.H.H.G.G.G.G.G.H.H././.~.~.T.R.m.x.O.&.k o $X8X`.] ~ ! ` ] ~ ~ ~ I I K K I ! ! ! ! ! ~ ~ ~ ! I I I I I I I K K K S I I I I ~ ` ` ! ( ` ] O.+.@.@.@.+.O.] ` ` ] ] +.@.] ` ] +.~ A k 8 S @.-.@.] +.@.@.@.@.@.@.=.>.,.-.>.>.>.-.-.,.q.-.q.>.-.-.q.>.@.>.>.-.-.-.-.@.@.=.@.@.@.+.[ ] ] ` ` ` ` ` ` ` ` ` ` ` ` ` ` ~ ! @.k j K k # w O.iXpXiXtXaXpXpXiXpXiX8X#X'.{.{.~.H.H.T./.T.T.R.G.",
"'././.].]./.T.T.~././.'./././././././.].OX[.'.~././././././.~.~.~.~.Y.Y.Y.Y.U.U.Y.U.H.H.G.G.H.H.H.H.U.U.U.H.n.n.n.n.n.b.b.b.k.k.k.g.k.k.k.k.k.b.n.t.k.y.0.m.y.N Z &.Q.1XiXpXpXpX7X/.G.H.F.l.r.z.b.b.b.n.n.m.G.G.U.U.U.U.H.G.m.n.H.G.n.n.b.b.b.b.n.b.b.b.b.b.b.b.n.n.b.b.b.n.H.U.G.H.H.G.n.b.b.b.b.n.n.n.b.b.k.k.k.k.k.k.k.k.k.h.k.k.k.h.h.h.k.b.b.b.n.m.n.n.n.H.H.H.H.n.b.b.n.H.H.H.G.m.n.n.b.b.b.n.n.n.n.n.b.b.b.b.b.k.k.k.k.k.k.h.t.t.h.h.t.r.b.k.b.n.b.t.r.h.h.n.m.k.t.b.n.k.t.t.t.h.h.h.h.h.k.h.h.h.h.h.k.k.t.t.r.r.r.r.r.r.r.r.e.e.e.e.e.e.r.h.h.r.e.r.r.e.e.e.e.r.r.r.k.G.b.b.b.G.H.H.n.b.n.k.k.b.b.k.k.b.b.k.k.k.k.b.n.n.b.b.b.b.b.n.G.H.n.G.H.U.Y.U.U.U.~.~.Y.Y./.U.n.H.G.m.m.G.H.U.Y.Y.'.~.U.Y.T.U.x.6.&.: - {.sX X( ` ( ! ! ~ I I I S Q K S K K S Q ` ~ ( ( ~ ! I K K S S K K K K K K K K K I ~ ` ` ! ` ` ] O.+.@.@.@.+.O.] ` ` ] +.@.+.` ~ ` ` ! l 8 $ m -.q.@.` +.>.@.@.+.+.@.=.-.-.@.-.-.=.@.@.-.>.q.w.i.u.,.-.-.,.-.@.@.@.-.>.-.@.@.@.@.@.+.+.[ ] ` ` ` ` ` ` ` ` ` ` ` ` ` ` ~ ! S ! S - , q.qXpXuXpXeX<X[.`.[.].T.P.m.M.M.M.m.m.L.M.m.U.G.R.'.~.",
"OX/./.'././.'.~.'.'././././././.'.'./.~.~./././.'./.~.~.~./././.T.Y.Y.Y.Y.Y.U.U.U.U.H.H.H.H.U.U.H.H.H.H.H.G.G.m.n.n.n.b.b.b.k.k.k.k.k.k.k.k.k.k.k.k.k.b.U.[.3X,X0XpXpXpXiX8X+XY.b.M.n.n.n.b.k.k.b.b.b.b.m.H.H.m.H.H.H.H.G.G.n.n.b.b.n.n.n.n.n.n.n.n.n.b.b.b.b.b.k.b.b.b.b.b.b.n.n.H.H.G.b.b.n.n.k.b.b.n.n.b.b.b.b.k.k.k.k.k.k.k.k.k.k.k.k.k.k.k.k.b.n.n.n.n.G.H.m.n.n.n.G.H.U.U.U.H.G.G.G.n.n.b.n.n.n.n.b.b.b.b.b.b.k.b.b.b.b.k.h.h.k.k.k.b.b.n.n.b.h.r.r.r.h.k.b.H.n.t.h.k.k.k.h.h.h.h.h.h.h.h.k.k.h.k.b.b.b.b.r.r.r.r.r.r.r.r.r.r.e.7.e.e.e.e.h.k.h.r.r.h.k.k.k.h.k.k.b.n.n.n.b.n.G.H.H.m.b.k.b.b.b.b.k.k.k.k.b.b.b.b.b.n.n.b.G.n.b.b.n.n.b.k.H.U.U.U.Y.U.H.Y.~.~.~.~.U.G.m.H.U.G.n.G.H.U.~.'.{.M.R.P.G.G.0.0.Q . T.9XE.@.! ( ( ~ ~ ! ! Q I I K K S K K ! ~ ` ! ! ! ! ! I K K K K K S S K K K ! K S K ! ` ~ ! ` ` ] O.+.+.+.+.] ` ` ` ] ] ] ] ] +.@.O.~ ( Z - X c m.s.&.&.~ 0.-.+.] +.=.=.=.-.@.=.-.-.-.-.>.q.w.w.w.q.q.,.>.>.=.-.-.-.-.=.@.@.@.@.@.@.+.+.+.[ +.] ` ` ] O.` ~ ` ] ] ` ` ` ~ I Z w v # T.pXuXpX8X#XH.b.n.n.n.b.n.M.M.M.M.M.m.m.m.m.G.P.T.~.~.T.",
"].~./.].'.'.'./.].'./.~.~./././.~.~.~.~././.'.].OX].'./././.~.~.~.Y.Y.Y.Y.Y.U.U.U.U.H.H.U.U.Y.Y.U.U.U.U.H.G.m.n.n.n.n.b.b.b.k.k.k.k.k.k.k.k.k.k.k.k.t.r.b.H.Y.R.eXeX2X].Y.H.k.t.h.h.k.b.M.M.k.k.k.b.n.n.G.U.H.G.n.n.m.G.G.G.G.G.b.b.b.b.b.b.n.n.n.n.b.b.k.k.b.b.k.b.b.b.k.k.b.n.n.G.H.n.b.b.n.n.b.b.b.n.b.b.k.k.k.k.k.k.k.k.k.k.k.k.k.k.k.k.k.b.b.b.n.n.m.G.H.H.n.n.m.G.H.H.H.H.U.H.G.G.m.n.n.n.n.n.n.n.b.b.b.b.k.k.k.b.b.b.b.b.b.b.b.b.n.n.n.m.n.b.k.h.h.h.k.b.b.H.n.t.k.b.k.k.k.k.b.b.b.b.b.b.k.h.t.t.h.h.h.h.h.h.h.t.r.r.r.r.r.r.r.e.e.e.r.r.h.h.r.r.g.z.b.b.n.b.b.b.n.n.G.G.H.H.H.G.n.b.k.h.k.k.k.k.k.k.k.k.h.k.k.k.b.n.n.n.n.n.n.n.n.n.n.m.H.U.U.Y.T.U.H.~./.~.Y.Y.H.G.G.H.m.n.G.U.U.U.Y.T.T./.m.Y.U.y.y.( + S 1X%X-.` ! ` ~ ~ ~ ! ! Q I I K I I ! ! ~ ~ ( ~ ~ ! ! ! I I K I I K K S S K K K K K I ~ ` ~ Q ~ ( ` ] O.+.+.+.] ] ` ` ] O.O.] ] @.] @.Q I b X , w G Q Q O.@.>.-.+.] +.=.=.=.=.@.-.-.-.-.-.>.>.q.q.q.q.,.>.>.-.-.-.-.-.-.@.@.@.@.@.@.@.+.+.[ ] ] ` ` ] +.+.] ` ` ] ] ` ` ` ! K b v # T.pXuXtXT.P.n.k.x.n.n.n.n.M.M.M.M.M.M.n.n.m.m.L.R.T.T.~.~.",
"].~./.+X]./././.].]./././.'.'.'././././.'.].[.OX+XOX].'././.~.T.~.Y.Y.Y.Y.Y.U.U.U.U.U.U.U.Y.T.~.T.Y.Y.U.H.G.m.n.n.n.n.n.b.b.k.k.k.k.k.k.k.k.k.k.k.k.k.h.h.k.h.r.J.U.M.e.e.h.h.k.r.r.h.k.M.n.b.k.k.b.n.G.H.U.H.G.H.H.H.G.G.m.n.n.n.b.k.k.k.b.m.G.G.m.n.b.b.b.b.n.b.b.b.b.k.b.n.n.b.G.G.n.b.b.n.n.n.n.n.n.n.b.k.k.k.k.k.k.k.k.k.k.k.k.k.k.k.k.k.k.k.b.b.n.G.H.H.G.b.n.H.H.H.G.G.G.U.H.G.m.m.m.n.n.n.n.n.n.b.b.x.k.k.k.k.k.b.b.b.b.b.b.b.b.b.b.b.b.n.n.b.k.k.k.b.n.n.G.b.h.b.n.b.b.b.b.b.n.n.n.m.G.n.b.k.h.h.h.h.h.b.k.k.h.h.r.r.r.r.r.r.r.r.r.g.r.h.g.r.r.k.n.n.b.n.b.k.b.b.m.G.H.Y.U.G.n.k.k.h.h.h.h.h.h.k.k.k.k.h.h.h.k.b.n.n.G.b.n.m.n.n.n.H.U.H.Y.U.Y.~.Y.U.~./.Y.H.H.H.G.G.H.G.G.H.Y.Y.Y.Y.Y.T.).P.T.x.0.&.- < `.qXc.A ! ! ` ! ! ! ! Q I I I I I ! ~ _ ( ~ ~ ` ( ! ! ! ! I I ! Q I K K S S S S K I ~ ` ( ! I ! ~ ( ` ] O.+.+.O.] ] ] ] +.+.+.` @.! @.K m p : T.Q 3 c ( O.-.&.-.+.] +.=.=.=.=.=.-.-.-.-.-.-.>.>.>.>.>.>.-.-.-.-.-.-.-.@.@.@.+.@.@.@.+.+.[ ] ] O.] +.@.-.-.-.@.` ] ` ` ` ( Q S c o P.uXpX8Xm.x.r.r.k.n.n.b.b.b.b.b.n.M.n.b.b.b.b.m.H.U.U.Y.~./.",
"OX~.'.+X]./.~./.OX].'.'.'.].].].OXOX[.[.[.OXOXOX].'././././.~.T.~.T.Y.Y.Y.Y.U.U.U.U.U.U.U.Y.Y.T.T.Y.Y.U.U.H.G.m.m.n.n.n.b.b.b.k.k.k.k.k.k.k.k.k.k.k.k.k.k.k.h.r.$.r.r.r.k.k.r.r.h.k.b.n.M.b.k.k.b.n.H.U.Y.U.H.G.H.H.H.G.n.n.b.b.n.n.b.b.b.n.G.H.n.n.b.b.b.b.n.n.n.n.b.b.b.n.G.H.n.G.G.n.b.b.n.b.n.n.n.n.n.n.b.b.k.k.k.k.k.k.k.k.k.k.k.k.k.k.h.h.k.k.b.n.H.H.G.n.k.n.H.H.G.n.m.G.U.H.G.n.n.m.m.m.n.n.n.n.b.b.k.k.k.k.k.k.b.b.b.b.k.k.k.k.k.k.k.k.b.b.k.h.h.k.b.b.m.G.b.h.n.m.b.b.b.b.b.b.b.n.n.n.G.n.b.k.k.k.k.b.b.b.k.k.h.t.r.r.r.r.r.r.r.r.g.g.k.h.r.r.k.n.n.k.k.k.k.b.m.H.H.U.H.G.n.k.k.k.k.k.h.k.k.k.k.k.k.k.k.k.k.k.b.b.n.G.n.G.G.n.n.G.H.U.U.Y.U.U.T.U.H.T.~.U.G.G.H.G.G.G.U.H.G.H.H.U.Y./.{.R.T.M.y.( 1 < L.8X).` A ~ I ` ! ! Q I I I K K K I ! ~ ~ ~ ~ ! ] ` ~ ! ! ! ! Q ! Q I K K K K K K Q ~ ` ` ~ ! ! ~ ~ ( ` ` ] ] ] ] ] ` ` ] ] ] ] ` @.! ` K k < ( pXk.7 5 c Q O.O.@.O.` ] @.=.-.-.-.-.-.-.-.-.-.-.-.-.-.-.-.-.-.-.-.-.-.=.@.@.+.+.@.@.@.+.+.[ [ [ +.+.@.-.>.>.-.@.] ] ` ` ` ~ I A : G pXpX8XM.h.h.x.M.n.n.b.k.k.b.b.b.b.b.b.b.b.b.b.G.U.Y.Y.Y.~./.",
"].~.'.OX]./.'.].].'./.'.].OXOXOXOXOXOX[.].].].].'././.~././.~.~.~.~.Y.Y.Y.Y.Y.U.U.U.U.U.U.U.U.U.Y.Y.U.U.H.H.G.G.G.m.n.n.n.b.b.b.k.k.k.k.k.k.k.k.k.k.k.k.g.g.g.g.k.z.k.g.k.k.r.r.h.b.n.n.b.k.k.M.G.H.U.Y.Y.U.H.G.n.n.b.b.b.n.n.n.b.b.b.n.n.n.m.G.k.k.k.b.b.b.n.n.n.n.b.b.n.m.G.H.G.H.G.n.b.n.n.b.n.n.n.n.n.n.n.n.b.b.k.k.k.k.k.k.h.k.k.k.k.k.k.k.k.k.b.n.H.H.m.b.b.n.m.m.n.b.n.H.U.H.G.n.n.m.m.m.n.n.n.b.b.b.k.k.k.k.k.k.k.b.b.b.b.b.b.k.k.k.k.k.k.k.h.h.h.k.b.b.G.G.b.k.n.m.b.b.n.n.b.b.k.k.k.k.b.b.k.h.h.h.k.k.k.k.k.h.h.t.r.r.r.e.e.e.r.r.r.r.h.r.e.e.h.b.b.h.b.b.n.G.U.U.U.H.b.b.k.k.k.k.k.b.h.k.k.k.k.k.k.k.b.k.k.b.b.b.n.H.H.H.m.n.n.H.U.H.U.Y.H.H.Y.H.G.U.Y.H.G.H.H.G.G.G.H.G.n.G.H.U.T.'.{.T.x.&.&.7 # P.8XXX` ! U ~ I ~ I I I I I K K K I I Q ! ~ ~ ( ` ` ` ! ! ! ! ! ! I I I K K I I I ~ ( ` ` ( ! ! ! ` ` ` ` ` ` ` ` ` ` ( ` ` ` ` ` ~ +.` I K y < &XiXn.^ > * V Q &.+.+.[ ] [ @.;.-.=.-.-.-.-.=.=.-.-.-.-.-.-.-.-.-.=.=.@.@.@.@.+.+.@.@.@.+.+.+.+.+.+.+.@.@.-.@.+.] ] ] ` ` ` ~ K m # `.uXtXL.0.m.t.x.b.k.h.k.k.b.n.b.b.b.b.b.n.n.G.m.H.Y.~.~.~./.].",
"/.~.'.[.'.'.OXOX'././.'.].OX[.].'.'.'.'.'.'.'.'.'.'././././.~.T.~.~.Y.Y.T.Y.Y.U.U.U.U.U.U.U.U.H.U.U.U.U.H.H.H.G.G.G.m.n.n.b.b.b.b.b.k.k.k.k.k.k.z.k.g.g.g.r.r.g.r.k.r.7.k.k.k.n.h.k.n.n.b.b.n.G.U.U.Y.Y.U.H.G.H.H.G.G.n.n.n.n.n.k.k.b.b.n.n.b.b.b.b.n.n.G.G.G.G.n.n.b.b.n.G.G.G.G.H.H.m.n.m.n.b.b.b.b.b.b.b.n.n.b.b.b.b.k.k.k.k.h.k.k.b.b.b.b.b.b.b.n.G.H.H.m.n.b.n.n.b.b.b.G.H.U.H.G.n.n.n.n.n.n.n.n.b.b.b.k.k.k.k.k.k.k.k.b.b.b.b.b.k.k.k.k.k.k.k.h.h.k.k.b.n.n.G.b.b.m.n.b.n.G.m.n.b.k.k.k.k.k.k.k.h.t.t.h.k.h.h.h.t.r.r.r.r.e.e.e.e.e.e.r.r.e.e.e.e.h.b.b.k.b.b.n.G.H.H.n.b.k.k.k.k.k.k.k.k.h.h.h.h.k.k.k.k.k.h.k.n.n.b.G.Y.H.H.G.b.n.H.H.n.U.U.H.H.U.H.G.U.U.H.G.H.H.H.G.H.H.H.H.Y.T.Y.T.~.G.L.y.( 7 > m.8XE.-.S ( ! K I I I I I I I I K K I I Q ! ! ~ ` ` ( ~ ! ! ! ! ! ! I I K I I Q ! ! ` ` ` ` ~ ! ! ! ` ( ~ ~ ~ ~ ~ ~ ` ~ ~ ~ ( ` ` ` ~ ] @.K K 8 b pXiXb.6.Y q s 7 Z ! ` +.+.[ [ =.-.=.-.-.-.-.=.=.=.-.-.-.-.-.-.-.-.=.@.@.@.@.+.@.@.@.@.@.+.+.@.@.@.@.@.@.@.@.+.O.] ] ] ` ` ` ` K m : P.pX{.y.M.y.b.h.k.k.h.k.n.n.b.b.b.b.b.n.n.G.H.n.G.U.Y.Y.T././.",
"~./.].[.'.].OX'.'././.'.[.OX]./././././././././.'.'././././.~.~.~.~.T.T.T.Y.Y.U.U.U.U.U.U.U.U.U.U.U.U.U.H.H.H.G.G.G.m.n.n.b.b.b.b.b.z.k.k.k.k.k.z.k.k.k.g.9.9.g.g.h.g.g.k.g.7.r.M.z.b.M.n.G.H.J.U.U.U.U.H.G.G.U.Y.U.H.G.m.n.n.b.k.b.b.b.b.b.b.k.n.m.G.H.H.H.H.G.n.n.b.n.m.H.H.G.G.H.H.G.G.H.H.G.n.n.n.n.n.n.n.n.n.b.b.b.n.n.n.n.b.n.n.m.m.n.n.n.b.n.G.G.G.m.n.n.n.b.b.b.n.m.H.H.H.G.G.n.n.n.n.n.n.n.n.b.b.k.k.k.k.k.k.k.k.k.k.k.k.k.k.k.h.h.h.h.k.k.h.h.k.b.n.n.b.n.b.b.m.n.b.G.H.G.n.b.k.k.k.k.k.k.k.k.h.h.h.k.h.h.t.r.r.r.r.r.r.r.e.e.e.e.e.e.7.e.e.e.g.k.z.k.k.k.b.b.n.b.k.h.k.k.k.k.k.k.k.h.k.k.k.k.k.k.k.k.h.h.k.n.n.b.n.U.n.H.G.n.n.H.H.n.H.H.m.G.U.H.G.U.U.H.H.H.H.G.H.Y.Y.Y.Y.T.Y.H.n.b.0.&.( c > q.0X).` S ! ! U L K K K I I I I I I I I I I Q ! ! ~ _ ! ! Q Q ! ! ! Q I I I I I ! ! ~ ( ( ( _ ~ ~ ! ! ~ ! ! ! ! ! ! ~ ( ~ ! ~ ~ ( ( ~ ` ` +.I A - q.pX9Xr.$.3.E v > = k S ] +.[ [ ;.=.@.=.-.-.-.=.=.-.-.-.-.-.-.-.=.=.@.@.@.+.+.@.@.@.@.@.@.@.@.@.-.-.-.>.>.-.@.@.+.+.] ] ` ` ] ` I m + M.pXT.x.%.M.t.k.b.n.b.b.n.F.n.b.n.n.G.G.G.G.G.b.n.G.H.U.Y.^.~.",
"~.'.+XOX'.].OX~.'.'./.].OXOX'.~.'.'.'.'.'.'.'.'./././././././.~.~.~.T.T.T.Y.Y.U.U.U.U.U.U.U.U.U.U.U.U.U.U.H.H.G.G.G.m.n.n.n.b.b.b.b.z.z.k.k.k.k.h.g.g.k.g.9.r.k.g.g.g.r.g.g.r.k.H.n.b.n.H.Y.U.U.U.H.H.H.G.n.G.U.G.m.n.n.n.n.n.n.b.b.b.b.b.b.b.b.b.n.G.H.H.G.n.b.m.n.n.m.H.H.H.H.G.H.H.G.H.U.U.H.H.G.G.m.n.n.n.n.b.n.n.n.m.G.H.H.H.H.H.H.G.n.b.b.b.n.G.G.n.b.b.n.n.b.b.n.G.H.H.H.G.G.n.n.n.n.n.b.n.n.n.b.b.k.k.k.k.k.k.k.k.k.k.k.k.k.k.k.k.k.k.k.h.h.h.h.h.k.b.n.h.b.b.b.m.n.n.H.G.m.n.b.k.h.h.k.k.k.k.k.h.r.r.h.h.h.h.r.r.r.r.e.r.r.r.e.e.e.e.e.e.r.r.r.g.h.k.h.k.k.k.b.b.b.k.h.k.k.k.k.k.k.k.k.b.b.b.b.k.k.k.k.k.h.b.m.n.k.b.H.b.G.H.n.b.G.H.m.H.H.n.m.U.U.H.Y.U.H.H.H.G.G.U.~.~.Y.L.G.b.e.%.$.O.H 7 # y.8XT.O.I S ` S U K L S K K I I I I I I K I I I I Q Q Q I I I Q ! ! ! I I I I I I ! ! ! ! ! ! ~ ` _ ! ! Q I I I I ! ! ! ( ~ ! ~ ~ ( ( ~ ` ` O.! b $ _.aXU.k.r.e.#.6.$.7 = k ! ] [ [ ;.=.@.@.-.-.-.-.-.-.=.-.-.-.-.=.@.@.@.@.+.+.+.@.@.@.@.@.@.@.@.=.-.>.-.>.-.-.@.+.+.O.] ] ` ` ] ` I Z * L.aXOX3.h.m.t.h.b.n.k.k.n.H.U.b.n.G.H.H.H.G.n.F.G.H.U.^.~./.~.",
"~./.'.'./.~./.'.'././.].+X[.'./././.'.'.'.'.'.'.'.'./././././.~./.~.~.~.Y.Y.Y.Y.U.U.H.H.H.U.U.Y.U.U.U.U.U.U.U.U.H.H.G.G.n.n.n.b.n.n.b.k.k.k.h.h.h.h.t.r.r.r.g.r.h.h.h.h.r.r.k.n.H.H.G.G.H.Y.U.n.b.H.U.G.b.n.H.U.n.n.n.n.n.b.b.b.n.n.n.b.b.b.b.n.b.H.H.n.b.n.n.b.n.n.b.n.m.H.H.U.H.U.U.U.H.m.n.n.G.G.G.G.G.G.G.G.n.n.n.n.n.G.G.H.H.U.U.U.H.G.n.b.k.k.b.n.H.H.n.k.b.n.n.n.n.H.H.G.H.H.G.n.n.n.n.n.b.b.b.b.b.b.k.k.k.k.k.k.k.h.h.h.h.h.k.k.k.h.h.h.r.h.t.r.h.k.k.h.h.k.k.k.n.b.b.G.G.n.b.b.b.k.k.h.k.k.k.k.h.h.t.r.t.t.t.t.r.r.r.r.e.e.e.r.r.r.t.h.r.r.t.t.r.t.h.k.k.h.t.h.h.k.k.k.k.h.h.k.b.n.n.n.n.n.b.b.k.k.h.h.k.k.k.b.b.b.k.k.m.G.G.G.n.n.G.H.n.H.H.G.U.Y.U.Y.F.J.J.G.m.Y.T.T.Y.T.M.%.&.5.c S <   8 P.4XE.` S K K K K K S S S K K K K K K S K I K K K K I I I I I I I I Q ! ! I I I K K K I ! ! ! ! ~ ! ! ! I I I I I Q ! ) ! ! _ ! ! ! Q ! @.@.S ( G c X ).tXU.r.7.g.7.r.r.( : e 9 S ~ ~ -.[ =.=.;.,.,.-.=.=.,.-.-.-.=.@.@.@.+.+.+.+.+.+.@.@.] @.@.+.+.-.>.-.>.-.-.@.+.[ ] ` +.` ` ] ( ( I b ; U.iX/.k.k.b.b.k.k.n.n.b.H.U.m.n.G.H.H.n.b.b.n.H.H.H.U.U.Y.Y.Y.",
"~./././.~.~./././.~./.].OX[.'.'.'.'.'.'.'.'././.'.'./././././.~.~.~.~.T.Y.Y.Y.U.Y.Y.U.U.U.U.U.U.U.U.U.U.U.U.U.U.H.H.G.G.m.n.n.n.n.n.b.k.k.k.h.h.h.h.t.r.r.r.r.t.k.h.h.k.k.k.b.G.G.G.G.G.H.U.H.n.n.H.H.n.b.n.G.H.n.n.n.n.n.n.n.n.n.n.n.b.b.b.b.n.b.G.G.n.n.G.G.n.n.n.n.n.G.H.H.H.H.H.H.H.G.n.n.n.G.G.G.G.G.G.G.G.n.n.n.n.G.H.H.H.H.U.U.U.H.G.n.b.n.G.H.H.U.H.m.n.G.G.G.n.G.U.Y.U.H.G.G.n.n.n.n.n.b.b.b.b.b.k.k.k.k.k.k.k.k.k.k.k.h.h.k.k.k.h.h.h.r.h.h.h.k.b.k.h.h.k.k.k.n.b.k.m.G.n.b.b.k.k.k.h.k.k.k.k.h.h.t.t.t.h.h.t.t.r.r.r.r.e.e.e.r.r.r.r.r.t.h.t.r.r.t.h.h.r.r.t.h.h.k.k.k.h.h.k.b.n.n.n.m.n.b.b.k.k.k.k.b.b.b.n.n.n.b.b.G.G.G.m.n.n.G.H.b.H.H.G.U.U.H.U.J.K.n.H.Y.T.Y.U.L.t.@.` ! 8   + y i.;X=XV.+.! I K K K K S S S S S S K K K K K K K K K K I I I Q I I I I I Q ! ! I I I I I I ! ~ ! ! ! ! ! ! ! I I I I I Q Q Q ! L ! ! I ! _ Q S R S ! Z j 7 %XpXH.7.7.g.6.r.h.#.Q k > - l =.,._ =.=.;.,.,.-.=.=.-.-.-.-.=.@.@.+.+.+.+.+.+.+.+.+.+.@.@.@.@.>.q.q.q.<.,.>.-.@.@.@.@.` O.O.] ( G j & *XpXU.6.b.H.b.k.k.n.n.b.G.U.m.b.m.H.G.n.b.b.n.H.H.H.H.U.Y.Y.Y.",
"/.~.T.T.~./.~.~./.~./.].OXOX].].OXOXOX[.].].'.'.'.'././././.~.~.~.~.~.T.Y.Y.Y.Y.Y.Y.U.U.U.U.Y.Y.U.U.U.U.U.U.U.U.H.H.H.G.G.G.G.m.n.n.b.b.k.k.k.h.h.h.r.r.r.r.r.t.k.h.h.k.b.n.m.H.n.m.G.G.H.H.G.b.G.H.G.n.b.n.G.H.n.n.n.n.n.n.n.n.n.n.n.b.b.b.b.b.b.G.G.n.G.U.U.m.n.n.n.G.H.H.H.H.G.G.G.G.m.n.n.n.n.n.n.n.n.n.n.n.b.n.n.m.G.G.G.G.G.G.G.G.G.n.b.b.m.H.H.H.H.G.m.m.H.H.m.n.G.Y.Y.Y.G.G.m.n.n.n.n.n.b.b.b.k.k.k.k.k.h.k.k.k.k.k.b.b.k.k.k.k.k.h.h.h.r.h.h.h.k.b.k.h.k.k.k.k.n.b.k.m.H.m.b.k.k.k.k.k.k.k.k.k.h.h.h.h.h.h.h.h.t.r.r.r.r.r.r.e.e.r.r.r.t.h.h.r.r.e.r.r.r.r.r.r.t.h.k.k.k.k.k.k.b.n.n.n.G.n.b.k.k.k.k.k.n.n.n.n.n.n.b.b.H.H.G.n.n.m.H.U.n.H.H.G.U.U.H.J.J.H.H.Y./.T.P.L.t.t.>.y o < v..X%X$XI.+.Z m K ! K K S S S S S S S S K K K K K K K K K K I I Q ! I I I I I Q U ! Q Q Q I I I ! ~ ! ! ! ! ! ! U I Q I I I I Q Q Q ~ ! I I Q Z l Z c Z w o w h.pXiXn.7.7.e.6.r.h.6.0.&.@.9 + A ] -.-.=.-.,.q.,.-.=.-.-.=.=.@.@.@.+.+.+.+.[ [ [ +.+.@.@.@.@.-.q.w.q.,.,.>.-.-.@.@.@.@.] O.&.O.( Z 7 D aXpXn.6.b.G.b.k.k.b.n.b.G.H.m.b.n.G.G.n.n.n.n.H.H.H.H.U.Y.Y.Y.",
"~.~.T.T.~.~.~.~././.'.].OX+X+XOX+X+X+XOX[.].].'.'.'././././.~.~.~.~.~.T.Y.Y.Y.Y.U.U.U.Y.Y.T.~.~.U.U.U.U.U.U.U.U.H.H.H.H.H.H.G.G.n.n.b.b.k.k.k.k.h.t.r.r.r.r.t.h.b.k.h.k.n.n.m.G.n.n.G.H.H.G.n.b.H.G.n.b.b.n.G.G.n.n.n.n.n.n.n.n.n.n.b.b.b.b.b.b.m.H.G.m.H.Y.U.G.n.n.n.G.H.H.H.G.n.m.G.G.n.n.n.G.m.m.m.G.G.m.m.m.n.n.m.m.m.n.n.b.b.b.n.n.n.n.b.b.n.m.G.G.G.G.H.H.G.m.n.n.H.U.U.U.G.G.m.n.n.n.b.b.b.b.k.k.k.k.k.k.h.h.k.k.k.k.k.k.k.k.k.k.k.h.h.h.r.h.t.r.h.b.b.k.k.k.k.k.n.b.k.m.H.G.b.k.k.k.b.b.b.k.k.k.h.h.h.h.h.h.h.h.h.r.r.r.r.r.r.e.e.e.e.e.r.r.r.r.e.e.e.e.e.r.t.r.t.h.k.k.k.k.k.k.b.b.n.n.G.n.b.k.k.k.b.b.m.n.b.b.k.k.k.k.U.H.G.n.n.G.H.U.H.Y.H.G.U.U.U.U.n.J././.Y.U.H.m.y.( < - w.:X0Xv.>.! S I ! K A K K S S S S S S S Q I K K K K K S I I I I U ! Q Q I I I I I Q U U ! ! ! Q I I Q ! ! ! ! ! ! ! I I I I I I I Q Q I Q S l l b w - , < * ; #.*XaXpX2Xh.8.7.e.6.e.h.e.e.0.y.Z 7 I q.i.-.=.-.<.q.,.-.=.-.=.=.=.@.@.@.+.[ [ [ [ ] [ +.+.@.+.+.=.,.q.q.>.=.=.=.=.@.@.@.+.@.] O.&.&.( b , M.pX7Xr.k.b.k.n.k.k.b.n.b.n.H.n.b.b.n.n.n.n.n.n.G.G.G.H.U.U.Y.Y.",
"U.Y.T.Y.Y.Y.~.'.'.'.].[.OX+X+X+X].].].].].'.'.'.'./././././.~.Y.~.~.~.~.T.Y.Y.Y.U.U.Y.Y.T.~.~.~.U.U.U.U.U.U.U.U.H.H.H.H.H.H.H.H.n.n.n.b.b.k.k.k.h.h.r.r.r.t.h.h.n.k.h.b.n.n.n.b.n.n.H.H.H.G.n.n.H.G.b.b.b.n.n.G.G.G.m.n.n.n.n.n.n.n.b.b.b.b.b.b.G.H.G.n.G.U.H.n.n.n.n.G.H.H.G.n.n.m.G.m.n.n.G.G.m.m.m.m.m.m.G.m.G.m.G.G.G.n.n.n.n.n.n.n.n.n.n.n.H.m.n.G.H.U.U.H.n.n.n.G.H.H.H.G.m.m.m.n.n.n.b.b.b.b.b.b.k.k.k.k.k.k.k.k.k.k.k.k.k.k.k.k.k.k.h.h.h.h.r.r.t.k.b.b.k.k.k.k.n.b.b.G.H.G.n.b.b.b.b.b.b.b.k.k.k.h.h.h.k.k.k.h.h.t.r.r.r.r.r.r.e.e.e.e.e.e.r.r.e.e.e.e.r.h.k.h.h.k.k.k.h.h.k.k.k.b.b.b.m.n.b.k.k.k.b.b.n.b.k.h.h.k.b.n.U.U.G.G.G.H.U.U.U.Y.H.n.H.U.U.Y.n.Y./.U.m.m.x.y.O.H - 0.5X`.! A k b m b b S ! ( S S S S S S K K ~ ! I I I I K K ! ! ! ! ! ! I I I I I I I Q I U ! ! ! ! ! ! ~ ~ _ _ _ ! ! ! I I I I I Q Q Q I I Z S m j - * P {.x.{.<XaXpXiX2Xe.e.7.7.r.e.e.e.6.6.0.O.Q c Z q.w.,.-.-.,.q.>.-.=.=.=.@.@.@.@.+.+.+.+.[ [ +.+.+.+.@.@.@.>.w.q.-.@.=.=.=.=.=.=.@.@.@.+.O.&.&.] Z , m.aX/.3.b.k.h.n.k.h.b.n.b.n.G.n.b.b.b.n.n.n.n.n.G.m.m.G.H.U.U.U.",
"H.U.Y.Y.U.Y./.].'.].OXOX+X+X+XOX].].].].].].'.'.'./././././.~.T.~.~.~.~.~.~.~.T.Y.Y.~.^.T.Y.Y.Y.U.U.U.U.U.U.U.U.U.U.U.H.H.H.H.H.m.n.n.b.b.k.k.k.h.h.h.t.t.h.h.k.n.k.k.b.n.n.k.k.n.n.H.U.H.m.m.G.H.n.b.b.n.n.n.G.H.G.m.n.b.b.b.b.n.n.b.b.b.b.b.b.n.G.G.n.n.G.n.k.n.n.n.G.G.G.m.n.n.n.m.n.n.n.G.G.G.G.G.G.G.G.G.G.n.m.G.G.H.H.H.H.H.H.H.G.m.n.n.n.H.G.n.n.G.H.G.n.n.n.G.H.U.G.m.G.n.n.n.n.n.n.b.b.b.b.b.b.b.b.k.k.k.k.k.k.k.k.k.k.b.b.b.b.b.k.k.k.h.k.h.r.h.b.n.b.k.k.k.k.n.n.n.H.U.H.n.n.n.n.n.n.b.b.k.k.k.k.k.k.k.k.k.k.h.t.r.r.r.r.r.r.r.r.r.r.e.r.r.r.r.r.r.r.r.k.b.k.h.k.b.k.t.h.k.k.k.k.k.b.n.b.k.k.k.k.b.b.b.b.k.k.b.n.H.H.Y.U.H.G.H.H.U.U.U.U.G.b.H.U.U.Y.T.T.H.k.t.y.&.Q S - b =X).I p S A S S A K I S k S S S S S K I I ~ ! I I Q ! Q I ! ! ~ ! ! Q I K I I I I I Q U U Q ! ~ ~ ~ ` ` ] ' _ _ ! ! ! I I Q ! Q ! Q I S A Z m - X ] 8XpXuXpXpXiXiX2Xb.$.h.7.7.7.e.e.7.6.3.%.h.3.&.l - Q c.w.>.-.>.q.>.-.@.@.=.@.@.@.@.+.+.+.+.+.+.+.@.@.@.-.-.>.w.i.q.-.@.=.=.=.=.=.=.=.=.-.@.&.&.@.O.S > 0.rXY.6.h.r.k.k.k.t.k.n.b.b.n.b.b.b.b.b.b.b.b.n.n.n.n.G.H.U.U.U.",
"H.H.U.Y.Y./.'.OX'.].+XOXOX+XOX].].].].].].].].].'./././././.~.T./././.~.~.~.~.~.Y.~.~.~.T.Y.Y.Y.U.U.U.U.U.U.U.U.U.U.U.H.H.H.G.G.G.n.n.b.b.k.k.k.k.h.h.h.h.h.k.k.b.k.k.n.m.b.k.h.b.n.G.U.H.n.G.U.G.n.b.n.n.b.n.G.G.G.n.b.b.b.b.b.n.b.b.b.b.b.b.b.b.G.G.n.b.n.n.b.n.n.n.n.m.m.n.n.n.n.n.n.n.n.n.G.n.n.n.n.n.n.n.n.n.n.n.m.G.G.H.H.H.H.G.G.G.G.H.H.H.G.n.n.n.n.b.b.n.n.G.H.G.n.n.G.n.n.n.n.n.n.b.b.n.n.n.n.b.b.b.b.k.k.k.b.b.b.b.b.n.n.n.b.b.b.k.k.h.k.k.k.b.n.n.n.k.k.k.k.m.m.m.U.U.H.G.m.m.m.n.n.n.b.b.k.k.k.k.k.k.k.k.k.h.h.r.r.t.r.r.r.r.r.r.r.t.h.k.k.h.t.r.r.r.b.n.k.h.k.b.k.r.h.h.h.h.h.k.b.b.b.k.k.k.k.k.b.k.b.n.m.H.H.U.U.Y.U.H.H.H.U.U.U.H.U.m.n.U.Y.U.Y./.L.x.0.( Z c v = 9 E.4X@.b S b m b m A S A S Q S A A S S K Q ! ( ! I I Q ! Q I ! ! ! ! ! Q I K I I I I I Q Q Q ! ! ~ ~ ~ ~ ~ ` _ ! ! ! ! ! ! ! ! ! ) ) I S m v 9 * j Q.pXpX0XeXH.U.U.k.h.e.7.g.7.e.7.8.e.7.3.6.3.6.O.O.Q k Z y.i.,.-.-.>.-.@.@.@.@.@.@.@.+.[ [ +.+.+.@.@.=.-.-.>.-.q.i.i.q.-.-.=.=.=.=.@.@.@.@.-.@.%.&.&.O.Z > e.iX~.r.r.6.k.r.k.r.k.b.k.k.b.b.b.b.b.b.b.b.b.b.n.n.n.n.H.U.U.U.",
"U.U.U.Y./.].OX+X/.[.+XOXOXOX].'.].].].].'.'.'./.'./././././.~.T././././././././.Y.Y.Y.T.~.T.Y.Y.U.U.U.U.U.U.U.U.U.U.U.H.H.G.G.G.G.m.n.b.b.b.k.k.k.k.h.h.h.k.k.k.k.k.b.m.G.b.k.h.b.n.G.H.G.n.G.U.n.b.b.n.n.b.n.H.m.n.n.b.b.b.b.n.n.b.b.b.b.b.b.b.b.G.H.n.b.n.m.n.n.n.n.n.n.n.n.b.n.n.n.b.b.b.n.n.n.n.n.n.n.n.n.n.n.n.n.n.n.n.n.m.n.n.n.n.G.H.U.U.H.H.H.G.n.n.n.n.n.n.G.H.n.k.b.G.n.n.n.n.n.n.b.b.n.n.n.n.n.n.n.b.k.k.b.b.b.n.n.n.n.n.n.n.b.b.b.k.h.k.b.n.G.H.G.n.k.k.k.k.G.G.G.Y.U.H.H.G.G.G.G.n.n.b.b.k.k.k.k.k.k.k.k.k.h.h.r.r.t.r.r.r.r.r.t.t.k.k.b.b.k.h.t.r.r.b.n.k.h.k.k.h.r.t.h.h.h.h.k.k.k.k.k.k.k.k.k.k.b.n.G.U.U.U.H.H.Y.U.H.H.U.U.U.U.G.H.G.G.Y./.Y.Y.G.h.e.O.k o o 7 x.<X0X@.A A n m b S K A m A A m A A A S S I ! ~ ] ~ I I I I K S I I Q ! ! I I K I I I I I Q Q Q ! ~ ~ ! ! I I I ! ! ! U ! ! ! ! ~ ~ ~ ) I Z k i @ a.9XpXiX0X'.e.k.r.k.2.g.7.6.r.7.r.6.4.e.7.3.6.6.6.e.$.#.c > Q s.q.@.-.-.-.@.@.@.@.@.@.@.+.[ [ +.+.+.@.=.-.>.>.>.>.q.w.w.>.-.,.=.=.=.=.-.-.-.-.@.@.%.&.O.` Z , M.iXH.r.r.3.b.h.k.r.h.b.k.h.b.k.b.b.b.b.b.b.b.b.n.b.n.n.G.H.U.U.",
"Y.Y.Y.~./.'.].[.'.].OX[.'./.'.].].].].].].'.'.'.'.'././././././.~.~.~.~.~.~.T.T.Y.Y.Y.Y.Y.U.Y.Y.U.U.U.U.U.U.U.U.Y.U.U.U.H.H.H.H.n.n.n.n.n.b.b.b.k.k.b.k.t.r.r.t.t.k.n.m.n.k.k.b.G.G.H.U.U.H.G.m.n.n.b.b.n.n.n.b.n.n.b.b.M.M.n.n.b.b.b.b.k.k.k.b.b.b.b.n.n.n.b.b.b.b.n.n.n.n.n.n.n.n.n.n.n.n.n.n.b.b.b.b.b.b.b.b.b.b.b.n.n.n.G.H.U.U.U.U.H.U.U.Y.H.H.H.H.G.n.n.b.n.n.b.b.b.b.b.b.n.n.n.n.n.n.m.G.n.n.n.n.n.n.n.n.G.n.n.b.b.b.n.n.b.m.H.G.m.n.b.k.k.k.b.b.b.b.b.b.h.k.n.G.H.H.U.U.H.H.G.n.n.n.n.m.n.n.b.k.k.k.k.k.b.k.k.k.h.h.h.h.h.t.r.r.h.k.b.b.n.b.b.k.k.k.h.h.k.k.k.k.h.t.r.r.r.r.t.t.r.h.k.k.k.k.k.h.h.k.b.n.k.m.U.H.G.G.H.H.U.n.G.U.G.n.H.U.G.G.G.H.Y./.T.H.M.%.%.7 + >.[.&X;XA.` m b m m S S S S A A A Z Z Z A A S S K Q ! ~ Q K I I K K I I I Q ! ! Q I I K K K K I I I I ! ! ! I Q ! ! Q ! ! ! ! ! ! ~ _ ~ ! I ! Z k k X #X0XpXiX<Xk.$.k.r.r.r.r.r.r.r.r.e.e.e.7.6.6.6.3.%.3.6.6.$.E j 3 Q ) O.%.>.O.] q.] +.@.@.@.@.@.@.+.@.@.=.-.-.>.>.@.>.w.w.>.-.,.w.=.=.=.-.>.>.>.-.-.@.O.>.( G G X OXpXm.6.r.r.k.r.h.h.k.b.b.b.b.k.k.k.b.k.k.k.b.b.n.b.n.G.H.G.G.U.",
"U.U.U.U.Y.~././.'.].].].'./.'.].'.'.].].'.'.'.'.'.'././././././.'.'.'././.~.T.Y.~.Y.Y.Y.Y.Y.Y.Y.H.U.U.U.U.Y.Y.Y.Y.Y.U.U.H.H.H.G.n.n.n.n.n.b.b.b.k.k.k.k.h.h.k.n.b.n.G.G.n.b.b.b.G.H.U.U.H.H.H.H.m.n.n.n.n.n.n.b.n.n.b.b.n.M.n.n.b.b.b.b.b.k.b.b.b.b.b.b.b.b.b.b.b.b.b.b.n.n.n.n.n.n.n.n.n.n.n.n.b.b.b.b.b.b.b.b.n.b.n.m.m.n.G.U.U.U.H.H.H.H.H.H.U.H.H.G.G.n.n.n.m.n.n.b.n.n.n.b.n.n.n.n.n.n.n.m.n.n.n.n.n.n.n.n.G.n.b.b.k.k.b.b.n.H.H.H.G.G.n.b.k.k.k.k.k.k.h.h.k.b.n.n.m.G.H.H.G.G.n.n.n.n.n.n.n.n.b.k.k.k.k.k.k.k.k.h.h.h.h.h.h.t.t.t.h.k.k.b.n.b.b.k.h.t.r.r.h.h.h.h.h.t.r.r.r.r.r.r.t.h.k.k.k.k.k.k.h.k.b.n.k.m.U.H.m.m.G.H.H.n.G.U.G.G.U.U.n.G.U.Y./.~.G.h.#.&.8 > 0.&X[.( ! A l m S A A S S A A A A Z m m b m A S S I ! ~ ~ I K I I I I ! ! ! ! Q I I K K K K I I I I I I I ! ! ! ! ! ~ ~ ! ! ! ! ! ! ! ~ ` S %.H m v # T.aXiX8XY.t.k.h.e.r.r.r.r.r.r.r.r.e.7.e.7.6.6.3.3.3.%.%.3.3.| D s , Z &.&.O.&.@.O.@.@.@.@.@.@.[ [ +.@.@.=.-.-.-.-.-.,.w.q.>.-.>.q.-.-.-.,.q.q.>.>.0.+.%.&.] ! 7 c 9XiXG.r.h.h.b.r.h.k.b.b.b.b.k.k.k.k.k.k.k.k.k.b.b.b.b.G.G.G.G.U.",
"G.H.H.Y.~./.'.].].].'.'././.'.'.'.'.'.'.'.'.'.'.'./././././././.].].'.'./.~.~.T.~.~.~.~.T.Y.Y.U.U.Y.Y.T.~./././.Y.Y.U.U.H.H.G.G.n.n.n.n.n.n.b.b.b.b.k.h.h.k.n.G.n.G.G.n.b.b.b.n.H.U.Y.Y.H.G.H.U.G.n.n.n.n.n.n.b.n.n.n.n.n.n.n.n.b.b.n.b.b.b.b.b.n.n.b.b.k.k.b.b.b.b.b.b.b.n.n.n.n.n.n.n.n.n.n.n.b.b.b.b.b.b.b.b.n.n.n.G.G.m.G.U.U.H.G.G.H.H.H.G.U.H.H.G.n.n.n.n.G.m.n.n.n.n.n.n.n.n.n.n.n.n.n.n.n.n.n.n.n.n.n.n.n.n.b.b.b.b.n.n.G.U.U.U.H.G.m.n.n.n.n.n.b.b.k.k.b.n.n.n.n.n.m.G.n.n.n.n.b.b.n.n.n.b.b.k.k.k.k.k.k.k.h.h.h.h.h.h.h.h.t.t.h.h.k.k.b.k.k.h.t.r.r.r.r.r.r.r.t.t.t.t.t.r.r.r.h.k.k.h.k.k.k.k.k.k.b.n.k.n.H.H.n.n.G.G.n.n.H.H.G.H.Y.H.b.G.Y././.Y.k.%.O.w + i.4XV.I m b l l m m b n m A A A Z m m m m b m A S K I ! ( ~ I I Q ! ! ! ~ ~ ! ! I I K K K I I Q ! ! ! Q Q I ! ~ ~ ! Q ! ` ! ! ! ! ! ~ ~ _ ~ ] ( m Z # ) uXpX2XU.e.%.e.h.e.r.r.r.r.r.r.g.r.e.e.e.7.6.6.3.3.6.2.#.$.6.$./ F 4 7 N O.&.&.&.&.@.@.+.+.@.@.@.@.@.=.-.-.-.-.-.-.,.q.q.q.,.>.>.>.-.-.-.-.>.>.>.-.q.@.w.( K b * T.pX2Xh.r.r.k.b.h.r.k.b.n.b.k.k.k.k.k.k.k.h.h.k.k.b.b.n.G.G.m.G.H.",
"H.H.U.T./.].[.OX].'././././././.'.'.'.'.'.'.'.'././././././././././././.~.~.~.~.~.~.~./.~.T.Y.U.Y.Y.T.~.~./././.Y.Y.U.U.H.H.G.G.n.n.n.n.n.n.b.b.b.b.k.h.h.k.b.n.n.n.n.b.b.b.n.G.U.Y.Y.U.H.H.H.U.G.n.n.b.n.n.b.b.n.n.n.n.n.n.n.n.n.n.n.n.b.b.b.n.G.m.n.b.k.k.b.b.k.k.b.b.b.b.n.n.b.b.b.b.b.b.b.b.b.b.b.b.b.b.b.b.n.n.n.G.G.n.G.H.H.G.n.G.U.Y.Y.U.H.H.G.n.n.n.n.G.G.m.n.n.n.n.n.n.b.n.n.m.m.n.n.n.n.n.n.n.n.n.n.n.b.b.b.b.n.G.H.H.H.U.Y.U.H.G.G.n.m.G.G.G.m.n.n.n.n.n.n.b.b.b.n.G.n.n.n.n.n.n.b.b.b.b.b.k.k.k.k.h.h.h.h.h.h.h.h.h.h.h.t.t.h.h.h.k.t.t.r.r.r.r.t.t.r.r.r.r.r.r.r.r.h.r.e.r.k.k.k.h.k.h.k.k.k.k.b.n.k.n.H.G.n.n.m.G.k.n.H.H.m.U.Y.G.n.H.Y.~.~.H.r.O.w 8 w.=XW.I 9 b m b l b m m A I Z m m m m m m m m A S K K I ! ~ ~ ! Q ! ~ ! ~ ~ ~ ! Q I I I Q ! ! ! ! ! ! ! ! ! ! ! ! ! Q I I ! ! ! ! ! ~ _ _ ` ` @.G c k X 0XpX1Xx.#.k.x.e.e.h.r.r.r.r.r.r.r.r.e.e.e.7.6.6.3.3.6.2.$.$.6.6.$...Y 5 ; c ( &.@.@.@.+.+.@.=.-.>.>.>.>.,.q.q.q.q.,.q.q.q.q.q.,.>.-.=.=.-.-.>.>.>.-.0.@.q.! S 1 m aXiXU.6.t.e.k.b.k.h.k.n.b.k.h.h.k.k.k.k.k.h.h.h.k.k.b.n.G.G.G.H.U.",
"U.Y.Y.Y.~.~.~./.'./.~.~././././././.'.'.'.'./././././././././././././.~.~.~.~.~.~.~././.~.~.Y.Y.U.U.Y.Y.Y.Y.Y.Y.Y.U.U.U.H.H.G.G.n.n.n.n.n.n.b.b.k.k.k.b.b.n.n.n.b.b.b.b.n.G.U.Y.T.Y.U.H.U.U.H.H.m.n.b.b.b.b.b.b.M.M.M.n.n.n.n.n.n.n.n.n.n.b.b.n.m.n.b.b.k.k.k.b.b.b.b.b.b.b.n.n.b.b.b.b.b.b.b.b.b.b.b.b.b.b.b.b.b.b.n.m.m.n.n.G.G.m.n.G.U.Y.Y.U.H.H.G.n.n.n.m.G.G.n.n.n.n.n.n.n.b.n.n.m.m.n.n.n.n.n.n.n.n.n.n.n.b.b.b.n.n.G.H.H.H.U.U.H.G.G.n.n.n.n.n.n.n.n.b.b.b.b.b.k.k.b.n.H.n.n.n.n.n.n.n.n.b.b.k.k.k.k.h.h.h.t.t.r.t.t.h.h.h.h.h.h.h.h.k.k.t.r.r.r.r.t.t.h.h.h.t.r.r.r.r.r.k.t.r.h.k.b.k.h.k.h.h.k.k.h.k.n.k.m.H.G.b.b.n.G.b.n.H.H.m.U.Y.m.H.U.Y.~.Y.b.#.F o @.-XP.L b m l l k l b m m m m m m m m m m m m A S K I Q ! ! ~ ~ ! ! ~ ~ ~ ! ~ ~ ! ! I I I ! ! ~ ~ ~ ~ ~ ~ ! ! ~ ! I I K G I ! ! ! ! ! ~ _ _ ` +.Q ) v - ( uXsXT.r.0.y.e.r.h.e.r.r.r.r.r.r.r.r.e.e.7.6.6.3.3.3.3.4.4.2.2.4.4.6.#.C 0 > s G O.] @.@.=.-.,.<.<.q.q.q.q.q.q.q.q.q.q.q.,.,.q.>.-.@.-.-.,.,.q.w.q.q.-.@.O.) H : L.pX6Xr.e.b.h.k.b.h.k.k.b.k.t.r.h.k.k.k.k.k.h.h.h.k.b.n.H.H.H.H.H.U.",
"U.U.U.Y.Y.T.~.~./.~.Y.Y.~././.~././././././././././././.'./././.'.'././.~.~././././././.~.T.Y.Y.Y.Y.Y.Y.U.U.U.U.U.U.U.H.H.H.G.G.n.n.n.n.n.n.b.b.k.k.b.n.H.H.H.G.b.b.n.m.H.U.T.~.~.U.H.H.U.U.H.m.n.n.b.b.n.n.n.b.b.M.M.n.n.n.n.n.n.n.n.n.n.b.b.n.b.b.k.k.k.k.k.k.b.b.b.b.b.b.b.b.b.b.b.b.b.b.b.b.b.b.b.b.b.b.b.b.b.b.b.n.n.b.n.m.G.m.n.G.H.H.H.G.G.G.G.n.n.n.m.m.n.n.b.b.n.n.n.b.n.n.n.n.n.n.n.n.n.n.n.n.n.n.n.n.b.b.b.b.b.n.n.n.G.H.H.G.n.n.n.n.m.m.n.n.b.b.k.k.k.k.k.h.h.k.n.G.n.n.n.b.b.b.b.b.k.k.k.k.k.k.h.h.r.r.r.r.r.t.h.h.h.h.h.h.k.k.k.k.k.k.h.h.t.r.r.r.k.h.h.r.r.r.r.h.k.k.k.k.b.n.b.b.k.h.h.b.b.h.k.n.b.G.H.G.b.b.n.G.b.n.H.U.G.H.U.G.H.Y.~.~.H.e.Y w y #XP.( b u S b m b l l n n l l m m m m m m m m A S I ! ! ~ ( ` ~ ! ! ~ ~ ! ! ~ ` _ ~ ! Q Q ! ! ` ` ` ( ~ ~ ! ! ~ I S S m b A I ! ! ! ! ! ! ! ! ! ~ G Z # I.tX8Xq.t.N.r.0.r.h.e.r.r.r.r.r.r.r.e.e.e.7.6.6.3.3.3.2.3.6.2.2.2.4.7.$...Y c s 7 k O.@.-.<.w.u.u.1.1.,.>.,.q.q.q.,.,.>.>.>.>.>.>.-.=.,.,.,.<.q.w.q.q.@.>.( G w w 9XpXT.$.e.k.b.h.b.k.k.k.k.t.r.r.h.k.h.k.k.k.h.h.k.k.n.H.U.U.H.H.U.U.",
"G.H.J.Y.T.~././.Y.Y.Y.Y.~.~./.~.~./././././././.~./././.'./././.'.'./././././.'./././.~.~.Y.Y.Y.T.T.Y.Y.Y.Y.Y.U.U.U.H.H.H.H.H.H.n.n.n.n.n.n.n.b.k.b.b.G.H.U.H.H.G.G.H.U.Y.T.~.~.Y.U.H.H.H.H.G.n.n.n.n.n.n.m.n.n.M.M.M.n.n.n.n.n.n.n.n.n.b.b.b.n.b.b.b.b.b.b.b.b.n.n.n.n.b.b.b.b.b.b.b.b.b.b.b.b.b.b.b.b.b.b.k.k.b.b.b.n.n.b.b.n.n.n.n.m.G.m.n.n.G.G.m.m.m.m.m.m.n.n.b.b.n.n.n.b.n.n.n.n.n.n.n.m.n.n.n.n.n.n.n.n.n.b.b.b.b.b.b.b.m.H.G.n.b.n.n.n.G.m.m.n.n.b.b.k.k.k.k.k.k.b.n.H.n.n.b.b.k.k.b.b.k.k.k.k.k.k.h.h.r.r.r.r.r.r.h.h.t.h.h.k.k.k.k.b.b.b.k.k.h.h.h.h.k.k.h.h.h.h.k.k.k.b.b.n.n.n.n.n.b.k.k.n.b.h.k.n.b.G.U.G.b.b.n.G.n.b.G.U.H.H.Y.U.U.Y.T.U.b.#.c > q.:X=.k l k S p b l l l l m S S m m m m m m m m A K I ! ~ ~ ~ ~ ! I I ! ~ ~ ! ~ ` ` ~ ! ! ! ~ ~ ` ` ` ` ( ~ ~ ! ! K A l 9 1 y Z ! ! ! ! ! ! ! ! K @.b Z - I.uX#X-.y.t.x.x.e.e.h.r.r.g.r.r.r.e.e.e.e.6.6.6.3.4.2.2.4.3.4.4.4.4.6.4.2...#.| 7 , G ` @.q.u.u.<.,.<.-.-.>.>.>.>.>.>.,.q.q.q.q.q.q.q.<.<.<.<.q.q.>.-.+.@.Q v < c.pX1X0.3.e.e.n.t.b.k.h.h.t.r.r.r.t.h.h.h.k.k.k.k.k.b.n.U.Y.U.H.H.U.H.",
"H.H.U.U.Y.Y.U.U.U.Y.Y.T.~.~.~./.~.~././././././.~./././.'././././.~.~.~././.'.]././.~.~.Y.Y.Y.Y.Y.Y.Y.Y.U.U.U.U.H.H.H.H.H.H.H.H.n.n.m.n.n.n.n.b.b.b.b.n.G.H.G.n.H.H.U.Y.Y.T.Y.Y.U.U.U.H.H.G.n.n.m.n.n.n.G.G.G.G.M.M.M.n.n.n.n.n.n.n.n.n.b.b.b.n.b.b.n.n.n.m.m.m.n.n.n.n.n.b.b.b.b.b.b.b.b.b.b.b.b.b.b.b.b.b.k.k.b.b.b.n.n.b.b.n.b.b.n.m.m.m.G.G.n.m.m.G.G.m.n.n.m.n.n.b.n.n.n.b.n.n.n.n.n.n.G.G.n.n.n.n.n.n.n.n.b.b.b.n.n.n.n.n.n.G.G.n.b.n.n.n.b.b.b.n.n.b.b.b.b.b.b.b.b.n.G.H.n.n.b.k.k.k.k.b.k.k.k.k.k.k.h.h.r.r.r.r.r.r.h.h.t.h.h.k.k.b.b.b.b.b.k.k.k.k.k.k.k.h.h.h.h.k.k.b.b.b.n.n.n.n.n.m.n.b.b.n.n.k.k.n.n.H.U.G.b.b.n.G.n.k.n.Y.U.H.Y.^.Y.Y.U.n.e.( z : 1Xc.b n S b l b k b m m b l l l m m m m m m m m S K ! ! ! ! ! ! I K K ! ~ ~ ~ ~ ~ ~ ~ ~ ~ ( ` ` ` ` ` ` ( ~ ! ! I G Z y * . - k ! ! ! ! ! ! ! ! ` Q Q w - P.pXV.y.x.y.0.r.r.e.h.r.r.r.r.r.e.e.e.e.7.6.6.6.3.2.2.4.2.2.4.6.6.4.2.2.r.X.#.h.E * : G ` -.q.<.>.-.,.-.-.-.>.>.>.>.>.q.w.i.i.i.i.i.i.i.p.p.u.u.q.>.-.+.G c e Z pXpXx.3.b.k.6.n.e.k.e.t.r.r.r.r.t.r.r.t.h.k.k.k.k.b.b.n.U.T.U.H.H.H.H.",
"H.H.U.T.Y.G.G.U.U.U.Y.Y.Y.~.~./././.~.~.~.~.~.~././././././././././././././././.'./././.~.~.Y.Y.Y.Y.Y.Y.Y.Y.U.U.U.U.U.H.H.H.H.G.H.G.G.n.n.n.n.n.b.b.b.n.G.H.H.G.n.n.G.U.U.U.U.U.~.Y.Y.U.H.G.n.n.m.n.n.n.G.H.H.H.H.H.H.U.H.H.G.G.n.n.n.n.n.n.b.b.b.k.k.b.G.H.G.n.G.m.n.n.G.H.m.b.b.b.b.b.b.b.b.b.k.k.k.k.k.k.k.k.b.b.b.b.b.n.n.n.b.n.n.G.G.H.H.G.n.n.n.n.n.n.n.n.n.n.n.b.b.b.b.b.b.n.n.b.b.m.H.U.H.G.n.n.n.n.b.b.b.b.b.b.b.b.b.b.m.n.n.b.b.b.b.n.n.n.n.n.n.n.n.n.n.n.n.n.G.H.U.U.G.n.b.k.k.b.k.k.h.h.k.k.h.h.t.r.r.r.h.h.r.r.k.n.b.b.b.b.b.b.b.b.G.n.n.b.b.b.b.b.n.b.k.h.r.t.h.k.h.b.n.G.G.m.n.n.n.n.b.k.h.k.n.G.G.U.U.G.b.n.G.H.m.m.H.U.H.F.F.J.n.J.M.M.&.m X c.=X+.l m l l Z l l l l l l l l l m c c c c m Z A S R ! ! K K K K I K K I ! I ! ` ` ~ ! ! ! ! ~ [ @.+.` ! Q Q ! ) Q G v * O.2Xw v ! K ! m O.Q S Q K I Z Z * U.pXR.r.r.r.r.r.r.r.r.r.r.r.r.e.e.6.6.6.6.6.3.3.3.3.3.3.3.2.$.$.$.2.2.4.4.2.X.$...Z 7 7 ] -.u.p.-.1.<.,.>.,.q.<.,.>.>.i.i.i.i.w.w.q.q.u.<.i.i.,.>.%.( ( c 4 Y rXaX2X3.r.e.e.e.e.e.e.e.h.r.e.e.r.g.g.r.k.h.b.n.h.r.b.G.Y.Y.U.H.G.G.H.U.",
"H.H.U.~.Y.G.H.Y.U.U.Y.Y.Y.T.~./.~.~.~.~.~.~.~.~./././././././././././././././././././.~.~.Y.Y.Y.Y.Y.Y.Y.Y.Y.U.U.U.U.U.H.H.H.H.G.H.G.G.n.n.n.n.n.b.b.n.G.H.H.G.n.G.n.m.H.U.U.Y.~.Y.Y.U.U.H.G.G.G.b.n.n.G.H.U.U.H.H.H.H.H.H.H.G.m.n.n.n.n.b.b.b.b.n.b.b.b.n.G.H.H.H.G.n.n.G.G.n.b.n.n.b.b.b.b.b.b.k.k.k.k.k.k.k.k.b.b.b.b.b.b.b.b.b.b.n.m.G.G.G.G.n.n.n.n.n.n.n.n.n.n.n.b.b.b.b.b.b.n.n.b.n.G.U.U.G.m.n.n.n.n.n.n.b.b.b.b.b.b.b.b.n.n.b.b.b.b.b.n.n.n.n.n.n.n.n.n.G.G.H.H.H.U.U.U.m.n.k.k.k.k.k.k.h.h.k.k.h.h.r.r.e.r.r.h.r.r.k.G.n.n.b.b.b.b.b.b.n.n.b.b.b.b.b.b.n.b.k.h.h.h.h.k.n.G.H.H.G.n.b.k.b.k.k.k.k.b.b.n.G.H.U.m.b.b.G.H.M.M.G.U.U.H.J.J.H.b.J.e.( 9 k ;Xv.K k b l l m l l l l l l b l c c c c c b Z Z A S R ! ! R ! ! ! ! K I ` +.` ! I K K ! ` ` ` _ ` ! _ ` ] ` ~ Q S Q Z g @ eXaXT o Q S ` ~ Q ) ) Q Z G c > e pXpXL.t.r.r.r.r.r.r.r.r.r.r.e.e.e.6.6.6.6.3.3.3.3.3.3.3.3.2.$.$.$.$.2.2.4.2.$.2.$.Q c p ` i.B.p.<.f.w.,.q.q.w.w.u.w.w.c.c.s.i.i.w.w.w.u.<.w.w.>.-.&.Q z 0 D eXiX7Xg.e.7.7.6.6.6.7.7.7.r.e.e.e.r.g.h.h.b.b.G.n.h.h.n.n.U.U.U.H.H.H.U.Y.",
"H.H.Y.~.Y.G.H.Y.U.Y.Y.Y.Y.Y.T.~.~.~.~.~.~.~./././././././././././././././././././.~.~.~.Y.Y.Y.Y.Y.Y.Y.Y.Y.Y.U.U.U.U.U.H.H.H.H.G.H.G.G.n.n.n.n.n.b.n.n.G.H.G.m.n.G.n.n.G.H.U.~.'.T.Y.Y.U.H.G.G.G.b.n.G.H.U.Y.U.H.U.U.H.H.G.G.m.n.b.b.b.b.b.b.b.b.b.b.n.n.G.G.H.H.H.G.n.n.G.G.G.n.G.n.n.b.b.k.k.k.b.k.k.k.k.k.k.k.k.k.b.b.b.b.b.b.b.b.n.n.n.n.n.n.n.n.n.n.n.n.n.n.n.n.n.n.b.b.b.b.b.n.n.n.n.H.U.U.H.G.n.n.n.n.n.n.n.n.b.b.b.b.b.b.b.b.b.b.b.b.b.b.n.n.n.n.n.n.n.n.n.n.m.G.G.G.G.m.n.b.k.k.k.k.k.h.k.k.k.h.h.t.r.r.t.r.t.k.k.k.n.G.n.n.n.b.b.b.b.b.b.b.b.k.k.k.b.b.n.n.b.k.k.k.k.k.G.H.H.G.n.b.k.h.k.k.h.k.n.n.n.b.G.H.H.n.b.b.n.m.M.M.G.U.J.H.F.H.Y.z.b.#.Z X w.2X! k k m l l m l l l l l l b b c c c b m Z Z A S L K ! R R ! _ _ _ K S I _ ` ] +.] ` _ ` ] ` ] ] -.=.@.` ! Q Q ) c v w g iXiXx v 7 k ~ ` G Q G Z Z k o w ~.9XpXx.r.r.r.r.r.r.r.r.r.r.r.e.e.6.6.3.3.3.3.3.3.3.3.3.3.2.$.$.$.$.$.$.2.4.2.$.$.$.| G p b d.W.u.<.p.<.q.q.w.i.i.i.i.i.d.s.i.w.q.q.w.w.i.<.w.w.>.-.( Z > H rXrXrX4.8.8.6.6.6.3.3.6.6.6.6.e.e.e.r.g.k.k.k.n.H.n.h.b.G.n.U.U.U.H.H.H.U.Y.",
"G.H.Y.T.U.G.H.Y.Y.Y.Y.Y.Y.Y.Y.Y.Y.Y.~.~.~.~././.~.~.~.~././././.~.~.~.~.~.~.~.~.~.~.~.T.Y.Y.Y.Y.Y.Y.Y.Y.Y.Y.U.U.U.U.U.H.H.H.H.G.H.G.G.n.n.n.n.n.b.b.n.n.n.n.n.n.n.n.n.G.U.Y./.'./.~.Y.U.H.G.n.n.G.G.H.U.Y.Y.U.U.U.U.H.H.G.n.n.n.n.n.b.b.b.b.b.b.k.b.G.H.H.G.m.n.G.n.n.n.m.G.H.H.m.n.n.b.b.k.k.k.b.b.b.k.k.k.k.k.k.k.k.k.k.k.k.b.b.b.b.b.n.n.n.n.n.n.n.n.n.n.n.n.n.n.n.n.n.n.n.b.b.n.n.n.n.G.H.H.U.H.G.m.n.n.b.b.n.n.n.b.b.b.b.b.k.b.b.n.n.n.n.b.b.n.n.n.n.n.n.n.b.b.b.b.b.b.b.b.b.b.k.k.k.k.h.h.k.k.h.h.t.r.r.r.k.h.h.k.k.k.b.m.n.n.b.b.b.b.b.b.k.k.k.k.k.k.b.b.n.b.k.k.k.k.b.b.n.n.n.n.b.k.k.h.b.b.b.b.n.m.n.n.G.H.H.n.k.b.n.n.M.M.n.G.G.n.F.F.U.H.$.( 7 w =XV.b k l m l l b k l l l l l b b c c c b Z Z Z S A L K R K K ! ! ! ! ~ ` +.` ! U ~ ~ ! ~ ` ` ] @.-.=.` ! ~ ` ! S Z k c , '.iXiXh.^ : k _ ! ( Q Z Z e , O.iXiXpX>Xy.r.r.r.r.r.r.e.e.r.r.e.e.6.6.3.3.3.3.3.3.3.3.3.2.2.2.$.$.$.$.$.$.2.4.2.o.#.#...) j 1 i. Xd.w.u.u.u.w.i.i.i.i.u.w.w.w.q.q.q.w.w.u.p.u.i.i.q.-.Q j ; 2XpX2X} 3.2.4.3.3.3.3.3.3.3.6.6.7.r.r.r.r.h.z.r.b.G.b.h.n.H.n.H.H.H.H.H.H.U.U.",
"m.H.U.U.H.G.H.U.Y.Y.Y.Y.Y.U.U.Y.Y.Y.Y.~.~.~.~.~.~.~.~.~.~.~.~.~.~.~.~.~.~.~.~.~.~.~.~.~.T.Y.Y.Y.Y.Y.Y.Y.Y.Y.U.U.U.U.U.H.H.H.H.G.H.G.G.n.n.n.n.n.b.b.b.b.b.b.b.n.n.b.n.H.Y.Y.~./.~.Y.U.H.G.G.m.m.H.H.U.Y.Y.~.T.Y.U.U.H.G.m.n.n.n.n.n.n.n.n.n.n.n.b.n.H.H.H.H.G.G.G.G.n.n.n.n.G.G.n.n.b.b.b.b.b.b.b.b.b.b.k.k.k.k.k.k.k.k.k.k.k.k.b.b.b.b.b.b.n.n.n.n.n.n.n.n.n.n.n.n.M.M.M.n.n.n.n.G.G.m.n.G.G.G.H.H.G.G.m.n.b.b.n.n.n.b.b.b.b.b.b.b.b.n.G.G.n.b.n.n.M.n.n.n.n.n.n.n.b.b.b.b.b.b.b.b.b.k.k.k.k.k.h.h.h.t.r.r.r.r.r.r.r.h.k.k.k.b.b.b.k.k.k.k.k.k.k.k.k.k.k.k.k.b.k.k.k.k.k.k.b.b.b.b.n.b.b.k.k.k.b.n.n.n.b.b.n.m.G.H.G.b.k.b.n.n.m.n.n.m.G.m.G.H.H.H.&.^ O s.4X! b b b l l b l j l l l l l l n c c c m Z Z S S A S L K K K ! ! ! ~ ! ~ ` ~ I I ~ K I ! ~ Q K I ( _ ( ! Q Z v v Z 0 & '.pXaX1XY.^ c e O.] ) Z Z w o T.pXtXpX+Xr.b.r.r.r.r.e.e.e.e.e.e.e.e.6.6.3.%.3.3.3.3.2.2.2.2.$.$.$.$.$.$.$.$.2.4.$.X.......( Z - -.%XW.d.p.d.w.u.i.i.i.u.w.w.w.w.u.i.i.i.i.i.i.<.u.i.w.-.K 7 z 9X6X6.2. .h.X.3.3.3.3.3.3.6.6.6.e.r.r.r.r.g.k.r.b.G.b.h.n.H.b.H.H.H.H.G.G.G.H.",
"n.G.H.H.G.G.G.H.Y.Y.Y.Y.U.U.U.Y.Y.Y.Y.Y.T.~.~.~.T.T.~.~.~.~.~.~.~.~.~.~.~.~.~.~.~.~.~.T.T.Y.Y.Y.Y.Y.Y.Y.Y.Y.U.U.U.U.U.H.H.H.H.G.H.G.G.n.n.n.n.n.n.n.n.b.b.b.n.n.n.n.G.U.Y.Y.Y.~.U.H.H.G.G.G.H.H.H.H.U.Y.T.~.~.~.H.H.H.G.G.m.n.n.n.n.n.n.n.n.n.m.H.H.G.G.G.H.U.U.H.G.G.n.n.b.b.b.b.b.b.b.b.b.b.b.b.b.b.b.k.k.k.k.k.k.k.k.k.k.k.k.b.b.b.b.b.b.n.n.n.n.n.m.m.n.n.n.n.n.b.b.n.n.n.n.G.H.H.G.m.G.G.G.G.m.n.m.G.G.n.n.n.n.n.b.b.b.b.b.b.b.b.n.G.G.n.n.M.M.M.M.n.n.n.n.n.b.b.k.k.k.b.b.k.b.b.k.k.h.k.k.h.h.t.r.r.r.r.r.r.r.r.h.h.h.k.n.k.k.h.h.h.h.k.k.h.h.k.k.k.k.k.k.h.h.h.h.k.k.b.b.n.n.n.b.k.k.k.k.n.n.n.b.k.k.n.G.m.G.m.b.k.b.n.n.m.n.n.m.H.H.U.Y.G.k.0.c   &XA.l m b l k l l l v l l l l l l l l c c m Z Z Z A Z A S K K K ! ! ! I A b Z A b j p l l l v p j m K ~ S l m Z k > o g >XpXaXiXb.e.r.Q # ] c.Q k c o 6.pXiX6Xe.e.m.6.r.r.r.e.e.e.e.6.6.6.6.6.6.6.3.3.3.3.2.2.2.$.$.$.$.$.$.$.$.$.$.$.2.2.$.o.#.#.#.O.Q < K T.E.d.q.p.w.u.i.i.i.i.i.i.i.i.i.i.i.u.w.w.q.<.w.w.q.-.I 7 k 6XG.| e.#.6.2.3.3.3.3.6.6.6.6.e.e.r.r.r.r.r.g.k.b.H.m.k.b.n.k.G.G.G.m.n.n.n.m.",
"n.m.G.G.G.H.H.G.U.Y.Y.Y.U.U.U.Y.Y.Y.Y.Y.Y.Y.T.T.Y.Y.T.T.~.~.~.~.~.~.~.~.~.~.~.~.T.T.T.Y.Y.Y.Y.Y.Y.Y.Y.Y.Y.Y.U.U.U.U.U.H.H.H.H.G.H.G.G.n.n.n.n.n.n.n.G.H.G.m.G.G.n.n.G.U.Y.U.U.Y.H.G.G.m.G.H.H.U.U.U.U.Y.T.Y.U.U.m.G.G.G.G.G.m.n.n.n.n.b.b.n.n.G.H.H.G.G.H.H.H.H.m.m.n.n.n.b.b.b.b.b.b.b.b.b.b.b.b.b.b.b.k.k.k.k.k.k.k.k.k.k.k.k.k.k.k.b.b.b.n.n.n.n.n.m.m.n.n.n.n.M.M.n.n.n.n.n.m.H.H.n.n.m.G.G.n.n.n.n.G.G.n.n.n.n.n.b.b.b.n.n.n.b.b.n.G.G.n.b.n.n.M.b.b.b.b.b.k.k.k.k.k.k.k.k.k.k.b.k.h.h.h.k.t.r.r.r.r.r.r.r.r.t.h.h.r.e.r.h.h.h.t.h.h.h.k.k.k.k.k.k.k.k.k.k.k.k.k.k.k.k.k.b.b.b.b.b.k.k.k.k.n.n.b.b.b.b.n.G.n.G.n.b.b.n.m.m.G.m.M.G.L.H.G.H.h.0.Q : Z 2X! l b b k k l l k l l l l l l l l l c c b m Z Z Z Z Z S L K K K G S b v l c k 7 - - = # # = - - > 7 c c v 1 o : O.{.eXeXpX8XG.~.H.r.&.7 H M.Q Z s q tXiX0XG.e.b.3.e.r.r.e.e.e.6.6.6.6.6.6.6.6.6.3.3.2.2.2.$.$.$.$.$.$.$.$.$.#.#.$.$.2.#.o.$.$.#.#.O.Q w 9 +.V.s.w.q.i.i.i.i.i.i.u.w.u.w.w.q.q.q.q.q.<.<.q.<.q.<.~ j : `.e.#.O.#.#.e.3.3.3.3.6.6.6.7.e.e.e.e.r.r.r.r.b.b.G.G.b.b.b.k.b.n.n.n.b.b.n.n.",
"G.m.n.n.G.H.H.G.U.U.Y.Y.U.U.U.Y.Y.Y.Y.Y.Y.Y.Y.Y.Y.Y.Y.T.~.~.~.~.T.T.T.T.^.^.T.T.Y.Y.Y.Y.Y.Y.U.U.Y.Y.Y.Y.Y.Y.U.U.U.U.U.H.H.H.H.G.H.G.G.n.n.n.n.n.n.G.U.Y.U.H.H.H.G.G.G.U.U.H.H.U.H.G.m.n.m.G.H.U.Y.Y.T.~.Y.U.G.b.n.n.G.G.H.G.G.m.n.n.b.b.b.n.n.m.n.n.m.H.Y.U.n.k.k.b.n.n.n.n.n.n.n.b.b.b.b.b.b.b.n.b.b.b.k.k.k.k.k.k.k.k.k.k.k.k.k.k.k.k.b.n.n.m.n.n.n.m.m.n.n.n.n.n.M.n.n.n.n.n.b.n.n.b.b.n.n.n.n.n.n.n.m.n.n.b.n.n.b.b.b.n.n.n.n.b.b.b.n.G.n.b.n.n.n.b.b.b.k.k.k.k.k.b.b.k.k.k.h.k.k.k.h.t.h.h.r.r.r.r.r.r.r.t.r.r.r.r.3.#.#.%.r.r.t.t.h.h.k.k.k.k.k.k.k.k.k.k.b.b.k.k.k.k.k.k.k.k.k.k.h.h.k.b.n.b.b.b.m.G.G.G.n.m.n.b.b.n.G.G.G.m.m.H.L.m.b.x.O.&.7 X Q.;XS S b b l l b v p b l l l l l l l l c c b m m Z Z Z Z S S S S Z b k p 9 - X X 7 &.T.E.T.E.T.V.%.Z y , X - Q T.8XiXpXpXpX2X~.n.h.g.n.&.m + G c c * %.pXpXr.e.6.r.$.k.r.r.e.e.e.6.6.6.3.6.6.6.6.6.3.3.2.2.$.$.$.$.$.$.$.$.$.#.#.#.#.$.2.o.o.o.$.X.| / ( Z : Z c.V.v.i.i.i.i.i.u.w.q.,.w.q.q.,.,.q.q.w.w.q.w.<.q.w.&.Z o $.#.#.5.$.#.e.3.3.3.3.6.6.6.6.e.6.6.e.r.h.g.r.k.h.b.G.b.k.k.k.k.k.b.b.b.b.n.n.",
"b.n.n.n.n.n.G.H.U.Y.Y.Y.U.U.U.Y.Y.Y.Y.Y.Y.Y.Y.Y.Y.Y.Y.Y.Y.Y.Y.Y.T.T.^.~.~.~.~.~.Y.Y.Y.Y.Y.Y.U.U.U.U.U.U.U.U.U.U.U.H.H.H.H.H.G.G.H.G.m.n.n.n.n.n.H.H.U.H.n.n.n.G.G.H.G.G.G.H.H.G.G.G.G.G.G.G.G.G.U.U.U.U.U.H.G.m.G.G.G.G.G.G.m.n.n.n.n.b.b.n.n.n.n.H.U.H.m.n.n.b.b.b.b.n.n.n.n.n.n.b.b.b.b.b.b.b.b.b.b.b.k.k.k.k.k.k.k.k.k.k.k.k.k.k.k.k.b.n.n.G.n.n.n.n.n.n.n.n.b.b.n.G.H.H.H.G.n.n.n.b.b.n.n.n.n.n.n.n.n.n.n.n.b.b.b.b.b.n.n.n.n.n.n.b.b.b.n.n.n.n.b.b.b.k.k.k.k.k.k.h.h.k.k.k.h.h.k.k.k.h.h.h.r.r.r.r.r.r.r.r.r.r.e.3...Y D E 6.r.k.r.t.e.6.b.r.h.h.t.h.b.n.n.G.m.n.b.b.b.k.k.k.k.k.h.k.k.b.b.n.m.G.G.G.G.n.b.H.m.n.n.G.H.H.H.G.G.L.m.M.O.O.%.( > * M.0Xc.y I m b l l l l b b b b l l l l l v c v l m Z m Z G c ( Z m p v c > o c t.'.>X0XiXpXiXuXpXpXaX2X%X%XL.{.2XiXpXiXtXaX[.'.U.n.b.b.n.F.x.( 8 > 0 * E eXpX>Xk.r.g.r.r.7.r.e.e.6.6.3.3.3.6.6.6.6.6.6.3.3.3.3.2.$.$.$.$.$.$.#.#.#.#.#.X.#.X.X.X.X.#.X.....( O.k 7 ( A.M.q.d.q.v.s.w.s.q.u.w.w.q.q.q.q.q.w.i.q.<.<.w.<.+.( j = Z Z ( #.#.e.3.} 7.3.#.r.6.6.e.e.7.7.e.r.r.g.k.b.n.n.n.b.k.k.k.k.k.k.b.b.b.b.",
"b.n.n.n.n.n.G.H.H.U.U.U.U.U.U.Y.U.U.Y.Y.Y.Y.Y.Y.Y.Y.Y.Y.Y.Y.Y.Y.Y.Y.Y.Y.~.T.~.~.Y.Y.Y.Y.Y.Y.U.U.U.U.U.U.U.U.U.U.H.H.H.H.H.H.G.G.H.G.m.n.m.m.n.n.m.G.H.G.n.n.n.G.n.m.n.n.m.H.G.n.G.G.G.G.G.G.G.G.G.H.H.H.H.G.n.n.G.G.G.G.G.G.m.n.n.n.n.b.b.n.n.n.n.H.U.H.n.n.b.b.b.b.b.n.n.n.n.n.b.b.b.b.b.b.b.b.b.x.b.k.k.k.k.k.k.k.k.k.k.k.k.k.h.h.k.k.b.n.m.G.n.n.n.n.n.n.n.n.n.n.m.H.H.H.H.G.n.n.n.b.b.n.n.n.n.n.n.n.n.n.b.b.n.b.b.b.b.n.n.n.n.n.b.b.b.b.b.b.b.b.b.b.k.k.k.k.k.k.h.h.h.h.k.k.k.k.k.k.h.h.t.r.r.r.r.r.r.r.r.r.r.r.6.#.F 5 ; 0 ..k.r.e.r.k.t.k.h.k.k.h.k.b.n.n.n.n.n.b.b.b.b.b.n.n.b.k.k.k.b.b.b.n.n.G.G.G.m.n.H.H.G.G.G.H.H.H.U.H.T.e.@.O.Z y # , M.0XI.Q G m m b b l l l b b b b b b l l l l c c c Z Z Z Z G G p m m k 7   G T.8XpXpXaXiXaX8X[.{.`.OX`./.).[.yXyXuXuX0X*X/.T.G.G.m.n.n.b.b.b.e.t.Q j c ) T.pXeX'.t.r.h.r.r.e.r.e.e.6.6.3.3.6.6.6.6.6.6.3.3.3.3.3.2.$.$.$.$.$.$.#.#.#.#.#.X.#.X.X.X.X.#.X.....) ..Z 7 G M.L.M.s.q.c.i.q.i.q.i.w.w.w.w.w.w.w.u.s.i.w.w.w.q.-.+.H 1 j 9 j G R &.6.#.6.7.3.3.3.6.e.e.e.e.e.r.h.h.k.k.b.n.b.b.k.k.k.k.k.k.k.b.b.b.",
"b.b.n.n.n.n.G.H.G.H.H.H.H.U.U.Y.U.U.U.U.U.U.U.U.Y.Y.Y.Y.Y.Y.Y.Y.Y.Y.Y.Y.Y.Y.Y.Y.Y.Y.Y.Y.Y.U.U.U.U.U.U.U.U.U.U.U.H.H.H.H.H.H.H.H.H.G.G.m.m.m.n.n.b.n.G.m.n.n.m.H.n.n.n.n.m.H.H.m.G.G.G.G.G.G.G.G.G.G.H.H.H.G.G.G.G.G.G.G.G.G.m.n.n.n.n.n.n.n.n.n.n.H.H.G.n.b.b.b.b.b.n.n.n.n.n.n.b.b.b.b.b.b.b.b.k.k.k.k.k.k.k.h.k.k.k.k.k.h.h.h.h.h.k.b.b.n.G.H.n.n.n.n.n.n.n.n.n.n.n.G.H.H.G.n.n.n.n.n.n.n.n.n.n.n.n.n.n.b.b.b.n.b.b.b.b.n.n.n.n.b.b.b.b.b.b.b.b.b.k.k.k.h.h.h.h.h.h.h.h.h.h.h.k.k.k.h.h.t.r.r.r.r.r.r.r.r.r.r.e.r.e.$.D : ; v /.2XU.k.r.n.h.e.k.k.k.k.k.b.n.n.n.b.b.b.b.b.b.b.m.n.b.k.k.b.b.n.n.n.G.G.G.G.H.H.H.H.H.H.H.H.H.H.Y.H.r.$.Q w + $ b Q.9XQ.I K Q p m m b b l b b b m b b b b b b b l l b Z Z Z Z H v ) v > 7 w v.pXaXpXiX,X/.Y.H.b.b.h.h.h.h.h.b.H./.T.T.T.U.M.k.h.k.b.n.n.F.F.n.b.x.L.x.e.'.tXpXpX+Xn.e.g.h.r.g.r.r.e.e.6.6.3.6.6.3.6.6.6.6.3.3.3.3.3.2.$.$.$.$.$.#.#.#.#.#.#.#.#.X.X.#.#.X.......( #.Y q w ( t.s.c.i.c.i.q.i.q.i.u.u.u.u.i.i.i.i.s.i.w.q.q.q.0.>.+.I ! Z 7 y f Q | $.#.6.6.#.3.r.e.e.e.e.r.g.k.k.h.k.b.b.b.k.k.k.k.k.k.k.k.k.b.b.",
"b.b.b.b.b.n.m.G.G.H.H.H.H.H.U.U.H.H.H.U.U.U.U.U.Y.Y.Y.Y.Y.Y.Y.Y.Y.Y.Y.Y.Y.Y.Y.Y.Y.Y.Y.Y.U.U.U.U.U.U.U.U.H.H.H.H.H.H.H.H.H.H.H.H.H.G.G.m.m.m.n.n.b.n.n.n.n.n.n.G.n.G.G.m.G.U.U.H.G.G.G.G.G.G.G.G.G.G.G.H.H.H.G.G.G.G.G.G.G.G.m.n.n.n.n.n.n.n.n.n.n.m.G.n.b.b.b.b.n.n.n.n.n.n.n.n.b.b.b.k.k.k.k.k.k.k.k.k.k.h.h.h.k.k.k.k.h.h.h.h.k.k.b.b.n.G.H.H.n.n.n.n.n.n.n.n.n.b.n.n.n.n.n.b.n.n.n.n.n.n.n.n.n.n.n.n.n.n.n.n.b.b.b.b.b.b.n.n.b.b.b.b.b.b.b.b.k.k.k.k.k.h.h.h.h.h.t.t.t.h.h.h.h.h.h.h.h.t.r.r.r.r.r.r.r.r.r.r.r.h.r.3.F q N 6.0XpXG.h.6.b.b.h.k.b.b.k.k.b.n.b.b.b.b.b.k.b.b.b.b.b.k.k.k.n.G.H.H.U.U.U.G.G.H.Y.m.H.U.U.U.U.U.Y.n.n.#.( < = i.XX X4XP.I I A k K m m b b b b b m m m m m m b b b b b b A H S Z Z H v 1 i 0 2XpXpXpX1X'.U.G.k.h.k.k.k.k.k.h.r.h.k.r.y.r.M.H.H.J.U.n.n.n.b.b.n.F.n.M.t.r.R.1XpXaX*XG.r.r.k.g.r.g.r.r.e.e.6.6.6.6.6.6.6.6.6.3.3.3.%.3.3.2.$.$.$.$.$.#.#.#.#.X.X.X.#.X.X.#.X.X...........) v 3 w Q %.s.c.c.u.w.w.q.w.u.u.u.i.i.i.i.s.w.w.w.q.>.>.0.q.q.q.s.w.S Z 9 w F 2.X.2.6...6.e.6.6.6.7.r.g.k.k.h.k.k.b.k.k.h.h.h.h.h.k.k.k.k.k.",
"k.b.b.b.b.b.n.G.H.H.H.H.H.H.H.H.U.U.H.U.J.U.Y.Y.Y.Y.Y.Y.Y.Y.Y.Y.Y.Y.Y.Y.Y.Y.Y.Y.Y.Y.Y.U.U.U.U.U.H.H.H.H.H.H.H.H.G.G.G.H.H.H.H.H.H.G.m.n.n.n.n.n.b.n.n.n.n.n.n.n.m.G.G.G.H.U.U.H.G.G.G.G.G.G.G.G.n.n.n.n.n.n.n.n.G.G.G.G.G.G.G.n.n.n.n.n.n.n.n.n.n.n.n.n.n.n.n.n.n.n.n.n.n.n.n.n.b.b.k.k.k.k.k.k.k.k.k.k.k.h.h.h.k.k.k.k.k.h.h.h.k.k.k.b.n.m.G.G.n.n.n.n.n.n.n.n.n.b.b.n.n.n.b.b.n.n.b.b.b.b.n.n.n.n.n.n.n.n.n.n.b.b.b.b.b.b.b.b.b.b.b.b.b.b.b.b.k.k.k.k.h.h.h.h.r.r.r.r.r.t.h.h.r.r.r.t.t.t.r.r.r.r.r.r.r.r.r.r.e.r.r.e.%.$.U.9XpXpXk.h.e.k.k.k.k.b.b.k.k.b.b.b.b.b.k.k.k.k.k.k.b.b.k.b.n.G.U.Y.Y.T.T.U.H.G.H.U.G.H.Y.Y.Y.U.U.Y.n.3.) i 7 m.uX$Xi.[ K S A m Z H m m b b b b b m m m m m m m m m b b m Z S H Z Z p w 7 j tXpXaX8X].n.r.k.n.k.r.h.h.h.k.b.b.k.k.k.k.t.t.k.M.b.k.h.F.n.b.k.h.k.l.b.G.r.t.L.U.U.H.k.l.r.h.k.g.r.g.g.r.e.e.6.6.6.6.6.6.6.6.6.3.3.3.%.3.3.2.$.$.$.$.$.#.#.#.X.X.X.X.#.X.X.X.X.........| / / E g 5 N &.q.c.i.q.i.w.q.w.w.w.w.u.i.i.i.i.q.q.w.q.,.>.>.,.w.-.-.c.w.w.n * x 3.$.$.3.X.6.3.3.3.3.6.e.r.h.k.k.k.b.k.k.h.r.r.h.h.h.h.k.k.k.k.",
"k.k.k.k.k.b.n.m.H.H.H.H.H.G.H.H.U.U.H.H.J.U.Y.Y.Y.Y.Y.Y.Y.Y.Y.Y.Y.Y.Y.Y.Y.Y.Y.Y.Y.Y.U.U.U.U.U.U.H.H.H.H.H.H.H.H.H.H.H.G.G.G.G.G.G.G.n.n.n.n.n.b.n.n.n.n.n.b.b.b.n.m.m.n.G.H.H.G.m.G.G.G.m.m.m.m.m.m.m.m.m.m.m.m.G.G.G.G.G.G.m.n.n.n.n.n.n.n.n.n.n.n.n.G.G.n.n.n.n.n.n.n.n.n.b.b.b.b.k.k.k.h.h.h.k.k.k.k.k.k.k.k.k.k.k.k.k.k.k.k.h.k.k.b.b.b.b.b.b.b.b.b.b.n.n.n.n.n.n.n.n.n.n.b.b.b.b.b.b.b.b.b.n.n.n.n.n.n.n.n.b.b.k.k.k.k.k.k.b.b.b.b.b.b.b.k.k.k.k.h.h.h.t.t.r.r.r.r.r.r.t.t.e.r.r.r.r.t.t.r.r.r.r.r.r.r.r.e.6.r.r.r.k.H.,XpXaX2Xh.b.h.h.r.r.h.k.k.k.k.b.b.k.k.k.k.k.k.b.b.b.m.m.m.G.H.J.Y.Y.Y.T.Y.U.H.G.G.H.U.Y.~.~.Y.Y.U.U.G.$.D o v.uXV.A n n K L k H Q k Z m b b b b b b m m m m m m m m b b m m Z H Z m w 0 9 tXtXiX0X[.k.b.n.b.b.b.z.h.h.h.h.k.k.k.k.k.k.k.b.n.H.G.n.b.b.b.b.b.l.l.k.h.M.M.m.m.h.r.k.k.k.h.l.l.r.r.g.g.r.r.e.6.6.6.6.6.6.6.6.6.6.3.3.%.3.3.2.$.$.$.$.$.#.#.#.X.....X.X.X.#.X.X.......| | ^ / ..F 0 s ^ >.v.w.>.i.q.q.w.q.w.w.w.i.i.u.u.q.q.w.w.q.q.,.>.q.@.@.w.i.i.! 9 7 Y | ..#.$.6.2.2.2.3.3.6.r.h.k.k.k.b.k.h.r.r.r.t.t.h.h.h.h.k.k.",
"k.k.k.k.k.b.b.n.G.G.H.G.G.G.G.H.U.H.H.H.H.U.Y.Y.T.T.T.Y.Y.Y.Y.Y.Y.Y.Y.Y.Y.Y.U.U.U.U.U.U.U.U.H.H.H.H.H.H.H.H.G.G.H.H.H.G.G.G.G.G.G.n.n.n.n.n.b.b.n.n.b.b.n.n.n.b.n.n.n.n.n.G.G.n.n.n.n.n.n.n.n.n.H.G.G.G.G.G.G.G.G.G.G.G.G.G.m.n.n.n.n.n.n.n.n.n.G.n.m.H.H.n.b.n.n.n.n.n.n.b.b.b.b.k.k.k.h.h.h.h.k.k.k.k.k.k.k.k.k.k.k.k.k.k.b.b.k.k.b.b.b.b.b.k.b.b.b.b.b.b.b.b.n.n.n.n.n.n.n.b.b.b.b.b.b.b.b.b.n.n.b.b.b.b.b.b.k.k.k.k.k.k.k.k.k.k.k.b.k.k.k.k.k.h.h.h.t.r.r.r.e.e.e.e.r.r.r.t.r.r.r.r.r.r.r.r.r.r.r.r.r.r.e.e.r.h.r.6.e.r.n.'.Y.h.3.h.e.t.h.t.t.h.k.h.h.k.k.h.k.k.k.b.b.n.m.G.G.H.H.H.U.Y.Y.Y.Y.Y.U.U.U.U.U.U.Y.Y.T.~.~.T.U.H.g.6.c , =X`.M _ U S M K K c v G m b b b b b b b b b b b b b b b m m b b Z H Z c c . U.pXyXtXM.8.b.H.H.b.h.k.b.b.z.k.k.k.k.k.k.k.r.r.k.k.k.k.h.h.k.k.b.b.b.b.l.k.r.x.M.b.b.n.n.k.k.k.z.k.r.g.g.r.r.r.e.6.6.6.6.6.e.e.e.6.6.6.3.3.3.3.2.$.$.$.$.$.#.#.X.X.....X.X.#.#.X.X.....| | | | / | / z q N i.I.i.,.i.q.q.w.q.w.w.w.w.w.w.w.q.q.q.q.q.q.,.>.>.>.w.>.,.=.@.S > d ^ #.#.$.$.6.2.2.2.3.6.e.r.h.k.k.k.k.h.t.r.r.r.t.t.h.h.h.h.h.",
"h.k.k.k.k.k.b.n.n.n.G.G.G.G.G.H.H.H.H.H.H.U.Y.Y.T.T.T.Y.Y.Y.Y.Y.Y.Y.Y.U.U.U.U.U.U.U.U.U.U.U.H.H.H.H.H.H.H.G.G.G.H.H.H.G.G.G.G.m.G.n.n.b.b.b.b.b.b.b.b.b.n.n.n.n.n.m.n.n.n.G.G.n.n.n.n.n.n.n.n.n.G.G.m.n.n.n.n.n.G.G.G.G.G.G.m.n.n.n.n.n.n.n.n.n.H.G.G.U.H.n.b.b.n.n.n.n.n.b.b.b.b.k.k.k.h.h.h.h.k.k.k.k.k.k.k.k.k.k.k.k.b.b.b.b.n.n.n.n.n.b.b.k.k.b.b.b.b.b.b.b.n.b.b.b.n.n.b.b.b.b.k.k.k.k.b.b.b.b.b.b.b.b.b.b.k.k.k.h.h.h.h.h.h.k.k.k.k.k.h.h.h.h.h.r.r.r.r.r.e.e.e.e.r.r.r.r.r.r.r.r.r.r.e.e.r.r.r.r.r.e.e.e.6.r.r.e.h.k.t.k.n.3.k.b.e.r.k.e.r.h.h.h.h.k.k.h.k.k.k.b.n.G.H.U.G.G.H.U.U.Y.Y.Y.U.U.U.U.Y.Y.Y.Y.Y.Y.Y.~././.Y.U.r.G ; G <XO.! k n A M b A S Z m b b b b b b b b b b b b b b b b m Z b l m S Z c w X 9XtXiXZ.Z.U.G.b.z.F.F.z.k.n.k.k.b.b.n.n.b.k.k.k.k.k.h.k.k.k.b.k.h.h.h.h.l.k.G.G.M.x.b.k.h.z.k.h.k.k.g.g.k.e.r.r.e.6.6.6.6.6.e.e.e.e.6.6.3.3.3.3.2.$.$.$.$.$.#.#.X.........X.#.#.X.......| | / #./ / #.G g c A. Xc.q.i.,.q.w.w.w.w.w.w.w.w.w.w.q.,.>.,.q.>.>.>.-.q.=.w.,.w.! j q | e.$.#.| 3.3.2.3.3.6.e.r.h.h.k.k.k.h.h.h.h.r.r.t.t.h.h.h.h.",
"e.r.r.h.k.k.b.b.k.n.n.n.n.H.U.U.U.H.H.H.U.U.Y.Y.Y.~.~.~.Y.Y.Y.Y.Y.U.U.U.U.U.U.Y.Y.U.U.U.U.U.H.H.G.G.G.G.G.G.G.G.G.G.G.G.G.n.n.n.n.n.n.b.b.n.n.n.b.b.b.b.b.b.b.b.n.n.n.n.n.n.G.G.n.n.n.n.n.n.n.n.n.m.G.G.G.G.m.n.n.G.G.G.m.m.G.G.G.m.m.m.n.G.G.G.H.H.H.H.G.G.n.n.m.n.n.n.n.n.b.b.b.k.k.k.k.k.k.k.k.k.k.k.k.k.k.k.h.k.k.b.n.n.m.n.m.n.b.b.b.b.k.k.k.k.k.k.k.k.x.b.b.b.b.b.b.b.b.b.k.k.k.k.k.k.k.k.k.k.k.h.h.h.h.h.k.k.k.h.h.h.h.h.b.e.h.b.r.r.b.h.k.h.r.e.0.0.y.y.6.$.6.8.$.6.e.7.8.e.r.8.3.r.k.6.e.r.g.r.r.r.e.e.r.e.e.e.r.t.h.k.k.r.r.h.k.r.r.r.r.r.h.h.h.h.k.k.h.k.b.b.n.H.U.H.U.U.H.H.G.H.Y.~.U.Y.~.Y.U.H.H.H.H.Y.'.'.Y.Y.U.M.0.v + Q.5X! m L m M M A A A m m b b m b b b b l l b b b b b b b b b l l b Z Z l 9 1 2XtX$XM.R.n.H.H.G.m.n.n.b.b.k.b.b.b.n.n.n.n.b.k.k.k.k.k.k.h.k.k.k.k.h.h.h.t.k.n.G.n.b.b.b.b.b.k.k.k.h.r.r.r.r.e.e.8.6.6.6.6.8.e.e.6.e.e.e.6.3.3.3.3.$.$.$.$.#.#.......X.....$.$.#.#.......| | / ( ( | | V * w.uXV.q.q.i.q.u.w.u.w.w.w.w.w.w.q.q.q.q.q.q.q.q.>.>.-.-.>.>.>.-.Q e 8 M.%.O.#.#.#.3.6.2.6.7.r.7.k.k.r.r.h.k.h.e.r.r.r.r.r.r.r.e.",
"r.r.r.t.h.k.k.k.k.n.n.n.n.G.U.H.H.G.G.G.H.H.U.U.Y.~.~.T.Y.U.Y.Y.Y.U.U.U.U.U.U.Y.Y.U.U.U.U.H.H.H.G.G.G.H.H.G.G.G.G.G.G.G.m.n.n.n.n.n.n.b.b.n.n.n.b.b.n.n.n.n.b.b.n.n.b.n.n.n.n.n.n.n.n.n.n.n.n.n.n.n.m.m.m.m.n.n.n.m.G.G.G.G.G.G.G.G.m.n.n.n.m.G.m.m.m.m.n.n.n.b.n.n.n.n.b.b.b.b.b.k.k.k.k.b.b.k.k.k.k.k.k.k.h.h.k.k.k.k.b.n.n.n.n.n.b.b.b.k.k.h.k.k.k.k.k.k.x.b.b.b.b.b.b.b.b.b.k.k.k.k.k.k.k.k.k.k.k.h.h.h.h.h.h.h.h.t.t.t.t.t.r.F.r.6.n.k.6.k.r.6.%.y.r.6.@.O...W E / / E | 6.r.e.r.r.r.k.h.6.7.7.6.7.r.r.r.e.r.r.r.r.r.r.t.h.h.r.r.h.h.r.r.h.r.r.h.h.r.r.r.h.h.b.b.n.G.U.Y.H.H.U.U.U.Y.Y./.'.].'./.T.H.G.G.G.Y.Y./.~.U.Y.U.M.O.S + E.V.Z A A m m Z A A Z m m b b b b b b b l l l b b b b b b b b b b m A Z l 9 - 8XpX%XL.m.P.H.H.G.m.n.n.b.b.b.b.n.n.m.G.G.G.n.b.k.k.k.b.b.b.k.k.k.k.b.b.b.n.k.n.m.M.b.b.b.b.k.k.k.k.h.h.r.r.e.e.e.e.e.e.e.e.6.e.e.e.e.e.e.8.3.3.3.3.$.$.$.$.#.#...X.#.#.#.#.$.$.#.#...........| | | | / V , w.4Xv.p.d.u.,.u.u.u.w.w.w.w.<.w.q.q.q.q.q.q.q.q.>.>.>.>.q.q.q.q.@.S < R t.%.| $.$.$.$.2.6.7.g.g.g.k.g.r.r.h.r.e.r.r.r.r.r.r.e.e.",
"r.r.r.r.t.h.h.k.b.n.n.n.n.G.H.H.m.G.H.G.G.G.H.U.Y.T.~.T.Y.Y.Y.Y.U.U.U.U.U.U.U.U.Y.U.U.U.U.H.H.H.G.G.H.H.H.H.G.G.m.m.m.m.n.n.n.n.n.n.n.b.b.n.n.n.b.n.n.G.G.n.n.b.n.n.b.b.b.n.n.n.n.n.b.b.n.n.n.n.n.n.n.n.n.n.n.n.n.n.G.G.G.G.G.H.G.G.m.m.G.G.G.H.G.G.G.m.n.n.b.b.n.n.n.b.b.b.b.b.b.k.k.k.k.b.b.k.k.k.k.k.k.k.k.h.k.k.k.k.b.n.m.G.G.n.b.b.b.b.k.k.k.k.k.k.k.k.b.b.b.b.b.k.x.k.k.b.k.k.k.h.h.h.h.h.h.h.h.h.h.h.h.h.r.r.r.r.r.r.r.r.e.r.k.k.e.6.3...y.$.#.#.&.( ( ( D V q > 7 5 q D ^ / $.e.%.$.e.r.h.h.g.r.r.e.e.e.r.r.r.r.r.r.r.r.r.r.r.r.r.e.r.h.r.r.h.h.r.r.r.r.k.b.b.n.U.Y.Y.U.H.U.Y.~./.'.].].'./.~.U.H.H.U.Y.~.Y.Y.U.H.U.H.h.O.Z o ).] m S l m m Z Z Z Z m m m b b b b b b l l l l b b b b l b b b m A S Z c w o `.0X%XT.M.T.H.H.G.G.n.n.n.b.b.n.n.G.H.H.H.U.G.m.n.b.b.n.n.n.n.b.k.k.k.k.k.b.k.b.n.b.b.b.b.b.k.k.k.k.h.h.t.r.e.e.e.e.e.r.r.r.8.r.k.h.r.r.e.e.6.3.3.3.$.$.$.$.#.#.X.#.#.$.$.$.$.$.#.#.#.........| ..| | ( D 3 ! W.P.d.i.q.q.w.q.q.q.q.<.<.<.<.q.q.q.q.q.q.q.q.>.>.>.q.w.w.w.w.0.( w * ( ( #.O.6.$.$.6.7.r.g.l.g.k.k.r.e.r.r.e.r.r.r.r.e.e.e.e.",
"r.r.r.r.r.h.k.k.b.n.n.n.n.m.G.H.n.G.H.H.G.G.U.Y.Y.Y.T.T.Y.Y.U.U.U.U.U.U.U.U.U.U.U.U.U.U.H.H.H.H.G.G.G.G.G.G.G.G.m.n.n.n.n.n.n.n.n.n.n.b.b.n.n.n.n.n.n.m.m.n.n.n.n.n.n.n.b.b.n.n.n.b.b.b.b.b.n.n.b.n.n.n.n.n.n.b.n.n.G.G.G.G.H.H.m.m.G.G.H.H.H.U.U.U.H.H.G.n.n.n.n.n.n.n.n.b.b.b.b.k.k.k.k.b.b.k.k.k.k.k.k.k.k.k.k.k.b.b.n.n.G.H.H.G.n.n.n.b.b.k.k.k.k.k.k.b.b.b.b.b.b.b.k.k.k.k.k.k.h.h.h.h.h.h.t.t.t.t.r.r.r.r.r.r.e.e.e.e.e.e.b.3.7.r.#.#.6...Y / ( E c j e 7 & D / ^ #.) s ; 0 w Y e.t.y.r.r.$.8.r.r.e.7.r.h.r.r.r.r.r.r.e.e.r.r.r.r.e.r.h.k.r.r.h.k.k.h.k.k.n.b.b.G.U.T.Y.H.H.U.~.'.'.'.'.'.Y.U.U.H.H.Y.~./.~.Y.Y.U.U.Y.H.e.( 8 8 =X! A Z b m m m m m m m m m b b b b b b b l l b b b b b b n b m Z A S Z c v O O.&X<X).m.R.H.H.G.G.m.n.n.n.b.n.n.G.H.H.U.U.G.G.m.m.G.G.m.n.m.n.b.k.h.k.k.k.k.b.b.b.b.b.b.b.k.k.k.k.h.h.h.t.e.e.e.e.r.r.r.r.r.b.n.k.r.e.e.6.6.3.3.3.$.$.$.$.#.#.X.#.#.$.$.$.$.#.#.#.#.......| / | | | | Y g w i.-XV.q.q.i.w.q.<.<.<.<.<.<.<.q.q.q.q.q.q.q.>.q.>.>.q.q.w.w.w.>.O.Q * r j $.| 3.6.e.7.r.g.g.g.h.k.z.g.e.e.r.r.r.r.e.e.e.e.e.8.",
"e.e.e.e.r.k.b.n.n.n.n.m.n.n.m.G.n.G.H.H.G.G.U.Y.Y.Y.T.T.T.Y.Y.U.U.U.U.U.U.U.U.U.U.U.U.H.H.H.G.G.n.m.m.G.G.m.m.n.n.n.n.n.n.n.n.n.n.n.n.b.b.n.n.n.n.n.n.n.n.n.n.n.m.m.n.n.n.n.n.n.b.b.b.b.b.b.b.b.b.b.n.n.n.n.b.b.b.n.G.H.H.H.H.H.G.G.G.G.G.G.H.H.U.H.H.H.G.m.n.n.n.n.n.n.b.b.b.b.b.b.b.b.n.n.n.b.k.k.b.k.k.k.k.h.r.k.b.n.n.m.G.H.H.G.n.n.n.b.b.b.k.k.k.k.k.b.b.b.b.b.k.k.k.k.k.k.k.k.h.h.t.t.t.t.r.r.r.r.r.r.e.e.r.r.e.e.e.e.e.e.e.t.$.| ..V 7 s 7 w e : 8 Z Q G I.dXtX0X9X;XM.] Q 7 , j Q &.%.%.e.e.r.r.r.r.e.e.e.e.r.r.r.r.r.r.r.r.r.e.e.r.k.k.h.k.k.b.b.b.n.n.G.n.n.G.U.Y.U.G.U.Y./.'.'./.~.T.~.Y.U.H.H.H.U.U.Y.U.Y.~.~.~.G.3.Z + q.<XS l l S m m m m m m m m m b b b l l l b b b b b b b b b b m A A A S Z c c = j <X9X`.T.U.H.H.H.G.G.n.n.n.b.b.n.m.G.G.H.H.G.G.G.H.H.H.m.n.n.n.b.b.b.n.m.G.b.k.k.b.b.b.b.b.k.k.k.k.k.h.h.h.r.r.r.e.e.e.r.r.r.k.M.k.r.e.8.6.6.6.3.3.3.$.$.$.#.#.#.#.#.#.#.#.#.#.#.#.........| / | | / | ^ N < ] XXA.i.q.s.q.w.w.w.w.w.w.w.w.w.w.w.w.q.q.q.q.q.q.>.>.q.q.q.>.0.0.-.Z > - c ( ..6.r.e.e.k.k.7.h.b.b.h.e.e.r.r.r.e.e.e.8.6.8.8.",
"e.e.e.r.t.k.n.G.n.n.m.G.G.n.n.G.n.m.G.G.G.G.H.Y.T.T.T.~.~.T.Y.U.U.U.U.U.U.U.U.U.U.U.U.H.H.G.G.G.n.n.n.n.n.n.n.n.n.n.n.n.n.n.n.n.n.n.n.b.b.n.n.n.n.n.b.b.b.b.n.n.G.m.n.n.n.n.n.n.b.b.b.b.b.b.b.b.b.b.n.n.n.n.b.b.n.m.G.H.H.H.H.H.H.G.G.m.n.n.n.n.n.m.G.G.G.G.m.n.b.b.b.b.b.b.b.b.n.n.n.m.G.G.G.m.n.n.n.n.b.k.k.h.t.k.b.n.n.n.m.G.G.n.b.b.b.b.b.k.k.k.k.k.k.b.b.b.b.k.k.k.k.k.k.k.k.h.h.t.r.r.r.r.r.r.r.e.e.e.e.e.r.e.e.e.e.e.e.e.$.r.3.F w q N ( Q Q G ( L.0XpXuXpXtX=XT.L.c.t.c.Q.( 9 7 j m Q ) ( ^ E ^ ..3.6.6.r.r.r.r.r.r.r.r.r.r.e.e.r.k.k.k.k.b.n.n.F.F.F.G.G.n.n.H.U.U.H.G.Y.T./././.T.Y.U.~.Y.U.H.H.H.H.H.U.U.T./././.G.%.c o E.P.b m b m b b m m m m b b m b b l l l l b b b b b m m b b b A A A A A Z c v e w 8XpX{.).L.L.H.H.G.G.m.n.n.b.b.n.n.n.n.m.m.n.n.G.H.H.H.n.b.n.n.b.b.b.b.n.n.b.k.k.k.b.b.b.b.k.k.k.k.k.h.h.h.r.r.r.e.e.e.e.e.8.r.h.r.e.e.8.6.6.6.3.3.3.$.$.$.$.#.#.X.#.#.X...#.#.#.............| | | / / ^ H 1 y +.q.d.i.d.i.i.i.i.i.i.i.p.i.i.i.i.i.w.w.w.q.w.q.q.q.q.>.>.-.q.w.@.@.K 8 o G Q O.%.$.6.h.k.h.h.k.b.h.e.e.r.r.e.e.6.6.6.6.8.e.",
"r.r.e.r.h.b.G.H.G.m.G.H.H.n.n.G.m.m.m.G.G.H.U.U.~.T.~.~./.~.Y.U.U.U.U.U.U.U.U.U.U.U.U.H.H.G.G.m.n.n.n.G.m.n.n.n.n.n.n.n.n.n.n.n.n.n.n.b.b.n.n.n.b.b.b.n.n.b.b.b.n.n.n.n.n.n.n.n.b.b.b.b.b.b.b.b.b.b.n.n.n.n.b.b.n.G.H.H.H.H.G.G.H.G.G.G.m.m.G.G.G.H.U.U.U.H.G.n.n.n.n.n.n.n.n.n.m.n.m.G.H.H.H.G.G.G.G.G.m.n.n.n.b.n.n.n.b.b.m.H.n.n.b.b.b.b.b.b.k.k.k.k.k.b.b.b.b.k.k.k.k.k.h.h.h.h.h.r.r.r.r.r.r.r.r.r.r.e.e.e.e.e.e.e.6.6.e.e.y.#.^ w 7 t.0X9XaXqX0XqXuXyX=XP.I.c.@.( ~ ( @.q.@.I A H l 7 1 1 7 0 0 q j G $.x.h.t.r.r.r.r.r.r.r.r.e.e.h.M.b.h.b.M.G.G.G.n.n.n.G.n.G.U.Y.U.H.H.Y.T.~./.~.Y.Y.Y.Y.U.U.H.U.Y.Y.T.~.Y.~././.~.G.3.Z o v.+.b S Z k b b m m m m b b m b b l l l l b b b b b b b b b m A S A m m m c j w e 0XpX`.P.L.L.H.H.G.G.G.m.m.n.n.n.n.n.n.n.n.n.n.n.n.m.m.n.n.n.n.n.b.k.k.k.k.n.k.h.k.b.k.k.b.k.k.k.k.k.k.h.h.r.r.r.r.r.e.e.e.6.e.e.e.e.e.e.6.6.6.6.3.3.$.$.$.$.#.#.X.#.#.X...............| | ..( | | ^ / / Y j - 7 S q.s.V.c.s.s.s.s.d.d.d.d.s.s.s.s.s.i.i.i.w.w.q.q.q.q.q.>.w.-.-.q.@.G - p G Z Z Y | $.e.t.h.k.k.r.e.e.e.e.e.6.6.6.6.6.8.e.",
"t.r.r.r.h.b.G.U.G.G.G.H.H.n.n.G.G.G.G.G.H.U.Y.Y.~.~.~.~././.Y.U.U.U.U.U.U.U.U.U.U.U.U.H.H.G.m.n.n.m.G.G.G.m.m.n.n.n.n.n.n.n.n.n.n.n.n.b.b.n.n.n.b.b.n.n.n.n.b.b.n.n.n.b.b.n.n.n.b.b.b.b.b.b.b.b.b.n.n.n.n.n.n.b.n.G.H.H.H.G.G.G.G.G.G.G.H.U.U.U.T.~.~.~.T.U.H.m.G.G.G.G.H.H.H.H.n.n.n.G.G.H.G.m.n.m.G.H.H.H.H.H.U.U.H.n.b.b.G.U.n.n.b.b.n.n.n.b.k.k.k.k.k.b.b.b.k.k.k.k.k.k.h.h.h.h.h.r.r.r.r.r.r.r.r.r.r.r.r.r.e.e.6.6.6.6.6.6.| #.j 7 x.pXpX&XL.v.v.P.I.v.0.@.+.@.=.+.` @.@.I ] ! ] >.@.` ~ ~ I ( ( c 5 e ( m.k.h.t.r.e.e.e.r.r.e.e.e.k.n.M.h.b.n.G.G.G.n.n.b.n.n.G.U.Y.U.H.U.Y.Y.~.~.~.~.~.~.~.Y.H.H.Y.~./.'.'././.~.Y.T.G.0.m o q.~ b k b A b b b m m b b b m b b l l l l b l b b b b b b b M A S Z m m m c c 9 7 1XpX%XL.P.L.H.H.H.G.G.G.m.G.G.G.m.n.n.n.b.n.n.b.b.b.n.n.n.b.b.b.n.n.n.n.n.n.k.h.k.b.k.k.k.k.k.k.k.k.k.k.h.r.r.r.r.r.r.r.r.r.r.r.e.e.e.e.6.6.6.6.3.3.$.$.$.$.#.#.#.#.#.#.X.........| | | | ( / ( ( ^ / | ) K k - k +.s.A.i.s.s.s.s.s.s.f.s.c.c.c.c.c.s.s.i.i.w.w.w.w.w.q.q.i.] s.w.` -.Q 7 b > , w H G ( 6.r.h.h.e.e.e.e.e.6.6.6.3.6.6.e.e.",
"b.h.r.r.k.n.G.H.G.n.H.Y.U.n.n.U.H.G.G.H.U.Y.U.H.Y.Y.Y.Y.Y.Y.Y.U.U.U.U.U.U.U.U.U.U.H.H.H.H.G.G.G.m.G.H.H.G.n.n.n.n.n.n.b.b.n.n.n.n.n.n.n.n.n.n.n.b.b.n.G.G.m.n.n.n.n.n.n.n.b.b.b.k.k.k.k.k.k.k.n.G.b.n.G.b.b.n.n.U.U.H.G.G.m.m.G.n.H.H.G.H.~./.~./.~.Y.Y.U.U.H.H.H.G.G.H.H.H.H.G.H.H.H.G.m.n.G.H.G.G.H.H.H.H.H.H.H.U.H.m.n.H.H.G.m.n.n.n.n.n.b.k.k.k.k.k.k.k.k.k.h.h.k.k.h.h.r.r.t.t.r.r.r.r.r.r.r.r.r.r.e.e.e.e.6.6.$.3.6.6.6.$.| c 7 0.iXuXT.>.@.@.@.=.@.@.+.] +.+.[ [ +.+.@.@.[ [ +.@.q.P.=X9X0X9X4X{.c Z L.2XR.r.t.r.e.h.r.r.r.8.6.r.k.k.k.k.G.G.G.n.M.M.M.n.G.H.U.Y.Y.U.U.H.U.~.~.Y.Y.Y.~.~.Y.T.T.Y.Y.~.~.U.~.T.~.T.U.Y.H.y.I o ` ! p A m l b b b b b l l l l l l l l l l l b l l l l l l b b b m m m b c c p 9 7 8XpX#XP.L.L.H.H.H.H.G.G.G.G.G.m.n.n.n.n.n.G.m.n.n.n.n.b.b.k.b.b.n.G.G.H.H.H.G.n.b.k.k.k.k.b.k.k.k.k.k.k.h.r.r.r.r.r.r.r.r.e.e.e.e.8.6.6.3.6.6.6.6.6.3.$.$.................| | | ( ( ( / / / / / / / / / ( ( Z k > ) t.c.V.s.c.s.i.C.B.c.c.c.s.i.c.v.V.v.c.s.s.i.w.w.q.q.q.-.>.>.,.>.@.] ( O.0.&.Z 7 e Z Y #.h.e.e.r.e.r.e.6.8.6.3.3.e.r.r.",
"k.h.r.r.k.b.n.G.n.b.n.H.H.n.b.G.G.m.n.G.H.U.H.H.U.U.U.U.Y.U.U.U.U.U.U.U.U.U.U.U.U.H.H.H.H.G.G.H.G.H.H.H.G.m.m.m.G.m.n.n.b.b.n.n.b.b.b.b.n.n.n.n.n.n.m.H.H.H.G.H.n.n.n.n.b.b.b.b.k.k.h.k.k.h.k.n.H.n.G.H.n.b.G.G.U.H.H.G.m.n.m.m.n.m.G.H.Y./.~.Y.Y.U.H.H.H.H.G.m.H.H.G.H.U.Y.Y.Y.U.U.U.H.G.G.G.H.n.m.G.G.G.m.G.G.H.U.H.G.G.H.U.H.n.n.n.b.b.b.b.k.k.k.k.k.k.k.k.k.h.k.k.k.h.h.t.r.t.t.r.r.r.r.r.r.r.r.r.e.e.e.e.e.3.3.%.e.6.#...#.( w Q 1XpXXX0.+.@.@.@.@.@.@.+.+.[ [ [ [ [ +.+.@.[ @.@.@.@.-.p.c.c.y.v.@.k * x.0XR.r.r.r.r.g.e.r.r.e.r.k.b.b.k.b.H.G.n.M.M.n.G.H.H.U.U.Y.U.H.H.G.U.~.~.T.Y.~./.~.U.U.U.U.Y.~.~.Y./.~./.~.Y./.Y.M.) 9 A @.m l b l b b b b l n l l l l l l l n l l l l l l l l l l b b b b b b c l c 7 > 8XpX{.L.T.L.H.H.H.G.G.G.G.G.G.m.n.n.n.n.n.n.n.n.n.n.n.n.b.b.b.b.b.n.n.G.G.H.G.b.b.k.k.k.k.b.k.k.k.k.k.h.h.r.r.r.r.r.r.r.r.e.e.e.e.8.6.6.3.3.3.3.3.3.$.$.#.X.X...........| | ( ( ( / / / / / / / / / / / / ( Q c , k Q q.s.i.c.d.s.c.c.d.c.V.v.c.c.v.v.c.s.s.s.i.i.w.w.q.q.w.q.q.q.q.,.-.@.`.=X=XA._ c y e ^ e.e.e.e.3.e.e.6.6.6.6.6.r.r.r.",
"h.r.r.r.h.b.b.n.G.b.b.n.G.b.b.n.m.n.n.n.G.H.G.G.H.H.H.J.U.U.U.U.U.U.U.U.U.U.U.U.U.H.H.H.H.H.H.H.H.H.H.H.G.G.G.G.G.G.n.n.n.n.n.n.b.n.n.n.n.m.G.G.U.H.H.H.H.G.G.H.n.n.n.n.b.b.k.k.k.k.h.k.h.h.k.n.U.m.G.H.n.n.H.H.H.G.G.F.n.n.n.m.n.n.m.Y././.Y.U.U.U.U.U.U.U.H.G.H.H.H.U.Y.~.~.~.~.Y.U.H.H.H.H.G.m.G.H.H.G.G.G.H.G.G.G.n.n.m.G.m.n.n.b.b.b.b.k.h.k.k.k.k.k.k.k.k.k.k.k.k.k.h.h.t.h.r.r.r.r.r.r.r.r.e.e.e.e.6.6.6.6.6.%.$.%.#./ Q e 9 T.uX5Xw.+.@.@.@.@.@.@.[ [ [ +.+.@.@.@.@.+.+.] [ +.[ ` _ ! ! ] ! O.I H # M.pXT.x.k.k.h.k.r.g.r.r.k.b.n.n.n.n.U.H.M.b.n.H.U.Y.H.H.U.U.U.H.G.G.Y.~././.~././.~.U.U.H.H.Y././.~.~.~././.~.'./.L.&.A $ i.I k k b b l l l n l l l l l l l l l l l b l l l l l l l b b b b l l c v v 9 7 8XpX`.L.Y.L.H.H.H.G.G.G.G.G.m.m.n.n.n.n.n.b.b.n.n.n.n.n.n.b.b.b.b.n.n.G.H.G.n.b.k.k.k.k.k.k.k.h.h.k.k.h.t.r.r.r.r.e.e.e.e.e.e.e.e.6.6.3.3.$.$.$.$.$.$.#.#.#.X.......| | | / / / / / / / / / ^ ^ ^ ^ ^ ^ ^ ^ ( G 7 7 v 0.v.s.c.v.v.c.c.B.S.A.V.V.v.v.v.c.i.s.s.i.i.i.w.w.w.w.<.,.>.,.<.,.>.i.V.A.v.w.] n , F r.r.8.6.$.6.e.6.6.6.6.e.h.h.r.",
"h.t.r.r.h.k.b.n.H.n.b.n.m.n.n.n.n.n.b.n.m.G.G.n.G.G.G.H.H.H.U.U.U.U.U.U.U.U.U.U.H.H.H.H.H.H.H.H.H.H.H.H.G.G.G.G.G.m.m.n.n.n.n.n.m.G.G.G.H.H.H.H.U.H.G.G.m.b.b.n.n.n.n.n.b.b.k.k.k.h.k.k.k.k.k.n.U.G.G.H.n.n.H.U.G.G.n.n.n.n.n.m.G.n.H.~./.Y.U.U.Y.Y.Y.Y.Y.Y.U.H.H.H.H.U.T.~.~.~.~.Y.U.H.U.H.H.G.G.H.H.H.H.G.H.H.n.n.n.b.b.n.n.n.n.b.b.k.k.k.k.h.k.k.k.k.k.k.k.k.k.k.k.k.h.h.h.h.r.r.r.r.r.r.e.e.e.e.e.6.6.6.3.3.3.e.6...$.#.V g e q.wXuXV.+.<.+.@.+.[ [ [ [ [ [ @.=.=.=.=.;.@.@.[ ] ` ` ] ] ` ` ` +.! K Z 7 c.pX).b.b.k.h.l.h.k.h.k.b.n.n.n.G.H.U.H.n.n.H.U.Y.U.n.G.H.H.H.H.H.U.Y./.'./././.~.Y.Y.U.H.U.~.'./.~.Y.Y././.~./.~.m.q.l   V.I b l l l l l l l l l l l l l l l l l l l l l l l l l l l l l l l l v v w w w 8XpX#XL.m.H.H.H.H.G.G.G.G.m.m.n.n.n.n.n.n.b.n.n.n.n.n.n.n.b.b.n.n.G.G.H.H.n.n.b.k.k.b.b.k.k.k.h.h.h.h.h.t.r.r.r.e.e.e.e.e.e.e.e.8.6.6.3.3.$.$.$.$.$.#.#.#.#.X.....| | / / / / / / / / / / ^ ^ ^ ^ ^ ^ ^ ^ G ( Q Z e 0 &.V.V.c.c.V.B.V.S.P.V.V.V.V.V.V.v.c.c.s.s.i.i.i.i.u.q.<.>.>.>.>.>.>.[ +.+.=.q.>.L 8 c n.H.e.3.6.e.3.6.6.8.e.h.k.k.r.",
"h.h.r.r.t.k.b.m.U.n.b.b.n.m.n.n.n.n.n.n.n.n.n.n.G.G.G.G.H.H.U.U.U.U.U.U.U.U.U.U.H.H.H.H.H.H.H.H.H.H.H.G.G.m.G.G.m.m.G.G.G.G.G.H.H.H.H.H.H.H.H.G.H.G.n.n.b.b.b.b.n.n.n.n.b.k.k.k.h.h.k.b.b.k.b.n.U.G.G.H.n.n.H.H.n.n.n.n.n.n.m.G.U.U.Y./.T.H.H.T.~.T.Y.Y.Y.U.H.G.G.H.U.Y.T.T.Y.U.Y.U.H.H.H.H.H.G.n.m.G.G.m.n.n.m.G.n.n.n.n.n.n.n.n.b.b.k.k.k.k.k.k.k.k.k.k.k.k.k.k.k.k.h.h.h.h.h.r.r.r.r.r.r.e.e.e.e.e.6.6.3.3.3.$.3.e.$.$.F 0 c T.wXuX$X@.@.<.[ =.@.[ [ ] [ [ @.=.@.@.-.=.@.@.+.@.[ ` _ ` ] ] ] ! [ ~ I b > c.uX~.h.h.r.e.h.g.k.k.b.b.b.n.G.H.U.H.G.G.H.Y.Y.H.G.n.G.H.G.G.G.H.U.~./.'./././.Y.U.Y.U.U.Y././.~.Y.T.Y././.~./.U.h.&.- < _.A b k k l l l l l l l l l l l l l l l l l l v v v v l l l l l l l l c c k e 7 1XuX`.L.H.H.H.H.G.G.G.G.G.G.m.n.n.n.n.n.n.n.G.G.G.n.n.n.n.b.n.m.G.H.G.G.m.n.b.b.k.b.b.b.k.k.k.h.h.h.h.h.t.r.r.r.e.e.e.e.e.e.e.8.6.6.6.3.3.$.$.$.$.#.#.#.#.X.......| / / ^ ^ ^ / ^ ^ ^ ^ ^ ^ ^ ^ ^ ^ E ^ ^ E ^ Q ^ j r H V.[.V.c.V.V.V.P.S.V.V.V.V.V.V.v.v.c.c.c.s.s.i.i.i.u.w.<.<.<.<.,.,.,.q.q.,.=.+.K b > /.>Xb.3.6.e.$.6.e.e.r.k.b.k.r.",
"h.h.t.r.t.k.n.G.H.n.k.k.b.n.n.b.n.n.n.n.n.n.n.n.G.G.G.G.H.H.H.U.H.U.U.U.U.U.U.H.H.H.H.H.H.H.H.H.H.H.H.G.m.n.G.G.G.G.H.H.H.H.H.H.H.H.H.H.H.G.m.n.n.b.b.n.n.b.n.m.n.n.n.b.b.b.k.k.k.k.b.n.n.b.b.n.U.G.G.H.b.b.m.m.n.n.n.n.n.n.G.G.U.T././.U.H.U./.~.~.Y.Y.Y.U.H.G.H.H.U.U.Y.U.H.G.H.H.G.G.H.H.G.G.m.G.G.G.G.n.m.G.m.n.n.n.n.n.b.n.n.b.b.k.b.b.b.b.b.b.b.b.k.k.k.k.k.k.h.h.h.t.t.h.r.r.r.r.r.e.e.e.e.e.6.6.6.3.3.3.6...3.3.( s g ~.pXuX$Xs.-.@.@.=.=.=.;.;.;.=.=.;.@.@.@.@.@.+.+.+.+.[ ] ` ] ` ` ` ` _ [ U n o Q.pXT.t.t.r.r.k.g.z.k.b.b.b.n.H.J.J.n.G.H.U.U.J.n.k.n.G.G.G.n.n.H.U.~././././.~.Y.H.U.H.U.~./.T.Y.Y./.~./.'././.H.y.K o ] `.b k j j k v v v v l l l l l l l l l l l l l k k k k k k l k l l l l c c c 7 > 8XpX`.M.L.G.H.H.G.G.G.G.m.n.n.n.n.n.n.n.b.m.G.H.G.n.n.n.n.n.n.G.G.G.n.n.b.n.n.b.b.b.b.b.k.k.k.h.h.k.k.h.t.r.r.r.r.e.e.e.e.8.8.8.6.6.3.3.$.$.$.$.#.#.#.#.#.......| / / ^ ^ ^ ^ ^ ^ ^ ^ ^ ^ ^ ^ E E E E E E ^ F F E c 0 k T.8XQ.V.A.V.S.P.V.V.A.V.V.V.V.v.v.v.v.c.c.c.s.i.i.u.w.w.w.w.<.,.-.-.-.-.=.=.+.K b * *XrXU.$.$.8.6.6.r.h.k.k.k.k.r.",
"r.t.h.h.h.k.n.G.G.n.b.k.b.b.b.b.b.b.b.n.b.b.n.n.G.G.m.m.G.G.H.H.H.H.U.U.U.U.H.H.H.H.H.H.H.H.H.H.H.H.H.H.G.G.G.H.U.U.U.U.U.U.H.H.H.U.U.U.H.G.m.n.n.b.b.n.n.n.n.m.b.b.b.b.b.b.k.k.b.k.b.b.b.b.n.H.U.G.G.H.b.b.n.n.n.n.n.n.n.m.G.H.Y././.~.U.U.T././.~.T.Y.Y.Y.U.H.H.H.H.H.H.H.H.G.G.G.H.G.G.G.G.G.G.H.H.H.G.G.G.G.n.b.b.n.n.b.b.n.n.b.b.b.b.n.n.n.n.n.n.b.b.k.k.k.k.h.h.t.r.r.r.t.r.r.r.r.r.e.e.e.6.6.6.6.6.3.3.3.e.#.3.#.E s D 8XwX_.-.@.-.@.[ -.[ [ ;.;.;.;.;.-.=.@.@.@.@.@.@.+.` O.O.+.+.O.O.] [ U U S 2 8 <XuXP.r.h.h.h.b.k.z.h.k.k.b.n.H.H.G.n.n.G.H.H.n.b.k.b.n.m.n.b.n.H.Y.T.~.~.T.~.~.Y.H.U.J.Y.~.~.Y.Y.~.]./.~./.'.].U.e.m o c.s.b p l p k k k k v v v l l v v v k k k v k k k k k k k k k k v l l b m Z c 7 * %X9X`.L.m.G.H.G.G.G.G.G.G.n.n.n.n.n.n.b.b.n.G.H.G.n.b.n.m.n.n.n.n.n.n.m.m.m.n.b.b.b.b.b.k.b.k.k.k.k.k.h.h.h.r.r.r.r.r.e.e.8.6.6.6.6.3.$.$.$.$.#.#.X...X.X.....| | / / ^ ^ ^ ^ ^ ^ ^ ^ ^ E E E Y Y Y Y Y Y E C F F D v e ).uX[.V.P.V.V.W.V.P.P.P.A.V.V.v.v.v.v.v.v.c.c.s.i.w.<.<.<.<.<.,.,.u.,.;.=.-.+.A 8 F 0XrXH.$.$.6.8.e.h.b.k.k.k.h.r.",
"e.r.h.h.k.k.b.n.G.m.n.b.b.n.n.b.b.b.b.b.b.b.b.b.G.m.n.n.m.G.G.H.H.H.U.U.U.U.H.H.H.H.H.H.H.H.H.H.U.U.H.H.G.G.H.H.Y.Y.Y.Y.U.U.H.G.U.U.U.U.U.H.G.G.m.n.n.n.n.b.b.b.b.b.b.b.b.b.k.k.n.b.k.b.b.b.G.U.U.G.H.H.b.b.b.b.n.n.n.n.n.G.G.H.U././.Y.U.~././.~.Y.Y.U.U.U.U.U.U.H.G.G.G.H.H.H.m.G.H.H.G.n.n.G.n.G.G.G.m.n.n.n.G.n.n.H.G.n.n.G.n.b.b.b.b.n.n.n.G.m.n.n.b.k.k.k.h.h.t.r.r.r.r.r.r.r.r.r.r.e.e.e.6.6.6.6.6.6.6.6.$.%.t.#.^ x v '. Xi.+.@.@.@.=.[ ] ] [ [ ;.=.=.=.-.-.@.@.@.+.@.@.O.+.+.] ] ` O.+.@.' n A $ @.pXuXM.0.r.h.h.z.h.k.r.h.k.b.G.U.H.b.n.n.n.n.M.b.b.b.k.b.n.n.b.n.U./.Y.Y.Y.Y.T.~.Y.H.U.U.Y.~.T.U.T.'.].~.Y.~.'.].Y.e.Z + i.K b p Z p k k k k k v v k l v v v k k k k k k k k k k k k k k l l b m Z Z c y O 0.T.T.T.m.G.H.G.G.G.G.G.m.n.n.n.n.n.n.b.b.b.n.G.G.n.b.n.G.n.n.b.n.n.H.U.Y.G.n.n.b.b.b.b.k.b.k.k.k.k.k.k.h.h.h.r.r.r.r.e.e.6.6.6.6.6.3.$.$.$.#.#.............| | | / / ^ ^ ^ ^ ^ ^ ^ E E E Y Y Y F F F F F G F E D Z c * m.uX_.c.V.s.c.P.V.A.P.P.P.A.V.V.V.V.V.V.v.c.c.s.i.i.u.<.<.<.1.q.q.-.,.,.,.@.! v 7 U.iX7Xh.3.8.e.6.e.k.n.b.k.h.h.r.",
"e.h.k.h.k.b.n.n.H.H.n.k.k.b.n.b.n.n.n.b.b.b.b.b.m.G.G.G.m.G.H.H.H.H.H.H.H.H.G.G.H.H.H.G.G.H.Y./.U.U.H.H.H.H.H.H.Y.Y.Y.Y.U.U.U.U.G.G.G.G.m.n.n.n.n.b.b.k.k.k.b.b.n.b.b.b.b.b.b.b.G.n.n.b.k.b.n.H.n.n.n.n.n.n.n.n.m.n.n.m.G.G.G.H./.~.Y.Y.~././.~.Y.T.~.~.~.Y.U.U.H.H.H.H.H.H.H.H.H.G.G.m.G.G.H.H.H.G.G.n.n.n.n.n.n.n.n.n.n.n.n.n.M.M.z.M.M.n.n.F.M.M.k.k.k.k.k.k.r.r.r.r.r.g.r.r.6.e.r.e.e.r.r.7.6.6.6.6.6.6.6.6.6.$.6.#...N 4 %.[.q.@.@.] @.+.+.+.+.@.=.=.-.,.,.q.>.=.@.+.+.+.+.+.+.+.+.+.[ ] ] =.` K < < uXuX<Xy.t.r.h.H.b.g.b.g.n.H.F.z.J.M.g.n.z.M.M.k.z.M.k.k.b.b.b.n.F.H.U.H.^./.^.Y.Y.U.H.Y.U.Y.Y./.(.'.(.~.Y.~.OX*X~.r.#.j o E.A m j 8 m k k k k k k k k v v v k k k k k k j p p p k k v k k l b m b Z Z l p : , &.M.m.m.m.Y.G.H.b.U.n.G.n.n.n.n.n.n.b.b.n.n.n.n.n.n.n.n.n.n.m.G.H.H.G.G.H.G.n.b.b.b.b.k.k.k.k.k.k.h.h.h.t.r.r.r.r.r.e.e.6.6.6.3.3.%.$.$.$.$.#.#.........| | | ( / / ^ ^ ^ ^ ^ E E E E Y Y G F F F F F F G E V Z G w 7 Q `.#Xv.V.P.v.E.A.A.P.P.A.V.V.A.P.V.V.V.v.c.c.s.i.s.i.w.q.q.q.q.q.-.w.-.-.*.Q 7 w eXpXr.3.6.h.e.h.e.k.n.h.e.e.r.e.",
"r.k.k.k.n.H.H.n.G.G.n.k.k.b.M.b.n.n.n.b.b.b.n.n.n.m.G.m.m.G.H.H.H.H.H.H.H.H.H.H.U.H.H.H.U.Y.Y.T.U.U.H.H.G.H.H.H.U.U.U.U.U.H.H.H.H.H.H.H.H.G.m.n.n.b.b.b.b.n.n.n.H.G.n.n.n.n.n.n.n.n.n.b.n.n.H.U.n.m.G.G.n.b.b.n.n.b.n.G.H.H.H.U./.~.Y.Y.T.~.~.~.U.Y.Y.~.T.Y.U.U.H.H.H.H.H.H.G.G.G.G.G.G.H.H.H.G.m.m.n.n.n.n.n.n.n.n.n.n.n.n.n.M.z.z.z.z.z.z.n.n.z.k.k.k.k.h.t.h.r.r.r.r.r.r.e.e.7.r.r.7.6.e.e.6.6.6.6.6.6.3.3.3.$.$.3.2.X.E : #.4XV.q.>.@.-.@.@.@.@.-.-.>.>.>.,.q.>.=.@.+.+.+.+.@.@.@.@.@.@.+.+.@.` S < 1 4X=Xt.y.r.e.g.F.l.g.b.H.r.8.r.r.k.h.b.n.z.k.g.r.h.b.b.k.b.b.b.b.n.F.G.H.U.Y.U.H.H.H.G.H.J.U.Y.~././././.U.].+X~.n.r.... I _.m p l p j k k k k k k k k k k k k k k k k j j p j k k l l l k l m Z m Z Z S Z w X > w ( x.m.G.H./.b.n.n.U.n.n.n.n.n.n.b.b.n.n.n.n.M.n.n.n.n.n.m.H.H.U.H.H.H.G.n.b.b.b.b.k.k.k.k.k.k.h.t.r.r.r.r.r.r.e.e.e.6.6.6.3.3.%.$.$.$.#.#.#.......| | | ( / / / ^ ^ ^ ^ E E E E Y Y F F F F F F F F D E F H Y v 7 w t.T.L.P.P.A.Q.I.P.P.A.A.V.V.A.P.V.V.V.v.v.c.s.s.s.t.w.w.w.w.q.q.q.>.0.y.( j 5 h.iX2X3.6.6.r.h.r.e.k.b.h.r.r.h.r.",
"r.h.h.k.n.G.n.b.b.M.b.k.k.k.b.k.n.n.b.b.b.b.n.n.n.n.m.m.m.G.H.H.H.H.G.G.H.H.H.H.U.H.H.H.Y.Y.Y.U.U.H.H.G.G.G.G.H.H.H.H.H.H.G.G.G.H.H.H.G.G.m.n.n.n.n.n.n.n.m.G.H.H.G.m.n.m.G.G.G.n.n.m.m.G.G.H.U.n.G.H.H.n.b.b.n.n.n.m.H.U.H.H.H./.~.Y.U.U.Y.Y.Y.U.U.Y.Y.Y.Y.U.U.U.H.H.H.H.H.G.m.n.G.H.H.H.H.H.G.n.n.n.n.n.n.m.G.n.n.n.n.n.n.n.b.z.z.z.l.k.k.k.z.k.k.k.k.h.t.t.r.r.r.g.r.r.r.r.r.e.r.r.7.7.e.e.7.6.6.6.6.3.3.3.3.$.$.$.2./ E & 6.uXI.q.>.@.@.[ +.@.@.-.>.<.q.q.q.>.-.@.@.@.@.@.@.@.@.@.@.@.@.@.+.-._ K k - ~ &.( 6.r.r.h.n.M.k.n.n.3.../ ..| 6.h.h.k.b.M.b.k.k.h.k.z.b.n.n.n.F.G.Y.^.Y.U.H.H.H.H.H.U.Y.T.T././././.Y.*X*XY.H.%.5 . I.v.k y l l y k k k k k k k k k k k k k k a j p p j k k l l b l l b Z A Z Z Z m c j e > 7 w Z e.r.b.Y.n.G.G.n.n.n.n.n.n.b.b.b.b.b.b.n.M.M.n.n.n.n.n.G.U.U.U.U.H.G.n.n.n.b.b.k.k.k.k.k.h.h.r.r.r.r.r.r.e.e.e.e.6.6.6.3.3.$.$.$.#.#.#.......| | ( ( / / / ^ ^ E E E E E Y Y Y G F F D D D D D D V F F H G Z w * Q M.).T.L.L.P.P.P.P.A.A.P.P.P.P.V.V.V.v.v.c.c.s.x.s.i.w.w.w.w.q.u.-.q.q.Q 5 q 1XiXG.X.e.7.r.k.7.r.k.z.h.h.k.k.g.",
"e.r.h.k.b.b.k.h.k.k.k.k.k.k.k.k.n.b.b.b.b.b.n.G.n.n.m.G.G.G.H.J.Y.H.G.G.H.H.H.H.H.H.H.U.Y.Y.U.H.U.H.H.G.G.G.G.G.H.H.H.H.G.G.m.m.G.G.G.G.m.n.n.n.n.n.n.n.n.m.G.G.m.n.n.n.n.G.G.G.n.G.G.G.G.G.G.H.m.H.H.G.n.b.n.G.H.G.H.H.H.G.m.G.~.Y.U.U.H.U.U.U.H.H.U.U.Y.U.U.U.U.H.G.G.H.H.G.n.n.G.H.U.U.H.G.G.m.m.m.m.G.G.G.G.m.n.n.n.n.n.b.b.M.z.z.z.k.k.k.k.h.k.k.k.h.t.r.r.e.r.h.h.r.r.r.r.e.e.e.7.6.e.e.e.6.6.6.6.3.3.2.2.3.$.6.#.E V s ].uXP.-.@.@.@.] @.@.@.-.q.q.q.q.q.-.-.@.@.@.@.@.@.@.@.@.@.@.@.+.+.-.] ` I < + p Z ( #.e.k.b.l.k.b.6.$.) z Z v / ..h.h.r.r.r.r.r.x.g.h.k.b.n.F.H.J.^.~.Y.U.H.G.H.J.J.U.T././.T.T./.].+X*X/.k.r.E X I Q.I 9 k p k a k k k k k k k j k k k j j p p p p p k k l l b b l l b Z A m Z Z G Z c G Z G 7 X N t.U.G.n.H.n.n.n.n.n.n.n.b.b.b.b.b.b.b.b.M.n.n.n.n.n.G.H.U.U.H.G.m.n.n.n.b.b.k.k.k.k.k.h.r.r.r.r.r.r.e.e.e.6.6.6.6.3.3.$.$.$.$.#.#.......| | | / / / / ^ ^ E E E E Y Y Y F F F D D D D D D D D D V D Z N F c > e &.T.P.m.P.V.A.E.I.P.P.I.T.I.P.V.V.V.V.v.c.c.c.c.s.i.i.i.i.w.w.u.q.w.O.Q w x rX6X$.$.6.r.e.g.r.r.k.k.h.h.k.k.g.",
"r.k.b.n.b.k.h.k.h.h.h.k.k.k.k.k.n.k.k.b.b.b.n.G.n.n.G.H.H.H.U.U.~.U.H.G.H.U.U.H.H.U.Y.T.Y.U.U.U.U.H.H.G.G.G.G.G.H.H.H.H.G.G.G.m.m.G.G.G.G.G.G.G.n.n.n.b.n.n.n.m.m.n.b.b.n.n.n.n.n.m.G.G.G.n.n.m.G.H.G.n.b.n.G.U.U.H.G.G.G.n.m.H.Y.Y.U.H.H.H.H.U.H.H.U.U.U.U.U.U.U.H.G.G.G.H.G.G.n.H.U.Y.U.H.G.G.G.G.G.G.G.G.G.G.G.G.G.n.n.n.b.b.n.n.M.z.k.k.k.k.h.h.h.h.t.r.r.e.r.r.t.t.r.r.e.e.e.e.e.e.e.e.e.e.6.6.6.6.3.3.3.$.3...r...E q ( aXyXV.=.=.@.@.+.-.-.>.q.w.w.w.q.>.=.@.@.@.@.@.@.@.@.@.@.@.@.@.+.+.` @.@._ A l Z < k D O.r.h.r.g.k.$...c o 7   w Y ) ..&.0.c.h.e.h.h.k.k.b.b.n.H.H.U.U.U.U.H.G.G.H.U.U.Y.T.T.~.~./.].].m.t.b.$.w o I.w.p 8 b 9 y l k k k k k k k k k k p p p p p p p j k l l b b b k k l m m b m Z H S c G Z G k : > OX0XH.b.b.k.Y.n.n.n.n.b.b.b.b.b.b.b.b.b.n.n.n.n.n.n.n.G.G.G.G.m.n.n.n.n.b.b.k.k.k.k.k.h.r.r.e.r.r.e.e.6.6.6.6.3.3.%.$.$.$.#.#.........| | ( / / / / ^ ^ E E E Y Y Y F F F F F D D D D D D D D G N Z Z c Z Z j * c >.c.P.).I.E.E.T.I.I.E.E.I.P.V.V.V.V.v.v.c.c.c.c.s.i.i.i.i.w.w.w.i.] Q s D eX(.#.e.4.g.e.7.g.g.l.k.g.g.h.g.e.",
"r.k.M.n.k.r.r.k.h.r.r.k.k.k.k.b.b.k.k.n.n.b.n.G.n.G.H.H.U.U.Y.Y.~.Y.H.H.U.Y.U.U.U.T././.Y.Y.Y.Y.U.H.H.G.G.G.G.H.H.H.H.H.H.G.G.G.n.m.G.G.G.G.G.G.n.n.n.n.n.n.n.m.H.H.m.n.n.n.b.b.b.n.G.G.G.m.m.G.H.G.G.n.n.G.H.U.H.m.n.n.n.n.G.H.U.U.U.H.H.G.H.H.H.H.H.U.U.U.U.U.H.H.G.G.G.G.G.H.G.H.U.U.H.H.G.G.n.n.m.G.G.G.G.G.H.H.G.G.n.n.n.M.n.n.n.M.z.k.k.k.h.h.t.t.t.r.r.r.h.h.h.t.r.r.6.3.6.6.6.e.e.e.e.e.6.6.6.3.3.3.3.3.3.#.r.| D : h.iX2Xs.=.-.@.@.@.>.w.u.i.i.w.q.>.-.=.@.@.@.@.@.@.@.@.@.@.@.@.@.@.@.@.+.] [ @.@.O.Z e e F 0.h.r.h.k.M.Q w Q 9X0.w . 8 s f Z O.#.O.0.x.b.n.n.b.b.b.b.n.G.H.Y.U.H.H.U.H.H.m.G.H.U.Y.Y.U.Y.t.#./ q , G I.K k 9 k 9 y p p p p p k k k k k k k p k p p p k k l l l l l l l k k b b b c m v m c c k w > * / aXpXY.G.n.b.H.n.n.n.n.b.b.b.b.b.b.b.b.b.b.n.n.n.n.b.n.n.n.n.n.n.n.b.b.b.b.k.k.k.k.k.h.h.r.r.e.r.e.e.e.6.6.3.3.%.$.$.$.#.#.#.........| | / / / ^ ^ ^ ^ ^ E E Y G F F F F D D D D D D V V V V V F x Z F N c Z c , 7 Z x.[.[.E.Q.I.I.I.I.I.I.P.A.V.V.V.V.v.v.v.c.M.c.s.s.s.s.i.u.q.q.w.%.( > Y rXF.6.k.3.g.g.e.k.g.z.l.g.e.g.g.7.",
"e.r.h.k.k.e.e.h.h.r.r.k.k.k.k.n.b.k.b.G.G.n.n.H.m.H.U.U.U.Y.T.~.~.U.H.H.Y.~.Y.Y.~.~.~.T.Y.Y.Y.Y.U.U.H.H.G.H.H.H.H.H.H.H.H.H.G.G.G.G.G.G.G.G.m.n.n.n.n.n.n.G.G.H.U.H.G.m.m.m.n.n.m.G.H.H.G.G.G.G.H.H.G.G.G.H.H.H.G.n.b.n.n.n.n.H.H.U.U.U.H.G.G.H.H.H.H.H.H.H.H.H.G.H.H.G.n.m.H.U.U.U.Y.U.H.G.G.H.n.n.G.H.U.U.U.U.U.H.H.G.G.n.n.n.M.n.n.M.b.k.k.k.k.h.t.r.y.y.r.r.t.e.0.6.3.$.| ) Q Q / O.&.&.$.3.3.3.3.%.%.%.%.%.%.%.&.) z w `.tXE.-.@.-.@.@.=.,.u.u.i.u.q.,.-.=.=.@.@.@.@.@.@.+.@.@.@.@.@.@.@.@.>.` _ =.@.-.&.q.Z 7 c &.r.y.t.t.0.( j G 0X( l ( ! Z - X 9 y v Q 3.e.r.r.y.%.O.| &.%.r.n.m.M.M.M.x.r.%.&.%.0.0.0.$.x.:.k X X G ].&.y l p y y y w p p p p k k k k k k k k j j j p k v l l l l l k l k k l b l c Z S G G c j , > D <XpXrXH.H.H.G.k.n.n.n.n.b.b.b.b.b.b.b.b.b.b.n.n.n.n.b.b.n.n.n.b.n.b.b.b.b.b.k.h.h.h.h.h.t.r.r.r.e.e.e.6.6.3.3.%.$.$.#.#.#...........| | ( / / / ^ ^ ^ ^ E E Y Y F F F D D D D D V V V V V V V V V N Z H N c Z c j 7 w A.1X[.E.E.P.I.T.T.I.P.A.A.V.V.V.V.V.v.v.v.c.M.c.c.c.s.i.i.w.w.0.%.Q * #.iXF.e.h.g.g.g.z.k.g.z.z.g.7.e.r.e.",
"e.e.r.k.k.r.r.h.h.r.r.k.k.k.b.n.b.k.b.H.H.n.n.H.G.H.U.Y.Y.T.~./.Y.U.H.U.T./.~.Y./.Y.U.U.U.Y.U.U.U.U.H.H.H.H.H.H.H.H.H.H.H.G.G.G.U.U.U.U.H.H.G.G.n.n.n.m.G.H.U.U.G.m.n.n.G.H.H.H.U.U.U.U.H.G.m.m.H.H.G.H.H.U.G.n.G.n.n.n.n.b.b.n.H.H.U.U.H.G.G.H.G.G.G.G.G.G.G.G.n.G.H.G.n.n.H.Y.U.Y.Y.U.G.n.G.H.n.G.H.U.Y.~.~.~.U.U.H.H.G.m.n.n.M.M.M.M.M.k.k.k.k.h.t.r.y.y.y.r.6.$.| ( ( ^ H c 0 e k Z Q Q ( ..%.%.%.%.%.%.%.%.$.0.Q ^ z ) tXpXc.] =.,.=.-.,.u.,.q.q.q.,.>.-.=.=.@.@.@.@.@.@.+.+.+.@.@.+.+.+.+.] [ +.] ` w.@.O.( e w ( y.e.y.0.O.( 9 v wX0.] c.#XQ.5.! ! l = < G Q | O.( G Z v v Z Q &.3.%.&.%.&.( G V Z Z Z c G N r X c L.T.&.Z 7 w p 9 k y w y p p p k k k k k k k k k k p j l l l l l l k k n k k l l l b Z Z Z Z 7 7 > y.pXpXiX2XG.k.h.H.b.n.n.n.b.b.b.b.b.k.b.b.b.b.b.n.n.n.b.b.b.n.n.n.n.b.b.b.b.b.b.k.h.h.h.h.h.t.r.r.r.e.e.e.6.6.3.%.$.$.#.#.#.......| ..| | | / / / / ^ ^ ^ E E E Y Y F F F D D D V V V V N N N N N N x N N v v V Z c Z 7 1 Q.aXXXQ.E.P.I.E.E.I.P.P.P.V.V.V.V.V.v.v.v.v.c.c.c.c.d.i.i.i.s.@.( F > b.iXY.7.r.z.e.k.H.g.g.z.b.g.7.e.g.r.",
"e.6.r.k.h.e.k.r.e.h.r.h.G.J.n.k.b.n.G.H.H.H.H.H.H.U.H.U././.~./.U.Y.~.Y.Y.~././.Y.Y.~.~.~.Y.U.U.U.U.H.H.G.G.H.H.H.H.H.H.H.H.H.H.H.H.U.U.U.U.H.G.G.G.m.n.n.n.n.m.H.G.n.n.n.G.H.U.Y.U.U.U.H.H.H.H.U.H.H.G.G.m.n.n.n.n.n.b.n.m.G.H.U.H.H.G.m.n.n.m.G.G.G.G.G.G.G.G.H.G.n.n.G.H.U.U.H.H.H.H.H.H.H.H.G.H.U.Y.Y.Y.U.U.H.H.G.m.n.n.n.m.n.M.b.k.k.k.t.t.t.k.r.y.r.e.3.0.( G K v e > , Z Q ) j # > 7 w Z Q ) ( ( O.O.@.O.` ] ( m : >.pX2Xq.-.@.@.-.q.q.,.q.q.q.q.q.>.-.@.@.@.@.@.@.@.@.@.@.+.+.+.+.+.+.+.] @.@.+.@.-.@.+.( S 1 - Z ( Q O.` K O q.uXw.+.` w.@.=.V. XQ.[ 8 - 7 j p r * - 7 , o - j c v c c c > o X + o . o o   * &.T.M.R w y y y y u y y y y y y p j k l l k k k k k k k k k l l l l k k k l k k l b m Z Z Z G c w > Z uXiXpX2XY.b.b.n.n.b.n.n.n.b.b.b.k.k.k.k.b.b.b.n.n.G.n.b.b.b.b.b.b.b.k.k.k.k.k.k.k.h.h.h.t.r.r.r.r.r.r.e.6.6.3.3.$.$.$.$.#.#.....| | / / / / / ^ ^ ^ ^ E E E Y Y F F D D D D D V V V N N N N N N x x V N c c c N c c c c O q.).2XA.I.P.P.P.P.P.P.P.P.A.A.V.V.V.V.v.v.M.v.c.c.c.d.i.i.u.i.0.( j : <XpXb.g.h.6.k.$.3.6.$.3.$.e.3.$.b.3.",
"e.r.r.k.h.e.r.e.r.h.h.k.J.J.n.n.G.G.H.H.H.G.H.H.H.Y.U.U././.Y.Y.Y.T.~.Y.Y.~.~.Y.Y.Y.Y.Y.Y.Y.U.H.U.U.H.H.G.G.H.H.H.H.H.H.H.H.H.H.H.H.H.H.H.H.G.G.m.m.m.m.G.H.H.U.U.U.H.H.H.U.U.U.Y.U.U.H.H.G.G.G.H.H.G.m.m.n.n.b.n.n.n.b.n.m.G.H.H.G.G.G.m.m.m.m.G.G.G.G.G.G.G.G.G.m.n.n.G.H.H.H.H.H.H.H.H.H.H.G.G.G.H.U.U.U.U.H.H.H.G.m.n.n.n.n.M.b.b.M.b.k.k.k.6.k.x.y.h.h.$.Q ! e < k H I t.8XtX2Xc.] -.` y - = 9 Z Q Q G S Z I H k c ) &XpXI.>.-.@.=.>.q.,.>.q.q.q.q.,.-.-.@.=.@.@.@.+.+.+.+.+.+.+.+.+.+.+.+.+.@.-.@.-.-.-.@.0.O.k - 7 9 7 v 1 < @.wXwX=.@.] _ _ ` =.q.-.! b ! ! Z j c %.).<XP.%.I c 7 * # * o J t.R.P.M.v.L.c.m.T.T.y.c 8 w y y y y u y y y y y y p j k v l k k k k k k k k k k l l l v k k l k k l b m Z Z b S w w X `.pXpXOXY.n.b.n.G.m.n.n.n.n.b.b.b.k.k.k.b.b.n.n.n.n.m.b.b.b.b.b.k.k.k.k.k.k.k.k.h.h.h.t.r.r.r.r.r.r.r.r.e.6.3.3.%.$.$.#.#.#.....| | | / / / / ^ ^ ^ ^ E E E E Y G F F D D D D V V V V x c c N x x x x N x c c c c c c c j # c #X8X Xv.P.P.P.P.P.P.P.P.A.A.V.V.V.V.v.v.M.v.c.c.c.d.i.i.i.w.q.( 7 w 9X2X6.$.r.r.0.F Y / Q / ( ( Y F | #.",
"#.r.6.e.e.e.h.r.r.h.h.n.U.H.n.H.H.H.H.H.G.G.G.G.H.Y.Y.Y./.~.U.U.T.T.Y.U.Y.Y.Y.U.U.U.U.U.U.U.U.H.U.U.H.H.H.H.H.H.H.H.H.H.H.H.H.H.H.H.G.G.G.G.G.G.G.m.n.G.G.H.U.Y.U.U.U.U.H.H.H.H.T.Y.Y.U.H.G.G.G.G.m.n.n.n.n.n.b.n.n.n.b.n.n.G.H.n.n.n.m.m.m.n.n.m.m.m.m.m.m.m.m.m.n.n.G.H.H.H.H.H.H.H.H.H.G.G.G.G.G.H.H.H.H.H.H.H.H.G.m.n.n.n.n.k.b.M.M.b.k.k.k.G.M.t.0.$.| Q K - k @.=XyX9XqXuX XE.c.I.2X=Xc.] O.m < = = < 7 9 $ = 7 @.XXuXuXw.-.=.@.-.>.q.>.-.q.q.q.>.>.-.-.-.-.=.@.@.+.+.+.+.+.+.+.+.+.+.+.+.@.-.>.>.>.q.0.-.+.] I I @.] m v I @.qXuXW.' ] K ! _ ` _ ! ! _ ` c. X4X5X0XqX2X_.+.` 0.A.T.T.E.E.E.&X=XP.-.` ` ( K m l b b j y j y y y y y y y y y y p p k k k k k p p p p p j k k k l v v k k k l l l l b m Z m Z m k e . <X0X0Xm.b.b.m.G.m.n.n.n.n.b.b.b.k.k.k.k.b.n.n.n.n.n.n.b.b.b.k.k.k.h.h.k.k.h.h.h.h.t.t.r.r.r.e.e.e.e.r.e.e.6.3.3.$.$.#.#.#.....| | ( / / / / ^ ^ ^ E E E E E Y Y F F D D D V V V V N N x x x x x x x x x x z z c c c c c k 7 7 <XuX&Xv.P.P.P.P.P.P.P.P.A.A.V.V.V.V.V.v.M.v.c.c.c.d.s.i.i.w.q.] : N pX~.r.6.%.G F E H * 7 5 0 7 e w k E ",
"#.G.e.8.e.e.r.r.r.r.h.n.U.n.b.J.H.H.H.G.n.n.m.G.U.Y.Y.T./.Y.H.U.~.Y.U.U.Y.^.U.H.U.U.U.U.U.U.U.U.U.U.U.H.H.H.H.H.H.H.H.H.H.H.H.H.H.H.H.H.H.G.G.H.G.G.n.n.n.G.U.U.U.U.U.U.H.H.H.H./.~.Y.U.H.H.G.G.n.n.n.n.n.m.n.n.n.n.n.n.n.n.G.G.n.n.n.n.n.n.n.n.n.n.n.n.n.n.n.n.G.G.G.H.U.U.U.H.H.H.H.H.H.H.G.G.H.H.H.G.G.G.H.H.H.G.G.G.n.n.n.n.k.M.M.M.b.k.k.k.0.e.y.&.( ( c X O.2XuXuX%XV.v.q.@.+.` -.c.v.c.P.#Xv.+.] @.@.] ` q.c.Q.wXuXqX$Xw.@.@.-.>.,.,.-.-.q.,.>.-.-.-.-.-.-.=.@.@.+.[ [ ] [ [ [ +.+.+.[ +.@.-.>.q.q.q.q.>.-.@.` @.v.I.P.P.5XqXyX_.;.+.' ` ` ` ` ` ] [ +.+.+.w.w.+.O.-.@.K I S ~ -.-.@.@.+.-.q.@.S l A S v S m l j p y y y y y y y y y y y p p p k k k j p j p p p p p p j k l l v v k k k l l l b m m Z Z G j Z e * O.+X<XU.H.G.G.G.n.b.n.n.b.b.b.b.k.k.k.b.n.m.G.n.n.b.b.b.b.b.k.k.h.h.h.h.h.h.t.r.r.r.r.e.e.e.e.e.e.e.e.e.6.3.3.$.$.$.#.......| | ( / / / / ^ ^ ^ E E E E Y Y Y F F D D V V V V V N N N c c x x x x x x x x z z c c c c c c y k 1XpX#XE.P.P.P.P.P.P.A.A.A.A.V.V.V.V.v.v.M.v.c.c.c.d.s.i.i.w.-.O.> z 6Xt.O.G ) I e 1 G ] O.Q ! I ( G * = ",
"k.>Xn.h.r.r.e.8.r.r.h.n.H.b.k.H.n.n.n.b.b.b.n.G.U.Y.U.Y.~.U.H.Y.Y.U.G.H.Y.T.Y.H.Y.U.U.U.U.U.U.U.U.U.U.H.H.H.H.H.H.H.H.H.H.H.H.H.H.U.U.Y.U.H.H.H.G.G.n.n.m.H.U.Y./.~.Y.U.U.Y.Y.T.~.~.Y.U.H.G.G.m.n.n.n.m.G.G.m.n.n.n.n.n.n.n.m.G.n.n.n.n.n.n.b.b.n.n.n.n.n.n.n.n.G.G.G.H.U.U.H.H.G.G.G.G.G.G.G.G.H.H.H.G.G.G.H.H.G.G.G.G.n.n.n.n.b.b.b.b.k.h.r.r.M.) ( y.G X w w.9XuX-Xw.! ! @._ @.@.] ` ! K ` q.u.c._.4XyXyXyXuX0XwXyXuX4XP.w.w.@.@.-.>.,.>.-.=.,.>.-.-.-.-.-.-.=.@.@.+.+.[ ] ] [ [ [ +.+.+.+.+.%.-.>.q.q.0.>.>.-.>.=.[ @.q.V.`.5X-Xd.@.=.` ! =.] _ _ _ [ [ _ ~ I ~ ~ ! I ! ! I ~ S S L A M S S l A L S A b n l y v l k y y p k y y y p p p p p p j k k k k p p p p p p p p p p v v v v v v l l b b b b A A Z Z Z l Z w > 7 <X8XR.G.n.n.n.n.b.n.b.b.b.b.k.k.k.k.b.n.n.m.n.b.b.b.b.b.b.k.k.h.h.h.t.t.r.r.r.r.r.r.r.r.r.r.e.e.e.e.6.6.3.$.$.$.#.#.....| | ( / / / / ^ ^ ^ ^ E E E Y Y Y G F F D D V V V V N N N c N N c c c c N N N x c c c N N c c k w p 8XpX%XE.P.P.P.P.P.P.A.A.A.A.V.V.V.V.v.v.v.v.c.c.c.c.s.i.u.i.-.&.j : 6.^ H I S 9 7 t.0XsX9X5X9X0X9X[.K y ",
"H.9XJ.h.r.h.e.e.r.h.k.n.H.n.k.G.k.k.k.k.k.b.n.G.U.U.U.Y.~.U.G.Y.Y.H.G.U.Y.Y.Y.U.Y.Y.U.U.U.U.U.Y.U.U.U.U.H.H.H.H.G.G.G.G.G.G.G.G.H.U.Y.Y.U.H.H.H.G.n.m.G.H.U.Y.T./.~.Y.U.U.U.Y.~.Y.U.U.H.G.n.n.n.n.n.n.G.H.H.G.n.n.n.n.n.n.n.n.n.n.n.n.n.n.b.b.b.b.n.n.n.n.n.n.n.m.m.m.G.H.H.G.m.G.G.G.G.G.G.G.G.H.H.H.H.H.H.H.H.G.G.G.G.G.n.n.b.b.b.b.k.t.e.$.#.( Y c : * *.3XuXuX X] ~ -.+.` ! ~ ~ ] @.-.=.@.+.@.@.q.c.V.v.v.V.V.I.V.s.q.-.@.-.=.-.>.>.>.>.-.=.>.-.-.=.=.-.-.-.@.@.@.+.[ ] ] ] [ [ [ +.+.+.+.+.%.%.>.q.q.>.-.-.] @.-.=.[ ` +.@.<.=.L _ ! _ [ _ ] ] ] ` _ _ _ _ ! ! ~ ~ U K L K I S I ~ I K I K I L S S A b b S Z l f y l n k 9 p p p p p k k k k k k k k k k k k p p p p p p j l l l l l l l l b b m Z A A S Z Z Q j e : Z pXiXU.m.b.n.n.n.b.b.b.b.b.k.k.k.k.k.k.b.n.n.b.b.k.k.b.b.b.k.k.h.h.h.r.r.r.r.r.r.e.e.r.r.r.r.e.e.e.6.6.3.$.$.$.$.#.#.....| | ( / / / / / ^ ^ ^ E E E Y Y Y G F F D D V V V V N N N c N N N V V V V N N N c c V Z Z Z c e 7 7 9XpX2XA.P.P.P.P.P.A.A.A.A.A.V.V.V.V.v.v.v.c.c.c.c.c.s.i.w.d.0.%.G * 5 v Z - = _ Q.qXwX2Xs.c.V.A.V.-.k - ",
"H.iXH.r.8.h.e.e.e.k.k.k.G.n.k.b.k.k.k.b.b.n.m.G.H.U.U.~./.H.m.U.Y.H.G.U.Y.Y.U.U.U.U.U.U.U.U.U.U.U.U.U.U.U.H.H.H.G.G.G.G.G.G.G.G.G.U.Y.Y.H.H.H.H.m.m.m.G.H.U.U.Y.U.U.H.H.G.H.H.U.H.H.H.G.n.n.n.n.n.n.m.G.H.G.G.n.n.n.n.n.n.n.n.n.n.n.n.b.b.b.n.n.b.n.n.n.n.n.m.m.G.G.m.G.G.G.m.n.n.n.n.n.n.n.n.n.G.G.H.H.H.H.H.H.G.G.G.G.m.n.n.b.n.b.k.r.6...G c w ; > c x.9XpX<X-.! I _ ` K S -.-.` ! I ! ` ] ! ] ` ~ ` @.-.+.` [ @.+.] -.w.,.-.>.>.>.>.-.-.-.-.-.-.=.=.-.-.-.-.@.@.+.+.[ [ ] [ [ +.+.+.+.@.@.@.-.-.-.q.q.-.@.@.-.[ ] ] [ @.@._ _ @.] [ I @.-.~ ] ] [ ] ` _ ] [ _ ~ ! ! U I I ! _ K K K M M L S S A b m S A m n l l n l p y p l j j k k k k k v v k k k k k v v k k p p p p j j l l l l l l b b m m Z A S S H Z Z Q j e , T.pXaXR.H.m.m.n.b.b.b.b.b.b.k.k.k.k.h.k.k.b.b.k.k.k.k.k.k.k.k.h.h.h.h.r.r.r.r.r.r.e.e.e.e.e.e.e.6.6.3.3.3.$.$.#.#.#.....| | | | / / / / / ^ ^ ^ ^ E E Y Y Y Y F F D D V V V V N N N N N V V D D D V V V N c N Z D Z D c 7 > I uXuX<XV.P.P.P.P.P.A.A.A.A.A.V.V.A.V.v.v.v.c.c.c.c.c.s.i.u.s.q.>.&.N q Q K i..XwXuXuX X-.@.=.=.@._ L b 1 ",
"Y.iXY.r.6.g.8.7.7.k.h.h.b.M.h.h.k.k.b.b.n.n.G.H.H.U.Y././.H.n.H.Y.H.H.U.Y.U.U.U.U.U.U.U.U.U.U.U.U.U.U.U.U.H.H.H.G.G.G.G.G.G.G.G.G.H.U.H.G.m.H.U.m.n.n.G.G.G.H.H.H.G.G.G.G.G.G.G.H.H.G.G.m.m.n.n.n.n.m.G.G.G.m.n.n.n.n.n.n.n.n.n.b.b.b.b.b.n.n.m.n.n.n.n.n.n.m.G.H.H.G.G.G.G.m.n.n.n.n.n.n.n.n.n.G.G.G.H.H.H.H.G.m.G.G.G.m.n.n.b.n.b.h.e.$.G w * c &.&XyXqX8X{.` ! ~ +.K ! +.! ` ~ ` [ ` ! ] @.` ` +.@.[ ` ] +.@.-.[ @.-.>.>.@.>.q.q.,.>.-.-.-.-.-.-.-.=.-.-.-.-.+.+.+.[ [ [ [ [ +.+.+.+.@.@.@.@.-.-.-.q.q.-.@.@.+.+.=.=.] ] @.[ [ [ U ] ] [ A ] ~ ~ ~ _ ] ] ` ~ ~ ~ ~ ! ! ! I K K L I ! K S S M S L K A m A A m m l l l l k k k k k k k v l l l l v k k k v l l k j k p p j j k l l l l l l b b m M A A S S H Z Z Z c w > 8XpX9XH.G.n.n.b.b.n.G.b.b.b.k.k.k.h.h.k.k.k.k.k.h.k.k.h.h.h.h.h.h.h.t.r.r.r.r.r.r.e.e.e.e.e.e.6.6.3.%.3.%.$.#.#.#.#.....| | | | / / / / / / ^ ^ ^ E E Y Y Y Y F F D D V V V V N N N N N V D F F D D V V N N N Z D Z Z k e : I.pXuX[.P.P.P.P.P.P.A.A.A.A.A.V.V.V.V.V.v.v.c.c.c.c.c.s.i.i.w.w.@.y.y./ x.%XwXuXuX.Xs.` =.` @.@.-.` I A + ",
"*XiX^.6.g.h.2.g.7.7.g.b.n.k.k.b.k.k.k.b.n.H.H.G.U.Y.Y.Y.~.H.m.U.H.U.U.Y.Y.Y.Y.Y.Y.T.~.~.~./././.~.~.T.Y.U.U.H.H.H.H.H.G.G.G.G.G.H.H.H.H.H.H.G.G.n.n.n.m.m.G.G.G.G.G.G.m.n.n.n.n.G.G.G.m.m.m.m.G.n.n.F.F.m.n.n.n.G.n.n.n.n.n.n.n.b.b.b.b.b.b.b.b.k.b.b.b.n.G.G.m.H.H.G.G.m.n.n.n.m.m.n.n.n.m.G.G.U.H.G.G.G.H.H.G.m.m.m.m.n.n.b.b.b.b.x.$.) > F &XqXqX8X$Xc.` ! _ ~ ~ ~ ~ ~ ( ` ` ` ` ` ` ` ` ` ] ] [ +.@.+.] [ @.+.[ +.@.-.>.>.>.q.>.@.@.@.-.-.-.q.,.-.-.-.-.=.@.=.@.@.+.[ ] ] [ [ ] ] +.@.-.-.@.>.>.,.q.q.=.@.@.@.@.+.+.+.+.+.+.[ [ ] ` ` ` ` ` ` ` ` _ _ ` ` ` _ _ ~ ~ ! ! ! ! ! Q I K K S S S S S S A A Z m m b b l l l k k k k k l l l b l l l l v k v l b b b l v k p k k l b b m b l l l l S K S A m Z G K G c Z > 7 0XeX*XG.n.n.n.n.n.b.b.k.k.k.k.k.k.k.k.k.k.k.k.k.k.k.k.h.k.k.k.k.k.h.h.r.r.r.r.r.r.r.r.r.r.e.6.6.3.3.$.$.$.#.#.#.......| | ( / / / / / / / ^ ^ ^ ^ ^ E E E Y Y G F D D D V V V V N N N V D D D F D D D N V V N V D D N v 3 V aXpX8X).A.P.P.P.P.A.A.A.A.A.A.A.V.V.V.v.v.c.c.c.c.c.s.i.i.s.q.q.w.q.>.v.[.uXqX$Xc.@.] +.+.+.@.@.+.` I p $ ",
"3.'.n.3.8.7.8.9.9.9.g.l.b.k.x.b.k.k.k.b.G.U.U.H.U.Y.Y.Y.~.U.G.U.H.U.U.Y.Y.Y.Y.Y.~.~.~.~.~.~.~.~.~.~.Y.Y.U.U.H.H.H.H.G.G.G.G.G.G.H.H.H.H.H.G.G.G.n.n.n.n.n.m.G.G.G.G.G.G.m.m.m.m.G.G.G.m.m.m.m.G.n.n.F.F.m.n.n.n.n.n.n.n.n.n.n.n.n.n.n.n.n.n.n.n.b.n.n.b.n.G.G.m.H.G.G.m.n.n.n.n.n.n.n.n.n.n.m.G.H.H.U.H.G.G.G.H.m.m.m.m.n.n.b.b.k.n.h.( Z 5 [.pX$XP.-.` ` _ ! K ! ! ! ~ ~ ` ` ` ` ` ` ` ` ` ` ] ] [ +.+.] ] ] +.+.+.@.-.>.q.q.q.>.-.-.-.>.q.q.q.w.q.>.-.-.-.@.@.@.@.+.+.[ [ [ [ +.+.+.@.@.-.-.-.>.-.>.q.>.@.+.@.@.@.@.@.@.@.@.@.+.[ ] ` ` ` ` ` ` ` ` ` ` ` ` ` _ ~ ~ ~ ~ ! ! ! Q Q I K K S S S S S S S A A m m b b b l l v k k k v l l b b b b l l l l l l b b b l v j p k k l b b b b l l l l k b j p H Z y p j j , > c pXpXR.G.n.n.n.n.n.b.b.k.k.k.k.h.h.k.k.h.h.h.h.h.h.h.h.h.h.k.k.k.h.h.t.r.r.r.r.r.r.r.r.r.e.6.6.3.3.$.$.$.$.#.#.#.......| | / / / / / / / ^ ^ ^ ^ ^ ^ E E E Y Y G F D D D V V V V V V V D D F F F D D V C V N z z c N x 3 0 H aXpX&XP.I.P.P.P.A.A.A.A.A.A.A.A.V.V.V.v.v.c.c.c.c.c.s.i.i.i.q.q.i.w.-.q.c.s.i.>.+.] @.-.-.+.@.@.+.O.~ v = ",
"5 E 6.7.9.8.j.8.9.9.g.h.k.k.x.M.k.k.b.m.U.Y.Y.U.U.Y.U.Y.~.U.G.H.H.H.U.U.Y.Y.Y.Y././.~.~.Y.Y.Y.Y.Y.Y.Y.Y.U.U.H.H.H.H.G.G.G.G.G.G.H.H.H.H.G.G.G.m.n.n.n.n.n.n.m.G.G.G.G.G.G.G.G.G.G.G.G.m.m.m.G.G.m.m.G.G.m.n.n.n.n.n.n.n.n.n.n.b.n.n.n.n.n.n.n.n.m.G.m.n.n.G.G.G.G.G.m.n.n.n.n.n.b.b.b.n.n.n.m.G.G.U.Y.U.G.n.m.H.F.m.m.n.n.n.b.b.b.b.0./ N 3 <X&X5.` K S K ! ! U ! ! ! ~ ~ ` ` ` ( ` ` ` ( ` ` ] ] ] ] ] ` ` ] [ +.@.@.-.,.q.w.q.>.>.>.q.q.w.q.q.q.,.>.-.-.-.@.+.@.+.+.+.+.+.+.+.[ +.@.@.@.@.-.-.>.-.>.>.-.@.+.@.+.+.@.@.@.@.@.+.+.[ ] ` ` ` ` ` ` ] ] ] ` ` ` ` ~ ~ ~ ~ ~ ! ! ! Q Q I K K K S S S S S S S A Z m b b b b l l v v k v l l l b b b l l b b b b b b l l k p j k k l b b b b l l l l b l b l 9 7 w j j 7 j c pX9XpXn.m.n.n.b.b.b.b.k.k.k.k.h.h.h.h.h.t.h.t.t.h.h.h.h.t.h.h.h.h.h.r.r.t.t.r.r.r.r.r.r.e.6.6.3.3.%.$.$.$.#.#.#.........| ( / / / / / / / ^ ^ ^ ^ ^ E E E E Y Y F F D D D V V V V V V V F F F F D D V V x N N N C F D V j 3 T.pX0X`.T.A.P.P.P.A.A.A.A.A.A.A.A.V.V.V.v.v.c.c.c.c.c.s.i.i.i.w.q.w.w.>.-.-.-.>.>.-.@.@.@.] &.@.+.+.@.] Z 7 ",
"& 0 F / 7.8.j.9.g.g.g.g.h.k.b.n.b.k.b.H.Y.Y.U.U.H.Y.U.U.Y.U.G.H.H.H.U.U.Y.Y.Y.Y.~.~.Y.U.U.U.U.Y.Y.Y.U.U.U.U.H.H.H.H.G.G.G.G.G.m.G.G.G.G.G.G.m.n.n.n.n.n.n.m.G.G.G.G.G.G.G.H.H.H.G.G.G.m.m.G.G.G.n.n.m.F.n.n.n.n.n.n.n.G.G.G.n.n.n.n.n.n.n.n.n.n.G.G.m.n.n.G.H.H.m.m.n.n.n.n.n.n.b.b.b.n.n.n.G.G.H.U.Y.U.H.m.n.G.F.n.n.n.n.n.b.b.b.b.0.2.Z % t.O.R ! ` ` ! K U ! ! ! ! ~ ~ ( ` ` ~ ( ` ( ~ ~ ` ` ] ] ] ` ` ] ] ] +.+.@.-.,.q.q.q.q.q.q.q.q.,.>.-.-.-.=.-.-.-.@.@.+.+.+.+.+.+.+.+.] +.@.@.@.@.=.-.-.-.-.-.@.+.+.@.+.@.@.-.-.=.@.+.+.[ ] ` ` ` ` ] ] ] ] ] ] ] ` ` ~ ~ ~ ~ ~ ~ ~ ~ Q Q I I K K S S K K S S S S A A m b b b l l l l k k k k k l l l k l l b m m m m l l k k k k l l b b b l l l l l y y y 7 * X : 7 7 7 w 9XiXpX2X/.n.n.b.b.b.b.k.k.k.k.h.h.r.r.r.r.r.r.r.r.r.r.r.r.r.r.t.t.t.r.r.r.t.t.t.r.r.r.r.r.e.6.3.3.%.$.$.#.#.#.#.......| | ( / / / / / / / ^ ^ E E ^ ^ E E E Y Y Y F F D D V V V V V V D D F F F F D D V V C V x B N N z s 5 c aXaXtX).t.Q.P.P.P.A.A.A.A.A.A.A.V.V.V.V.v.v.c.c.c.c.s.s.i.i.s.i.w.q.q.q.q.-.-.>.>.-.@.@.@.+.@.@.+.+.@.O.K l ",
"c q 5 6  .$.8.j.g.g.r.r.h.k.M.M.n.b.n.H.Y.U.H.H.H.U.H.H.Y.U.G.G.H.H.U.U.U.Y.Y.Y.~.Y.Y.U.U.U.Y.Y.U.U.U.U.U.H.H.H.H.G.G.G.G.G.m.n.m.G.G.G.G.n.n.n.n.n.n.n.m.G.H.H.m.G.G.G.H.H.H.H.G.G.G.m.m.m.F.G.n.n.n.n.n.n.n.n.G.G.G.G.H.G.m.n.n.n.n.n.n.n.n.n.n.m.n.n.n.H.U.H.n.n.n.n.b.b.b.b.n.n.n.n.n.m.G.G.H.H.U.U.U.H.G.n.F.F.n.n.n.b.b.b.h.b.g.h.F ; Z O.( ! ! I K U U I I Q ! ~ ~ ( ( ( ~ ~ ( ~ ~ ~ ( ` ` ] ] ` ` [ [ ` +.+.@.-.q.q.q.q.q.q.,.>.-.-.-.-.-.-.-.-.-.-.@.@.+.+.+.@.@.@.@.@.+.@.@.=.@.@.-.>.-.-.-.@.@.@.@.@.-.-.>.q.q.>.-.@.+.+.] ] ` ] ] ] ] ] ] [ ] ] ` ` ( ( ~ ~ ~ ~ ~ ! Q I I I K K K S K K K S S S A A m m b b b l l l k k k k k k v k k l l b b b b l l l k k k v l l b b b b l l k j 7 p # O G XX0X0X2XiXaXpXpX2Xn.G.n.n.b.b.b.k.k.h.h.h.h.r.r.r.r.r.r.r.r.r.r.r.r.r.r.r.r.r.r.r.r.r.t.r.r.r.r.e.e.e.e.6.3.%.%.$.$.$.#.#.#.....| | | / / / / / / ^ ^ ^ ^ E E E E E Y Y Y Y Y F F D D V V V V V V D D D D D F D D D V D N v z x v g w 5 F pXpX#XL.).A.P.P.P.A.A.A.V.V.V.V.V.V.V.v.v.v.c.c.c.c.s.s.s.i.i.s.i.q.q.w.w.q.@.-.-.@.@.-.-.-.@.@.+.O.O.] ~ I ",
"( N 0 : E g.g.g.g.g.g.g.h.b.m.m.G.b.n.U.Y.H.G.G.H.U.H.H.Y.Y.G.G.H.H.H.U.U.Y.Y.Y.Y.Y.Y.Y.Y.Y.Y.T.U.U.U.U.H.H.H.H.G.G.G.G.G.G.n.n.m.m.G.G.G.G.m.n.m.m.n.n.m.G.H.U.G.G.G.G.H.H.H.H.G.G.G.m.m.m.F.G.n.n.G.G.G.G.G.G.H.H.H.G.H.G.m.n.n.n.n.n.n.n.n.n.b.n.n.b.n.G.H.H.n.n.n.n.b.b.n.n.n.n.n.n.n.m.G.G.H.H.H.H.U.H.F.b.F.n.n.n.b.b.b.b.b.k.r.b.| x 7 G G K K K K ! ! U I ! ! ~ ~ ~ ~ ~ ~ ~ ~ ~ ~ ~ ~ ` _ ] ] ` ] @.+.` @.@.-.>.q.w.w.q.>.>.-.-.=.-.-.,.q.q.,.>.>.-.=.@.@.@.@.@.@.@.@.@.@.@.-.-.-.-.-.>.=.-.-.=.@.=.-.-.-.>.,.q.,.-.=.@.+.+.] ] ] ] ] [ ] ] ] ] ] ` ` ` ` ` ( ~ ~ ~ ! ! ! I I I K K K K K K K S S S A A m m b b l l l l k k k k k v l l l l b b b l l k l l v v v l n b b b b b b l p y v O H 2XuXuXpXuXpXaXpX0X*X~.G.h.n.b.b.k.k.k.h.t.h.t.r.r.r.e.e.e.r.r.r.r.r.r.r.r.r.r.r.r.r.r.e.e.r.r.r.e.e.e.e.e.6.6.3.$.$.$.$.#.#.#.....| | | ( / / / / / ^ ^ ^ ^ E E E E E E Y Y Y Y G F F D D D V V V V V V V V V D D D D D D N N N N z q 3 > ( 8XaXpX#XH.T.L.I.P.P.P.A.A.A.A.V.V.V.V.V.v.v.v.v.c.c.c.s.s.s.s.w.i.s.i.w.w.q.q.q.w.w.0.>.-.-.@.@.@.+.O.] ] ] ] ",
"O.Q G g V J.U.7.g.g.g.g.h.b.G.m.H.n.n.U.Y.H.G.H.H.Y.U.H.Y.Y.H.G.G.H.H.U.U.U.U.Y.Y.Y.Y.Y.Y.Y.Y.Y.U.U.U.H.H.H.G.G.G.G.G.G.G.G.n.n.m.m.G.G.G.G.G.m.m.n.n.n.n.G.H.U.G.G.G.G.G.G.H.H.G.G.G.m.m.n.n.G.n.m.G.H.H.H.U.U.U.H.H.G.G.G.n.n.n.n.n.n.n.n.n.n.b.n.n.b.n.G.G.G.n.n.n.n.n.n.n.n.n.n.n.n.n.n.n.m.G.H.H.H.H.G.n.n.G.n.n.b.b.b.b.b.F.h.r.k.r.| w , c G ~ ~ U U ! ! Q ! ! ~ ~ ~ ! ! ! ~ ~ ~ ! ! ~ ( ~ ] [ ] +.-.@.] @.@.-.>.q.w.q.q.-.>.>.-.-.-.,.q.i.w.q.,.>.>.-.=.@.@.=.-.=.@.@.@.@.@.@.@.-.-.-.-.@.-.>.-.-.>.>.-.-.-.>.>.-.=.@.+.+.+.[ ] ] ] [ +.[ ] ] ` ` ` ` ` ` ` ` ( ~ ! ! ! Q I I I K K K K K K K S S S A A m b b b l l l v k k k k k k v l l l l b b l l l l l l l l l b b b b b b b v y 9 o ) 0XpXtXpXpX{.[.'.+XY.'.n.t.H.n.b.k.k.k.k.h.r.r.r.r.e.e.e.e.e.r.r.r.r.r.r.r.r.r.r.r.r.e.e.e.e.r.r.e.e.e.6.6.6.6.3.$.$.$.$.#.#.#.......| | ( / / / / / / ^ ^ ^ ^ E E E E E Y Y Y Y Y G F F D D D V V V V V V V V V V D D D V V N V V j 7 > g F 1XpXpXtXQ.A.`.m.I.I.P.P.P.A.A.A.V.V.V.V.V.v.v.v.v.c.c.s.s.s.s.s.i.i.i.s.i.q.q.q.-.>.>.-.-.>.-.@.&.+.O.O.[ O.] ] ",
"%.O.( g > Y.>Xz.g.g.g.g.k.n.G.m.H.n.n.U.Y.H.H.H.H.Y.U.H.T.~.U.G.G.H.H.U.U.U.U.U.U.U.U.U.U.H.H.H.U.U.U.H.H.G.G.G.G.G.G.G.G.m.n.n.m.m.G.G.G.G.G.G.n.n.n.n.n.G.H.U.G.G.G.G.G.G.G.G.G.G.G.m.m.n.F.G.G.G.H.H.U.U.Y.Y.Y.U.H.G.m.n.n.n.b.b.b.b.b.b.b.b.b.n.n.b.n.n.n.n.n.n.n.n.n.n.n.n.n.n.b.b.b.n.n.n.n.G.U.H.m.n.n.G.G.n.n.b.b.b.b.b.k.k.G.b.h.$.R * S I ! I K K I I I ! ! ~ ~ ! ! ! ! ~ ~ ~ ! ! ~ ( ~ ] +.] @.>.-.] @.@.-.>.q.q.>.>.>.>.,.>.>.>.,.q.w.q.,.>.>.>.-.-.=.=.-.-.-.=.@.@.+.+.] +.@.=.@.@.@.-.>.-.-.,.q.>.>.,.,.>.-.=.@.+.+.+.[ ] ] ] [ +.+.[ ] ` ` ` ` ` ] ` ` ( ~ ! ! ! Q I I I K K K K K K K S S S A A b b b b l l v v k p p p p p k k k k l l b b m m l l l l l b b b b b b m b v y 7 # &XpXtXaX#Xy.T.T.n.Y.n.G.h.H.b.n.b.k.k.k.h.t.r.r.r.e.e.e.e.e.e.r.r.r.r.e.e.r.r.r.r.r.e.e.e.e.r.e.e.e.e.6.6.6.6.3.$.$.#.#.#.#.#.........| | / / ^ / / / / ^ ^ E E E E E E E Y Y Y Y Y G F D D D D V V V V N N N V V V V V V V V V N g 5 7 Q [.pXpXpXpXL.).P.P.).T.I.P.P.P.A.A.A.V.V.V.V.V.v.v.v.v.c.c.s.s.s.s.s.c.i.w.i.i.q.q.w.w.w.q.>.-.>.-.-.@.O.] O.@.@.] ` ",
"@.] ( F o k.iXJ.z.k.g.g.k.F.G.n.H.b.n.U.Y.U.G.H.H.H.Y.~.~.U.U.U.T.T.Y.Y.Y.Y.Y.Y.U.U.U.U.U.U.U.U.U.H.H.H.H.H.G.m.n.n.m.G.G.m.n.n.G.m.n.n.G.G.G.G.n.m.G.n.n.n.H.Y.G.H.H.m.n.G.G.m.G.G.G.m.m.G.m.m.H.m.n.m.H.U.H.G.H.H.G.G.n.n.b.b.n.b.b.b.b.b.b.b.b.b.b.b.n.n.n.n.b.b.b.n.n.n.n.n.n.n.n.n.n.n.n.n.n.G.G.G.G.m.m.G.n.n.n.n.n.b.b.b.n.b.n.b.k.k.&.V : ] ! ( ! K I ! I I Q ! ! ! ! ! ! I I I ! ( ` ( +.] [ @.+.] ] @.@.-.-.-.,.w.w.,.>.>.>.>.,.q.q.q.w.i.i.w.,.-.-.-.-.-.-.-.-.-.-.-.+.@.=.-.>.>.-.=.+.-.q.,.>.>.>.>.q.q.,.>.>.-.=.@.@.+.+.[ ] ] ] ] +.] ] ] ] [ +.+.O.] ` ` ~ ~ ! Q Q Q I I I I K K I K K S S A Z m b b b b l l k k k k k k k k k k l l l b m A A b b b b l l l b b S v A S A y j + Z uXpX0XR.L.L.L.H.H.H.G.F.n.n.b.b.b.k.k.k.h.r.r.r.e.e.e.e.e.e.e.e.e.e.e.r.r.r.r.r.r.r.r.e.e.e.e.e.e.e.6.6.3.3.%.%.%.$.$.#.#.#.#.........| | ( / / / / ^ ^ ^ ^ ^ Y Y Y Y Y G F F Y Y G G F F D D D D V V V V V V V V V V V V V V v Z q > D aXyXpXuX4X[.T.T.E.E.T.I.I.P.P.P.P.P.A.A.A.A.V.V.V.v.v.c.c.c.c.s.s.s.s.s.i.i.i.w.w.w.w.q.q.q.>.>.-.-.-.@.@.+.O.] O.+.+.",
"+.` ` G , %.7X~.g.g.g.k.b.G.H.H.H.n.G.Y.Y.H.G.H.U.U.T././.Y.Y.~.Y.U.U.U.Y.Y.Y.Y.U.U.U.U.U.U.U.U.U.H.H.H.H.G.G.m.n.m.G.G.G.m.n.n.G.m.n.n.m.G.G.G.n.G.H.H.H.H.U.U.n.n.n.n.n.G.G.G.m.m.G.G.H.H.U.U.U.H.G.H.U.Y.U.H.H.H.G.G.n.n.n.b.n.b.b.b.k.k.k.k.k.b.b.b.b.n.n.n.b.b.n.n.n.n.n.n.n.n.n.n.n.n.n.n.m.G.H.G.G.m.m.G.n.n.n.n.n.b.b.b.b.b.n.b.k.b.0.P 7 c ] Q I ! K K ! ! ! ! ! ~ ~ ~ ( ~ ~ ~ ` ` ` ` +.] ] +.@.+.@.-.@.-.-.-.,.w.w.q.>.>.>.,.q.q.q.q.u.u.w.w.q.>.>.>.-.-.-.-.-.>.>.,.-.-.-.-.-.=.@.+.+.-.q.>.>.>.q.,.q.q.>.>.>.-.=.@.@.+.+.[ ] ] ] ] ] +.@.@.@.@.+.] ] ] ` ( ~ ~ ! Q Q Q I I I I K K I K K S S A A Z b b b b b l k k k k k k k k k k k l l l b m m b b b b b b b m m S A K m b y < o `.uXpXT.L.G.L.~.H.H.H.G.F.n.n.b.b.b.k.k.h.t.r.e.e.e.e.6.6.6.6.6.6.6.e.e.e.e.e.e.e.e.e.e.e.e.6.6.6.6.6.6.3.3.$.$.%.$.$.$.#.#.#.........| | ( / / / / / ^ ^ ^ ^ ^ Y Y Y Y Y Y F F F F G F F F D D D D V V V V V V V V V V V V V V N j e 7 '.pXpX0X#X`.E.T.Q._._.).E.I.P.P.P.P.P.A.P.A.A.V.V.V.v.v.c.c.c.c.s.s.s.s.s.s.i.i.w.w.w.w.q.q.q.>.>.-.-.-.@.+.+.O.O.O.+.+.",
"[ ` ] G 7 H +XOXg.k.z.n.F.G.H.U.H.G.U.Y.Y.H.G.H.U.Y.~././.Y.~./.U.U.U.U.Y.Y.Y.T.Y.Y.U.U.U.U.H.H.U.H.H.G.H.G.G.n.m.G.G.G.m.n.n.n.G.m.m.m.m.G.G.G.G.G.G.H.H.U.U.U.m.G.G.n.n.G.G.m.n.n.m.G.H.U.Y.Y.U.U.H.U.Y.Y.Y.U.H.H.G.G.n.n.n.b.n.n.b.b.k.k.k.k.k.k.b.b.b.b.n.n.b.b.n.n.n.n.n.n.n.n.n.n.n.n.n.n.G.G.H.H.G.m.m.G.n.n.n.n.n.b.b.b.b.z.n.M.k.n.h.&.c > &.( I ~ K I ~ ~ ~ ~ ~ ( ` ` ] ] ] ] O.O.] ` +.] ] +.@.=.>.q.@.-.-.-.,.w.w.q.q.q.q.q.q.q.q.q.i.w.q.q.q.q.,.>.-.-.-.-.-.>.>.,.>.>.>.-.-.=.@.@.@.>.q.,.>.q.q.q.q.,.>.-.-.-.-.@.@.+.+.[ ] ] ] ] ] [ @.@.=.@.@.+.] ` ` ( ~ ~ ! Q Q Q Q I I I I K K K K S S A A Z m m b b b l l k l v v k k k k k j l l l l b m b l b b m m Z A A m A S b l y = Z pXpX9Xk.T.H.U.H.H.H.G.G.F.n.b.b.b.b.k.h.h.r.r.e.e.e.6.6.6.6.6.6.3.6.6.6.6.6.e.e.e.e.6.6.6.6.6.6.6.6.3.3.%.$.$.$.$.$.$.$.#.#...........| | / / / / / / ^ ^ ^ E E Y Y Y Y Y Y F F F F F F F F F D C D V V V V V V V V V V V V V V D g 7 w tXuXuX[.T.E.Q.)._.).Q.Q.E.E.I.I.I.I.I.I.P.P.A.A.V.V.v.v.c.c.c.c.s.s.s.s.s.s.i.i.i.w.w.w.w.q.q.0.>.-.-.@.@.@.+.+.O.+.+.@.",
"[ ] +.K k 7 U.,XF.l.l.F.H.J.U.Y.H.U.Y.~.Y.H.H.U.U.Y././.Y.Y.Y./.Y.Y.Y.Y.Y.T.~.~.Y.Y.U.U.U.H.H.H.U.H.H.G.G.G.G.n.m.m.m.n.n.n.n.n.n.m.G.G.G.H.H.U.Y.U.G.G.H.Y.Y.Y.Y.Y.U.H.G.G.m.n.n.m.m.m.G.G.H.H.H.H.G.H.H.U.U.H.H.H.G.G.n.n.n.b.n.b.b.k.k.k.k.k.k.k.k.k.b.b.b.b.b.b.b.n.n.n.n.n.n.n.n.n.n.n.n.n.m.G.G.G.m.n.n.m.n.n.n.n.n.n.b.b.z.z.n.M.k.n.n.y.Q , ] s.~ ~ ! ` ` ( ~ ~ ` ` ] +.O.+.+.@.@.+.] ` [ ] ] +.=.-.>.q.-.-.-.-.>.w.w.q.q.w.w.w.w.w.w.w.w.q.>.>.q.q.q.>.-.-.-.-.-.-.-.-.>.>.>.>.>.>.>.>.>.q.q.q.,.q.w.q.q.>.-.-.-.-.-.=.@.@.+.+.] ] ] ] ] ] ] ] +.@.@.-.] ` ` ( ~ ~ ! ! ! ! Q I I I I I K K K S S A A A m m m b b l l l l l l l v k k k k l b l l b Z A b b m m A A A A A b m A l 8 = V.pXpXT.H.T.L.U.k.G.G.F.F.F.n.b.z.b.b.k.h.r.r.e.e.e.e.6.6.3.3.3.3.3.3.3.3.6.6.6.6.6.6.6.6.6.3.3.3.3.3.3.%.$.$.$.$.$.$.$.#.#...........| | ( / / / / ^ ^ ^ ^ E E E Y Y Y Y Y G F F F F F F F F F F V V V V V V V V N N N N N N N N Z c 7 k 0XaX<XQ.`.`._.Q.E.I.I.T.E.T.I.P.I.I.I.I.P.P.P.A.V.V.v.v.v.v.c.c.s.s.s.s.s.s.s.i.i.w.w.w.w.w.q.0.>.-.@.@.@.@.+.+.+.+.@.@.",
"[ [ @.I Z * n.eX^.F.z.F.U.U.U.Y.U.Y.~.~.Y.H.U.Y.~././.~.Y.U.Y.~.~.~.~.Y.Y.Y.Y.Y.U.U.U.U.H.H.H.H.H.H.G.G.G.G.m.n.n.n.n.n.n.n.n.n.n.G.H.H.H.U.Y.~./.Y.U.U.Y./././.~.~.Y.H.G.G.G.n.G.G.m.n.n.n.n.m.G.G.G.G.G.G.G.G.G.G.G.n.n.n.b.b.b.b.b.k.k.k.k.k.k.k.k.k.k.k.b.b.b.b.b.b.b.b.b.n.b.n.n.n.n.b.M.M.n.n.G.G.n.n.n.m.n.n.n.n.n.n.b.b.b.z.n.M.k.M.n.t.O.7 P XX>.~ ~ [ ` ` ( ( ` ] +.+.] +.@.@.@.+.] ] ] ] +.@.-.>.-.-.-.-.-.-.>.w.w.q.w.w.u.i.u.u.w.w.q.q.>.>.q.q.,.>.>.-.-.-.-.-.-.-.,.,.>.>.,.q.q.q.q.u.u.q.q.q.q.q.,.>.-.-.-.-.-.-.@.@.+.+.[ ] ] ] +.+.[ ] [ +.@.@.] ` ( ~ ~ ~ ! ! ! ! ! ! I I I I K K K S S S A A Z m m b b b l l b b b l l l l l k b b l l b Z A m m m A A A Z m K A A S b 8 o q.8X0Xx.U.n.H.H.G.F.F.F.n.n.n.l.z.b.k.h.r.r.r.e.e.e.e.6.6.6.3.3.3.3.3.3.3.6.6.6.6.6.6.6.6.3.3.3.3.3.3.%.$.$.$.$.$.$.$.#.#.#.........| | ( / / / ^ ^ ^ ^ ^ E E E E Y Y Y Y Y G F F F F F F F F F D D D V V V V V V N N N N N N N N c k e j 2XpX$X[._.E.I.P.P.I.W.W.E.T.I.P.P.P.P.P.P.P.P.A.V.V.V.v.v.v.v.c.c.c.s.s.c.s.s.i.i.i.w.w.w.w.q.q.>.-.-.@.@.@.@.@.@.@.@.@.",
"[ ] [ ! G , n.pX(.F.k.G.Y.U.H.U.U.Y.~.Y.Y.U.Y././.'./.Y.U.Y.Y.Y.Y.Y.Y.U.U.U.U.U.U.U.U.H.H.H.H.H.H.H.G.G.G.G.m.n.n.n.n.n.n.n.n.n.n.G.H.U.U.U.T./.Y.U.U.Y././.T.U.U.Y.U.H.G.H.H.G.G.G.G.G.m.G.G.G.G.G.G.G.G.G.G.G.m.m.n.n.n.b.b.b.b.b.k.k.k.k.k.k.h.k.k.k.k.k.k.k.b.b.b.b.b.b.b.b.b.b.b.b.M.M.M.M.b.n.m.G.m.n.m.G.m.n.n.n.n.n.n.n.n.z.n.n.k.M.n.a.*.j l ;Xc.~ ~ ] ` ` ` ` ] O.+.@.] +.@.@.@.+.] ] ] +.+.@.-.>.-.+.-.>.>.-.>.w.w.q.w.u.i.i.i.w.w.q.q.,.,.q.q.q.>.>.-.-.-.-.>.>.q.q.q.q.q.q.q.q.q.q.w.i.i.w.q.q.q.>.>.-.-.-.-.-.-.=.@.@.+.+.[ ] ] ] @.@.=.-.@.+.] ` ` ` ~ ~ ~ ~ ! ! ! ! ! U I I I I K K K S S S S A A A m m b b b b b b b b b b b l l l l v v b Z A A A A A A Z m m A S K A A l o 1 T.T.T.G.H.H.b.H.n.n.n.n.n.b.l.z.k.h.r.r.r.e.e.e.e.e.6.6.6.6.6.6.3.3.3.3.6.6.6.6.6.3.3.3.3.3.%.%.%.$.$.$.$.$.#.#.#.#.#.#.......| | | | / / / ^ ^ ^ ^ ^ E E E E Y Y Y Y Y Y G F F F F F F F F D D D D V V V V V V N N N N N N N c c e j 7 8XpX&X).E.I.P.P.E.E.E.I.Q.E.E.T.I.I.P.P.P.P.P.A.A.V.V.V.V.V.v.v.c.c.c.c.c.c.s.s.i.i.i.w.w.w.q.q.>.-.-.-.@.@.@.@.@.@.+.+.",
"] [ ] ` S , h.iX/.n.l.H.Y.H.F.J.Y.Y.Y.Y.Y.Y./.'.'./.~.U.U.Y.Y.U.U.U.U.H.H.H.H.H.U.H.H.H.H.H.H.H.H.H.G.G.G.G.m.n.n.n.n.n.n.m.G.G.G.H.U.U.U.U.Y./.G.G.H.U.Y.Y.H.G.G.H.H.G.G.H.U.H.G.G.G.G.G.G.G.G.G.G.G.G.G.G.G.G.n.n.n.b.b.b.b.b.k.k.k.k.k.k.k.k.h.h.h.h.k.k.k.k.k.k.k.k.k.k.b.b.b.b.b.b.b.n.M.M.b.n.G.G.G.G.H.H.G.m.n.n.n.n.n.M.n.z.n.n.b.n.n.a.*.v 9 I.t.~ ! ~ ` ` ` ] +.+.@.@.@.@.-.@.@.O.] ] +.@.+.+.-.>.-.+.>.>.>.-.>.q.w.q.w.w.w.u.w.w.q.,.,.q.w.w.q.q.,.>.-.-.-.>.>.>.q.q.q.q.q.q.q.q.q.q.q.w.w.q.q.q.,.-.-.-.-.-.-.-.-.@.@.@.+.+.[ [ [ [ @.@.@.=.@.+.` ` ` ` ~ ~ ~ ~ ! ! ! ! ! U I I I I K K K K S S S S A A m m b b b b m m m m m m b b b b l k l m A A S S S A A A A A m A I S S A 9 . G #.R.L.Y.H.n.n.n.n.n.n.n.l.z.z.h.h.r.e.e.e.e.e.6.6.6.6.6.6.6.6.3.3.3.3.3.3.3.3.3.3.%.$.$.$.$.$.$.$.$.#.#.#.#.#.#.#.#.......| | | | ( / / ^ ^ ^ ^ ^ E E E E Y Y Y Y Y Y Y G F F F F F F F D D D D D V V V V V V N N N N N N N c N 7 e w sXpX<XP.E.E.E.E.Q.E.I.P.A.A.P.P.I.T.I.P.P.P.P.A.A.A.A.V.A.V.V.v.v.c.c.c.c.c.s.s.i.i.i.i.w.w.q.q.>.>.-.-.-.%.@.@.&.@.+.O.",
"] [ ' ` Z # 6.0XY.b.z.J.Y.n.n.H.Y.Y.Y.U.Y.~.'.]./.~.U.G.H.Y.Y.H.H.H.H.H.H.H.H.U.H.H.H.H.H.H.H.H.H.H.G.G.G.G.m.n.m.n.n.n.m.G.H.H.G.H.U.U.H.H.Y.~.H.H.G.H.H.H.U.H.G.H.H.G.H.U.U.U.H.H.G.G.n.n.n.n.m.G.G.G.m.n.m.G.n.n.b.b.b.b.k.k.k.k.k.k.k.k.k.k.h.h.h.h.h.h.h.h.k.k.k.k.k.k.k.k.b.b.b.b.b.n.n.M.n.n.G.H.H.H.H.U.G.m.n.n.n.n.n.M.n.z.n.F.M.n.n.a.&.v > O.%.~ ) ` ` ` ] +.+.@.@.@.-.-.>.-.@.O.] ] @.@.+.+.@.>.>.@.>.>.>.-.>.q.w.q.q.q.w.w.w.q.>.>.,.w.i.i.w.q.,.q.>.>.-.-.-.-.-.-.>.>.,.q.q.q.q.q.>.q.q.q.q.q.>.-.-.=.=.-.-.-.=.@.@.@.+.+.+.[ [ [ +.+.] ] ] ] [ +.` ` ~ ~ ~ ~ ! ! ! ! ! U Q I I I K K K K S S S S A A m m b b b m m m m m m m m m m b l v b A S S S S S S A S S S I S ! K S b A > X Q %.L.H.k.~.n.n.n.n.n.b.z.z.k.h.r.e.e.e.e.e.e.6.6.6.3.3.3.6.6.3.3.3.3.3.%.$.$.$.$.$.$.$.$.#.#.#.#.#.#.#.#.....#.#.#.......| | | ( / / / ^ ^ ^ ^ ^ E E E Y Y Y Y Y Y Y Y G F F F F F F F D D V D D V V V V V V N N N N N N N c k w : Z 9XuX2XQ.).Q.E.E.T.I.P.P.q.y.s.v.A.L.P.L.P.L.P.A.P.A.P.A.A.A.V.V.v.v.c.c.c.c.s.s.i.i.i.i.w.q.q.q.>.>.-.-.-.-.-.@.@.@.+.O.",
"+.;.[ ! ! 7 v &X/.h.n.Y.G.n.n.H.U.U.H.U.Y././.'.H.H.G.G.U.~.Y.H.H.H.H.H.H.H.H.H.H.H.H.H.H.H.H.H.G.G.H.H.G.G.m.n.n.n.n.G.U.Y.U.H.G.U.U.G.G.Y.T.U.G.H.H.G.G.H.H.H.H.H.H.H.H.H.H.H.G.G.G.m.G.m.n.n.n.n.n.n.n.n.n.n.b.b.n.n.b.k.k.h.h.h.h.h.h.h.h.h.t.t.h.h.k.k.k.k.k.k.k.k.k.k.k.k.h.k.b.b.b.b.n.n.n.n.m.H.H.U.U.U.G.G.G.G.G.G.m.n.n.M.M.M.n.n.n.M.0.Q < S @.=.~ @.] ` ' ` +.@.@.+.@.@.@.@.@.+.] ] [ ] ] ] @.-.-.@.-.-.=.@.=.>.>.-.w.w.w.w.q.q.,.>.i.i.u.w.q.q.,.,.>.-.-.-.-.-.-.-.>.q.q.w.w.q.q.,.w.w.i.i.w.q.>.>.-.-.-.-.-.=.=.@.@.@.+.+.[ +.+.+.@.+.+.] ] ` ` ` ` ` ( ~ ! ! ! ! ! ! ! I I I I I K K K K L L S S S A A M M M M M A A A S A A m b b b b m S L K K S S S S S A A A A K ~ S U ! p b ; N /.*XY.J.n.n.n.n.b.b.b.k.h.h.r.r.r.e.e.6.6.6.6.6.6.6.6.6.6.6.3.3.3.3.3.3.3.%.%.$.$.#.#.#.#...#.#.#.....................| | ( ( / / / / / ^ ^ ^ ^ E E Y Y Y Y E E E E Y E E E Y Y F F D D V V D D V V V V V V V V V N N N N c c 7 0 `.aXpX%X'.{.T.[.{.P.).P.y.%.Z G 0.w.s.P.L.m.L.P.P.R.m.v.T.P.A.V.A.V.c.v.V.c.c.s.s.i.i.i.i.w.w.q.0.>.>.>.>.-.-.-.@.@.@.+.+.",
"' [ [ _ ! w 1 T.3XJ.H.U.G.n.n.G.U.H.H.H.Y./././.H.H.H.G.U.Y.Y.H.H.H.H.H.H.H.H.H.H.J.H.H.L.H.H.H.H.H.H.H.G.G.n.n.n.n.n.G.U.U.H.G.n.G.H.m.H.~.~.U.H.H.H.G.H.H.U.H.H.H.H.H.H.H.H.G.G.G.m.m.m.n.n.n.n.n.n.n.n.n.n.n.b.b.b.b.b.k.h.h.h.h.h.h.h.h.h.h.r.t.h.h.h.k.k.k.k.k.k.k.k.k.k.k.h.k.b.b.b.b.b.n.b.b.n.n.G.G.G.G.G.G.G.G.G.G.m.n.n.n.M.M.M.n.M.M.m.O.b 7 O.@.@.! ' ` ] [ @.-.-.-.+.+.@.@.@.+.+.O.+.+.+.@.-.q.>.-.-.>.-.-.>.q.q.>.q.q.q.q.q.q.,.,.i.u.w.w.q.q.q.,.>.-.-.-.-.-.-.-.>.q.q.w.i.i.i.w.w.w.w.w.w.q.q.>.-.-.-.-.-.=.=.@.@.@.+.+.+.+.+.@.@.+.+.] ] ` ` ` ` ` ( ~ ~ ! ! ! ~ ! ! Q I I I I K K K K K L L L S S A A M M M M A A A A A A m m m m b b A A A A S S S A A A A A I m K _ I ` +.b w c 2XpXU.z.h.n.n.n.b.b.k.k.h.h.r.r.e.e.e.6.6.6.6.6.6.6.6.6.6.6.3.3.%.%.3.%.$.$.%.$.$.#.#.#.............................| | ( / / / / / ^ ^ ^ ^ ^ ^ E E E Y Y Y E E E E E E E E Y Y F F D D V V D V V V V V V N N N N N N N N c c e k 1XpX0X[.[.#X{.T.L.T.M.y.&.c o , > Z t.y.0.m.P.L.m.L.P.L.L.S.V.V.V.V.c.c.v.c.c.s.s.i.i.i.i.w.w.q.q.>.>.>.>.>.-.-.@.@.@.+.+.",
"` ' [ ] ! m # M.rX].U.U.n.n.n.m.U.H.G.H.T./.~.Y.H.U.U.U.U.Y.Y.U.H.H.H.H.H.H.U.L.H.J.H.L.H.H.H.H.H.H.H.H.G.G.n.n.n.n.n.G.H.H.G.n.n.G.H.H.Y./.~.U.H.H.H.G.G.H.H.G.H.H.H.H.H.H.G.G.m.m.m.n.n.n.n.n.n.n.n.n.n.n.n.n.b.b.b.k.k.k.h.h.r.r.r.r.r.r.r.r.r.r.t.h.h.h.k.k.k.k.k.k.k.k.k.k.h.k.k.k.k.k.b.b.b.n.n.n.G.G.G.H.G.G.G.G.G.m.m.n.n.n.M.M.M.M.M.b.t.O.Q : ` c.c.` +.@.=.-.>.-.-.-.-.-.-.-.-.-.-.-.-.>.>.>.q.q.,.-.-.-.-.-.>.q.>.=.,.q.q.q.q.q.q.,.w.w.w.q.q.q.q.q.>.>.-.-.-.-.>.>.q.q.w.i.i.i.i.i.w.w.w.w.w.q.q.>.-.-.-.-.-.=.@.@.@.@.+.+.+.@.@.@.@.+.+.] ] ` ` ` ` ` _ ~ ~ ~ ~ ~ ~ ~ ! ! Q I I I K K K K K L L L L L S S A A A A A A A A S S S S S A A A S S S A S S S A A S S S A _ L ! ] ! ! l k % *XpXU.h.n.n.b.b.b.b.k.k.h.t.e.e.e.e.6.6.6.3.3.3.3.3.3.3.3.3.3.3.3.%.%.$.$.$.$.$.$.#.#.......................| | | | | / / / ^ ^ ^ ^ ^ ^ ^ ^ ^ ^ ^ E E E E E E E E E E Y Y Y Y Y F F D D D V V V V V V N N N N N N N N N N N k 7 k 0XpX2X{.`.).P.P.P.T.t.O.c   e Z > o : w Q Q %.y.M.L.L.L.I.P.A.A.A.A.B.v.v.c.c.c.s.i.i.i.w.w.w.q.q.q.0.0.q.>.>.-.-.@.@.+.+.",
"[ ` [ ] Q I # m.pX+XY.H.n.n.m.H.Y.H.G.U.T./.~.Y.H.U.Y.U.H.U.U.U.H.H.H.H.H.H.H.H.H.H.H.L.H.H.H.H.H.H.H.H.G.m.n.n.n.n.n.G.H.H.G.n.U.U.U.U.~./.Y.G.H.U.U.H.G.H.H.G.H.H.H.H.H.H.G.G.n.n.n.n.n.n.n.n.n.n.n.n.n.n.b.b.b.b.k.k.h.h.h.h.r.r.r.r.r.r.r.r.r.r.r.t.h.h.h.h.k.k.k.k.k.k.k.k.h.k.k.k.k.k.b.b.b.b.n.n.G.H.H.U.G.G.G.G.G.m.n.n.n.n.M.M.M.M.M.b.M.x.@.l J E.N.0.+.+.@.-.,.q.q.,.>.>.>.>.>.>.>.>.q.q.q.>.,.q.>.=.-.-.-.-.q.q.>.@.>.>.,.q.q.q.q.q.q.q.q.q.q.q.q.q.>.,.>.>.>.0.q.q.w.w.w.i.i.w.q.q.q.q.q.w.q.q.q.q.>.-.-.-.-.=.@.@.@.@.@.@.@.@.@.@.+.+.+.] ] ] ` ` ` ` ` _ ~ ~ ~ ( ~ ~ ~ ! ! ! Q Q Q Q K K K K K L K L L L S S A S A A A A A S S S A A S S S S L L S S S A A S L K m +.I K ` K m b z & 2XaX~.k.H.h.b.b.b.k.k.h.t.r.e.e.e.6.6.6.3.3.3.3.3.3.3.3.3.3.3.3.%.%.$.$.$.$.$.$.#.#...............| | | | | | | | ( / / / ^ ^ ^ ^ ^ ^ ^ ^ ^ ^ ^ ^ E E E E E E E E Y Y Y Y Y Y G F F D D D D V V V V N N N N N N N N N N N N z 7 r `.0X$X{.~.`.L.`.{.t.&.k o Z <XM.O.%.7 o * w k Z %.L.R.L.L.P.A.A.A.A.A.V.B.v.c.c.s.i.i.w.w.w.w.q.q.q.q.q.q.0.>.>.-.@.@.+.+.",
"@.` [ ` I G X Z.pX+XY.H.n.G.G.Y.Y.H.H.H.Y.~.Y.U.m.H.U.H.m.G.H.H.H.H.H.H.H.H.H.H.H.H.H.L.H.H.H.H.H.H.G.G.G.m.n.n.b.n.n.G.H.H.H.G.Y.U.U.U.~.~.U.n.Y.T.Y.U.U.Y.Y.U.H.H.H.H.H.G.G.G.n.n.n.n.n.n.n.n.n.n.n.n.b.b.b.b.b.k.k.h.h.t.t.t.r.r.r.r.r.r.r.r.r.r.r.r.t.t.h.h.k.k.k.k.h.h.k.k.h.k.k.k.k.k.b.b.b.b.b.n.n.G.H.H.G.G.G.G.G.m.n.n.n.n.M.M.M.M.b.k.k.t.( c X &.K ` ` ( ~ ( ` ] +.+.>.>.>.-.-.-.-.-.,.,.>.=.=.>.>.-.q.q.q.q.w.w.q.=.-.>.>.,.q.q.q.q.,.,.q.q.q.q.q.q.q.q.q.q.q.q.q.w.w.i.i.i.i.w.q.q.q.q.q.q.q.q.q.q.>.>.-.-.-.=.@.@.@.@.@.@.@.@.@.@.+.+.[ ] ] ] ] ] ` ` ` ` ` ( ` ` ` ( ~ ~ ! ! ! Q ! ! Q R K K K K K K K L L S S S S S S S S S S S Z S S S S S S S S S A S S L K K ( m ! I b A m p ; F iXiXY.n.b.b.b.k.k.k.h.h.r.r.e.e.e.6.6.3.3.3.3.3.3.3.3.3.3.3.3.3.%.$.$.$.$.$.#.#.#...........| | | | | | | | / / / / / / ^ ^ ^ ^ ^ ^ ^ ^ ^ ^ ^ ^ ^ E E E E E E E E Y Y Y Y Y G F F F D D D D V V V V N N N N N N N N N N N N k e X Q x.L.).T.{.P.'.T.&.( o z <XM.F ( G &.).Q > * o 7 &.L.T.P.P.P.A.V.V.V.v.v.v.c.c.s.i.i.i.i.w.w.w.w.w.q.q.q.q.0.>.-.@.@.+.+.",
"+.] +.] K k # U.pX+XY.J.F.G.L.Y.U.H.H.H.U.U.U.U.G.U.U.H.G.H.H.H.H.H.H.H.H.H.H.H.H.H.H.H.H.H.H.H.G.G.G.G.n.n.n.n.b.n.n.G.G.H.H.H.H.H.G.H.U.U.H.m.Y.Y.Y.U.U.Y.Y.U.H.H.H.H.H.G.G.m.n.n.n.n.n.n.n.n.n.n.b.b.b.b.k.k.k.k.k.h.h.r.r.r.r.r.r.r.r.r.r.r.r.r.r.r.r.r.r.r.h.h.h.h.h.h.h.h.h.h.k.k.k.k.b.n.H.G.G.m.n.m.G.G.H.G.G.G.m.n.n.n.n.n.M.M.M.M.b.k.M.k.t.G 7 v y k b b m A K ` >.s.0.>.>.-.-.-.-.-.=.-.@.+.@.-.,.,.q.w.w.q.q.q.>.@.>.>.>.,.q.q.q.q.>.>.,.,.,.q.q.q.q.q.q.q.q.q.w.w.w.i.i.i.i.i.i.w.q.q.q.q.q.q.q.q.>.>.>.-.-.=.@.@.@.@.@.@.@.@.@.@.+.+.[ ] ] ] ] ] ] ] ` ` ` ` ` ` ` ` ` ( ~ ! ! Q ! ! ! Q R K K K K K K K K K K K K K K K S S S S S S K K S S S S S A S S K K K I ` m Q S l p * > Q +XpXiXk.H.t.H.k.k.k.k.h.r.r.r.e.e.e.6.6.6.3.3.3.3.3.3.3.3.3.3.3.%.$.$.$.$.#.#.#.#.............| | | | | | | | / / / / / ^ ^ ^ ^ ^ ^ ^ ^ ^ E E ^ ^ E E E E E E E E Y Y Y Y Y Y F F F F D D D D V V V V V N N N N N N N N N c N k j , : j ( t.x.M.T.m.M.h.F   m.L.&.G Z G ( G G y.y.G 7 w ( y.x.P.I.I.A.V.V.v.v.v.c.c.s.s.i.i.i.w.w.w.w.w.w.q.q.q.0.>.-.-.@.@.@.",
"[ [ [ ~ K 7 9 &XpX].H.G.n.J.L.L.H.H.G.G.G.G.H.H.G.H.U.H.H.H.U.H.H.H.H.H.H.H.H.H.H.H.H.H.H.H.H.H.m.n.n.n.n.n.n.m.n.n.n.n.n.m.G.G.G.n.n.m.G.H.H.H.H.U.H.H.H.U.U.H.H.H.H.H.G.G.m.n.n.n.n.n.n.n.b.b.b.b.b.b.k.k.k.k.h.h.h.h.h.r.r.e.r.r.e.r.r.r.r.r.r.r.r.r.r.r.r.r.h.h.h.h.h.h.h.h.h.h.k.k.k.b.n.m.U.H.H.G.G.G.G.G.H.H.G.G.m.n.n.n.n.n.M.M.M.M.b.k.k.r.x.) c 7 w : X , > - - w Q 0.q.0.>.>.-.>.>.>.-.-.-.=.-.>.q.q.q.u.i.q.>.>.-.@.>.,.q.q.q.<.<.,.>.>.>.>.>.,.,.,.q.q.q.q.q.q.w.w.w.i.i.i.i.i.w.w.q.q.q.q.>.>.>.>.0.0.>.-.-.=.@.@.=.-.=.=.=.@.@.+.+.+.[ ] ] ] ] ] O.] ] ` ` ` ` ` ` ` ` ` ( ~ ! ! ! ! ! Q Q R K K K K I Q Q Q I I R R K G G Z Z J Z H G G G Z S H Z H G K I Q Q Q G Q H c v 1 9 %.tXpXiX,Xb.n.k.k.k.k.k.h.t.r.r.e.e.e.e.6.6.6.3.3.%.%.%.$.%.%.%.%.3.%.$.$.$.#.#.#.#...................| | | | | | / / / / ^ ^ ^ ^ E E E E E E E E E E E E E E E E E E Y Y Y Y G G F F F F D D D D D V V V V V V N V V N N N x x x c j s , , s c G O.x.r.%.%.> , {.6.D H c Z G g H V Y N > % 7 F %.x.m.P.P.V.V.V.m.c.c.c.s.s.i.i.i.i.i.i.i.w.w.q.q.0.>.>.-.-.@.@.@.",
"@.@.] ! K < Z iXiX/.b.k.n.L.L.L.G.G.m.n.b.n.m.H.n.m.m.n.n.G.G.n.H.H.H.H.H.H.H.H.H.H.H.H.H.H.H.H.n.n.n.n.n.n.n.m.n.n.n.n.n.n.n.m.G.m.n.n.m.G.G.H.H.H.H.G.H.U.U.H.H.H.H.H.G.G.m.n.n.n.n.n.n.b.b.b.b.b.b.k.k.k.k.h.h.h.h.h.h.r.e.e.r.r.e.e.r.r.r.r.r.r.r.r.r.r.r.r.r.r.t.t.t.t.t.t.h.h.h.k.k.b.n.G.G.G.n.n.n.n.m.G.H.H.G.G.m.n.n.n.n.n.M.z.M.M.k.k.b.h.x.6.%.%.P.m.M.M.t.Q e 1 l ( -.-.-.-.-.-.-.>.q.w.w.q.q.w.w.q.u.s.d.u.,.>.-.-.,.q.q.q.q.<.<.,.>.>.>.>.>.>.>.>.>.>.>.>.q.q.q.q.i.i.i.i.w.w.q.>.q.q.q.q.>.>.>.>.q.0.>.-.-.=.@.@.-.-.-.-.=.@.+.+.+.+.[ ] ] ] ] ] +.O.] ` ` ` ( ( ` ` ` ` ` ~ ! ! ! ! ! ! ! R K K K K I Q ! Q ! Q Z Z Z Z c k j w j z c c c c b Z Z H G I Q Q Q Q K Z c c , 1 ).pXpXaX,Xb.G.6.H.r.k.k.h.h.t.r.e.e.e.e.e.e.6.6.6.3.%.%.%.$.$.%.%.%.%.%.$.$.$.#.#.#.......................| | | | | / / / / ^ ^ ^ ^ E E E E E E E E E E E E E E E E E E Y Y Y Y G F F F F F D D D D D D V V V V V V V V N N c x x x c w Z j q 5 . % e N F c s O e.<X| G N H Z c c c V k j V z * X w &.y.M.v.M.v.m.m.c.c.c.s.s.s.i.i.i.i.i.i.w.w.q.q.0.>.>.-.-.@.@.@.",
"[ @.[ ~ m < v.pX0XU.n.M.b.Y.G.b.G.m.n.b.b.n.n.m.m.m.n.n.n.n.n.n.m.m.G.G.G.G.H.H.H.H.H.H.G.G.G.m.n.n.n.n.n.n.n.n.n.n.b.b.n.n.n.n.n.n.n.n.G.G.G.H.G.H.H.H.H.U.U.U.H.H.G.G.m.n.n.n.n.n.n.b.b.k.k.k.k.k.k.k.h.h.h.h.t.r.r.r.r.r.e.e.r.r.r.r.r.r.r.r.r.r.r.r.r.r.r.r.r.r.t.t.h.h.h.h.t.t.h.h.k.b.b.n.G.m.n.n.n.n.m.m.G.G.G.m.n.n.m.n.M.M.M.M.M.b.k.k.b.b.k.t.b.'.7XpXiXpXeX1X0., 7 c ) q.>.-.-.-.q.>.w.w.q.q.q.q.w.w.i.u.w.w.w.w.q.q.q.q.w.w.q.,.-.-.q.>.-.>.,.>.,.q.q.>.-.,.w.i.s.i.i.i.w.w.q.q.q.w.q.q.q.>.>.>.>.q.>.>.>.>.-.-.-.-.=.@.@.@.@.+.+.+.[ [ ] ] ` ` ` ` ` ` ` ] ` ` ( ~ ] ` ~ ~ ~ ~ ~ ! ! ! R R Q K K K ! S ( K I Z H m k v k i w w > & X 7 j g w e w k k m c c Z Z m P P N c i = v.pXpX7X~.h.b.n.r.e.b.h.h.r.r.e.e.e.e.e.e.6.6.3.3.3.3.3.3.%.%.$.$.$.$.%.$.$.$.#.#.....#.......| | | | ..| | | | | | / / / / / / ^ ^ ^ E E E E E Y Y Y E E E E E E E E E E Y Y Y Y G G F F F D D D D D D D D D V V V V V V V N N c x x g Z c s c #.0.O., . o O & 0.#XL.D Z Z N N c c c k V Z z Z ( G > s Z O.%.&.y.x.M.M.s.s.V.i.u.v.w.c.c.s.i.w.w.q.q.q.0.>.>.-.-.@.@.",
"@.@.] ` m = &.9X[.k.n.n.h.H.Y.^.m.n.n.n.b.n.n.n.n.n.n.n.n.n.n.n.n.n.n.m.G.G.G.G.H.H.G.G.G.n.n.n.n.n.n.n.n.n.n.n.b.b.b.b.b.n.n.n.b.b.n.n.n.m.G.G.G.G.H.H.H.H.H.H.H.H.G.G.m.n.n.n.n.n.b.b.k.k.k.k.k.k.h.h.h.h.t.t.r.r.r.r.r.r.e.e.r.r.r.r.r.r.r.r.r.r.r.r.r.r.r.r.r.r.t.h.h.h.t.t.t.t.h.h.k.k.b.b.m.n.n.n.n.n.n.n.n.n.n.n.n.n.n.n.n.M.M.M.M.b.k.k.e.r.k.h.r.r.k.m.k.G.G.e.| N 7 w ) >.-.>.,.@.q.s.w.q.q.q.q.q.w.w.i.i.w.w.w.q.q.>.q.w.w.w.w.q.>.>.q.>.-.,.q.>.>.q.q.>.q.w.i.i.i.i.i.w.w.w.q.q.w.w.q.q.q.>.>.>.>.q.>.>.>.>.-.-.-.-.-.=.@.@.@.@.+.+.+.[ ] ] ] ] ] ] ] ] ] ] ` ` ` ` ` ` ~ ~ ~ ~ ~ ! ! ! R R Q R K K S G H k H G - N j 5 * * * > V &.( H 0 * * > * O : c p > j v w c v N w @ I 8XpX1XU.k.e.h.b.k.k.b.h.h.r.r.e.e.e.e.e.e.6.6.3.3.%.%.3.%.%.$.$.$.$.$.$.$.$.#.#.#...........| | | | | ....| | | | | / / / / / / ^ ^ ^ E E E E E E E Y E E E E E E E E E Y Y Y Y G G F F F D D D D D D D D D D D D V V V V V N N x x x j v j g c G G H t.e.x.L.).&XT.Z N N N c c c c N v c N N V G F s % > e k c Z ( y.c.v.i.c.s.i.c.i.c.s.s.i.i.w.w.q.q.q.>.>.>.-.@.@.",
";.] ` [ Z - c %XU.k.J.U.b.b.n.m.n.n.n.n.n.b.b.b.b.b.b.b.b.b.b.b.n.n.n.n.n.n.m.m.G.G.m.n.n.n.n.n.n.b.b.b.b.b.b.b.b.b.b.b.b.b.n.n.b.b.b.n.n.n.n.n.G.G.G.H.H.H.H.H.H.H.G.G.m.n.n.n.b.b.b.k.k.k.h.h.h.h.h.t.t.r.r.r.r.r.r.r.r.r.e.e.r.r.e.e.r.r.r.r.r.r.r.r.r.r.r.r.r.r.t.h.h.h.r.r.r.g.t.h.h.k.b.b.n.n.n.n.n.n.n.n.n.n.n.n.b.M.n.n.n.n.M.b.b.b.k.h.k.b.b.k.r.8.6.6.$.6.e.( $.3.c k ( y.0.q.w.-.q.c.q.q.q.q.q.w.w.u.s.i.u.w.w.q.>.>.q.q.w.w.q.q.>.>.>.>.>.q.q.>.>.q.q.w.i.i.i.w.w.w.w.w.w.w.w.w.w.w.q.q.q.>.>.>.>.>.>.>.>.>.-.-.-.-.-.-.=.@.@.@.@.+.+.+.[ +.+.+.+.+.+.+.O.] ] ` ` ` ` ` ( ( ` ( ~ ! ! ! ! R R Q R K S I S v 9 i : . ; N h.+X,X3X8XpXeX<X*X+X*X*XJ.E & O & > . O ; r q : > F 1XpXsXb.r.h.k.h.h.b.b.t.t.r.r.r.e.e.e.e.e.6.6.3.3.%.%.$.$.$.$.$.$.$.$.$.$.$.#.#.............| | | | | ..#.....| | | ( / / / / / / ^ ^ ^ E E E E E E E E E E Y Y Y Y Y Y Y Y Y Y G F F F D D D D D D D D V C D D D D D D V V N N c x x x N z g B N z z z N ^ $...G Y E c N N N N N N N N N x N D N N D D 6./ g * % X w &.y.m.i.i.c.s.c.d.s.s.s.i.i.w.w.w.q.q.0.>.>.-.@.@.",
";.] ' +.K p > t.H.k.n.G.b.n.m.M.b.b.b.n.b.b.b.b.b.b.b.b.b.b.b.b.b.b.n.n.n.n.n.n.m.m.n.n.n.n.b.b.b.b.b.b.b.b.b.k.b.b.b.b.b.b.b.b.b.b.b.b.n.n.n.n.m.G.G.G.H.H.G.G.G.G.G.m.n.n.n.b.b.b.k.k.h.h.h.t.r.r.r.r.r.r.r.r.r.r.r.r.r.e.e.e.e.e.e.e.e.e.e.e.r.r.r.r.r.r.r.r.r.r.t.h.h.h.r.r.r.r.r.r.h.k.k.k.b.b.b.b.b.b.b.b.n.n.n.n.n.M.n.n.n.M.b.z.z.k.k.h.k.h.r.e.7.e.r.r.h.3.e.3.3.$.H k ( I.P.i.i.w.w.q.q.q.q.q.w.w.i.i.s.i.u.w.w.q.,.>.q.w.w.w.w.q.q.q.>.>.q.w.q.,.,.q.q.w.i.i.i.w.q.q.w.w.w.w.w.w.w.w.q.q.>.>.>.>.>.>.>.>.>.>.-.-.-.-.-.-.-.=.@.@.@.@.+.+.+.+.@.@.@.@.@.@.+.O.] ] ] ] ` ` ` ` ` ` ~ ! _ _ ! R Q ! Q K ( p k i * : h.*X*X9XpXpXiXiXpXpX6X1XiXpXpXpX8Xm.P F m.dX<XR.&.i V g H.uXpX0X<XM.k.n.b.t.r.h.h.r.r.r.r.r.r.e.e.e.6.6.6.3.%.$.$.$.$.$.$.$.$.#.#.#.#.#.#.........| | | | | | | ....#.....| | | ( / / / / / ^ ^ ^ E E E E E E E E E Y Y Y Y Y Y Y Y Y Y F F F F F F D D D D D D D D V V D D D D D D V V N N c x x z N z z V V x z x j N N z z x N V N N N N N N c x V x V F V N F Y Y $.k./.~.) 3 7 -.P.c.w.V.c.i.d.s.s.s.i.i.i.i.i.w.q.q.0.>.-.@.@.",
";.[ ` ] ! H - x H.n.k.k.h.r.x.x.k.b.b.b.b.b.k.k.k.b.b.b.b.b.b.b.b.b.n.n.n.n.n.n.m.n.n.n.n.b.b.b.b.b.b.k.k.k.k.k.k.k.k.k.k.k.b.b.b.b.b.b.b.n.n.n.m.G.G.G.G.G.G.G.G.G.n.n.n.b.b.b.k.k.k.h.h.r.r.r.r.r.r.r.r.r.e.e.r.r.r.r.r.e.e.e.e.e.e.e.e.e.e.e.r.e.e.e.e.r.r.r.r.r.t.h.h.t.r.r.r.r.r.r.t.h.h.k.k.k.k.b.b.b.b.b.n.b.b.b.b.b.b.b.b.z.k.k.k.k.h.r.e.e.7.e.r.r.7.6.7.X.$.r.#./ ( e Q <X2XV.q.w.p.>.q.q.q.w.u.i.i.s.i.u.w.w.w.w.q.q.u.i.i.i.i.u.w.w.,.,.q.w.w.q.q.w.i.i.i.i.w.q.q.w.q.q.w.w.w.w.w.w.q.q.>.>.>.>.>.>.>.>.>.>.-.-.-.-.-.-.-.=.@.@.@.@.+.+.+.+.@.@.@.=.@.@.@.+.+.+.O.+.] ` ` ` ` ` ` ~ ' ' ! ! ! ! Q S m 1 9 : y.pXtXuXiXiXiX1X].Y.H.b.n.M.Y.T.J./.'.k.n.aXiXsXiX8XfX*X*XiXaXaXiX1Xe.M.k.h.t.r.r.r.r.r.r.r.r.r.r.e.e.e.6.6.3.%.$.$.$.$.$.$.$.$.#.#.#.#.#.#.........| | | ( / } | | ....#.....| | | / / / / / / ^ ^ ^ E E E E E E E E E Y Y Y G G F F F F F F F F F D D D D D D D D D D V V D D D D D D V V N N c x x x v x x c N V N N x x g z F D g s c c N N N N N c V V F F D G E F F T Y X.6.C 0 Z i.XXP.i.V.c.i.d.s.s.s.s.i.i.i.i.w.w.q.q.0.>.-.@.",
";.@.[ ` ( Q 9 * / %.8.k.h.e.r.r.k.k.k.b.k.k.k.h.k.k.k.k.b.b.b.b.b.b.b.b.n.n.n.n.n.n.n.n.b.b.b.b.k.k.k.k.k.k.k.k.k.k.k.k.k.k.k.b.b.b.b.b.b.b.b.b.n.n.m.G.G.m.m.n.n.n.n.b.b.b.k.k.k.h.h.t.r.r.r.e.e.e.e.e.e.e.e.e.r.r.r.e.e.e.e.e.e.e.e.e.e.e.e.e.e.e.e.e.e.r.r.r.r.r.r.r.r.r.r.r.r.r.r.r.r.r.t.h.h.k.k.k.k.k.k.k.k.k.k.k.h.h.k.k.k.k.k.k.k.k.h.r.k.g.r.r.r.r.r.7.6.6.3.r.X.} ..> &.sXwXA.>.q.i.i.q.q.w.u.i.i.i.s.i.w.w.w.i.i.u.w.w.w.w.w.w.q.q.q.q.q.q.w.q.,.q.w.i.i.w.w.q.q.q.w.q.q.w.w.w.w.q.q.q.q.>.>.>.-.>.>.>.>.>.>.-.-.-.-.-.-.=.@.@.@.@.+.+.+.+.+.@.@.@.@.@.@.@.@.+.+.+.+.+.] ` ` ] ] ] ` ` ] _ ! ! ~ R Z m j * *X9XrXiXrX+X/.H.n.k.k.k.n.n.k.M.k.t.n.U.M.k.9XiX,XfX~./.7XaXiXiX7XM.h.r.h.k.r.r.k.k.r.e.r.r.r.r.r.r.e.e.e.6.3.3.$.$.$.$.$.$.$.#.#.#.#.#.#...........| | | ( ( / ( } | | | ....| | | | / / / / / / ^ ^ E E E E E E E Y Y Y Y G G F F F F F F F F F D D D D D D D D D D D D V V D D D D D D V V V N N c x x x V V x x V V N g c x z z g x F z x x N N N N c N V F D V Y Y x N F W 3.e.F > ; M.&X_.s.c.s.s.c.c.s.s.s.s.i.i.i.i.w.q.q.q.>.-.@.",
";.@.@.] ` I G > > z N ..r.r.M.x.k.k.k.k.k.k.h.h.h.h.k.k.k.k.k.k.b.b.b.b.b.b.b.n.n.b.b.b.b.k.k.k.h.h.h.h.k.k.k.k.k.k.k.h.k.k.k.k.k.k.k.b.b.b.b.b.n.n.n.n.n.n.n.b.n.n.b.b.k.k.k.k.h.h.t.r.r.e.e.e.e.e.e.e.e.e.e.e.e.e.e.e.e.e.e.e.e.e.e.e.e.e.e.e.e.e.e.e.e.r.r.t.h.t.r.r.r.r.r.r.r.r.r.r.r.r.r.r.t.h.h.k.k.k.k.k.h.h.h.h.t.t.h.h.h.h.h.h.h.h.g.r.g.r.6.6.6.6.7.7.2.6.2.X.} F c s `.uX2Xc.u.w.u.d.q.w.w.u.i.i.i.i.i.i.u.u.i.i.i.i.w.q.q.q.q.>.>.>.,.,.q.q.q.>.q.u.i.w.q.q.q.q.q.q.q.w.w.w.w.q.q.q.q.>.>.>.>.>.>.>.>.>.>.>.-.-.-.-.-.=.@.@.@.@.+.+.+.+.+.+.+.+.@.@.@.@.@.@.@.@.@.@.@.+.] ` ] O.+.+.` [ ` _ ~ _ K c 9 o ).iXuXuXH.k.M.k.k.n.n.b.h.r.h.h.k.n.G.n.b.k.H.k.M.H.M.k.n.M.'.m.k.M.h.M.n.h.k.h.h.k.k.r.r.r.r.r.r.r.r.e.6.6.3.3.%.$.$.$.#.#.#.#.#.#.#.#.#...............| | | ( ( / / } | | ..| | ( | | / / / / / / ^ ^ E E E E Y Y Y Y Y Y G F F F F F F D F F F D D D D D D D D D D D D D V D D D C V V D D V V V N N c x B V V N B V V N V N x x B B z g z x x x x z z h z z x x z N B q h g z F ^ F s 3 ( E.E.c.c.c.B.c.c.c.c.s.s.i.i.i.i.w.w.q.q.>.-.@.",
"+.[ @.+.` I &.x c x : q E #.r.e.k.k.k.k.h.h.h.h.t.h.h.h.h.k.k.k.k.k.k.k.b.b.b.b.b.b.b.k.k.k.k.k.h.h.h.h.h.k.k.k.k.h.h.h.h.k.k.k.k.k.k.k.k.k.k.k.b.b.b.b.b.b.b.b.b.b.b.k.k.k.h.h.h.t.r.r.r.e.e.e.e.e.e.e.e.e.e.e.e.e.e.e.e.e.e.e.e.e.e.e.e.e.e.e.e.e.e.e.e.e.r.t.h.t.r.r.e.r.r.r.r.r.r.r.r.r.r.r.r.t.h.k.k.k.k.k.k.h.h.h.h.h.h.h.g.r.r.g.h.h.g.r.7.r.r.r.r.8.6.o.o.....^ } x 7 %.pXuXE.0.B.d.<.p.q.q.w.w.u.i.i.i.i.i.i.i.i.i.i.i.i.i.i.w.w.q.q.q.>.>.q.q.>.-.>.w.w.w.q.q.q.w.q.q.w.w.w.w.q.q.q.>.q.>.>.>.>.>.>.>.>.>.>.>.-.-.-.-.=.@.@.@.@.+.+.+.+.+.+.+.[ +.+.@.+.@.@.@.@.@.@.@.@.+.] ] ] +.+.@.] +.[ _ _ _ K l : >.pXaX8Xe.Z.h.k.n.n.r.r.n.M.r.k.k.h.k.k.h.h.n.t.n.n.k.k.M.M.M.k.M.Z.r.n.h.k.e.t.h.h.e.e.r.h.k.r.r.r.r.r.e.6.6.3.3.%.$.$.#.#.#.#.#.#.#.#.#...................| | ( ( / / / | | | | / / ( ( / / / / / ^ ^ ^ E E Y Y Y Y Y Y Y Y F F F F F D D D F F D D D D D D D D D D D D D D D D D D V V V V D D V V N N N c x x x N B z z x z g z x z x V x N N N x z g d q d 0 q s q q q 4 % & 6 C ^ / D 7 7 0.v.c.c.B.A.c.c.c.c.s.s.i.i.i.i.i.w.q.q.>.-.@."
};
