/* XPM */
static const char *n[] = {
/* columns rows colors chars-per-pixel */
"384 384 256 2 ",
"   c #330C13",
".  c #190839",
"X  c #160A33",
"o  c #280729",
"O  c #370828",
"+  c #381628",
"@  c #280839",
"#  c #370939",
"$  c #381638",
"%  c #2A1335",
"&  c #331925",
"*  c #4B1810",
"=  c #582806",
"-  c #582818",
";  c #532E10",
":  c #673805",
">  c #683718",
",  c #743B18",
"<  c #6A310C",
"1  c #471829",
"2  c #471837",
"3  c #4E1631",
"4  c #492528",
"5  c #582828",
"6  c #492537",
"7  c #582738",
"8  c #59342D",
"9  c #683627",
"0  c #753B28",
"q  c #652B38",
"w  c #683637",
"e  c #753A38",
"r  c #652B28",
"t  c #601E04",
"y  c #6A4406",
"u  c #784805",
"i  c #784618",
"p  c #754D12",
"a  c #794527",
"s  c #794537",
"d  c #6F482B",
"f  c #5D4126",
"g  c #190B47",
"h  c #09164A",
"j  c #17134A",
"k  c #1A0D54",
"l  c #0A1958",
"z  c #171658",
"x  c #0A0C49",
"c  c #280948",
"v  c #370A48",
"b  c #281348",
"n  c #381548",
"m  c #280C56",
"M  c #360C57",
"N  c #271459",
"B  c #381558",
"V  c #0B245A",
"C  c #15275B",
"Z  c #163059",
"A  c #0B1D65",
"S  c #191A66",
"D  c #191C76",
"F  c #0E1771",
"G  c #271868",
"H  c #371668",
"J  c #281A76",
"K  c #361876",
"L  c #300D67",
"P  c #0B2668",
"I  c #152769",
"U  c #19346A",
"Y  c #0C2A76",
"T  c #132B74",
"R  c #182877",
"E  c #0D3279",
"W  c #143374",
"Q  c #13347B",
"!  c #1C3B7C",
"~  c #1A3777",
"^  c #0D316A",
"/  c #25246A",
"(  c #233B6A",
")  c #252678",
"_  c #233B78",
"`  c #372772",
"'  c #2F2555",
"]  c #471848",
"[  c #541B47",
"{  c #471758",
"}  c #4C1351",
"|  c #582647",
" . c #582657",
".. c #4D284E",
"X. c #652B47",
"o. c #693547",
"O. c #753A47",
"+. c #6A3256",
"@. c #461866",
"#. c #4C1669",
"$. c #50286B",
"%. c #683266",
"&. c #621F54",
"*. c #284479",
"=. c #324C7A",
"-. c #39537B",
";. c #29446C",
":. c #1E417C",
">. c #79444D",
",. c #5A5073",
"<. c #844B06",
"1. c #885606",
"2. c #885716",
"3. c #8D5413",
"4. c #986617",
"5. c #95640D",
"6. c #A77016",
"7. c #854B28",
"8. c #854937",
"9. c #8E572F",
"0. c #98662B",
"q. c #A9722A",
"w. c #884F4A",
"e. c #99624F",
"r. c #823F32",
"t. c #B88428",
"y. c #C48D35",
"u. c #2A1C83",
"i. c #0A2A86",
"p. c #182A86",
"a. c #0C3587",
"s. c #133484",
"d. c #1B3C83",
"f. c #173889",
"g. c #0A3797",
"h. c #183996",
"j. c #122C94",
"k. c #262887",
"l. c #253887",
"z. c #263896",
"x. c #31308D",
"c. c #123AA4",
"v. c #1D2B93",
"b. c #1C4389",
"n. c #1A4697",
"m. c #0F449B",
"M. c #244383",
"N. c #2B4C8C",
"B. c #274888",
"V. c #324C87",
"C. c #385489",
"Z. c #244B94",
"A. c #234C9B",
"S. c #284996",
"D. c #2C539C",
"F. c #2A5298",
"G. c #335493",
"H. c #34599D",
"J. c #3B5C9C",
"K. c #385797",
"L. c #334C94",
"P. c #1948A6",
"I. c #184EB0",
"U. c #264AA5",
"Y. c #2956A6",
"T. c #345BA3",
"R. c #365CA7",
"E. c #2859B6",
"W. c #345BB5",
"Q. c #304AAB",
"!. c #3C62A4",
"~. c #3C63AB",
"^. c #3662AC",
"/. c #3B65B3",
"(. c #3967B7",
"). c #2D62B9",
"_. c #3D619D",
"`. c #435C88",
"'. c #425D96",
"]. c #4A4792",
"[. c #4A638B",
"{. c #486499",
"}. c #546C97",
"|. c #5B739A",
" X c #53688C",
".X c #62799C",
"XX c #4559AA",
"oX c #4364A4",
"OX c #4469AD",
"+X c #4B6CAC",
"@X c #4768A7",
"#X c #526DA6",
"$X c #5874A9",
"%X c #446BB3",
"&X c #466CB7",
"*X c #4C71B4",
"=X c #4C73BB",
"-X c #4572BC",
";X c #5374B4",
":X c #5479BC",
">X c #5B7CBC",
",X c #5778B7",
"<X c #4E70AF",
"1X c #637CA7",
"2X c #627DB6",
"3X c #6B66AC",
"4X c #66529D",
"5X c #2A5CC4",
"6X c #376AC6",
"7X c #356DCE",
"8X c #2866D0",
"9X c #4976C6",
"0X c #547BC3",
"qX c #567DC6",
"wX c #4779D5",
"eX c #4971CA",
"rX c #507CD8",
"tX c #48348C",
"yX c #6A83AA",
"uX c #6884B9",
"iX c #738CB9",
"pX c #768EB3",
"aX c #5D81BD",
"sX c #5C81C4",
"dX c #5C83CB",
"fX c #5582CC",
"gX c #5986D6",
"hX c #4E83D9",
"jX c #6384C4",
"kX c #6489CC",
"lX c #6B8CCB",
"zX c #6788C7",
"xX c #728DC6",
"cX c #7794CA",
"vX c #668CD4",
"bX c #6C92D8",
"nX c #7394D3",
"mX c #7899D9",
"MX c #6E90CE",
"NX c #558AE7",
"BX c #6996E5",
"VX c #769CE4",
"CX c #6896F1",
"ZX c #7CA2E8",
"AX c #76A5F8",
"SX c #7DA0DD",
"DX c #3D80DB",
"FX c #829DD6",
"GX c #829CCA",
"HX c #87A4DA",
"JX c #93ABD3",
"KX c #87A7E7",
"LX c #91B2F0",
"PX c #9AB5E9",
"IX c #A6C6FC",
"UX c #8399BC",
/* pixels */
"!.dX^.A.&X(.Y.(.P.Y.g.E.gX(.6XU.W.eXQ.Q.f.z.z.p.p.k.x.x.x.J J x.G H ` G N H ` $.B M $.v { ] %.%.2 [ +.7 5 O.e 9 w.0 0 9 > , = * <.: : : : 0.q.= = = q.2.1.y.u 6.6.6.6.5.4.y.y.4.t.u y.0.p 4.4.4.2.2.=   = p 4.4.4.y p y p y = : ; ; ; ; ; 4 4 * 8 4 * 5 4 7 6 6 $ @ @ b N N k k S I l.R.&XqXvXbXZXLXVXZXZXvXkXdXqX~.H.OXS.G.F.D.S.D.f.B.!.vX:X+XH.K.G.,X;XjXzX;XjXzXaX_.H.MXsX:X%XT.~.:X&XR.S.f.P l.B.L.D.L.R.d.R.R.A.s.a.s.Y f.E E Q b.F.b.E Q Y Q d.G.K.B.B._ *.{.C.K.K.! ! W Q B.@X! N.;XV.K.{.E !.*XH.b.F.Z.S.T.n.A.A.f.Y.A.R.9X-XR.T.(.(.^.^.^.9X(.-X0X^.R.T.%X~.^.^.Y.Y.Y.fX-XR.-X/.Y.9XqX;XjX*XJ.mXKXHXzX2XHXnXMXmXjX*X>X+XmXKXzXlXmX,X,X,XSX,X>XmXzXMXnXzXmXKXKXMXMXmXmX>X,XuXzXlX2X,XnXlX,XjXMXKXlXzXjXzX>XxXxXzXmXmXHXHXGXHXJXPXJXPXPXPXIXIXmXKXIXKXLXKXLXIXLXLXbXvXBXBXvXgXqX&X-X=X&X",
"0XbX0X/.vXvX9XeXm.P.g.Y.hXg.P.h.h.h.j.U.f.p.f.p.p.k.L.k.k.J u.` G ` ].3X4X$.` ].4X@.$.n { v ] ] +.| | 7 e e r e w.0 r 9 8.e.7.: 0.<.u u : 0.t.u 2.u q.1.u t.u 5.6.5.1.1.4.t.4.= 1.: 4.u y 4.4.2.0.q.0.2.0.2.y : y = : : : : = ; ; > ; ; 4 4 &   8 1   1 6 | + o @ b v b b k z / A R L.OXOX&XqXvXVXBXvXVXZXdX0XqX:X*X*X:XD.Z.Z.b.B.Z.Q S.R.OX!.H.G.G.M.K.J.@X<X{.@X;XaX;X<XMX@XF.T.R.~.T.F.Z.s.A A P T B.l.Q B.d.d.Z.f.s.n.h.s.f.OXD.d.E d.Q E b.Q b.b.N.N.*.V.V.{.{.B.N.N.*.! W L.J.;XM.N.,XC.{.oXb.OXoXZ.Q Z.D.Z.T.D.Y.Y.A.Y.Y./.-X-X^.Y./.(.(.qX-X9X(.9X9XY.D.0X:X/.&X-X-XfX9XvXfX9X9XqXgXZXKXdXbXzXsXLXKXxX,XuXFXzXuXnXsXqXMXmXLXKXzXmXLXlX,XjXKX,X,XMXqXzXlX+X>XMXMXuXjXlXjX2XzXKXLXLXHXMXHXMXjXlXzXnXaXaX,XjXjXmXmXlXcXcXcXcXxXxXcXJXGXJXJXxXHXPXmXLXIXnXbXMXmXIXKXLXbXvXgXgXbXgX=X9XvXbX0X",
"vXVXBX-XgXBX9XgX(.eXeXwXAXg.U.Y.U.h.j.W.U.h.f.f.z.z.L.p.k.k.k.J ` N H tX$.N H ].$.M v v { } ] ] O | O.O.w.w.r 0 9 r 0 9.9.9.i : 3.<.4.q.3.q.0.: u 2.q.1.u 5.u <.t.5.5.5.t.y.4.= 4.1.0.1.u q.4.4.0.2.u p p u y p = : p p p y ; ; ; ; ; ; 4 8 4     1   1 6 6 o % % b c b c j N / S _ L.XXR.~.qXvXZXVXvXZXKXbXdXdXsX*XT.~.F.H.B.d.b.d.d.R.*XK.T.K.H.J.G.G.oX!.+X@X_.@X<X:X:XkXOXH.0X0X0X%XT.Y.D.s.Y Y Y s.Y P Q Q E s.E E f.h.s.s.H.Z.Q d.Z.B.b.Z.Z.D.G.H.G.B.J.'.{.{.C.V.*.! N.B.J.@X;XB.V.#XV.G.oXJ.,X@XG.B.T.*XT.T.Y.n.n.A.U././.~./.Y.A.R.(.Y./.^.R.T./.^.n.T.bXfX=XdXfX9XfX(.fX9XgX9X(.9XvXBXkXzXlXlXLXFXcXmXmXLXcXzXnXlXbXKXKXKXmX>XnXKXzX;XnXKXjXqXnXjXzXlX2XzXMXMXjXzXlXuXjXxXmXmXMXMXzXnXzXjXlXsXlXjXzXjXuXlXKXFXMXmXcXmXcXcXxXcXJXGXHXJXHXFXmXuXmXLXVXKX0XkXKXkXvX0XqXgXvXVXvX-XgXBXbXkX",
"0XfXvX^./.fX).6Xn.).E.eXAXn.U.(.h.g.g.W.Q.n.z.Q.z.z.z.D k.x.k.J G L N L H H H H H @.{ ] ]  .] ] 1 +.O.q e 0 r 8.0 0 7.9.7., i u 0.4.q.y.3.t.q.<.1.4.4.4.5.6.1.1.6.5.5.4.6.q.4.u 0.2.4.4.1.5.y 5.0.2.u p p u p 2.y p p p p d > ; = ; *   & 4 +     1 1 1 | 6 o % n b c c c b k z A A R l.B.T.=XqXdXVXbXbXmXbXkX=XvX=XH.OXR.!.S.S.b.b.S.*X0XS.!.G.Z.F.F.F.=X!.oXJ._.@X@X<X@X:X*X*XVXqX&X/.R.R.W.W.Z.Z.Z.Q Y E f.Y E E E Y s.f.f.s.Z.Z.B.Z.D.Z.s.Q b.Z.Z.G.G.B.G.C.C.C.J.K.*.*.G.N.oX;X2XJ.oX>XJ.J.B.K.;XJ.K.Z.!.:X%XT.~.Z.A./.Y.-X(.^.(.(.Y.&XqX(.&X-X-X&X-X^./.vXLXvX&X=X(.(.gX9X9X(.fX9X&X9X&X0XqX>XlXlXKXmXmXKXmXLXmXnXmXlXlXmXzXMXzX+X,XlX,X;XmXKXlXzXnXlXzXzXlXjXjX>X,X2XjX2XmXMXcX,X#XuXjXjXjXsXzX>XjX;X,X,XjXzXmXMXjXcXcXcXcXHXGXHXIXJXJXPXHXmXFXnXKXLXZXKXkXmXLXmXgXqXbXVXVXZXgXqXvXgX9XgX",
"&X/.qX(.9XBXW.n.g.).m.W.wXh.a.P.j.g.g.U.g.i.j.h.z.p.z.D k.k.k.J L K $.H H @.@.B B $.$. .[ %.[ X.+.O.q w w.r = 8.0 , < 7.7.: u u q.q.q.q.<.y.t.5.q.6.<.4.6.q.6.5.6.5.5.5.5.1.1.1.4.5.4.0.5.5.u q.4.4.2.2.2.2.5.2.p p p p p d d > ; 5 4 4 6 6 +   6 7 + +  ...@ X n c @ c c k k z S A R d.d.S.%X=X&XvXkXvXbXvXvX0XdX0X=XvX*XD.d.F.Z.Z.H.!.T.d.G.b.d.B.B.N.=X!.H.N.J.@XoX<XT.OX%X:XbX0X/.R.R.&X9X-X%XR.H.b.s.d.f.Y Y E s.s.s.n.A.n.D.D.Z.B.Z.B.b.Z.Z.F.B.G.J.G.J.C.{.C.K.K.V.K.K.B.N.oX+XN.J.#XG.G.G.@XaX!.OX!.*XkX*X^.0X/.0XvX/.-X~.Y.(.-X/.9XgX-X9XqX-X-X&X^.&XvXLXdX&X0X-X9XBXgX9XE.9X9XqXqX&X=X;X,XnXzXnXzXuXzX2XcXzXzXzX,X:XsX>XsXzX,X,XzX,X,XMXbXqX:XkXjXsXjX,X;X;X,X,XuXxXjXMXzXMX,X;XlXlX,XsX,XzXlXnX>XzXnXmXmXKXmXMXmXmXmXxXHXGXHXIXHXHXKXxXxXmXmXKXKXmXZXkXbXIXLXVXBXVXVXVXAXgXqXgXqX&XfX",
"(.^.9X9X9XhX).P.U.wXP.(.6Xn.a.h.n.U.P.U.j.j.h.h.h.p.k.D k.k.J J ` H L L H @.$.@.v } } %.%.%.[ +.O.>.w e w.0 > 7.< , < 7.i : u : 1.5.5.5.: 5.<.= 1.1.u 5.5.5.5.6.6.5.4.6.4.4.4.1.u 1.5.5.1.5.1.4.5.1.u u u 1.4.2.: y y y > > ;     * 4 4 6 6 + o $ 2 + o ..' b . @ @ c c c g k S S R l.L.d.d.D.~.*X0XqXVXZXvXbXVXZXVXvXZXbX=XH.%XZ.b.G.M.Q Q Z.b.b.B.b.Z.T.F.K.N.G.oXR.OXH.~.=XqX=X0X0X-X9XVXAXvXqXT.T.T.Z.d.E E Y s.f.f.s.f.S.s.b.b.b.b.Z.D.T.%X~.!.G._.@XoX$X#XJ.K.{.K.V.{.{.{.>XzX2XJ.oX$X'.J.N.K.@XB.F.F.H.*X~.T.%XT.-XvX/.%X/.^.&X-X/.(.&X^.(.(.R.^.~.&XfXqXbXsXqXgXfX9X9X(.9X(.9X9X/.Y.R.0X%XOXvX;X,X>X,X2X;XzXjXzXjX,XsXkXzXsXzXjXzXMXjX>XvXzX*XOX*X:XqXqX>X,X2XzXlXnXnXzX2X,XjX;X;XmXmX>XzX>XMXmXZXzXnXKXmXnXKXKXFXKXFXFXcXGXxXxXHXiXcXcXFXxXzXuXjXlXZXLXsX:XZXZXBXBXVXBXvXVXBXqXgXgXgXgX",
"/./.9X9XY.Y.E.P.m.6XP.(.(.h.U.U.n.P.h.Q.P.U.W.Q.v.p.z.u.k.k.u.J K H L H $.$.{ v }  . .+.%.+.3 +.O.>.r r 0 , 7.9.9.9.7.7., : 4.4.1.1.<.: = u u = <.5.5.6.6.6.6.y.5.5.4.6.6.6.4.5.6.6.q.6.6.4.4.6.4.1.3.5.2.2.2.y = : : : ; *               o o o o O $ o % . b b . c c c j k k S z A R Q Y Y d.S.OX%X*XbXVXkXvXVXdX0X!.*X=X*XZ.Z.B.E Z.B.Y B.b.M.Q b.Q M.Q Q M.b.B.R.S.T.D.~.0XdXY.-XqXeX9XCXAXgXgX%X=X*XR.Z.a.f.s.s.d.s.E f.f.Y Z.S.Z.Z.H.H.D.H.!.!.H.@X+X@X<X#XC.{.$X{.K.{.{.,X,XjX$XG.'.@XK.G.{._.,X_.!._.OX:X~.T.T.S.R.0X~.~.-X-X0X0X-X/././.-X9X-X-X-XvXZXfXbXvX9X&X/.^.9X9X9X9XgXgXR.A.9XbX=X@XMX,X>XlXjXMXuXMXlXMXlXsXbXbXzX>XzXsXsXzXqXqXMXjX;X%X*X0X:X:X>X,XjXlXlXlXzX,XzX>XlX>X;XnXmXlXzXsXlXjXzX+X<X;X;X<XxXmXxXxXxXcXFXcXcXcXHXiXcXcXcXcXcXmXnXmXZXmXkXsXZXKXvXvXBXVXvXBXvXfXgXvXvXgX",
"gX9XgXNXeX).).P.6XhXwXgXrXh.W.W.U.P.j.U.j.j.h.v.v.x.XXu.k.x.x.J L @.#.H M M M n # &.%.&.+.+.7 O.O.r * 0 9., , , 0.9., 2.3.<.4.<.5.1.5.1.1.5.6.6.t.6.5.5.6.y.t.y.6.6.q.q.6.6.6.4.y.6.6.6.6.u 1.5.q.1.1.4.4.4.4.2.y p p f > ; 8 ; 4 4 + + o o o $ 6 $ $ o % . ' b b c g g b k k z / S A P P Q S.L.oX*X*XkXmXvXbXvX~.0X*X=X=X*XZ.b.B.P F.H.E G.E Q E b.d.Z.P Y b.M.d.D.B.T.D.R.&X~.R./.eX9X(.9XhX9XgXfXVXfX/.R.n.b.f.s.s.s.E Z.D.d.D.H.H.T.~.^.H.D.T.OX@X,X,X+X$X#X{.#X,X{.#X$X{.#X'.#X@XG.{.<X{.'.{._.sX,X,X*X>XsXOX%X%XR.&X0X%X^.T./.&X-X-X/./.-X&XqXqX-XT.&XgXA.*XdX=X-X-X&XfXgX/.9X9XqX9XqXZXZXvXqXLXKXKXmXlXlXuXMXlXMXzX:XkXkX>X;XjX>X+X*X;XqXlXsXqX:X:XqX*X+XjX>XjXlXzXzXjX,XzX2XnXlX;XlXlX,X*X;XaX;X>X;X>X>X>X;XxXmXxXzXzXmXcXxXcXHXPXHXPXPXHXHXKXLXKXKXKXvXdXdXLXIXbXqXfXBXBXgXwXgXgXfX9X9X",
"NXgXhXhXE.P.6XE.P.P.6XY.n.n.h.W.W.j.i.U.U.h.z.v.k.k.k.u.u.K K K @.H @.@.M M {  . .+.+.X.+.7 X.q w.8.0 8.9., i , 7.< t : <.q.4.<.1.5.5.1.<.5.5.6.6.<.1.6.q.6.5.6.6.<.q.6.5.6.5.5.6.1.1.4.1.1.u u 1.u 1.0.2.4.0.y = p f ; ; ; - * * 4 4 + + $ $ $ ] % % o % ' j g c g g g k k k z S I R l.! d.L.%X@X@XzXmXvXbXVXdXdXvXLXqXVX-Xb.D.B.E H.F.E b.Q d.d.d.Y Y Q Q M.d.E s.f.Q s.d.f.s.Y./.(.-X9XhXgXBXAXvXgX-X-X9XR.D.Y.R.&XZ.E f.f.f.b.F.Q d.D.H.T.T.!.OX+X+X+X<X,X$X#X$XxX$X$XuX#X,X$XK.{.{.#XuX;X#X<X+X+X;XoX_.,X+XoXoXOX0XvXdX%XOX%X-X/.^.^./.-X~./.fX&X^.R.0XVXqXdXdX-X-X(.gXgXgX9X-X9X9X&XfXvXvXdX:X:X,X,X,XjXlX2XlXnXlX>XsXvXkXqXkX:X*X*X;X:XqX:XqX:X=X0X=XOXOXlX,X;X,X,XjXlXzXnXlXzX,X<XlXmXsX;X!.,XlXjXzXnXzXlXlXmXKXzXxXmXKXKXFXHXxXPXcXHXPXmXmXmXMXlXkXvXvXvXkXZXKXvX-XqXgXvXrXgXgXBXNX6X9X",
"NXNXwXE.m.E.hX6Xg.P.6XY.g.h.f.W.U.i.h.Q.U.z.v.k.k.k.u.J K K K H H M #.$.#.$.%.%.2 [ X.q O.3 3 5 e 0 , 7.9.7.7.9.9.7.<.3.4.q.4.<.6.6.5.5.1.6.6.6.6.5.6.y.y.6.5.t.6.5.6.5.u 5.5.5.1.1.1.6.5.5.u u 1.: u 3.: u 2.:   ; ; ; ; 8 8 - * 4 4 + & $ $ $ % % % % b ' j j b c g j j k k z S A I T T ~ N.oXK.oX>XjXqXvXbX0XdXvXvX~.9X%XZ.~.D.B.*X%XF.D.d.E B.B.Q Q d.d.d.Y Y E E E E s.s.E Z.A.A.T.9XgXBXCXCXBXBXgXfXqXR.Y.0X-X/.Y.f.s.f.E b.F.B.D.T.F.Z.b.T.OX*X@X@X#X$X$X>X$XuX#X$XuX#X$X{.{.>X$X+X,X<X+X>X>X>XsX+X@X>X;X,X*X!.!.OXOXOX:X=X9X&X-X0X0X0X/.qXvX0X0XqXvXKXvXmXvXfXqXqX-X9X9X9X(.9X(.&XqX9X&X%X%X;XsXzXzXzXlX,X>XzXqX=X:XdXsX:X;X:XqXsXkXdXqXdXqX*XOX*X:X0XdXnX>X,XjXaXsXjX>X,XaX>X+X@X>XjX,X*X+XlXmX>X,XjXaXjXzXmXKXxXxXxXcXcXxXcXxXPXcXHXHXxXxXxXkXjXdXdXsXmXbXZXZXbXVXAXBXCXgXNXNXNXhX6XhX",
"CXhX6XU.E.7XwXP.g.P.eXE.a.a.a.R.A.z.Q.XXU.v.k.u.k.u.J K L L H @.@.M @.$.#. .&.&.X.X.X.3 q 5 q O.e 8.8.9.0.7.i 7.q.q.9.3.q.q.4.<.6.5.1.5.5.6.6.5.5.1.t.y.t.5.<.6.5.5.6.5.1.5.6.1.5.4.4.4.u u y u 4.u 2.2.y p 9.p   f f > - ; ;   4 4 + + & % $ $ o % o % b ' ' N b c b j k k z S I I I R T ~ B.J.G.+X,X*X;XkXvX0X0XvXqX=XqX-XY./.~.T.:XH.E b.b.b.Q d.E d.M.l.l.Y Y E E Y Y Y T Y Z.D.Z.n.A.A.^.-XgXgXvXgXfXqX&X&X-X9X/.&XY.s.Z.d.F.F.Z.H.F.B.H.H.!.*X,X;X;X,XuXuX2X$X2X#X$XuX{.{.#X$XuX$X@X;X<X@XG.{.oX+XoXoX>XaX>X>X:XsXsX>X0XkXsX0X&XqXvXqX=X^.0XdX%X&X=XqXbX0X=XOX-X-XfX(.(.9X9X(.-X(.9XgX0X%X0X0XsXkXMXMXlXzX>X>XjXsX:X:XdXdXsX*X;XdXqX:X=X~.=X=XOXR.%X%X%X&XzX;X,XjXjX>X,X,X+XsX>X;X,XjXzXjX>XsXmXSXjX,XjXjX>XjXxXmXjXxXxXuXxXxXHXcXPXHXHXcXxXcXnXnXbXbXvXkXsXkXbXvX0XbXAXCXBXNXNXNXNXhX7XNX",
"CX7XE.6X7X7XE.g.g.U.wX(.n.U.U.eXz.z.U.Q.p.p.k.k.u.u.K K L H #.#.#.{ #.{ } ] [ [ X.O.O.o.O.O.e w.8.8.9.9.9.i i 7.0.9., : 0.4.1.<.1.1.1.6.6.6.6.6.6.5.t.t.5.<.<.5.1.5.5.5.1.1.4.1.1.5.5.1.= y u u 4.u 2.p y p i :   ; > ; - ; 4   8 4 + + + % % % o % o @ % g / ' j c b k k k z S z l A I I T ~ B.G.@X+XT.OX;X:X=X*XdXqX0XdX/.Y.F.T.A.~.B.E B.E Y P Y P E Q Q d.T E Q W P P T T P d.B.S.b.d.b.T.9XgXqXgXgXfXgXqXgX9XqX9X-XF.b.Y.D.^.F.B.D.b.b.T.!.D.~.*X+X;X>XuX,XuX2XuXuXxXFXuXuXxXxXxX2X2XxXlX;X+X;X;X;X@X@X,X,X+X,XsXlXbXsX=X:XdX=X%XdXvX0X*X~.dXgX/.&X*X~.*XOX!.T.~.~.(.Y.T.^.9X9X9X-XfXBXqX=XdX:X*X*X;X,X,X,X,X+X*X;X*X*X;X:X%XD.oX0X*XOX=X%X=X0X=X=X0X&X~.OXjX;X,XzXsX,X;X;X*XjXsX,XzXlXzXlXjXsXlXMXjXjXlXlX>XzXuXxXuXnXcXxXmXHXPXHXPXHXHXcXcXmXmXmXmXVXVXbXmXZXZXvX-XqXgXwXwXgXNXNXNXNXhXNX",
"NX7X6X7X5XI.E.6XhXNXAXrXY.U.n.W.p.Y p.p.p.p.x.u.J J K K H @.#.#.@.{ #. .] ] | +.+.X.O.e q O.w w.8.0 , < < : = , 7.: t = 0.1.<.<.: <.1.6.6.6.t.t.t.6.t.6.1.<.1.6.t.q.5.6.6.5.6.4.u 1.5.2.: u p u 2.u y y = y y =   ; > - 8 8 8 8 4 1 + $ $ % @ @ o # X @ . . ' N g k b N k k z S z l S I P P _ L.K.T.!.oX*X;X0XkXbXVXVXfXBX-X-X(.~.A.D.d.b.T.s.A Y Q Y Y P P T T W W T P I I I A R R I T l.N.R.=XqX&X9X9X9X9X9XfXgXfXfXT.b.D.Y.T.%XH.Z.D.B.d.D.Z.T.!.@X+X;X,X,X#X$X2XxXxXHXHXcXcXFXcXxXuXuXcXxX;XjXlXuX>X,X;X>X,XaX>X;X,XaX*XoXOX0X&X~.dXdX=X=X=XvXvX&X=XqX~.*X=X=X0X9XqX-X9X9X9X9X9X9X(.0XfX&X&X=X%X~.oX*X>XsX>X>X+X+X;X*XOX*X=X%XT.=XkX%XT.&X=X0X=X%X%X=X=X9XqXzX,X>XjX>X*X*X*X;X>X;X+X>XqX;X,X*X;X>XaX>X>XzXzXuXzX2XjXuXmXmXcXHXKXLXmXmXmXHXcXxXcXnXMXMXbXvXdXKXmXbXvXgXgXgX9X9XNXNXhXNXNXNXhX",
"NXwXwX6X5X5X5X7Xg.P.6Xn.a.f.f.Y.h.p.f.z.p.v.k.D J J K K @.@.#.#.@.{ $. .] [ X.+.O.3 q q * q w s 8.8.8.7.9.9.i 7.9.i : 3.q.4.<.<.u 1.u 5.5.5.t.6.5.6.t.6.6.5.5.q.6.5.1.5.6.1.5.5.5.4.4.2.: p p p 2.y : : : p i ; * 9 9 - 8 8 8 4 4 + + $ % % @ @ . @ @ @ g g k g k k N N k k z S S S S I I T B.oXG.G.J.+X;X>XkXbXdXdXBX9XgX/.(.^.^.R./.Z.b.D.f.d.E d.W T T P Q T T T I I S S S S S S S A I I T S.W.A.Y.(.9X9X(.9X9X&X9X^.^.fX(.^.0XOXF.D.F.Z.!.!.%XOX+X;X,X<X#X#X$X2XuXuXxXiX2X2XiXxXuXuX2X2XjX+X@X,X+X+X,X,XjX>XMXjX;X;XaX,X*X:X=X%X^.=X=X^.~.%X-XqX^.*XdX=XdXvXsXvXfXfX9XgXgXgX9X9X9X(.&X9XW.&X=X:X0XsXvXbXMXzXzX+X+X>X:X=X=X0X0X=XkXvX&XH.R.%X&XOXT.R.%X%X%X:X;X+X;X:X*X*X,X;X>X>X*X+X*X*X@XoX!.;XjXsX,X;X,XjX,XjX,XuXjXnXzXxXmXcXmXxXuXxXmXxXcXMXMXkXzXkXdX0XvX0XdXgXfXfXgXhXgXCXhX7XwXhXNXwX",
"NXwXwX6X7XwX5XI.E.I.).n.h.U.A.R.U.f.h.S.z.z.k.D u.u.K K H H @.@.@.{  . .] 2 X.O.X.* e w.5 O.w r - t , a 9.0.i i 9.7.7.0.q.q.5.<.5.5.1.6.6.6.t.6.<.6.y.y.y.6.1.t.4.6.6.t.t.6.6.6.5.5.1.p : 2.2.p p y : y y p f ;   ; ; * - 4 4   + + % % % @ @ c @ @ c c g b g g k m m k k z S / S l l A A P ~ N._ ! N.J.T.+XqX:X:X0XZXvXbXfX9X9XF.^.qX/.D.n.Y d.Y Q Y W Q ~ l.~ P I S S S S S S z S S S S l S l.A.h.Y.9XgXgX9XqX-X9XfXfXfXgX9X^.fX0XT.D.T.!.*X=XOXT.!.+X@XJ.{.#XxXcXxXxXxXiXuXuXcXcXxXcXxX2XlX>X;XlX,X<X>X,XaXaXjX>X*X,XzXsX*X;X=X*XOX0X0X~.~.~.*XdX~.:XbXsXdXvXsX0X-X-X/./.T.T.(.9X9X^.&X9X/.0X0X0X0X:XsXkXsX,X,XJ.J.=X;X%X%X*X&X%X=X=X&XR.%X=X&X%X/.%X-X%XW.OXoXoX*X*X@X<X,X*X>X;X;X,X;X;X;X*X+XjXlXjX,X;X;X>X,XuX$XuXzXlX>XzXmXxXxXxXxXcXmXxXmXmXnXbXbXbXvXdXVXbXVXbX0X9XgXgXgXNXwXwXhXwXhXhX",
"5X5X7X5X7X7XE.I.7X5X6XP.P.E.Y.W.S.Y i.f.p.p.k.u.k.u.K H L M @.{ { } } ] 2 2 +.O.O.* O.w.* w.>.w 8., > < i i = = = : : 3.3.q.5.<.1.5.<.t.t.t.t.5.5.6.y.t.q.u : t.5.6.6.5.5.1.1.1.u u u p u p p : = : y p p d f ; ; f 8 8 8 4 4   + + % o o @ @ @ c @ c . g N g z k k k k k z S ) S A S I I I T ~ B.B.J.oXH.*XqXOX*X*XVXbXvXBXqXbX9X(.(.A.n.b.Y d.Y Q P W ! ! _ ^ P S S I S S z z G z k z S S z I f.s.A.=XqX9X/.-XBXZXBXBXfX(.-X^.=XdX%X~.&X~.~.~.~.H.T.+X+XJ.+XxXmXmXxXxXcXcXHXHXHXFXiXcXxXuXxX2XuXmXlXuXzXjXlXlXzXjX,XsXlXsX*X=X:X0X:XvXbXdXdXqXvXbX*X=XvX%XT.H.0X%X-X-XfX/.(.(./.9X9X^.-X0X/.0XdXqX*X~.oX<X;X;X:XH.H.;X:X*X&X=X0X=X~.T.^.T.R.&X&X~.R.~.&X~.R./.OX*X;X*X~.OX*X!.OX!.*X>X;X,XjXqXzXlXjX,X,X,X;X;XjXzX,XjXlXMXuXmXHXxXxXHXHXHXHXcXMXcXnXnXmXVXmXbXZXbXbXvXfXvXCXBXwXhX7XNXNX7XwXhX",
"7XrXNX5X7X8X5X5X8XE.I.c.P.g.c.h.h.j.p.k.x.k.u.J J K K H H H @.$.$.{ } ]  . .[ +.o.* O.>.- e w.- 8., 9.9.0.9.<.: : u 0.4.q.<.: u 1.6.5.6.5.5.t.t.5.6.1.u : t = <.5.1.5.6.t.t.6.1.1.u u 1.: y y p y y p i i < ; ; - 9 5 4 4 4 1 6 6 $ % $ % @ @ v n c . g N N g x k k k z z z S S l S S I T W _ G.J.N.B.H.!.T.^.%X%X*XdXdXdXdX-X9X9X(.-X/.f.E b.E E E W ! M.! ^ W P I I I I I S I l S / S z z G I P Q d.D.W./.%X0XqXfXqXfXfX9X&X-X0X=X~.R.R.OXOXOXH.OX*X+X,X;X+XMXHXuXuXxXiXxXcXcXuXFXFXHXcXxXFX2XlXnXlXjXlXzX>X>X*X:X:X0XvXsX=X:XOX*X*XbXvX~.&X0XvXqXR.*XkX:X=X%XbXZ.T.fX(.Y.(./.R.(./.(.9X-X-XdX*XT.;X:X*XkXkX>X:X!.*XmXmXsX*X*X=X^.~./.~.~.^.9X0X(.Y.(.%XY.R./.*X%X*XR.OX=XT.!.*X*XOX;X:X*X,X*X@X;X,X*X<X;XsXnXzXzX;XzXnXzXmXMXnXMXzXjXzXzXuXxXMXMXlXvXbXbXbXvXKXvX0XqXgXqXqXgX).eXCX6XwX7XNXNX",
"7XwXrX8X8X8X5X8X5XI.I.P.I.c.c.j.j.p.p.x.x.u.u.K K K H @.@.@.@.#.#.{ $. .%. .2 +.O.* O.e * w.e 0 9.7.9.7.9.i u : 3.3.4.5.4.<.1.1.6.6.<.5.1.5.6.1.: 1.6.4.1.<.5.t.5.6.t.y.t.q.5.u u u u 2.p p p p p : : : > > > ; - 5 1 + 4 6 1 6 o o % % @ o @ b b c g g j z j z k k z z z z S S S S A A I P P W P ^ Q Z.D.F.T.&X=X=XdXdXdXvXqXgXgX(.(.(.n.n.R.D.d.b.Q E W ^ P P P W I P I I l S _ _ ` / z z z l l P Y d.F.T.~.0X0XdXgXgXgXqX9X9X0X0X0XqXkXdX0X=X*X;X*X@X+X@XoXMXcXuXiXmXFXHXKXmXHXPXPXKXFXFXHXcXKXmXjX,X>X>X,X>X;XsXqXqXvXdX=X:X*X=XvXbXdX=X-XgXvXvXqXVXZXdXsXsXVX/.-XgX&XR.9XqX-X9X9X&X&X/.~.*XOX!.=X*X!.:X0XOXT.F.T.=X*X!.OX*XOX^.%X~.R.^.R.(./.R.Y.(.-XR./.(.%X~.%XT.OX=XOX*XvXvXqXsXqX;X>X;X*X:X:XqXjXjXqXjX>X>X;XjXzX>XzXzXlXzXuXjXxXxXzXMXMXMXMXnXVXKXZXZXKXVXbXBXbXgX0X9XE.(.wXE.wX7XwXNX",
"8X8XwX7X7X8XI.I.8XI.I.c.P.g.c.c.j.p.k.x.x.u.J K K H H @.@.#.@.{ #. .%.%.%.| 3 O.O.1 w.e - w.0 w.8.7.a , 9.7.0.0.q.q.q.q.q.5.q.4.5.1.: <.1.q.y.5.<.q.y.t.6.4.4.6.1.5.t.t.6.5.<.: u 2.p 2.p y p y = = y i > > 9 d d w 4 6 o.7 6 6 % % n n # @ @ B c b c g g z ' ' k k k z z z S S S S l A I P A P P Y b.F.Z.Z.T.=X^.%XfXvXvXVXvXvXBX9X(.9X^.Y.R.D.B.Z.d.Y W Q T T P T I A I I S S l S S z z z z S P Y Y Q M.Z.D.~.(.0XqX9X9X9X&X&XgXkXkXvXbXvXdXdX:X:X,X*X+X@X+XmXHXuXuXxXcXmXHXxXFXcXFXcXcXFXFXcXmXMXjXlXnXzX,X,X:XkXdXqXqX=X%X*XT.^.dX%XT.~.R.-X0X0X0XdXdX^.^.=XgX-X-XfX-X^.-XfX-XqX9X/././.%X=X~.~.:X!.H.=X=XH.!.H.OX0X=X!.!.!.D.R.~.D.A.R.Y.Y.^.^.Y.(.&XR.R.R.~.^.%X%X*X0X%XOXqX0X%X%X%X!.OXoX+X:XqXqXjXqX,XqX>XjX2XlXlX2XzXzXjX>X<X,XlXxXzXzXzXjXjXzXvXbXbXbXbXvXvXdXqXqXqX9X6XeXwXE.wX5XE.hX",
"7X5XwXwXwX8X8X5X7X8X5XP.I.g.P.U.j.p.k.k.k.u.K K K H @.@.@.@.@.{ } } }  .[ 3 1 q 7 * w 9 - 8.r 8.9.7.7., 0.0.3.2.4.q.4.6.<.u q.5.6.6.5.6.6.y.y.6.5.6.6.6.5.5.5.<.1.5.6.6.<.<.<.: = 2.: p : = p : = : a 9.i > d s 9 8 1 4 | 6 O + o % $ $ @ . @ n g b b g x z / / k k z z z z S S A S A S I I P ^ Q ! b.b.Q Q S.OX%X*XdXfXdXvX0X9XBX9X9X9X-XT.F.n.s.b.Q P ^ W Y P P P P P T W I I A S z z z z l l l P Y Q B.Z.S.T.Y.&X&X/.(.9X9X9XgXkX0X0XsX0X*X:XjXqXsX>X,X+X+XnXmX$X$XxXxXxXxXxXcXxXHXFXFXKXFXcXcXMXnXmXKXnXaXaXsXzXkX:X*X%XOX%X:XdXbX=X%X0X9X0XfXdX&X~.%X~.*XfX-X/.^.(.-X(./.&X/.9X&XR.~.-X0X9X~.%X:XT.H.sX:XH.!.F.!.sXkX=XOX^.T.~./.A.A././.^./.-X/.(./.Y.Y.F.&X~.~.~.~.%X~.T.*XOXH.~.*XOX*XOXOX:XqX:X*X+X;XvX,X,X,XjX>X,X>XjXlX>X<X,XMXmXlXzXlXzXjXzXvXvXkXkXbXbXvXfXdXvXBXBXgXgXNXwXCX6XE.NX",
"wX5X7X8X8XI.I.5X7X5X5XI.E.c.c.c.v.k.k.k.J J K K L @.#.@.@.@.{ M  .} [ [ | 7 3 q 5 5 r e r 0 0 8.9.> 0 t 0.q.: : u <.: <.t : 6.1.5.6.6.6.5.q.6.<.1.<.1.5.5.5.5.5.6.5.6.5.u <.3.: = p = y : = > : i i i > = ; - 5 * 1   + 6 + o O $ @ @ @ @ . . b g b k g x z C z k k z z z z S S S I S S I A A T ! ! ! ! Q Q S.~.T.!.&X/.-XgXgXgXfX9XfXgX9X/.Y.A.s.b.d.Y E Q P P P T P P I T I T U I I I I I S l P Y Y E d.d.s.b.A.~./.~.9XfXgXfXgXbXdXdXbXdX:XdXkX:X>X<X@X!.!.>XxX#X>XHXHXxXxXmXHXcXPXPXHXPXFXcXKXKXmXnXnXjXsXlXlXMXlXsX*X=X0XqXbXZXvXqXqXdXvX9XdX0XR.Z.~.qX0X=X-X^.D.^.9X-X/./.(.(./.R.^.-X9X%X!.OX*XT.OXvXsX!.*XH.T.:X=XH.D.H.H.^.^.n.A.(.^.Y.^.(.R.T.Y.A.R.R.-X^.D.D.Z.D.~.R.=XOXH.%XqX*X;XOX*X>X:X*X+X@X,XmX,X;X,X>X2X>X>XjX>X,X<X>XmXmXzX>XzXjXsXkXvXvXbXbXbXbXvXgXvXBXBXgXwXgXNXgXAXwX6XAX",
"CXNXNXwXwX8X5X8X7XI.I.P.I.g.g.g.j.p.p.D J J K K L @.#.@.{ { { { %.&.+.+.+.O.q O.w.O.e w.8.0 w.8.7.t < t 7.0.: : <.4.3.5.u <.6.1.<.1.1.1.<.6.1.: <.<.5.6.6.5.6.q.6.5.6.4.u 1.2.: p 0.i a a i > > d i d > * * - 4 4 4 1 1 | $ o $ ] v @ b b c b b g j k k z z z j z z z z z z S S S I S S I P P T W W Q Q Q Q M.G.b.S.OX&XdXVXBXvXfXgXgXgX9X(.Y.Y.n.D.Z.d.d.d.Q Q ^ W T P P P P P P A A I I ) / R _ Q Y Y Q Q E s.D.R.^./.eXqX0X9XvXbXdXqXbXvXkXZXbXzXkX,X;X>XjXnXLXuXxXLXHXuXxXFXcXxXFXFXFXHXFXcXHXHXmXzXjXuXzXnXlXlXMXzX:XsXbXvXkXbX*X&X&X&XqX/.-X%XR.A.&XdX%XD.fX^.A.Y.-X9X/././.R.Y.R.^.&X&XT.H.T.~.T.%XdX=X!.*XOX:XkX*XS.Z.T.F.F.T.F.D.^.A.n.T.^.A.A.A.n.R.^.R.D.D.~.T.T.&X^.=XOXH.*X:X%XoXH.,X;XOX%X;X;X,XzX,X<X>XjXjXzX2XlX>X>XjXnXKXKXlXsXzX>X0XkXvXvXvXbXvXgXfXqXfXgXgXrX(.eXwXwXBXwXeXAX",
"wX7XwX8X7XI.I.5XwX5XI.P.I.c.P.P.h.k.k.D J ` K K L @.@.{ { #.#.{  .[ +.+.+.X.q O.w.r 8.8.8.0 8.7.7.> , < 7.<.u u 3.q.q.6.1.6.5.5.6.6.6.6.1.6.5.: <.1.5.6.6.6.5.q.6.1.6.q.<.1.0.p p i : i a d ; d 9 d s d - - w w 1 6 + + 2 + o % n # @ @ c c c b k k k z z z l l z z z z z z S S / / S I ) I I T P P P T P P Y Q F.H.%X%X0XgX9X(.9XNXBXgXhX9X/./.D.Y.A.d.s.E E Q Y ! ~ T P P P T T P P P I P l A P P P Y M.Z.Z.D.R.R.Y.Y./.&X/./.qXdX*X&XkXdXqXZXZXmXmXMXnXLXLXLXIXmXxXmXzX,XxXmXxXcXcXHXFXFXKXHXxXmXcXzXzXMXnXmXzXzXlXzX:XkXbXkXvXdX0X:X*X&X9X9XqX9X0X0XvXbX&X^.fX/.Y.^.(.(.^.R.R.Y.Y.^.~.%X%XH.H.K.!.T.%X=X!.R.Z.T.:XdX*X~.OX*X^.Y.^.^.T.T.D.T.(.T.n.A.Y.F.Y.Y.Z.Z.R.0X%X^.0X~.*X%XOX0XqXOXOXoX:X;XOX*X,X;X;XjX@XoX>X2X>X>X;XjXlXMXnXZXLXKXnXlXMXkXdXvXbXvXvXbXbXvXgXfXfXgXgXgX(.eX9XeXeXeX6XNX",
"wX7X8XI.5XI.5XwXCX7X7X8X7X5X5XE.z.z.k.k.) ` K L H @.M M @.$.$.{ &.X.+.+.X.7 q w.e * 8.8.w.8.9.8.< > < 7.9.<.q.0.4.q.4.1.<.6.6.q.5.6.6.6.5.q.6.6.t.y.q.q.y.6.5.6.<.u 5.4.u u 0.2.i > = = > ;   ; d > ; *   * 8 7 + + O o O $ o % v @ @ c c c g k k z z z z l l z z z z z z z S S ) / S S ) I A P T T T T I T T Q B.B.Z.b.D.-X9X9X(.gXCXBXBXgXrXqX-X-XR.Z.s.Y Y d.P Q Q E W T W _ ~ ^ P P I P V P T T Y Q Z.B.d.d.%XR.Z.A.R./.&X-XqXbXdXvXZXbXqXVXqX>XkX>XjXZXSXnXnX>X2XzXuXuXcXFXcXFXFXPXHXFXPXHXcXmXMXuXzXmXKXKXzXzXMXzX:XsXlX:X0X%XqX*X~.~.R.qX/.R.&X0XvXkX%X=XfX~.^.-X-X^.Y.Y.R.A.Y.(.~.~.~.H.H.H.~.~.%XOXD.T.Z.H.~.D.b.S.H.F.R.Z.Y.D.n.n.n./.(.Y.n.Y.(.T.Y.A.D.A.D.%XD.D.0X&XT.~.~.0X:XoXOX*XqXqX,X;X,X*X,XMX@X@XzXlXjX2X;XzXuX>X,X>XjXsX;X;XkX0X0XdXkXkXvXbXgXgXvXBXgXfX9X9X9X9XrXeXeXrXeXgX",
"8X7X5XI.8XwXNXCXAXwX7X7X7Xc.I.I.h.p.p.p.x.x.J H #.M @.$.{ #.$.} +.+.+.X.X.O.O.O.s r 8.8.7.7., 9.7., 9.9.0.7.3.<.: u <.<.u q.q.5.6.5.1.1.5.6.6.5.y.t.5.1.6.6.5.6.5.<.5.1.u : 2.2.y i > > > > - 9 9 - *   * 5 4 7 1 2 $ $ ] $ # v { n v b m b k k k z k z z z l l k k S z I I l I / S S l I I R A P T _ T P ! l.T l.B.Q E &XfX^.-X9XgXgX9XBX9X9XqX9X(.R.A.n.E s.S.Q M.Q P P ^ ^ ^ ^ P ^ W P B._ ^ N.W d.B.F.Z.d.F.T.b.Z.R.&X%XR.%X%X0XdXvXbXbXbXmXkXkXbXlXMXKXmXzX>XuXnXnXlXmXHXxXxXmXmXHXFXFXPXKXHXHXmXmXLXIXIXLXmXmXmXMXsXsXsX:X0X:X=XH.D.%X&X=X/./.%X~.&XD.~.^.-X(.Y.Y.n.f.Y.A.A.A./.~.^.~.D.~.R.~.T.:XD.~.F.D.S.S.^.H.H.Z.D.b.b.b.b.Y.n.n.b.n.a.E a.A.n.f.Y.A.Z.A.D.Z.Z.D.R.H.d.D.H.H.oXOXOX=X:X%XoXoXoXoX+X,XoX,XFXMXzXnXzXzXSXKXMXkXSXMX;X:XkX0X:XqX0XqXkXgXgXvXbXfX9XqXgX9XeX(.9XgXrX9X6X6X",
"5X8X5X5X8X7X5X5X8XI.I.8X5Xg.c.c.i.i.Y p.k.D G L K M @.#.{ { #.} [ X.X.7 7 q O.e e r 8.8.9.9.t t i 9.9.7., 9.3.: : <.<.1.3.q.1.: <.<.<.1.5.1.1.<.5.1.: : 1.5.5.5.6.<.<.<.3.u p : p i < ; 9 f 9 9 8 5 8 8 w o.7 | 6 2 $ $ ..] # b n c c c g g g k z k z z z z z z I S S l I _ R l.) S S _ _ R A A T I I P A I R T P Q f.d.&XqX-XgX9XBXBXgXAXgXgXbX(.(.R.Y.D.Z.n.S.Q ! Q ^ ^ ^ ^ W ^ P ! M.P ! W W W T d.N.D.D.Z.T./.T.R.R.~.%X/.&X&X&X%X&XqXkXbXZXKXKXLXKXnXmXnXlXlXnXHXmXnXHXKXmXcXxXxXHXKXPXPXHXcXHXHXHXLXIXLXKXSXSXZXmXkXsX:X%XkX0X=XOX0XvX9X%X0X-X-X0X0XT.OX~.^.^.Y.Y.b.b./.&X9X^.^.D.Z.H.D.~.~.T.B.OXD.*XR.R.H.H.~.H.H.Z.T.D.A.F.Y.^.A.D.F.A.n.f.n.(.R.Y.Y.n.n.Z.Z.b.Z.F.Y.T.F.T.R.T.~.OXOX%X:X%XoXOX<X,XlXVX;X,XlX>X,XzX>XjX>X,X<X*X>X,X;XkXbXdXqXqXqXdXvXbXfXfXfXfXfXvXvX9X(.9XBXgX9XeX(.6X",
"5X5XE.I.I.E.E.I.I.I.E.E.I.m.8X7Xg.j.i.z.z.D ) K H H @.@.{ { {  .X.X.X.X.X.o.O.>.* * r - < < * * , 7.9.0.7.0.0.0.4.q.3.3.5.5.: t 1.<.1.6.6.<.<.1.q.6.5.1.4.q.6.1.u : u u 3.p 2.i a i ; ; - 8 - - * * 5 5 7 7 1 1 O o o o # @ @ @ c c c c m N N N z z z l l l l z z / ) P _ *.I _ l z S '.'.L.T I T A P T P A I R R R Q E b.D.A.R.U.9XfXeXgX9X9XqX9X9X-XR.^.R.Z.d.d.! E Y E Y ^ ! M.W _ N.^ ~ P T W Q N.G.N.F.Z.H.T.T.^.T.R.&X%X-X0X0X&X0XdXqXqXvXqXzXZXnXzXnXnXnXlXmXKXKXmXHXKXmXmXmXHXPXKXmXHXmXmXKXLXLXLXIXLXmXmXnXMXlXkXkXbXkXkXdX:XT.T.~.Y.Y.%XR.D.*X%XT.OX=X-X(.Y.T.Y.^.9X0X9X^.Y.n.Z.H.H.~.R.T.Z.&X^.*XR.H.T.R.%XT.T.F.T.T.f.b.Y.^.b.A.Y.A.A.A.Y.-XW.Y.R.A.n.A.A.R.%X/.T./.%X~.~.~.R.OXOX~.H.H.!.*X;X,XjXMX;X<X,X,X,X,X@XoX,X*X>XzX>X=X:XkXqXqXqXvXvXkXdXsX-X9XfXfXfXgXgX9X^.9XgXeXeXeXE.E.",
"7XE.I.P.g.P.E.I.P.5X8XP.m.I.NXwXwXwXW.rXqXz.x.G L H @.@.$.{ }  .X.+.O.O.O.O.O.w.r e 8.0 , 7.9.0.9.0.0.q.2.0.0.q.4.4.<.<.3.0.4.4.4.5.4.q.q.1.1.q.6.1.1.<.u 1.3.: : u 3.3.p : i 9.a d ; * - 4 * *     1 1 1 1 O + $ n n # v @ @ v . g c b b k k k z z z l z z S I l _ _ I U U l I ) / A S l I I I P P T l.R I I R B.R T Y f.T.R.R.Y.9XgX9XgXfXqXfXBXBXvXqX0X%XY.Z.D.M.E E Q Q Q B.N.Q ! M.^ M.W W M.B.J.G.Z.F.B.F.H.D.^.~./.&X/.&X~./.&XkXbXkXdXbXkXkXbXvXlXKXmXMXzXmXKXKXFXHXFXmXFXHXKXPXHXxXFXmXmXKXKXmXKXKXmXmXmXbXbXbXbXbXVXVXdXvXsXT.F.D.A.R./.D.Z.0X&X%X=X0X(.^.Y.Y.Y.(.(.R.^.F.A.D.^.~.~.~.T.T.T.%XD.H.Z.b.Z.F.T.Z.Z.d.Z.Z.d.b.R.T.E n.R.n.b.n.D.R.f.a.n.n.n.A.n.D.%XR.A.~.R.D.T.R.H.R.OXH.L.R.OX:X>X,X>XqX,X;X2XMXnXzX;X+XaX,XlXMX;X*X0X=X:X0X0XdXvXdX=X=XfXvXbXgX&X(.9X9X(.gXNXeXwXeXE.E.",
"hX5XE.E.I.E.7XI.I.rXNX5X5X7XCX7XP.I.P.rXrXXXXXu.L K H @.$.#.}  .X.X.X.X.q 7 q q * r 8.0 , 7.7.9., 9.9.: t <.q.0.4.4.3.3.: 4.0.4.3.5.5.6.6.1.1.q.<.<.3.1.<.4.q.3.3.2.2.2.2.i > , > > - * 5 5 5 5 7 6 7 7 7 6 $ ] ....n n n c c c c c b b k k z k l z z S S I I / I _ ~ l P ~ I _ l S ) I R I I P T T l.l.R R R R L.R T Y l.OX%XR.-XBXVXfXBXgXvXBXVXBXvXgXqX^.Y.T.OXN.Q Q M.b.! M.W W ! b.^ N.B.! B.N.K.N.N.H.H.T.%XT.~.&X-X/.R.%X%X%X&XqXkXqXsXVXVXbXnXnXnXKXmXlXmXKXKXKXKXHXmXmXmXcXcXHXHXFXHXFXHXKXmXlXnXmXmXmXMXbXVXKXbXkXdX0X=XqX0X~.&X=XR.&X=XY.Y.vX0X%X~.!.T.Y.^.Y.n.Y.Y.Y.Y.F.A.R.%X%XOX!.~.T.S.S.f.b.b.Z.Z.D.D.d.S.b.S.T.T.T.-XR.s.Z.W.b.D.Y.R./.A.n.R.Y.f.f.Y s.A.b.s.Y.S.f.Z.T.T.~.OXT.!.oX%X*X<X;X,XqX;X<X,XMXnXzXjXzXlXuXMXjXOX:XvXqXdXdX*X*X0X0X=XfXbXbXVXdX~.^.9XgX9XBXCXhXeXE.P.6X",
"7XP.m.P.I.5X5Xm.I.7XNXI.I.5XwXI.I.I.c.P.c.i.D k G H H @.$.{ ] [ +.X.7 7 3 1 3 5 * 5 e e 7.8.7., t : 2.: : <.0.4.t u 4.0.<.0.q.4.3.4.5.4.4.<.u 4.<.<.4.3.<.0.q.4.2.2.2.9.i a > 9 r 5 4 1 7 7 7 o.X.6 | X.| 2 $ ] $ # o . v B c . N N N b j z z z z z A A l l I I C V P V ~ V._ _ I l I R l.W V.'.T ! B.~ P R ) R ) F R Y Y d.f.s.F.-X9X(.fXfXgXbXVXBXvXgX0XR.Y.%X~.G.d.b.Z.M.W W W b.H.G.W N.B.B.N.B.G.N.K.!.R.~.&XH.^.%X&X/.R.9X=X0XqXdXdX=X:XvXvXkXnXvXlXmXmXnXKXKXZXmXmXmXmXmXmXmXcXcXxXxXmXcXFXKXmXnXnXmXmXVXnXbXVXKXmXkXkXkX:XkXdX~.%X/.R.0XqXR.D.0X~.H.T.D.R.Y.Y.n.n.Y.R.Y.R.Y.b.F.H.F.H.F.OXF.b.Z.F.T.T.Z.H.R.T.d.D.D.R.&XZ.D.~.Z.E d.D.s.s.a.f.Z.f.f.A.f.E f.f.A./.R.D.^.R.D.T.OXOX%XOXR.oXOXOX*X+X@X@X@XoX+X;XlXlX;X,X,XMXzXMXkX:XkXbXqXqXdX*X&XsX0X*X0XbXkXsX:X*X0XbXVX9XgXNX9X7X).I.6X",
"7XE.I.E.E.7X7X5XI.7X7XE.I.I.7XI.I.I.c.g.j.j.k.k.J H H @.{ } ] [ +.o.X.X.q 7 q q q e e 8.8.9.9.7.9.9.0.0.0.3.0.3.: 0.q.3.: 3.4.<.4.4.1.3.4.1.u 3.3.0.0.3.: 3.0.: i i 7.9.< < - - w 8 1 + 6 7 7 | 6 + 1 6 2 O o $ # # @ @ B B M m c m N j j z z z S S S l l z I _ P l U ~ ! M.~ P P l I l.V.W P T W W Q T A R R I D A R Y Y f.s.s.f.Y.T.D.9X9XgXVXAXAXVXbXgX9X-XdXOXT.Z.Z.K.N.! Q G.N.J.J.:.G.N.B.L.N.K.K.H.!.D.T.R.D.~./.&X&X/.0X~.&X0XqXkXdXkXbXbXvXmXnXlXmXnXnXVXZXnXlXZXKXmXmXmXKXHXmXuXuXFXmXcXnXlXlXMXnXnXmXKXmXVXKXVXmXZXKXbXZXbX&X&X%X~.vXvXR.Y.*X%XT.=X^.Y.b.n.a.a.Y.A.n.A.A.f.b.b.b.Z.b.H.b.b.D.T.R.D.b.Z.T.Z.E F.Z.S.T.E d.S.s.s.f.S.s.s.s.f.A.f.f.S.f.s.f.Y.-X0X&XR.R.R.R.R.~.&XOXR.~.%X*X*X,X,X;X+XoX+X,X>XnXlX<X;X<XaX;XaXjX:X=X:X&X&X0X&X=XvXdX%X=XmXsX*X=X=XfXBXVXgXwX9X6X7XhX6X).",
"g.P.E.E.P.g.P.P.g.P.E.I.I.I.8X5XI.I.I.P.E.W.z.D J G H H B v }  .+.+.+.O.O.O.O.O.O.w.w.8.8.8.7., 9.0.0.3.: 0.0.2.: q.0.t t 3.3.4.2.<.: <.0.3.<.q.0.q.0.<.: 3.3.= < < , 7.= - - - w 5     1 7 7 7 7 + 2 2 $ o o ..# ] n c b c c c c N H / / / S z S S S S I _ V.'._ I V.V.P P P P P I l I I _ T P P P P T T R R F l.l.k.R p.l.E s.S.R./.R.gXfXgXVXgXBXvXfXfXfXfXvX:X;XoXT.!.H.N.G.@XB.M.N.M.J.G.N.N.N.J.T.!.T.F.H.H.^.9X9X&X-X%X*X&X0X:X=X0XqXdXvXvXqXkXlXbXKXZXVXbXnXzXMXLXLXKXmXKXKXHXHXmXKXIXPXmXmXnXlXnXmXVXKXVXvXkXbXvXqXqXdXbXVXdX*XvXvX0XvX-XZ.R.0XqX~.=XA.n.m.Y.n.a.n.b.n.a.b.d.Z.Z.b.Z.b.Z.Q d.d.s.Q f.E S.T.D.d.H.Z.d.b.b.S.T.Z.T.Y.T.Z.f.S.Y.R.s.Y S.Z.f.h.A.Y.Z.f.f.s.d.Z.b.Z.T.H.A.R.OX~.R.oX*X:XqX>X;X>X<X,X;X@X>X>XjXOXOX:X*X~.&X0X-X0X&X*XvXdX=XsXKXMX0X:X*X=X0X0X9X9XeXE.E.7X6XI.",
"m.wXeXn.n.n.g.g.i.g.I.g.P.I.I.I.I.8XI.I.7X6XE.h.p.F S ` @.@.%. .&.X.q o.O.O.e e e r.0 8.8.0 0 , < < , , = < 9.7., 9.2.: : 0.q.q.q.u : : 2.0.u 4.u 1.u = <.0.0.2.9.0.9.a s 9 r >.8 4 7 6 6 o.6 + 2 ] ] ] n $ # n v v v c c m m j N m N N z z l l l S I I I I P l I l P V l T ~ _ W I T l.l.Q Q Y P W Q P T R S ) R R R l.R R p.R Y h.Z.Z.R.9X9XhX9XgXvXbXbXfXqXVXbXmX*XG.@X;X'.K.@XK.K.J.N.N.K.M.G.B.H.OXOX*X*X!.*X0X0X0X0X-XR.R.&X:X%X:XvX0X0XdXvXkXvXkXvXmXbXVXkXnXjXMXLXIXLXLXZXmXKXKXHXHXnXnXVXMXnXmXMXMXmXVXzXkXvXmXnXkXkXbXVXKXbX0XfXgXqX9X/.Y.n.Y.-X~.Z.b.h.a.W.Y.a.b.D.b.d.b.d.D.H.Z.T.H.F.K.Z.b.Z.b.E d.F.s.E b.b.d.d.Z.f.s.s.s.i.s.s.i.s.f.A.S.f.s.B.R.Z.n.n.h.f.n.n.b.n.n.Y.A.D.^.Y.R.T.H.OXS.S.%XoXOX!.@X;X,X;X;X,X;X;X*XqX0XOX&XfXfX9XqX-X*XVXmXqXmXIXVXkXvX0X(./.(.gX(.).W.P.I.).I.",
"n.gX9Xf.i.h.h.U.i.c.6Xc.c.c.c.I.I.I.g.g.5X8XP.i.h.f.L.4X].$.#.} +.X.X.O.e e r r 8.w.r < < < 9.9.9.9.7.7.7.9.e.9., 9.9., <.0.q.3.i = , 0.0.3.u 4.u 4.0.<.q.q.0.<.9.0.a > a 0 5 w 8 4 7 6 1 1 + + $ $ @ o @ @ @ v v v c c m m N N m m N N S z l l l l S l l A P P l l U I I *.V.G.l.~ ! B.B.d.Q Y P T T A R _ D R ) D R R R R p.s.R s.f.h.Y.^.(.6XgXgXvXBXZXZXAXLXbXbXqX,XjX+XN.C.K.N.L.K.G.H.R.D.T.H.OXOXH.R.&X%X0X0X-X-X9X9X-X-XdXkX:XdXbXdXvXVXdXkXbXkXvXVXBXvXnXMXzXmXLXLXmXVXmXmXLXKXKXKXZXKXKXnXlXMXzXjXvXnXlXlXnXKXKXVXVXKXKXZXvX=X0X-X^.A.R.n.f.Y.=XT.d.Z.n.i.A.f.a.n.T.b.B.F.B.H.H.B.D.S.d.N.N.B.T.T.D.T.T.F.Z.Z.Z.d.Q d.E s.s.s.s.s.f.s.f.f.f.f.f.s.d.T.f.f.h.h.f.n.A.n.Y.Y.^.Y.F.T.F.A./.D.R.F.OXvXOXR.@X+X>X>X,X,XaX>XsX:X0X=X~.&X9X(.(.9X-X-XbXbX:XbXLX0X~.=XqX9X9X9XgX).).eXwXwX6Xm.",
"n.rXeXa.h.Q.U.h.j.U.6Xc.g.g.P.I.8XI.P.c.8XwXI.g.P.h.z.L.` B { }  .X.X.O.O.s 8.8.0 e.8.8.9.7.9.9.9.q.q.0.7.i 7.i i 9.9.i <.0.3.: , : < 0.0.: : 3.: 2.2.u 0.0.2., 9.9.9 = 9 s 5 4 5 1 1 7 2 + 2 2 ] ] # @ @ b c v v v c c c b j k m m N N S I I A A I I I P P T ~ U _ C.*.U M.B.B.~ P T ! ! Q T P T Y I P ) l.R ) ) S D R R R R Q s.s.s.n.Y.U.Y.(.).(.fXgXgXBXAXLXkXvXkXlXMX;XK.'.'.G.K.J.K.J.R.H.K.G.K.K.K.~.%XR.*X&X(.&XqXqX9X0XZXZXbXmXbXqXdXvXqXvXVXvXvXVXbXkXvXMXMXKXIXIXVXmXmXKXLXKXmXnXMXVXLXmXnXnXMXlXnXmXkXjXvXVXKXVXVXZXbXdX:XqXfXfX9X(./.A.n./.qXR.d.Y.n.a.A.f.f.D.^.B.b.B.b.Z.b.E s.s.Y d.Q E b.Z.b.B.b.B.Z.Z.b.Q Q s.Y s.f.f.f.f.i.s.Z.f.s.f.S.f.f.S.a.a.f.h.f.n.A.n.f.f.n.n.n.Y.F.F.T.b.^.F.~.kX!.~.:X:XjXjX,X;X,X;XqX;X=X%X/.-X9X^.&X9X0X-XdXdX%XsXVX=X~.0XgX9X9X9XgX6X6XwXwXwX6XI.",
").wX6XU.W.eXQ.h.h.h.U.j.g.h.I.P.E.P.c.c.8XwX5Xc.I.g.F F S N H @.%.+.+.O.O.s 8.8.8.e.r., 9.9.7.7.7.0.9.9.7.i 9.9.7.9.2.i , 3.3.: , < < 0.9.: 9.0.3.2.i : 7., t = 0 0 *   5 5     1 2 + | 2 $ | ..# n @ @ b b @ @ v c c c c m k k m m N z S I P l l P I A A P T W _ B.K.M.U M._ ~ ~ P P W T P P P T P T I R l.R R ) D R l.l.R R Y p.R s.S.Y.n.U.9Xn.(.BXZXgXvXZXZXkXmXmXMXlX>X<X<X'.J.J.K.G.K.G.B.G.G.G.H.oX*XOXD.R.R.R.&XqX9X(.(.qX0X=XkXkX=X:XqXqXkXbXkXqXkXdXkXvXzX,XjXKXLXKXVXmXKXLXVXvXkXzXmXLXnXzXlXlXzXlXMXjXsXkXmXVXvXdXdXVXsXfXvXvXbXgX9X9X(.(.qXgX~.A.%Xf.h.(.D.n.D.^.Z.d.B.Z.Z.b.s.f.f.b.G.b.Y b.Z.b.d.Y Q d.d.Q E E s.f.l.f.f.h.f.i.s.Z.s.s.S.S.f.s.f.s.a.h.n.h.n.n.h.a.f.n.b.n.A.n.n.D.d.~.F.T.qXT.OXOXOX;X>X*X*X,X>X;X:X:X*X0XgXfX&X-XqXfX9XdXdX=XkXdXfXqXfXdX-X(.9XhX9X7X7X).E.).E.",
"E.W.P.g.j.j.j.h.j.j.j.i.j.j.U.j.P.P.c.E.7X7X7XI.P.g.i.h.x.) K H #. .+.+.O.e 8.8.8., < * 0 8.t 7.9.9.< t < i 9.9.i , i i 7.9.0., , a , e.9., 0.0.i 7.9.7.e.a < > e w * * q 5   O O $ o O o o n o @ n v @ b b c g c c c c m N G G m G G z z I P l I I I P T ~ W T ^ U l.~ T l._ ~ _ T _ B.~ T T T T P T R R ) R R ) R ) l.l.~ R Y R Y p.S.Y.h.n.9X(.9XAXAXBXVXKXZXZXLXKXVXMX>X,X,X@X@XoXJ.T.oXT.H.!.+X*X;X;X*XOXOX*X-X-XfXvXfX(.(.qX=X*XdXkX;XqXqXbX0XqX0XqXkXqXkXnXkXqXbXLXKXbXbXmXVXKXZXVXZXKXLXIXKXmXHXVXnXnXmXkXkXvXmXmXkX:X=XVXdXdXbXvXgXgX9X9XgXfXfXqX/.Y.&Xf.A.-XY.Z.Z.D.Z.d.b.S.Z.d.f.f.b.Q B.Q P b.G.b.E E d.b.s.E Y Y R p.p.R s.f.f.s.s.h.s.s.S.S.f.p.f.s.a.h.S.f.f.h.f.f.n.Y.A.F.R.F.F.T.Z.~.T.~.sXH.T.*X%X;X;XoXoX+X;XT.%X*X&X=X9X&XR.R.&XqX9XqXqX*XsX=XdXqX=X0X9X(.(.gX(.).6X7X6XE.P.",
"E.I.h.g.h.h.h.U.p.j.z.h.v.i.z.i.i.j.i.P.I.c.I.c.c.P.P.W.XXx.G L M } [ X.o.>.w.8.7.< 0 < 7.9.t 7.9.7.< < < < , < , < , 7.7.9.9., , 9.7.9., = 9.9.< 7.e.8.e.0 9 8.e w 5 7 O.7 1 7 | ..[ } ] .. .n v B n c b b b m m m m m m N z N N G G S S I I l R I I I ~ _ ! W T P W ^ P ~ W W W T _ N.l.~ ~ _ ~ I l.) R R R ) x.) R l.l.R R Y Y Y p.Z.A.f.n.&X9X0XfXgXvXVXKXZXKXKXKXLXmX>X,X>X<X,X+XoXoX@XT.J.*X+XoX+X>X:X%X*XdXqX0XfXgX9X(.&XVXkXsXmXbXqXvXvXKX0X=XdXVXVXvXvXVXkXvXLXIXKXbXmXVXVXKXVXVXZXKXLXIXHXnXmXnXzXzXkXqXsXvXbXbXdX:X=XdX0XdXvXgXfX9X9X(.fX9X(.&X/.Y.W.A.Z.R.b.b.b.Z.d.s.s.d.s.E Q Y Q P ! Q Y B.K.d.Y d.b.l.s.Y Y Y R p.F R R Y s.s.Y f.s.s.f.f.p.p.p.i.i.f.z.f.s.s.s.s.f.Y.A.Y.R.Y.Y.Z.Z.%X^.T.~.Z.S.;X*X,X,XoXJ.@X*XT.%X*X%X&X^.A.A.^.-XdXdXdXqX%X*XdXvX-X~.0XfX9X9XgX6XE.6XwX7XE.I.",
"I.g.g.h.Q.Q.z.v.j.v.z.z.k.p.Q.p.s.h.U.U.c.c.I.c.c.I.P.E.W.p.D J @.#. .&.+.O.e 9 8.8.8.a 7.9.7.0.i 7.7.0.7.i 7., 7., 7.9.7.9.7.< < 7.a 0 > = a 9.< 8.8.- r * * 5 1 5 1 1 X.7 O 2 [ 2 ] ] n { n v c b b . g N m j N N m m N k k k k G G S I I I A A I P P I ^ T P ! ^ ! W P P P T ~ P P _ _ U ~ l.l.R l.l.R ) ) ) x.) R R R R R Q R p.p.f.h.f.h.Y.R././.9XvXVXVXZXVXmXKXKXVXlXzXzX;X,X+XK.J.J.G.N.,X{.N.T.qX:X%X*X&X(./.-X9X/.E./.dX:XsXZXbXsXbXmXZXkXkXmXKXKXbXvXKXkXsXvXbXbXVXKXVXmXZXnXvXbXmXLXIXKXmXKXVXnXmXVXqXsXkXkXdX0X:X:XkXvXdXfXgXqX-X(.(.9X(.Y.^.R.Y.Y.Y.b.Z.a.d.f.f.d.d.s.l.E Y f.Y Q b.G.Z.B.H.T.B.d.s.Q Q Q R R R R k.F k.z.Y Y l.Y s.p.p.R p.p.p.p.p.p.f.z.f.s.s.s.h.Z.Y.n.n.n.a.f.a.D.~.~.D.Z.D.R.oX!.*X;X+X+X>XvX:XdXqX0X0X%XT./.fXvXVXbXvXkX:X0XbXbX=X&XgXfX9X9XgX9X(.(.6XE.I.).",
"E.E.I.P.U.Q.U.h.v.p.p.p.p.p.XXp.p.R Q.U.j.c.c.I.I.c.g.P.W.h.p.k.L @.#. .+.O.e r r s 0 a 8.7.9., 9.7.7.9.9.7.9.> 9.a 9.9.9.9.9., a 9.8.8.8.0 < >   > r   * 5 - *   4 1 1 | | 2 2  .]  .{ n n @ c c m b g N ' N g m k m m G G S S z G / S I R W P P I I P P P P P W P ! ! T T T l.L.T P I I I W _ ) A R ) I R R R x.R I R R R R Q R s.R Y s.s.a.a.s.A.R.-XvXvXkXbXmXKXLXKXmXKXZXzXjXMX>X@X*X;X@X@X;X@XJ.+XsX%XR.0X%X(.(.9XgX9X(.0XdXsXmXLXZXsXvXvXvXvXZXZXVXVXkXkXvXnXbXvXkXVXZXzXkXvXmXvXkXbXZXLXLXmXvXmXmXnXZXLXvXvXvXvXdX0X0XqXsXvXfXfXvXgX9X9X9X9XW.Y././.Y.D.A.f.Z.s.b.s.s.B.s.E f.Y Y s.Y R Q B.! Y ! ! Y Y Q T Y R R R R R R F x.L.R p.L.l.R p.p.p.p.l.k.p.p.p.l.z.p.p.p.p.f.f.A.h.f.n.n.n.Z.R.D.T.T.T.*X=X:X=X:X0X+XoX;XsX=X:X&X&X=X%X^.0XdXdXvX0X=XdX0XdXvXkX0XfXbXqX(.gX9XeX).).).I.m.I.",
"I.c.c.g.g.U.j.z.z.z.z.k.x.k.k.D D R k.p.i.c.E.c.c.c.c.7XeXj.p.k.J L @.B  .+.O.>.5 8.w.r a < * < a , 9.9.9.9., > 7.a a 7., a 9.t < > > 8.a > > w.9 s w.r e w.5 * 7 o.o.o.| 2 O .. .# v { v c b c c N N N z z N / N k N z G / z S / k ) I l T l I A T R I I P P Q d.A P Q W W l.oXK.W T B.L.K.'.'.l.T R l.l.R S R ) R F R p.p.E Y f.s.l.S.f.s.f.n.s.f.Y.0X0XqXmXVXmXVXKXmXmXKXbXVXZXLXMXkXmXsX>XlXKXMXjXSXZX*X~.0X=X9XfXqXgXgXgXBXLXKXnXbXnXlXmXVXkXkXvXqXvXkXvXqXkXvXsXVXLXbXbXvXZXmXmXbXmXKXKXLXKXmXmXmXmXbXvXZXbXbXbXbXkX0X*X%XOXT.~.0X(.9X9XfXgXhXgXfXfXqX&X&XY.Y.n.E s.f.s.Y s.R R p.s.p.R R T ! ~ T P ~ R P T T I I R R D D D ) ) D R ) ) R R R R R k.p.p.p.z.l.l.l.p.l.l.p.L.f.f.h.f.n.Y.Y.A.Y./.D.Z.d.D.~.T.:XsXT.H.*X*X;X%X=X*X&X*X=X*X=XqXvXvXvXvX-X&X%XsX=X0X-X%X(.R.(.9X(.).).7X6XI.P.",
"NXE.I.c.E.6Xz.j.p.p.x.D k.) k.J J D k.p.p.h.P.c.c.I.I.7X5Xc.j.v.J G ` B { ] | o.w >.w.- s s a e.e.7.9.7.8.8.- = 8.8.8.8.a 8.e.< > a 8.8.8.0 0 8.w.w.w 5 O.>.q * 7 X.2 + 2 2 ]  .] @ # n c c b g g N N z N / / ` z z G z G G z S S / V.A l M.T A T T P P ~ Q T W P P Y Q W W N.K.l.P P T ^ T ~ T T F F R R F R k.x.) R p.f.Y Y s.f.E s.f.s.s.Z.Y.R.R.%X&X~.%XkXkXnXmXKXZXKXKXvXvXsXbX>X:XsX;X,XzXaX>X+X>XsX%X&X0X9X9X9X-X9X9X(.&XkX>X:XnXMX,XqX:X:XsXbXqXvXvXvXqXkXvXqXvXmXvXbXVXvXvXVXVXKXLXLXLXKXmXVXmXVXmXbXVXvXvXbXbXvX0X~.D.T.T.~.qX(.(.9XfXgX9X9X9XrX9X/.-X/.R.A.n.f.s.Y Y R R R R R R R R l.B.l.R R R R I I R R R D R J J J J J J J ) ) R ) R D R ) R R R k.p.k.k.R p.p.R p.p.f.f.a.h.n.n.a.b.A.b.Z.b.H.T.~.OX%X!.OX,XOXOX~.&X%X~.%X%XOXOXOXvXvXdX=X/.&X*XdX=X=X&X(.&X(.-X9X).(.(.6X6X5XwX",
"7XI.P.c.U.U.j.j.p.p.x.J J D J G J J J k.u.k.z.j.i.c.I.I.c.g.c.j.v.u.x.G H {  .%.>.>.w.q e s s 8.= = s 8.w.w.*   w.8.0 0 s 0 0 > - 0 8.r r - 9 r r >.* q w.>.>.1 7 X.6 2 | +.| ] # o @ b . g m g g N k z z z I ` z z G z S S z I / V.{.) T oXK.~ A I I A I P P Y P ! Q Q T P M.W T T T T T T ~ T l.Q R l.l.) l.XXx.R p.z.S.s.s.S.Z.Q E s.s.f.S.T.f.S.R.T.L.%XkXkXbXmXZXVXZXKXVXZXVXZXbXvXkXqXqX;X,XsX;X*X=X&XqXfXvXgXgXqXgXbXgXdXZXsXsXKXnXqXlXkX;XkXmXqXkXkXkX:XvXmXkXdXdXqXvXbXkXkXmXvXvXvXkXvXkXsXMXMXbXVXbXmXkXkXvXvXvX0XT.Z.&X9X-XBX9X(.9X9X(.(.W.Y.(.^.n.W.A.n.n.n.a.Y i.f.Y R R R D D R R I ) ) S S I I S I R / G G G G J J G J G J J J J ) D D ) ) ) J D D D R k.D R k.p.p.l.S.h.f.Z.A.f.a.n.Y.Z.A.n.T.^.%XT.~.%X;X:X!.OX&X-X/.~.&X*XOXOXOXvXkX0X*X&X9X=XvXsXfXqXqXfX9X9X9XE.6X6XI.I.I.).",
"I.I.I.P.c.g.j.z.z.z.L.x.x.J u.` J G K K u.u.k.v.j.U.I.c.j.c.c.c.v.p.k.S G H $. ...[ o.3 q e s a * = s 0 r -     s 9 * r e - * 9 r 8.w.r - - w r 5 >.1 o.O.1 3   O 2 2 2  .| # o ] @ @ b c g k k k N z j l h l S S z S z S ) S I l I _ P A _ ~ P P R R R T P P W d.J.B.B.! Q K.Q T Q M.l.l.B.L.N.l.R R l.l.R l.L.k.R l.S.S.s.s.Z.f.s.f.S.S.S.A.Y.s.b.R.T.T.%X:XqXlXvXbXbXZXKXZXLXKXZXVXZXmXmXmX>XsXMXaX=X:X0XfXgXqX9X9X=X0XbXmXbXLXMXMXKXbXvXKXmXkXVXLXvXkXvXVXnXvXVXbXvXvXkXkXkXqX0XdX0X=X:X=X0XkXkXbXnXmXKXZXZXZXZXZXVXbXvXqX*XbXvXT.9X(.(.wX9X).(.W.Y.9X(.A.(.Y.Y.Y.A.a.Y i.p.R R R D D D S S S G G S S ) ) / G G G G G G G G H G G H K G G / J J S J ) ) ) J k.D D ) ) k.k.k.k.z.Q.S.n.A.Y.n.n.R.9XR.A.b.R.%X~.T.*X=X*X%XoX*X9X9X/.^.*X=X%XOXsXkX=X=XqX0XqX-X0X=XdXqXqXqX(.(.9XY.eXhX6X5X).).",
"E.I.I.P.P.h.h.j.k.k.x.k.x.) u.K J L K K K K J k.k.z.Q.c.j.c.c.c.j.j.z.p.J G H @.v # ] 1 3 e w.s e e w.9 * *   * w.>.r w w.e r w.w >.w.e - w O.O.q o.1 1 3 O 1 2 o # 2 ]  .] v }  .c @ N N k k N k N z z C V l I z z S z ) _ I S R I _ T T ! ~ T R I A I ~ ! Y P M.N.W M.l._ oXB.W l.M.d.d.l.l.d.d.T T l.l.R R p.R l.z.l.s.E s.a.s.E Z.T.A.S.U.R.b.Z.~.~.OX*X%XsXmXmXZXKXLXLXVXZXVXVXVXmXkXkXmX>X:XsX%X-X0X-XqXqX/.W.&X/.~.dXdX:XjX;XjXmXlXlXKXjXqXmXKXkXzXvXZXmXvXbXbXvXbXVXvXkXvXqXdX0X0XdX0XdXbXbXVXbXbXZXmXbXvXmXVXbXdXdXqX0XfXfXA.-X9X(.(.Y.Y.(.(.).fXqXW.qX(.(.(.Y.n.A.U.h.p.R D D ) ) G S G J J G G / / G G G G G G G N G L L H H K K G G G J J J ) ) ` ) ].x.k.k.k.k.k.D k.k.z.S.h.h.n.n.b.Y.-XF.n.f.T.~.H.D.%X%X!.OX*X=X&X/.Y.D.~.&X~.T.kX0XT.%XdX-X-X&X-X=XdX0X-X-X^.^.^.P.6XeXE.E.I.I.",
"I.I.c.c.c.h.h.p.p.p.k.D k.J J G L K K K K L L J D D v.j.c.c.c.c.c.P.6XQ.x.J K H @.v  .[ X.O.>.s r r w.>.e e 1 1 O.O.q 1 r q 5 5 5 q w e * q q q X.7 1 1 | | 6  .# ] ] [  .} ] $.{ c g N G z z G k N S I I I C I z z S S ) x.I S I T W P P W Q P A I I R _ ! Q Q N.B.T W W W N.Q T d.Q Y T T Y Y d.T Y l.l.R R p.R s.f.Y Y E a.a.b.d.Z.D.n.f.Z.T.f.d.T.H.R.%X!.jXmXnXmXmXKXLXVXZXbXZXVXbX:XqXVXnXdXdX=XqXdX9XqXfX&X=XvXkXsXmXnXaXsX>XzXmXMXnXVXsX>XMXZXkXqXqXvXsXkXkXkX0XkXbX0X:XdX0XdXqXdXkX0XqXbXvXbXsXdXvXkXkX=XkXbXvXqX=X*X*X-XgX-XgX9X(.Y.n.P.E.W.Y.(.eXY./.).).).Y.n.Y.W.z.p.R D D ) / G G G L L G G G G k G N N ` ` H N N m L H H H K H G G J G J ) ` ` ) ].k.) k.k.) k.R k.R p.f.s.a.h.h.a.b.Y.f.b.n.T.R.D.Z.!.!.T.=X=XOX~.Y.n.Z.~.*XOXT.kX;XR.*XqX/.&X9XvXkXvXqX-X-X(.(.9XeXNXeXI.E.E.).",
"c.5XE.P.g.h.Q.z.z.z.x.k.x.J J K L K K L @.L L K G F v.v.c.c.c.c.c.c.W.v.p.D J L H M #. .+.O.e >.* - e e O.>.w w w.O.o.7 q O.r q q q O.q 1 q X.3 X.| 2 2 X.+.2 2 # } } }  .] # n n B N N S S S S z G z z I V l l z z S S ) x.I S A T W P P ! _ P I l.B.B.B.l.M.G.J.V.B.! W ! M.W T d.Q Y Q E E d.s.Y T d.p.R R p.R R E s.s.f.f.f.A.b.b.Z.f.s.f.A.f.Z.R.Z.S.!.Z.OXkX,X;X;XvXVXbXZXvXVXVXbXmXKXIXLXbXmXvXvXvXqXfXvX9XqXVXVXbXKXKXlXZXmXnXmXmXnXKXmXMXmXKXMXlXjXlXkXkXqXqX:XsXkX&X*X%X%X0X0XqXkXsXkXvXdXkXdXdXbXbXBXbXZXLXKXVXbXbXvXfXbX9X(.Y.Y.Y.Y.Y.).(.Y.^.-XR.E.(.E.E.Y.g.h.z.p.p.R D D G G G G L L L L G G G G ` N N ` $.` N B B @.@.H H H H L G G G J J ` K J x.D J k.) J k.k.p.R p.f.f.h.h.a.a.b.Y.f.n.n.R.R.^.Z.~.%XOX0X=X!.~.R.D.T.dXbXdX;XvXdX*X0XdX&X-X0XvXdXdX-X&X-X^.Y.Y.).eXE.I.).).).",
"c.6XE.P.g.h.Q.z.p.k.x.k.k.S J u.L K #.L #.@.M @.K J x.k.v.c.j.c.c.j.c.i.i.p.u.J tXH @.{  .| 7 >.5 q w.O.q o.1 3 O.1 1 7 o.q 7 w.w.O.>.3 1 3 +.1 O 2 O O | [ [ ] }  .} v } { n v c @.` N k S S S z z z z P P l P S I I S ) _ I S I T T ! ! ! M.W ~ _ l.l.B.l.Q ! ~ ~ _ ^ T M.B.! Q M.d.Q d.E E Z.Z.d.s.l.d.Y p.S.f.p.f.S.A.f.a.a.n.a.s.b.f.f.Z.A.E Z.OXZ.D.*XK.OXsX,XqXkXmXZXbXVXZXZXmXVXLXIXIXKXdXmXvXgXgXqXgXvXqXqXVXnXkXKXKXzXnXlXjXmXZXMXmXmXMXMXmXsXkXsXbXMXdX0XdXsXvXbX:XqXvXvXbXkX0X0X=XqX0X=X0X0XqXvXvXbXbXZXLXZXbXvXvXvX-XgXfX-X(.9XY.).Y.).(.E.^.9X-X(.E.P.I.Y.g.a.h.h.p.p.D D S G G G L L L L L m m m ` N N ` $.$.H m H $.$.H H $.` N H K L L L K K G J D ) k.J D u.k.D k.z.z.z.U.A.a.f.Y./.A.n.b.Y.R.&XT.0XkX=X:X=X~.&X/.~.=XVXLXVXvXVXbX:XqXkXqX9X-XdX0X0X-X9X9X(.Y.Y.eX9X).).7XI.g.",
"E.6XP.P.h.i.z.v.k.p.J J J J J u.K K H M { { #.#.{ H L K u.u.v.v.i.c.j.j.j.Q.j.v.z.D J H c v %.%.o.o.O.o.7 +.O.1 +.3 1 7 O.q 1 o.O.X.X.3 3 [ [ 2 [ [ [ 2 2 2 2 ] } } } ] v v v c m m m N m m m G S z S I S S I A A I R W l.V.T I _ N.M.M.Q T M.! W W P Y d.Q Y d.W ! _ W ^ B.L.M.d.d.Q Q Y Y d.OXS.l.s.E E p.z.Q.f.f.z.Z.f.f.f.a.n.E b.R.d.D.OX~.Z.D.dX!.T.qX!.+XsX,XzXjXnXZXlXVXKXmXVXLXLXKXnXbXbXvXkXbXbXVXVXVXdXdXmXVXmXlX>XlXbXmXbXbXmXMXsXdX:XvXkXsX=X:X0X=XqXkX=X:XvXdXsXdX=XvXdX=X*X&X=X~.%X/.:XOX0XkX=XbXkXdXKXvXbXvXqXgXqX9X&X(.9X9X(.E.Y.).W.Y.E.Y.Y.).E.E.E.W.Q.U.Q.Q.p.D k.D S ) G G L M H H L m m N N N H m m ` 4X$.L L N H H m L H G K G G K L L K x.J J ) J D D k.k.k.x.x.p.s.Y a.a.W.n.n.n.n./.R.^.n.~.0X=XD.R.T.H.F.Z.%X=XdX=X=X:X~.&X&X%X9X0XqX=X&XqX-X/.(.Y.P.(.gXhXY.).6XI.P.",
"m.I.m.g.j.p.z.p.k.k.k.k.k.J J J K H H H { { { #.{ @.@.H K J u.u.v.v.i.i.c.c.I.5Xc.p.k.` N H $.%.[ | >.>.7 7 7   O.X.3 7 O.| 1 +.>.X.X.] ] &.} 2 2 ] [ 2 ] [  . .} ] } { { n B B m m m m m m m L G S S I S A I A ~ I P A W _ I T P ! ~ ! ! ~ M.W T d.Q Y d.l.Q Q W ! M.! W B.G.b.d.d.d.M.Z.d.Z.~.f.s.Y Y R R p.f.f.p.s.s.f.a.a.a.Z.f.b.T.n.D.^.~.D.H.sXoXoXsXoX*X+X+XjX>XzXmXjXnXlXjXzXMXnXbXvXvXkXdXvXbXbXvXdXsX=XqXmXmXbXbXvXmX:XdXdXdXbXbXvXkXdXbXbXsXsXdXvXkX:XdX=X0XvXsXqX0XOXdX0X*X*X*X*X~.%X&XdX=XqXkX*XnXnXvXLXbXVXVXbXbXbXBXBXBXBX9XE.Y.6X6X(.W.).Y.Y.Y.P.g.g.g.i.j.Q.S.p.p.z.k.D D F S m m M B m c m B H m N m N L ].` m N N m m m N m L H K H K K L K K G G J ) J J k.k.D p.D F s.f.A.h.n.a.n.U.f.n.A.T.b.T.&X~.Y.~.R.T.R.%XnXmXbX=X%X*XT.~.R./.9X0X0X0X&X-X/.eXeXW.n.Y.6X(.n.).6XP.I.",
").).P.g.j.f.z.p.k.k.k.k.k.J J J K H H H @.#.{ { { { @.H K K u.u.x.p.z.h.W.c.c.I.h.j.k.k.G m @.{ [ [ +.+.X.| | 1 3 3   O X.2 O +.+.2 2 # 2 } ] # ]  . .[ ] }  .%.] v } $.$.B B H N N m m G G L G / S R ) I I I I I A P P _ _ A P ^ ~ ^ ^ W W ! W ^ B.d.Y ! B.d.T M.B.B.! Q B.N.d.d.d.d.Z.S.Z.b.H.d.s.R Y s.f.f.R f.f.s.Y f.f.a.a.n.b.d.D.Z.D.Z.D.Z.Z.*XH.K.+XG.oX+X;XlX,XsXnXjXnXMXmXVXVXKXLXLXLXVXVXZXVXbXdXdXdXdXbXKXmXvXvXdXkXkXbXbXkXmXZXmXvXVXZXbXsX:XsXsXsXqXdX;XqXvXqX=X%X&XkXsX0XsXsXsX=X%X&X0X&X0XqX*XvX:X*XvX:XdXgX9X9XgXgXbXAXLXVXrX9XgX9X(.E.Y.P.n.g.P.g.g.n.i.h.W.S.f.z.Q.z.k.k.R ) G H H H B m B @.$.B B B H m H H B @.$.B M @.$.B H H H K K K K K K H L K J J J J k.u.x.k.k.z.f.Z.A.h.h.n.Y.A.m.Y.9XY.~.9XR.T.%XT.qXqXqXVXvXkX=X=X=X~.%X~.&XdX0X&XdXqX0X-X9XeXY.P.(.gX9XY.7X7XP.E.",
"NXwXE.P.h.z.z.z.k.) J J J K K u.K K H H @.#.{ } { { @.@.H K K u.u.D p.v.U.c.E.6Xc.h.z.x.J G H M } # 2 [ [ [ [ 3 X.| 1 1 +.6 O +.| O O # v } v v {  . .} ] ] { { v v { $.@.B B N ` G N N G G G G ) S R I S S I P T R l.N.'.L.W T ! ! W ^ W ! ! ~ W B.d.Y Q M.Q Y B.M._ W ^ b.N.d.Q Q Q Q b.Q Q Z.B.f.s.E f.S.z.p.f.S.f.s.S.z.s.Z.U.R.F.R.T.^.S.T.R.H.*X!.J.+XH.@X!.+X>X@X*XlXjXlXKXLXIXLXIXIXIXLXZXZXKXZXbXvXbXbXZXZXLXVXvXvXdXdXvXbXkXkXbXbXkXsXsXdXsX%X=XsX=XsXvXkX:XdXkX:X*X~.~.:X*X%X*X*X%XT.R.R.R.G.~.*X~.qX%X~.dX&X9X0X-X9XqXqXvXVXVXgX9X9XVXgX9X(.W.Y.P.g.i.i.h.Y.h.U.eXh.Y p.z.p.R F D ) G L H L M m M B B B M B @.b c B B { @.M v $.$.{ B @.@.H @.H L H K H H K J J J J J J x.x.z.z.Y i.a.a.A.Y a.Y.f.n.T.b.F.=XD.~.*X~.:X*XR.*XOXOXR.=X=X&X0X0X0XvXqX%X%X^./.&XwXeXY.).gXCXfXE.eX7XP.E.",
"E.P.P.P.h.j.i.p.k.J J J K K K ` K K H H @.{ { } #.#.#.@.@.H H H J J u.v.j.U.I.E.g.g.h.p.R J J H M } } &.[ 2 2 [ 3 6 2 2 %...O +.%.] n ] { { n n v n n v v v v v v B @.B B N N k / G S G G G G G ) S S S S A T T I T _ ~ ~ T A T W ~ ! ! M.B.M.! ! B.! T ! ! T W ! ~ ! W E M.N.M.Q ! Q Q d.E E b.f.s.E s.f.z.z.f.p.z.f.R f.f.s.Z.A.W.D.T.^.~.D.~.%X~.=XoXoX;X@X*X!.+XjX*XaXmXlXMXkXmXKXKXKXLXKXvXvXbXZXZXVXbXvXvXgXqXdXdXdXdXqXvXvXdX0XkXbXkX0XdX=X0X:X%X0XdX%X0XkX*X!.=X*XH.H.H.!.=XoX!.~.T.K.Z.T.D.Z.Z.!.OXT.OX*X%XvX9X9X9X9XqXvXbXVXZXVX9X9XgXBXqXeXeX(.(.W.n.Y.W.6XwXW.eXCX(.h.Q.Q.S.z.p.p.l.G L L m M B B M v { v v n n v { } ] } ] v { $.{ { { B M @.H L H H H H K K K K u.u.J u.u.p.k.p.h.a.f.Y.Y a.^.b.a.D.n.D.=XT.&X*X!.R.R.R.*X=X:X%X:X%X&XdX0X0XdX0X&X0X~.-XqXhX6XY.(.wXgX(.n.).6XP.E.",
"E.P.I.U.U.z.h.z.k.k.k.x.u.K K K H H H H @.@.@.#.#.#.#.#.{ { B B L u.u.x.p.U.c.g.g.g.h.j.p.k.u.J L @.#.%.%. .[ [ 2 [ |  .%. .n %. .# v v M B M M v v c c v v M c c B H B m G H k G S z S G G G G / S S R R R _ _ ~ l.N._ T T P ~ _ ! M.~ ! B.l.! M.M.Q Q M.! W d.N.B.B.M.! B.N.b.d.M.b.M.Z.b.d.b.s.s.s.f.l.f.p.R f.z.f.R p.p.p.S.n.D.n.D.D.T.S.R.~.^.%X!.oX;X+X+X,XaXmXlXmXKXzXzXmXVXVXKXKXKXVXnXBXVXZXVXbXvXvXvXgX-X0XqXdXgXfXvXVXkXsXbXVXkX0XvXvXvXbX0XvXkX~.0XvXOXT.0X;XH.!.*X:XkX0X=X*XoX!.H.!.!.D.H.:X:XoX!.~.!.dX/.&X9X(.9XkXvXvXVXKXVXBXVXBXfXrXrXeX(.(.Y.6XwX).E.n.Y.gXQ.h.R.Q.R.W.S.f.z.) G L L H #.#.{ #. .} ] ]  .] %.%.] &. .]  . .#.{ { { @.#.@.@.@.@.H H K K K K u.u.J k.k.k.k.p.S.A.n.A.n.Y.(.f.a.^.^./.-X~.&XOXH.OX*X:XvXkXvX0X:X&X&XdX&XR.%X%X&XfX=XbXBX6XY.Y.9X9X9X(.n.).eX5X6X",
"I.P.I.g.i.j.j.z.k.k.k.x.x.K K H L H H H @.@.#.#.#.#.#.{ { { { @.H K J D F z.Q.I.c.I.I.c.h.z.v.k.L L L #.$. .] ] ..] ] ] ] # o v { @ c c c M c M M M M v m B m m m B B m m G / z S S S S S S S J / S I ) ) R _ ~ P ! B.T P I A P N.! ! P W B.! ! ! M.~ ! B.M.W B.J.G.N.M.! B.N.M.B.B.b.Z.S.B.d.d.f.s.d.S.S.f.f.l.S.S.l.p.R f.z.D.A.R.D.T.D.T.H.~.OX&X*X~.@X>X,X+X*X,XnXlXlXnX;X>XnXMXMXnXmXnXnXVXLXLXAXBXbXBXVXBXZXVXZXVXVXVXbXBXbXvXdXvXbXdX:XdXdXdXvX:XvXbX&XbXKX:X%XmXMX@X:XmX*XsX=XOXoXH.J.H.!.OXH.!.qX;XJ.G.D.Z.&XY.^.(.(.(.qXqXqXvXVXBXgXdXVXbXCXAXgXhXhX(.eXwXP.g.i.g.(.a.Y n.f.h.n.Y Y s.R J G G H @.@.} %.%.&. .[ %.| %.+.2 +.&.] &. .} } { { @.$.#.@.@.#.#.#.K K K K J J J k.k.D p.Y s.U.n.A.A.Y.Y.a.n.Y.^.^.H.~.%XOX!.oX:XqXqX*X:X%XOX:X=XdX*XT.^.%XqXT.T.fX9Xn.Y.eXwX(.9X9XY.).wX7X5X",
"P.E.7XP.g.Q.z.z.k.k.k.u.K K K K L H @.@.@.@.#.#.#.#.#. . . . .$.#.L $.J k.z.Q.g.i.c.c.g.j.c.v.v.J K K L M B {  .] # # # # v { $.$.n B B M H M M m M B M m m m m B m m N m G G S S S S S D S S S S S R ) R I I P P l.M.P P T T T _ ^ W ^ ! G.! W W ! W Q B.B.! M.K.B.! ^ ^ ! N.N.G.B.d.Q Z.b.E E b.s.f.S.S.f.l.T.XXD.z.p.R l.Q.R.Y.R.D.T.Z.D.D.T.OX*X*X!.!.;X*X!.oX@XzXsXzXlX>XnXnXlXMXmXVXbXmXLXZXZXVXVXVXAXZXVXbXBXAXVXBXVXvXgXvXbXvXvXbXvXdXvXkXkXkX*XsXsXT.vXmX!.H.MXsXF.OXkXH.OXH.F.Z.b.B.B.K.T.Z.F.oXH.M.! b.Q D.b.D.R.Y.T.&XvXmXvXqX&X0XvXdXqXBXCXgXhXhX9XW.eXm.g.g.P.6Xa.n.).P.P.P.i.g.A.p.k.) G L L L M #.} } &. .%.[ | &.3 %.+.[ %.+.} v } { { $.#.@.M @.@.@.K K K K J K J u.k.p.p.f.A.T.R.W.Y.A.A.F.-X(.-X-XF.%X~.OX!.H.,XqX:X~.*X%XOX=X*XdXqX&X*XdXbXdX~.-XR.P.eXgXY.n.Y.).A.P.6XE.P.",
"c.I.c.P.g.j.U.p.p.F J ) G G K K K H K $.#.@.#.#.#.#.&. . . . .} #.#.H K J D p.j.j.P.c.j.j.Q.Q.j.x.u.S K L H m c @ v } } } } { $.$.n M v M H M M m B H @.H L L L m N m G G G / S S S S S S D D D ) R _ _ l.l.T P T R Q Q Y N.B.K.oXB.B.B.J.'.B.! B.J.N.B.J.J.M.! J.B.B.B.! b.Z.B.B.d.d.Q Q d.b.E d.A.s.s.d.E p.f.p.f.z.p.p.z.z.R.n./.~.Z.Z.D.T.&X~.%X*XH.+XsX*X,X>XnXKXmXnXnXnXMXMXMXKXVXmXKXKXKXKXgXVXVXbXAXBXgXBXgX9XfXfXfXgXfXgXbXdXkXbXbXbXvXmXVXkX=XvXvX*XbXdX!.OXZXsXF.OXsXR.T.OXOXH.K.T.D.Z.H.d.Y M.B.W E Q Z.T.H.Y.Y.R./.%XsX*X=XkX0X=XdXVXAXVXgXwXwX6XE.6X(.U.n.g.P.(.g.).wXP.Y.).a.n.U.p.p.F D J K $.M #.} v } 2 2 O 2 3 1 &.2 | +. . .]  .$.{ { { { @.#.H @.K K K K J u.k.k.k.k.p.f.S.U.S.Z.A.Y.n.n.D.n.b.b.Z.F.-XH.!.H.;X<XoX=X0X%X~.=X%X0X%X~.qXdXbX-X=X9X9X9XeXn.P.n.(.gXn.E.7XE.c.",
"I.I.c.P.g.j.z.p.z.p.k.k.J K u.K K L H #.@.@.#.#.#.#. . .}  . . .$.$.@.H K D p.j.c.Q.E.I.Q.E.U.j.p.p.F k.S J N m B @.$.{ } { { { v c M M M L M H L B B B M L L L L G G G G G / S S S J J J D D S D S R R _ l.Q Q l.Q T P P B.Q Q W ! ! P ! J.B.~ _ B.W W G.J.M.:.+XN.B.B.M.B.N.B.Z.b.M.b.d.b.Z.s.E Z.f.f.S.s.s.Y z.s.Y Y S.R.z.h.Y.&X~.F.D.~.%X*X:X*X*XoX;XkX*X@X;X>XzXlXjX,X>XjXlXzXmXnXvXmXmXnXvX0XbXVXbXVXVXBXBXvXgXgXgXBXBXvXvXbXvXsX0X=XqXdXqXdX0X%XqX:XT.=X:XH.^.dXOXF.%XdX*X*X*X*X%X*X*X%XZ.T.b.Q N.N.! Q T K.J.Q Y d.n.b.Z.OXH.T.OXT.~.0XfXbXBXvXBXCXNX9XBXBXwX9XeXwXwXP.a.E.m.P.E.g.m.E.f.p.k.k.J J K L #.$.} ] O [ [ 2 [ 3 +.+.%.%.+.] # } { { { M M M #.@.@.K H K K J J u.k.k.p.p.f.h.s.f.h.f.h.f.b.Y.b.b.A.^.^.%Xb.Z.Z.T.R.H.oXoXT.R.:X&X0X&X~.=X=X0X=X=XfX9XeXeX).eX9XfXgXY.).7XE.I.",
"5XE.I.I.U.P.Q.z.p.D D J J J K K K L L @.H M #.#.#.#. .} } }  . .{ #.M @.H G k.k.v.j.j.c.c.P.P.c.h.h.z.Q.p.) G G N H B M v } } v { v B M M L L @.L M m m N L L L G G G G G G ) S S J ) ) ) ) J D R D ) R R _ T T B.Q Y Y Y N.Q W ^ l.! P B.oXB.~ N.N.M.! G.J.B.*.{.N.B.B.N.G.K.G.B.M.M.M.d.b.b.s.E n.s.f.f.f.f.s.z.f.f.s.Z.D.h.f.A.W.R.Z.D.&X*X*X=X%X:X:X*XjXjX>X>XaXzXlXzX,XsXnXnXvXmXmXnXVXmXmXVXVXZXKXVXbXVXvXgXgXvXgXgXBXBXgXAXBXvXfXdXvXvXvXvXbXdX=XvXvX&X0X^.D.T.%XT.B.%X*Xb.S.Z.B.L.L.B.B.Z.Z.d.Q N.B.W T ! K.L.T Y Q s.Q E N.M.M.N.b.K.*XqXgXgXfXgXCXCXNXgXBXgXgXBXNXeXP.g.).E.I.E.m.g.).i.j.Q.z.k.J J K m @.{ n ] %.%.%.+.+.+.+.+.[  .] .. . .$.$.$.@.#.#.@.@.K H L K K J u.k.k.p.p.f.f.p.f.f.a.h.f.n.A.Y.Y./.fX-X(.A.F.H.*X;X,XsX*XT.oX0X:XdX0X=X0X0X:XdX0XqX&XeX6X6XrXgX9X9XY.(.6XI.I.",
"I.c.c.c.g.j.h.j.p.p.k.k.x.k.x.K K L L H L M #.#.{ #.} } } }  .&.} } M @.@.L K J u.p.i.i.i.j.j.j.i.i.i.z.p.R J J G H L M M @.#.M $.{ B m L H L L L N N H H K L G G G S G S S ) S S D D R ) R R R ) ) l.l.l._ P P T T Y Y P B.W W M.! W M.@X@X! ! N.{.{.K.K.V.M.B.N.M.! M.N.N.N.N.Z.b.d.d.Q d.b.d.s.f.a.f.f.s.s.E s.S.S.f.s.a.f.A.-X-X/.T.T.T.H.D.OXH.*X=X!.;XzX>XzXlXnXnXlXzXMXZXmXMXVXmXVXKXVXVXVXKXVXZXvXqXbXqXfXgXvXqXrXgXgXgXVXdX0X0XqXdX0X=XvXvXqX&XdXvX*X9X~.%X9X0X*X!.=XOXf.T.D.F.OXH.d.d.f.d.E Y d.l.T I W ~ R I R T P P T ! ~ Q Q T B.oXOX=X0X-X9XhXgXhXhXBXgXhXNXhX7X6XwXNXNX6X5XE.m.7Xg.h.W.Q.p.k.D ) u.$.$.$.$.%.%. .] &.+.+.| 2 %.%. . . .$.$.{ { $.#.H H K H L K K J u.k.J p.k.f.p.h.h.f.f.U.Y.A.n.Y.n.A.^.^.Y.A.T.!.,X>X>XsX;XOX;XdXdXvXkX0XqXqX:XdX=X-X/.9X6X(.(.(.Y.(.U.).E.P.I.",
"c.c.P.P.g.h.h.h.p.z.z.x.x.x.k.u.K L H H M { #.#.{ } } } } }  . .{ { { #.#.H K J J u.k.v.h.U.c.g.g.g.g.z.p.p.D D ) K H m L $.$.@.$.@.H m m H m m L N N G ` ` G G G / S S S / x.) D R I I I R R R R R l.l.l.l.R Q l.s.T Q Y S.Q Q ! P ^ M.'.K.~ M.*.N.C.N.B.*.*.M.B.M._ M.B.b.! ! Z.d.Q d.b.B.Z.b.Z.n.Z./.W.f.f.s.D.T.Z.n.A.Y.R./.gX-X%X&X^.T.~.*XdX!.OXqX;XsXlX@X,XjXlXzXjXzXMXnXMXjXbXmXmXVXVXVXmXVXvXmXbXbXZXVXBXBXVXgXBXBXgXBXKXvXBXvX0X9X=XdXqX*X~.^.0XfX~.~.D.^.&XT.R.D./.Z.d.OXR.D.R.D.E d.f.f.E E d.! W R I ) ) R R S S R T ~ P I I P l.L.Q D.%X&X&X9X9XwXBXCXhX9XNXhXeXhXCXNXNX7X7X7XI.7XP.E.eXU.i.z.p.p.D J K H $.%.%.%.2 +.%.%.| 2  . .# ] ] } { v v @.@.M @.@.H K K K J K u.J u.k.k.p.f.f.j.h.Q.W.U.n.a.a.a.A.T.A.Y.^.T.,X;X!.OX:X0XkXsXdXkXdX*X%X*X%X~.^.R.Y.(.Y.Y.Y.A.Y.9XA.E.E.I.E.",
"g.g.P.h.i.g.h.h.i.z.z.k.k.D D J K K H H M { #.{ { } } #. .#.#. . .#.{ $.$.#.#.K L J u.k.z.Q.Q.U.W.E.Q.W.Q.Q.z.x.k.J G m L H H H B B $.H L H N G G N N N G G G G R ) I I I ) x.R l.) R R R R R T R I ) R R d.Q d.N.d.Y Y Q R.B.! W W M.! ! B.*.*.M.*.! ! ! *.*.:.*.M.! _ B.b.! M.M.Q d.S.D.D.F.Z.D.n.A.&X/.S.D.U.%X%XA.A.Y.R.(.-X/.A.Z.T.Y.T.=XvX0XOX;XbXsXqXlX+X;XzXlXjX>XzXnXnXlXsXbXmXmXVXmXmXKXKXVXVXKXKXLXLXZXAXAXBXAXAXvXAXLXdXvXfX%X&X&XqXqX&X&X-XdXfX^.~./.&X/.n.Y.D.*XT.F.=X%XF.R.D.f.S.S.s.E Q ! ~ R R ) ].].) S S ) _ R I A I S S ) ) R l.R.R.R./.9X9XgXhXwXwXCXNX6X6XNX6X7X6X5X5XI.E.P.E.6XP.g.P.U.p.k.x.x.N L @.{ v ] +.+.&.2 ] [ 2 #  . . .{ { { $.@.{ @.#.H K K K K K u.J u.k.k.p.f.h.h.U.U.n.h.n.n.n.A.(.9X^.(.R.R.qXqX+X=X>X:X:X%X=X=X=X~.~.=X%X~.%X/./.).n.Y.(.Y.(.hXn.m.I.I.I.",
"P.E.eXE.P.E.U.h.h.z.k.p.k.k.D u.K K K H M { #.{ { } } { #.#.#.$.#. .} #.$.#.#.#.K u.u.D p.p.j.h.P.n.h.Q.U.Q.Q.Q.k.k.J J G G H ` c N $.` H ` G K G N z z G G J G I ) R I I R l.R ) ~ Q Q R T R R R I R I T R Y Q T P P Y d.R.d.W d.! N.M.W N.N.! N.M.*.*.*.*.*.*.*.M.! ! B.B.M.N.d.Q M.F.Z.Z.Z.b.s.a.f.A.b.s.A.A.n.Y.n.f.b.a.Y.^.R.A.D.T.Z.D.OX%XT.R.*XkX*XoXsX,XzXlXnXlXjXzXnXmXnXlXZXKXVXVXmXVXKXKXKXmXVXVXbXVXZXVXVXvXVXVXqXVXLXdXvXdX0XdXdXvXqX%X-XqXfX&XT.~.^.T.F.a.Y.n.R.Z.f.T.S.s.l.l.s.s.h.Y Y s.Q T R I I x.x.S z z S G I S l S S S ) S R k.l.p.f.Z.Q.W.(.6XhXNXCXNX6X7XNX5X7X7X5XE.5X5XI.E.E.I.m.P.U.h.i.p.k.z L B $.{ # ] [ ] #  .+. .]  . .} }  . .#.#.@.#.#.H H K K K K K K u.u.k.k.z.h.h.U.U.f.a.n.m.n.Y.^.(.Y.^.F.H.;X,X*X:X*X!.!.OX*X%X=X&X%XqX*X0XgX9XgX9X).eXgX(.9XgXn.m.E.E.E.",
"P.E.wXE.P.E.U.h.j.h.p.F p.k.k.k.K L K H L @.#.{ { } { #.{ } { #.$.$.n { { { #.H @.L J k.k.p.p.h.h.g.j.c.i.j.j.v.p.D D ) J G G ` N N H G K ` G G G G S G G / G S I ) R I A I ) A R T T T T T T T R A R T T Q Y Y P W d.F.F.oXM.Q l.P ! M.! oXJ.W ! ! B.N.*.*.B.V.N.N.! W B.N.M.G.d.Q b.M.Q E Q s.f.Z.D.Y.f.f.Z.a.a.n.a.f.n.n.E.).R.R.&X&X~.&X=XR.=X*X*XkX>X*XlXzXlXlXlXzXaX,XzXmXnXlXKXKXmXmXMXnXlXMXHXnXmXmXdXvXZXvXvXqXvXgX/.gXZX-XbXvX%X&X&XvXdX/.*X0X*XT.F.%XY.Y.Y.b.%XA.Y.s.s.S.f.E l.l.p.E f.Y Y p.~ R I S S S z k / G k k z z x z z k G S z S D D R R f.f.Y.Y.9X9XeX7X6XCXAX7X7XNX5XE.wXwX5X8X5X5XI.c.I.g.h.p.x.) ` k H $.@  .%. .2 %.+.+.[ %.&.2 ] }  .$.$.@.#.#.H H K K K K K K u.u.u.k.z.i.i.h.U.h.f.n.a.n.n.n.Y.n./.R.~.*X@XoX*XOXOX:X0XqX&X:X=X*XqX~.~.-X^.9X9X(.9XgXeXhXgXY.).wX7X6X",
"P.P.P.g.i.h.h.j.h.h.h.p.p.l.k.R k.) x.u.K H #.#.#.{ } } } } { { $.$.B B $.@.@.#.#.H H m ) J ) l.h.g.h.h.j.i.j.z.z.p.D k.) D ) _ / G G G ) x.) ) / / S S S S G S D I D R R R R I F R R T T T Y T T T l.T Y d.Y Q Q M.H.M.Q B.l.Y B.! ^ ^ M.B.M.M.M.B.B.M.B.N.V.M.b.W W b.B.b.b.M.Q E b.Q E Q E Z.Z.Z.A.s.b.b.A.n.n.Y.n.h.n.U.^.Y.f.n.R.9X~.%X&X=XvXsXkXmXmXKXKXMXlXMXnXMXzXuXlXmXmXjXlXKXmXzXlXMXlXVXZXnXnXmXmXmXKXZXbXBXAXBXrXAXAXgXfX9X0X^.&X-X-X~.&X0X=X%X=X:X-X(.&X^.&X%XZ.T.S.=X&XZ.f.z.p.Y L.R D R D S / S G G N N z k k N k G L k m ` H k k z k z S I I T B.Z.-X(.W.eX6XI.NXwX7XhXwXwXNX7XI.8X8X7X8X7X8X6XI.6XQ.z.x.k.J G m $.$.%.%.%.+.+.X.+.+.&. .%. .$.{ { @.H H H K K K K K u.u.u.u.k.z.i.p.z.S.s.s.U.Z.Y Y.-XR.W.&X&X*X:X*X~.!.;X:XOX;X*XOX=X%X/.0X~.&X%X&X&X(.(.eXrXY.(.).n.E.E.6XE.",
"m.g.m.h.P.W.W.Q.j.j.v.p.z.z.z.l.k.) ) J K L L #.#.#.@.{ { { {  .$.H B B $.$.@.$.{ M H L ` J ) R p.g.h.h.c.U.6XrXQ.h.j.f.p.F R x.D G ` G S ) S R R R R S G G ) ) ) ) ) R D D I I R l.~ T R R R Q Y R L.L.N.S.Q Y Q Q M.Q P P P P M.! W W B.N.N.N.B.N.K.K.C.C.N.B.! B.G.G.B.b.b.Z.Q Q Z.B.Z.!.~.:XT.D.A.a.n.Z.R.R.n.Y.A.U.Y.Y.).Y.f.Y./.-XA.T.R.*XvX:X:X:X+X;XMXmX>XzXlXMXMXmXKXLXmXjXnXKXmXlXMXnXmXLXKXmXmXmXbXkXKXZXgXgXCXBXgXAXCXvXvXgXgX-X9X9X-X&X=XqX&X^.!.^.F.b.b.E d.T.D.R.R.%XY.s.s.p.R R ) R ) ) S S G G G N N N N N N N g m m c m B M c g g b N N z z / R Q K.T.A.).5X5XNX7X8X7X7X7X6XE.I.8X8X8X7X8X5X7XI.6X6XQ.z.p.p.D G H @.$. .+.X.+.+.X.+.[ &.%. .{ #.#.#.@.H H K K K u.u.tXtXx.J u.p.p.p.f.z.s.h.W.R.n.&XqXW.R.&X&X=X*X0X*XOX;X:X%XOX*X=XdX=X%X0X/./.9X0X(.Y.E.6X9Xm.).E.g.E.P.m.P.",
"P.n.g.g.h.P.c.j.j.h.h.h.z.x.l.p.k.) J J J L L @.#.@.@.#.@.{ { { $.H B B $.$.@.#.@.B $.H K J k.F p.j.h.h.j.j.h.U.h.j.h.z.z.R R l.R ) x.) S D S R R R D R J / ) ) D R R D D R l.l.L.L.l.R T Y P Y d.d.l.s.Q d.Q d.Q P Q Q Y ^ W B.N.B.! ! B.B.! ! B.G.K.G.V.B.*.M.W M.G.N.M.b.B.L.b.b.S.b.b.D.D.D.T.D.A.s.Z.Z.F.n.A.R.Y.Y.W.Y.Y.n.A.9X9X9XW.&X0XvXZX0X=XsX,X,XzXzXuXcXmXMXnXmXHXKXnXMXHXKXmXMXmXmXlXmXmXMXnXmXMXkXbXVXvXgXBXgXeXrX9X9X9X(.(.^.fXVXfX=X-X&X^.D.T.^.Z.b.b.s.d.T.D.Z.f.d.s.Q s.Y Y R R S S J ) G S G N N N N m b b m m m m m c c @ . @ @ c b b c b N / I _ _ R z.U.E.wX7X5X7XhX7X5X5XwX7XI.5XhX7XI.P.I.E.U.c.i.p.v.u.u.L H m v ] ] | +.X.&.[ [  .} } { #.@.@.H H K K K K K u.u.u.J k.k.z.h.h.h.f.z.R.n.s./.&XF.A.R.~.R.R.OXOXH.!.*XOX:X:X=X0X&X%X0X&XfXgXqX&X(.9XeXW.m.6XY.m.6XP.P.E.",
"E.E.n.h.n.h.h.j.h.z.z.z.l.k.R F k.R D J J K K K L H @.@.@.{ { B @.@.B B @.@.{ @.#.H $.H G J x.D p.p.h.h.j.i.j.h.i.i.j.z.z.p.R p.) ) ) R R R I D R R D D S G / R ) R R I F I R l.R l.R P T Y T Q T R R T T Y Y Y Q P Q ! E W ! G.G.G.M.! M.M.~ ! B.M.*.~ ^ ^ ~ *.N.M.! ! d.Q d.b.b.B.Z.b.B.D.D.B.D.D.D.b.Y.A.A.f.a.f.h.n.U.n.Y.Y.R.9X&X-X=XqX0XbXVXqX:XkXzXMXMXaX;XnXmXnXnXmXmXmXmXmXKXLXnXMXmXnXSXLXLXmXmXmXlXsXdXbXBXVXVXBXgXBXgXgXgXgXfX9XfXgXfX-X/.^.T.H.^.^.D.D.^.T.F.R.D.E P Y E Q s.T F R D G S G ` ` N N G N N m m b b c . c b b v n n n ] n n n n n { B N b N N S S R f.&XW.I.7XNX7X7XwXNXwX8X8XCX7XI.I.CXNX6XW.E.6XrXQ.XXu.u.L H @.}  .&.[ &.[ [ &.} } } { { H H H K K K K K J J J J k.p.z.z.f.h.h.h.A.a.s.R./.S.A.T.^.OXR.%X*X!.OXqXsXsX:X%X%X&X&X-X/.-X&X/./.9XfXeXY.Y.eX).I.).I.).).",
"i.n.j.i.h.h.h.h.h.h.z.k.k.k.D D k.R D J k.u.K J L H H H H B B B B K H H @.@.@.#.@.M @.L G ` ].k.k.k.v.p.j.v.U.Q.h.U.U.h.h.Y Y p.R R D R R R R I R R R R R R R R ) R R I R R R ~ T R Y P Y T T Q T R Y R T W Q d.Q E d.E P ^ Y Q ! M.! Q M.B.B.G.J.G.B.*.*.M.N.G.N.Q Y d.B.M.B.K.b.S.Z.Z.S.D.S.d.d.d.b.E Z.A.Y.Z.b.A.A.Y.U.n.Y.W./.-XW.-X=X-X%XkX0X*X;X*X@X>XlXjX>XHXHXMXMXMXlXmXnXnXHXKXMXnXmXnXmXLXLXmXnXmXnXMXZXVXbXBXBXgXgXBXNXgXwXhXgXBX9X(.-X/.(.^.^.^.T.n.n.n.n.n.b.T.R.s.s.Z.b.Q T T I ) S / / G ` G m H m N m c c b c g @ n n @ @ $ ] $ 2 2 2 $ # [ ..# % @ . b N N z / x.S.h.W.wX7X7XrXhXNXNXNXAXhX7XNXAXNX8X5X5X6XeXc.Q.p.u.J J ` H @.}  .%.&.[ &.[ }  .#.#.@.@.L L L L K K u.x.k.J k.p.z.z.f.z.U.U.U././.gXgX=X-X-X0XOXOX:XqX*X*XsXkX*X*X*X&X*X&XR.R.9X-X(.(.-X(.W.Y.W.eX6XE.P.P.7XP.",
"i.W.A.h.h.j.h.p.p.p.p.p.k.D D D x.p.D k.x.k.J J J K H H H H { B m H H H @.@.@.#.H L @.H G G x.J J k.k.p.p.i.j.h.h.Q.U.U.n.p.Y s.p.l.R R R F R R R R R R R R R R R R I R R l.l.l.l.l.Q Y Q E Y Y l.l.Q s.Q Q B.S.E Q M.Q E M.B.B.W ! W W ! ! _ B.@XJ.G.C.G.K.J.{.! W ! G.K.G.K.oXS.H.Z.B.b.d.s.P E f.Z.b.F.A.Y.Z.Y././.R.A.h.n.n.Y.R.R.=X~.R.~.kX=X%X*XOXOXjXnX>XMXKXnXuXzXzXjXmXnXlXnXmXMXnXmXnXzXKXKXnXlXmXZXZXZXvXvXBXBXfXeXeXY.).).9X9XgXhXfX9X-X(.(.^.^.Y.b.b.n.b.a.s.B.S.Q Q S.L.d.R R D S G G G G G L m B c m m c c b m c n ....o o O +   O 1 2 2 1 | | O # $ o $ ..n b N G ) R z.Q.c.5X7X7XNXNXhXNXDX7X7XNXwX5X5X5X5X5Xc.c.j.j.v.D J G m @.$.%. . . .} } #.#.#.@.@.H H L L K K K x.u.u.k.v.z.p.p.h.S.S.S.n.n.R.R.A.D.Z.F.T.OX*X*XOX!.OX*XOX*X=X~.~.~.R.%XBXqX/./.(./.Y.U.Y.(.6X).m.P.hXg.",
"(.CXeXW.Q.Q.W.U.z.k.p.k.D D D D x.k.p.k.k.k.k.J J K K H L H H H L H H H #.#.@.@.H H @.K ` G / G G J k.k.p.p.h.h.i.P.P.P.U.h.i.f.Q.D.s.s.R Y p.R R R R R R R R R l.l.) R R T T T T Q Y Y Q d.d.d.Y d.s.N.N.Q ! Y Q Q M.d.d.G.J.K.! M.! Q ! W W ~ B.*.! *.*.! *.B.M.N.G.G.Z.B.M.M.Z.Z.b.B.Z.b.Z.b.S.T.*X~./.Y.R.A.f.A.A.n.n.n.U.n.Y.D.Y.%XT.^.&XdXsX*X*XsXkXmXmX,XzXnXuX,XnXmXMXKXKXlXMXmXnXmXmXnXmXLXLXnXlXmXmXnXqXsXbXKXLXVXvX9X).hXCXAXNXBXhX9XgX9X(.E.Y.T.T.n.b.Y.n.f.f.f.f.Y Y d.l.~ R R S S K N m m B H B c c M v v v n n v # $ $ O O 2 2 1 7 6 X.X.3 7 o.3 6 | 2 7 | [ ] ] b N G ) p.i.c.c.W.6X).E.7X7X8XI.8X8XI.I.5X8X8XI.5X7XQ.eXp.k.x.G H @.$.@.{ $.{ { #.#.{ @.@.@.@.K K K K J u.u.k.x.p.k.p.p.f.f.s.s.s.n.R.Y.A.Y.A.D.~.qX:X*X*X@X!.:X=X%X~.H.~.&X~.0X9XR.A.Y.-X9X6XE.E.6X6X).I.P.hXP.",
"U.gXR.f.h.S.XXQ.x.k.k.k.k.k.k.x.x.p.D p.p.k.p.k.k.k.) G L L H H H K K H #.#.@.H H H K L ` G ) ` K u.u.J D p.z.U.i.P.h.g.P.n.h.Q.eXR.Y i.s.Y p.F R R R R R R R R R R R R T Y T Q T Q Y P Q d.d.d.Q d.Y Q Q P Q E d.Y Q E P Q W W ^ ! M.M.M._ ! B.M.! ! ! W W ! N.Q M.B.d.M.H.H.B.b.Z.Q b.Z.b.D.S.^.%X=XT.Y.Z.Y.Y.F./.Y.F.Y.W.-XR.qX=X&XqX&XdXkXdXdX=X:XkXjXzXlXjXmXKXzXjXKXHXzXmXLXmXnXHXmXmXmXMXmXLXKXjXsXnXnXlXqXbXKXKXBXvXfXeXNXCXNXCXNXCX9X).6X(.(.^.Y.Y.Y.b.n.Y.f.E f.p.l.l.R ~ R S S S G L L m H H m M B M v B n v v n ] n $ 2 2 2 2 2 6 6 | 1 7 7     5 5 7 >.7 q O.q o.o.$ v B ` G D x.p.h.W.U.P.I.7X8XI.7X7XI.I.8XwXwX8X5XNX7XCXh.z.Q.k.J G H N H $.H M #.#.@.@.@.@.H H L K K u.x.k.u.k.z.Q.Q.XXXXW.Q.T.n.Y.&X~.Y.R.R.^.=XbXqX@X=X*X*XkX=X!.T.H.0XvX/.%X/.&X-X(.9X9XeXW.eXgX6XE.I.g.7XI.",
"U.U.h.a.i.Y p.p.p.p.p.) k.k.k.J k.p.D z.z.z.p.x.k.k.D S G K K K L tXL L K H #.H K K L K J J ` G K L K u.F D z.f.i.g.P.n.g.g.g.i.n.h.f.a.a.f.s.Y Y Y Y R R R R ) R T R Y Y Q l.S.Y Q s.Z.d.d.Y Y Y T T Y Y Q Q Q Q d.Q E ! B.d.! W M.B.B.B.M.! ! M.M.B.B.*.N.J.J.b.d.d.d.M.Z.B.Z.M.D.Q d.D.Z.b.B.d.D.T.b.s.Z.A.b.A.^.&X9X9X(.(.9XqXqXqXgX0X*XqXqX=X*X*X*X+X,XzXzXmXnXnXHXLXKXmXHXLXmXMXnXmXmXFXLXnXHXlXjXmXKXZXmXvXbXZXZXbXfXqX-X6XgXCX6X(.wX).Y.9X9X9XY.U.W.Y.f.f.R.E Y R F k.R R R R G G G L L B $.B $.B B n v ] n ] ] ] ] ] o 2 | 7 | | 2 6 7 6 6 4 +     4 4 5 1 q e e w 5 5 3 2 +...c c N G z.U.Q.Q.j.5XE.P.8X7X8XwXAXCXCX8X8X5X5X5XI.U.W.XXl.x.) J J K K H #.#.@.L H L L #.K K K K u.u.u.k.k.p.p.z.p.f.U.a.E R.%Xn.Y.A.D.Z.%X:X+XOXOX!.OX=X=XH.*X%X0XVXfXqX-X&X(.qX(.(.P.E.).E.E.E.I.E.wX7X",
"P.P.h.h.f.p.z.z.k.k.k.k.k.k.k.k.x.x.x.Q.Q.Q.p.p.k.k.D D J J J J J tXJ L K L K K K K L G G S ) G K L K J F R z.p.i.h.U.n.g.g.j.j.g.a.a.a.i.i.s.Y p.R R s.R R R R T R R T R d.l.l.Y Q s.Z.d.b.Q d.T T Y Y Y Y Q Q d.b.d.Q M.B.M.M.! M.M.! l.! ! ! M.B.G.G.M.M.B.B.W b.N.G.G.N.Z.M.d.Z.E d.Z.B.b.b.d.B.T.B.b.Z.b.n.n.F.A.b.n.Y.E.R.A.R.%X-X&X&X=X%X%X*X:XsXqXkXMXlXlXzXjXlXmXmXmXLXHXnXMXmXmXmXHXLXnXKXnXlXKXKXnXlX,XsXvXvXqX0X0X9X(.9XhX(.(.hXeXW.BXgX9X^.Y.(.Y.a.h.R.f.p.l.I ) D R R S G G L M M M @.B M M v { v v # # 2 2 $ $ o 2 7 3 | | 1 6 6 & 1 8 4 4 4 8 w w - 5 r r 0 e 8.r r O.+.....n N D F v.z.v.Q.E.I.I.I.I.8X7XI.8XI.I.5XI.5XP.I.P.h.i.p.p.k.k.k.k.J K @.H L K K H K K K K u.u.J u.k.p.p.p.h.p.f.Q.f.f./.&Xn.Y.F.T.^.qXkX:X;X+X!.*X,X=XOXkXkXkXbX*X/.(.&X-XqX(.(.Y.(.6X(.E.E.P.I.E.P.",
"U.U.n.U.A.h.Q.Q.z.z.z.k.k.k.k.x.p.p.D p.p.z.p.p.z.k.k.k.k.k.k.J J tXJ G J L K K J K J J J ) tXx.` K u.x.k.x.XXz.p.U.U.h.g.a.i.h.g.a.a.a.i.Y i.s.z.l.l.z.l.R R Q R ~ ~ d.l.l.l.d.T d.Q b.E d.E Q d.l.d.d.s.d.b.Z.Q Q E E ! W Y W B.B.M.! ! W T W B.B.B.B.! W ~ ~ ! M.B.M.d.b.B.Z.b.Z.b.b.B.Z.Z.E s.b.~.Z.b.D.f.A.n.Y.Y.b.Y.(.R.n.a.S.~.%X~.*X:X*X*X=XdXkXsXkXvXjXlXMXlXnXmXmXnXKXHXmXmXmXmXmXmXKXlXmXmXnXKXKXnXzX>XqXdXqX*X-X0X9XY.(.hX9X6XhX9XY.hX9X(.^.eXrXeXA.Z.R.f.R k.D R S / G S N N B B M v v n @ v v  .]  . .|  .| | [ 6 7 X.X.>.+.| 7 4 & 6 8 4 + 4 4 4 8 ; > > > > > 0 0 0 s e O.o.7  .$.J k.k.x.z.z.c.P.I.5XwXNXI.8X8XI.8XI.5Xm.5XP.P.g.h.j.h.p.p.v.D G K L L K K K K K K K u.u.u.k.z.z.z.z.z.z.Q.%XS.A.0X-XA.^.R.^.-X;XjX;X+XoX!.*XaX!.H.=X*X%X0X%X%XR.&X-X9X/.(.(.9XeX(.Y.Y.P.I.U.g.",
"P.h.i.g.h.i.S.Q.z.z.k.R D D u.u.p.p.F p.F z.k.l.k.p.k.k.x.x.x.k.k.].J J u.J J J J u.J ) G G ) S J J ` J J x.L.z.Y Q.S.f.h.a.i.U.Y.h.h.n.a.i.s.f.z.f.f.z.f.Q Y s.Y T T T T T Y Y Q Q Y Q Y Q E Q T R Q Q Q Q Q d.Q E Y E Q P P Q Y Q Q ! B.l.Q ! K.B.! W P W *.M.B.B.M.W E b.K.T.M.b.b.F.b.S.T.E Q b.:XD.b.T.f.A.T.%X/.Y.(.9XR.f.b.T.0X&XT.=XdXdXkXvXvXvXsXkXlXjXnXmXnXmXHXmXnXmXmXmXmXmXmXMXnXmXMXmXmXmXFXmXMXjXsXsXkXqX=X=X0X-XY.(.gXfX).6X9X(.BXBX9X9X9XrXW.f.R.W.f.Y p.I R ) S S G N N B @.{ c v ] v ] ] [ ] 2 2 | 7 2 1 O 2 o.X.7 7 7 1 +   + 8 8 4 8 f s d 9 - d a a , < < r.7.8.e w.w.w O.$.H K N J D D D z.U.E.wXwX5X7XwXDXNXNXhX7XCXNXNXrX7XE.U.j.j.c.v.F u.J D J J K K K K K u.u.k.k.z.p.v.p.p.p.z.R.f.f./.R.n.R.R.D./.T.*XoXoXoX!.,XzXaX*X:XOX!.&X%X&XR.(.&X9X(./.6X9X6X(.E.E.E.E.E.P.",
"E.E.U.E.W.Q.&XeXz.l.k.p.k.k.u.u.k.z.k.x.p.z.p.p.k.p.p.p.v.v.k.k.z.XXx.k.x.u.u.J u.x.k.) J J x.D J k.x.J D ) k.D F z.z.p.j.a.h.U.E.n.h.n.h.a.s.s.s.Y E s.E Y Y Y R R ~ ~ R T T Q Q E P E E b.E Q P Y T Q T Y Y Q d.Q Q d.M.! ! L.Q ! ! d.M.! W ! J.M.W W W M.N.N.! B.B.d.b.G.J.K.d.Q b.F.b.Z.^.b.Q F.kXH.d.T.b.D.0X0X(.R./.(.R.Y.D.%XvX%XH.=XdXdX0XqXsX:X*X:XkX>XmXMXjXjXnXmXmXKXcXMXMXnXnXMXnXKXmXmXmXnXMXlXjX,X,X>XsXsX0XqXqX-X-X9XgXfX(.9XBXgXLXLXVXgXvXgX/.A.Y.T.p.Y R F F R S S G N m M M { # ] {  .]  .] 2 2 1 | 6 O O   4 6 1       + 4 4         * - - - > ; i d , i , > , a 8.8.w.8.r w [ ] { c B H / ) k.z.h.U.I.I.5X8XE.5X8X5X7XNX7X7XNX7X5XE.c.c.Q.h.p.x.x.D D D J K K K K u.u.D p.k.p.k.p.p.p.h.S.a.n.R.A.n.R./.Y.~.H.*X@X+X+X@X,XzX:X:XsX0X=X0X=X&X^.&X(.-X-XY.(.(.E.).E.Y.E.E.W.E.",
"I.E.I.E.U.n.U.Q.z.z.l.k.x.x.x.k.z.z.p.z.p.k.p.p.z.p.p.v.z.z.v.h.p.z.R k.k.D k.D k.u.J J J k.].x.) x.x.k.) ) k.) D z.z.p.h.h.n.Y.P.g.g.g.j.j.s.i.s.i.i.s.s.Y Y Q l.l.l.l.l.d.l.S.M.d.Y Q Q d.E Y T T Q l.d.Q Q d.b.d.Q Q ! W ! N.B.B.d.! ! Y ^ ! B.W W l.B.B.B.! ^ ! b.Q d.G.G.M.b.d.b.D.b.b.T.b.d.H.dXT.b.H.n.D.-X&XY.A.Y.F.Y.Y.T.OXvX%XT.0X0X0X~.*X:X;X*XqXkXsXmXnXlXlXmXHXmXHXmXnXnXnXnXnXmXKXmXMXMXMXzXjXjX>X,X>XkXsX0XqX0X/.Y.^.(.(./.(.gX9XeXqX(.Y./.(.Y.Y.f.h.s.p.l.R R l.I I S N m m M M v }  .%.[  .2 2 | 7 >.o.1 7 q o.>.5 8 4   & &   4 8 5 - r > ; = d > a i i a i 0 0 0 a 0 0 9 = - * 1 3 O # v c S ) k.z.z.c.E.I.I.I.c.c.g.I.5XI.5X7XI.E.6XI.I.6XP.v.Q.z.p.p.u.k.x.K K K J J D D p.k.z.k.z.z.z.Q.Z.A.Y.n.n.Y.(.^./.~.;X+X<X<XoX<X*XoX!.OX%X&X:X=X%X&X-X/.9X9XY.).Y.P.E.P.P.E.E.W.E.",
"m.I.P.P.g.j.h.f.p.p.p.p.p.k.k.p.z.l.R p.p.k.k.x.k.p.p.z.z.z.h.h.F p.R k.D D x.D k.x.J D D ) x.S D ) ) ) ) ) ) ) k.x.l.p.j.h.U.U.g.g.g.g.i.i.j.i.f.p.s.f.f.s.s.f.p.R R R T T R d.l.l.Q d.Y Q Y P Y T T Q Q Y Y d.Q ! E Y Y P W B.T Q Q Q Q W Q L.! ^ W l.M.! ! W P d.b.W E M.B.Q B.b.b.D.b.Q Z.Z.b.F.*X!.F.D.b.F.D.A.b.b.n.n.n.Y./.OXdXOX~.dX0X:X=XqXvXkXkXnXVXnXnXmXmXmXHXmXMXMXmXmXnXnXnXnXnXmXMX>XzXMXzXjXzXjX>XsXjXqX:X0X=XR.R.9X9X9X9X9XgX9X-XfX9X/.eXeX/./.f.n.S.S.R.S.d.L.I S z z N B M v v ]  .[ 2 [ 2 7 | 1 o.7   5 7 5     4 8 4 8 8 4 8 w r > s a < , 7.i 9.7.a 7.a a a > 0 > - > r r 0 r.w.>.+. .n $.G ) p.z.c.Q.c.c.I.g.g.c.5X8XP.7XhX5X7XhXE.E.hX6Xc.c.v.j.v.k.x.tXu.K K u.J D k.z.p.z.p.k.z.z.S.A.f.n.b.F.n.T.Y.H.~.=X@X+X<XoXOXOXaX:X*XOX~.OX&X~.&X&X/.9X9XA.(.W.Y.).I.E.6X).E.E.",
"I.E.I.m.g.n.W.Q.p.f.z.p.p.k.k.x.l.p.D x.k.x.R k.D D p.h.z.h.j.j.p.z.z.Q.p.p.Q.p.k.k.k.k.x.x.z.R R ) R R ) ) D J ) R R R Y f.h.h.g.g.h.h.i.j.h.p.s.p.s.s.s.Y Y E R R R R T R T R P T Y Q Y E Y Y T T Y Q Y P Y d.Q ! Q E Q ! B.J.Q d.d.d.Q P P Q M.W W ! W W ! M.W N.J.B.b.N.B.Q Q E Q B.d.E Z.H.b.B.T.~.T.Z.b.A.~.^.A.n.Y./.-XqXqX&XqX~.~.bXqX0XqXkXvXqX:XkXbXzXnXnXlXzXlXlXzXMXzXjXjXzXlXMXMXnXMX>XlXnXzX2XjX>X;X;X,X*X*X0X:X~.R.9X(./.Y.Y.-X9X9XBXgX9XgXrX(.(.f.h.S.Z.S.Y A R I A k N H @.{ n v #  .# # 2 3 7 X.1 o.5   5 8 * 5   8 8   8 5 * 9 9 - = 0 > t , i < > : = > > , a < a a 0 8.a 0 < 0 8.e.>.| # $.@.` S D F v.j.c.U.c.c.rXNXCXI.NXAX7XwXwXm.P.wX6XP.c.j.i.j.p.p.k.u.J J J k.k.x.Q.p.k.p.p.z.h.S.U.n.n.Y.&XY.^.R.D.~.*X@X*X,X=X,X:X;X=X*X&X~.%X=X%X/.~.Y.9XrXP.eXeX6XwX).).7X6XI.P.",
"E.P.c.P.h.a.h.h.p.p.p.p.p.k.x.k.R ) ) J J ) x.) D z.f.h.W.h.U.P.j.h.Q.h.h.Q.eXh.i.S.z.z.z.p.f.p.k.x.) L.L.R R R ) R k.x.z.f.i.i.i.s.i.h.h.i.i.Y i.i.i.i.z.Y E Y R R R l.R R R Y T Q d.T P Q M.Q Q Q d.Q Q ! W M.T W ^ ^ Q ! W ^ ! P W ! P ^ ! d.Q W d.B.Q B.Q W ^ B.J.M.~ B.M.M.B.E W N.G.B.B.T.s.a.^./.Z.D.~.*X~.%X~.D.*XvX0XfX-XY.Y.n.R.qX0X%X%X0XvXqXqXbXlXzXlXnXlXjXlXnXnXmXlXzXMXmXMXlXMXnXmXjXKXKXlXlXzXzXjXzXqX:X:X:XOXH.Y.n.n.A.Y.Y.Y./.&X9X9X9XeXrXW.W.U.W.W.S.S.Y F R I z N m @.{ v }  .] O | 2 7 7 7 5 5 5 - w 9 w 9 s s d r - r 9 9 ; >     > > = 0 a = < , = 7.i , 7., a 7., , 7.9.0 9.8.0 - 5 1 X.+...B H H K u.u.x.v.z.rXwX6XI.7X7XI.I.E.E.6XNXE.I.c.c.c.j.j.j.v.p.v.p.v.Q.z.p.p.p.p.p.v.p.Q.h.h.h.n.W.R.A.S.T.~.OXOXH.@X*X!.@X;XT.F.^.R.R./.A.T.(.T.(.9X(.W.E.6XE.6XP.6XE.E.E.g.",
"E.I.U.c.j.h.S.Q.z.p.p.l.z.k.k.u.) ) ) J S J ) D p.z.h.h.Y.h.c.h.i.g.U.h.g.U.eXg.i.h.A.j.p.f.f.f.R k.k.z.z.p.p.l.l.p.R p.k.p.p.p.Y p.p.f.p.i.j.i.z.U.h.f.S.Y R E R R l.l.R R T T Q ! d.Q T ! M.W T T Q P T T A T P W W W W ^ ^ W W P Y Q W d.G.N.! W W d.E M.Q Q P ~ B.^ P ~ M.B.M.! N.@X@XG.B.H.T.A.&X&XD.T.^.^.D.T.!.Z.H.:X=X&XY.P.n.n.Y.&X/././.=XkX*X%XsXkXzXjXzXjXjXlXMXMXnXlXMXmXmXMXlXMXlXxX,XmXmXjXjX>X>XlX>X*XqXjX>X<XOXR.E.T.R.^.R.~.%X-X9X(.(.W.6XE.(.W.&XeXW.&Xf.Y I x.G N c B # o o o $ 2 +.| 7 5 * 5 r s >.>.9 r r - - - ; * > d 9 > d ; = s 8.a w.w.0 , i i 9.2.<.7.7.9.9.a 7.9.9., 9.e.7.* - e w.O.3 2 } @.M m L u.u.F p.h.h.g.m.I.I.8X7X7XeXAX7XI.5X7X7XP.c.5XQ.j.v.p.v.h.p.p.p.p.p.v.v.p.z.j.i.g.P.U.n.Z.T.OX%XH.oXJ.OX>X<X*X;X%X~.=X-X-X-XE.^.-X^.(.9XeXW.E.W.E.E.c.I.E.6X6XE.",
"E.I.U.h.h.U.W.W.z.p.p.z.z.k.k.k.) ) k.) J u.x.x.p.p.z.f.P.h.g.h.h.5XrXW.g.g.W.n.W.rXeXU.h.h.h.h.D p.z.l.p.l.R l.p.F D p.k.p.Y i.p.S.z.z.p.p.h.j.j.U.p.p.f.Y F s.p.R R l.R Y R Q Q ! ! Q T ! ! T T P T P W Q P W Q W P ^ Q W P W ! W W W W ! ! W M.W Q B.b.G.B.G.K.{.+XG.B.J.@X;XN.G.oX,X@XN.M.G.D.b.D.T.A.D.Z.B.Z.T.OXZ.Z.=X=XT.&X/.E.Y.9X0X/.&X0XkXbX:X%XsXkXzXlXlXlXMXnXmXmXmX,XjXMXzX,X,XaX,XjX$XuXuX<X,X,X,XzX+XR.;XqX%XT.^.A.Y.Y.n.n.A.A.A./.-X(.W.Y.).U.(.eX&X(.W.&XS.s._ ]./ N b $. .[  .%.+.| | 1 7 7 5 5 5 9 s r * * - r - - = * ; - = ; > ; = , a a a a > > , 9.9.7.<., 7.7.i i 9.9.7.< , 7., t 7.w.w.>.7 | %.%.$.@.H J D D D h.j.g.P.g.g.I.I.g.m.NX5X5XwX7X7XP.c.wXW.j.h.i.p.p.i.j.v.i.p.z.v.h.c.h.h.n.).W.A.R.*X%XOX*XsX*X;XkX,X+X*X:X&X*X-X-X-X(.(.gX-X(.-X(.Y.).6XwXeXE.I.E.P.g.g.",
"eXE.h.j.g.h.h.i.f.p.p.p.p.D p.k.k.k.x.u.k.x.tXx.k.p.Q.S.U.Q.P.Q.U.Q.W.P.P.P.6Xh.P.6XE.h.a.i.h.h.p.p.z.p.R f.R p.R R k.XXXXS.p.f.S.XXQ.S.p.p.h.p.f.Q.p.s.s.p.Y S.z.Y Y R R R R Q R R Q Q T W ~ P T T T T Q M.Q l.K.M.T W B.M.! B.P ^ E E W ! Q ^ W P W B.! B.Q M.~ ! N.! ~ B.B.N.N.N.K.J.G.! b.G.b.E b.Z.Z.D.Z.Z.^.^.&XD.S.:X0X~.n.n.n.Y.qXfX%XdXdXbXZXkX:XzXjXqXzXaXjXlXlXzXzXzXjXMXKXMXjXzXmXlXnXxXcXnXxXxXlXjXjX@XT.%X%XT.F.D.n.n.n.a.a.b.b.a.Y.Y.Y.n.m.E.P.).(.U.A.Y.T.f.E l.L.z g m $. . .%.%.%.X.+.7 q q 5 w 9 r 0 - - - 0 s 9 > > > 9 d 9 = = = = = ; = * = = < : 0.9.3.2.0.9.i < 7.9.i < , , i , 7.e.7.s s e o.+.+. . .B N S ) x.XXh.E.wXE.5X7X5Xg.I.AXwX5X7XI.I.c.c.wXc.j.h.i.i.p.i.j.j.p.v.Q.v.h.h.h.h.Y.(.U.a.D.~.^.%XOX*XL.T.:XoXT.*X%X~.%X&X(.(.(.(.fX(.T.(.E.Y.E.W.E.U.P.g.).P.P.E.",
"wXE.h.P.P.h.j.p.h.p.p.p.p.z.z.x.k.k.k.k.u.u.x.k.F F p.p.i.h.i.h.j.h.c.g.c.P.6Xh.g.E.g.P.P.i.Y.U.p.p.U.h.Y f.s.p.p.R l.XXXXS.p.p.Q.XXQ.f.p.p.f.p.z.Q.p.p.R p.f.D.f.R s.l.Q Y T R T T ! ! T T ~ T Q T T P T Q P T T T P ^ W P ^ :.P W Q W W ! Q W ! ^ W M.T Q P T W W ! ~ *.V.B.B.M.! ! ! W E d.G.Z.b.D.T.T.^.T.T.&XT.^.T.T.0XqX-X/.(.-X-XfX9XR.dXdXvXbXsX,XsX,X;XlX>XuXlXzXjXjXuX<XaXnX;X<X$XlXjXxXcXmXKXFXnXzX;X>X;X<X*XOXR.T.T.Y.Y.n.f.n.Y.Y.n.n.n.a.a.g.Y.I.(.rX&X-XfX9XT.Z.L.L.S N b  .v # 2 | | 2 X.q O.w 5 r 0 0 s 9 0 9 9 d > > > > 0 a a > > a a > d d = ; > i < 0.0.<.0.0.7., 7.9.9.7.i 9.9.0.7.0.9.t 7.8.s e o.X.X.| ] B m H / x.p.Q.rX5X6XrXhX7XNXLXwXI.8XI.5X5X7XNXI.U.U.j.j.c.h.h.j.j.v.Q.p.i.i.i.i.h.Y.n.A.(.%XT.OX&X~.Z.R.*XG.G.OX~.~.%X-X9X(.Y.A.-X(.^.9X-XW.(.E.n.n.m.g.).E.).wX",
"5XP.c.U.h.i.j.A.z.z.z.z.Q.XXXXz.p.p.k.k.J k.k.J k.p.z.S.j.z.h.h.i.U.W.P.h.g.E.P.I.eXU.(.W.g.E.U.v.p.U.z.i.h.h.p.p.R R k.k.R R p.z.z.p.i.Y R f.p.i.f.Y Y Y p.z.S.s.l.T.R.f.Y T R T R l.l.T T _ T Q Q W P T Q P P W W W M.G.B.*.B.W d.Q ^ ^ T W ! B.! ! M.^ M.Q ! N.M.B.M.B.G.B.B.N.B.M.! Q Q M.G.S.Z.D.D.D.D.b.Z.~.Z.D.H.^.&X&X-XR.-XgXgXgXfXvXLXsX:XsX:X,X>X;X,XKXlXMXHXnXMXnXMXzXlXKXjXuX>XmXMXzXlXuXjXzX>X,X@XoX+X*XoXT.R.R.T.Y.A.n.b.Z.R.R.A.a.h.n.U.W.eX).6XwX(.^.-XY.f.s.B.V.I / N @.v # ] | 2   1 1 q e 9 - 9 0 0 9 0 9 > a > > > > > > , , d a a a 8.a > a a a < 2.u : <.< < < 7.9.9.i 9.9.7.9., 9., * 9.9.0 e w.O.o.o.+. .{ B m G ) k.U.i.g.I.I.E.5XNXI.I.8X8XwXwX7XNX6XI.E.c.P.Q.U.P.j.i.j.z.i.i.j.h.h.h.U.Y./.0X-X^.~.*X~.T.0XsXoXOX0X:X=X~./.(.T.E.Y.-X(.T.&X(.Y.6X(.(.(.6X).6XE.P.Y.",
"NXeX6X6XU.h.U.W.h.p.p.p.z.Q.z.p.D p.x.k.u.u.x.k.k.k.p.S.p.p.k.i.j.h.c.g.P.P.E.P.g.E.E.I.P.g.P.P.h.j.c.U.h.h.A.s.p.l.l.k.R R p.p.p.p.F R p.R p.p.p.p.f.f.p.s.D.S.E l.T.D.s.Y R T T T ~ ~ T T R T T ~ ~ T ~ l.T W W W P W N.N.! W P P P P W W W B.W ^ ^ W P N._ ! K.N.N.B.B.N.M.B.G.G.G.B.M.M.G.!.Z.B.S.Z.S.Z.E d.T.D.D.T././.R.%XR.^.-X(.^.^.%XvX:X*X:XsXsX>X;XjXLXzXlXmXlXzXMXzXMXnXLXlXcXuXFXnXMXnX,X,X2X,X>X+XK.J.R.L.D.D.D.Z.b.b.f.a.b.n.n.f.a.h.A.W.(.eXW.E.wX).Y.).m.n.n.T.f.I / z H B v ..| 1   7 5 5 r - 9 > 0 0 0 > 9 a a > , a a a a 9.> d a > > a d ; , i i : u u : , , , < , 7.< = i 7.: 7.< 7.7.: 7.7., 9 s e e O.O.+.%.} { H ` S D i.j.g.g.c.m.5Xm.I.5X5X8X7X5X5X5XI.I.c.P.U.P.g.i.i.j.h.h.g.U.P.U.E.Y.n.a.n.R.~.^.Z.Z.D.:X0X:XvXkX0X=XR.^.^.Y.(.^.(.(.Y./.T.n.(.Y.Y.Y.(.6XeXwX).).",
"W.U.P.h.g.h.Q.W.z.h.z.z.p.p.p.p.p.v.Q.x.u.J u.J k.k.R S.p.p.z.p.h.P.c.j.g.g.E.I.g.I.7XP.g.P.g.h.P.h.c.E.n.g.U.i.Y l.z.x.k.k.p.R p.p.p.z.z.p.l.f.l.p.z.f.p.Y S.Y Y E s.E P Y T A T P T T I I R A P T ! T ~ _ T P P W ^ P W W ^ ^ P ^ P P ! ^ P ^ ^ P P ^ T G._ ^ ! ~ B.B.B.B.*.N.b.B.N.B.B.G.@X:XT.H.T.T.~.!.Z.D.T.^.~.^.&X%XY./.(.Y.Y.Y.T.~.OX%XOX!.:XzXjX;X+XaXLXzXzXmXzX>XjX2XzXzXKXzXMX>XmXlXuXlX,XjXlX>X;XJ.T.J.H.K.D.S.Z.d.b.n.n.b.b.f.f.f.s.s.Y i.i.A.s.n.(.Y.P.).P.E.).-XT.l.l.S G m c n $     7 5 r 9 0 > < , , 7.< > i > < > i i > , i a 9.9.i , d ; = < > i 7.9.0.<.2.7.7.< < 7.i , 9.0.: 0.9.7.9.7.9.9.8.8.8.e 8.>.w o.X.[ %.@.H m k.D z.z.h.P.g.E.I.5X8XI.8X7X5XE.7X6XwX5XE.E.P.g.i.i.j.j.j.i.U.g.h.U.P.P.n.Y.%X/.n.D.T./.=X~.%XdX%X~.OXR.-X9X(.9X(.-XfX9XBXgX(.9XE.(.Y.Y.Y.Y.wX(.(.",
"U.g.g.h.U.i.h.h.h.z.p.Q.XXXXz.z.j.z.Q.z.u.x.x.x.k.x.z.z.p.z.z.p.z.Q.U.g.c.6X5XP.c.m.7X5Xm.E.7XwXwXwXE.P.U.n.a.i.p.p.D R k.l.l.Y p.R R p.R Y p.R p.Y Y f.P E S.E Y Y Y Y Y P Y Q d.P R L.A I R I l ~ T l T I A ^ P P ^ *.M.W P P W ^ W W P M.P ^ P W P ^ W W ~ P B.*.~ M.M.M.K.N.B.B.M.N.M.:.J.H.G.B.H.B.H.&XF.T.*X0X~.^.D.n.R.R.Y.^.^.(.^.~.&XvX%X*XkXmXMXsXjXlXmXzX>XzXzX>XzXmXlXjXKXlX,X,XzXzX2XjX,X,X;X;XqX@XqX*XOX%X%X^.D.Z.A.b.a.E E E s.f.p.Y Y p.f.f.f.i.).E.E.E.I.I.E.).Y.h.s.R ) / k g % o.X.7 w s s 9.a < 7.i i 7., 7.i 7.i i , < < a a a : = i = ; ; < 7.7.9.2.2.: 9.0.0., 9.7.i , , i , i 7.i 7.9.7.a 7.8.8.8.8.0 - O.X.3  . .{ $.` x.XX&XW.P.).hX).I.8XI.8XwX5X8XNXNXNX7Xc.c.g.g.g.g.c.c.c.Q.h.i.P.E.P.Y.A.R.gXT./.&XqXvXfX&XT.~.*X%X=X&X-XgX^./.E.T.A.^.9X/.^.9X^.(.(.(.(.m.a.A.g.",
"g.P.n.).Y.h.U.Q.h.z.z.z.z.z.p.h.h.v.z.z.u.u.k.k.k.k.k.p.p.k.z.p.h.U.c.j.j.U.P.j.g.P.wX5XI.5X7X6XW.E.P.g.P.P.h.j.Y f.R R p.R p.R l.p.p.k.p.R l.p.Y P Y f.Y s.D.s.Y E s.E E Y Y T d.P ~ L.P I I I T B.l.T T P l P M.W ^ ~ W ^ P W ~ W W W ^ B.^ W W ! _ ! ! M.! W M.N.B.N.N._ M.! B.N.N.G.B.b.H.H.M.B.H.b.Z.^.Z.D.&X&XT.R./.(.-X^.(.-X(.-X~.~.~.dXdXsXbXZXlX,XjXnXjXjXjXsXjXjXjXzXjX,XMX,X;X;XzXzXjXjX,X,X*X+X*X!.!.H.K.T.^.H.Z.b.F.b.b.d.s.E Q p.p.R R k.k.k.l.p.h.n.Y.).E.).).E.E.n.h.f.l.k.S N % ..| 6 w s 0 7.< < 7.9.7.9.: i , i i i i , i 9.: =     = * = > i i i i p i , 0.9.7.< 7., t < , , = = 0 9.9.9.< a 8.8.r.0 8.r.e e O.q X.[ v { H k S p.z.h.E.wX6XI.8X8X5X7XI.E.7XwX7XE.I.I.E.E.g.g.U.E.U.P.j.j.U.Y.Y.U.Y.R.0X~./.T.R.^.R.R.^.%X*X%X&X%X/.&Xn.Y.Y.A.n.A.T.b.b.Y.b.^.(.^.Y.A.).6Xa.",
"g.).n.9Xn.g.h.U.h.h.z.j.p.i.p.p.h.i.v.z.k.u.k.k.k.p.p.p.p.z.z.v.v.h.h.j.h.U.P.g.I.5XNX6XE.7X7XE.6XW.E.P.m.P.P.i.h.z.p.p.z.z.s.Y k.p.p.p.R R p.R l.d.l.L.l.S.OXS.Y E s.s.Q E T Q Q Y ! L.T I T I W V.B.~ _ ~ T ~ _ T P P ^ ^ ~ B.W ^ ^ W T M.^ ^ P P _ P P *.^ ^ ! N.! ! _ W ! B.b.B.B.N.b.b.H.H.d.N.T.M.Z.!.Z.D.&X&XR.^.-X9X9XY.Y.^.Y./.R.^.^.0X0XOX*X,X*X@X;XsX>XzXkX>XqXzXlX>XzX;XlX,X,X*X>X>X+X+XoX+X+X!.@X!.H.K.H.R.T.D.Z.b.b.b.d.d.s.R R R ) D D ) D D / R f.h.U.U.m.P.I.P.I.m.n.h.f.p.D S ' ....6 o.>.0 a , t i , : y = : : < : : : : : > = < = = a > > a i < i i 2.i i 9.9., < 7.0 < 7.9.9.w.7.0 7.8.r., 7.8.r.0 e 8.8.e O.>.O.O.X.2 ] { ` G S k.f.A.E.P.g.I.7XI.7XI.5XNXNX7X5XwX7XNXwX6XI.E.P.g.g.g.h.P.h.Y.a.n.A.R./.~.Y.T.T.Y.^.&X*X*X0X%X/./.(.F.(.(.Y.Y./.-X^.(.fX(.9X9X(.(.6XNXNXY.",
"E.9XY.hXh.g.h.j.U.i.j.h.h.j.z.p.h.h.p.v.k.u.x.k.k.p.z.z.k.z.z.v.v.v.v.h.h.c.P.P.E.E.wXI.I.I.E.P.P.P.E.I.I.6X6XP.W.W.z.z.XXR.S.f.p.D R p.R R R R T P Y s.Y Y d.Y Y E E E Y E s.l.T Y Q L.T T T T l P P A T I P P P P V ^ U ~ ! B.^ P P P ^ W P P P P *.P U N.W ^ *.K.! ~ M.~ B.@XG.N.B.! W Q B.B.d.K.oXZ.H.%XT.D.T.R.D.A.D.T.Y.n.Y.T.Y.(./.-X&XdXkX~.H.*X>X,X>X,XsXkXkX:X,XsXkXqX%X!.:X*X*X!.!.@X@X+X!.+X;XoX*X*X!.!.R.T.D.S.b.f.d.d.Q Q Q R R ) ) S S G S G G S I R f.s.a.n.E.I.I.P.P.g.f.f.Y R ' ' ' ] | w 9 0 9., i : : i : 2.0.2.7.7.i i i i = i i 9.e.d > 8.a : 7.2.9.i 7.7.7.t , 0 , < 9.e.0 9.e.8.8.9.r.8.0 0 r 0 8.w.0 5 O.O.O.O.X.|  . .$.H G k.l.U.Q.n.I.5X7XP.I.I.I.7XI.I.E.6XE.eXwX5XE.E.I.g.g.P.P.h.P.E.g.n.U./.-X9XY.^.(.(.^./.%XOXdXT.R.^./.Y.(.(.(.9XgXBXgXBXAXBXgX9X).).Y.P.P.g.",
"6X9X).gXW.U.Y.j.W.j.h.z.Q.h.S.h.h.z.z.p.D p.x.u.p.p.z.z.h.p.v.v.v.v.p.v.j.j.j.h.P.P.E.c.P.P.I.I.P.I.7X6X5XwX7XU.c.Q.Q.U.S.f.f.f.p.D R k.R R R R R R R l.Q T f.Y Y E E E Y E Q d.P P T l.P P P I T W T T ~ ~ I P P P P U ~ U U W P P V P I P P P ~ ^ M.^ ~ K.~ ^ B.J.*.! M.W ! G.B.b.M.M.M.G.T.H.G.!.!.Z.H.*X~.H.^.R.R.Y.(.9X(.^.(.9X(.9X9X9X&XdXvX%X~.sXvXzXsX,X0X:X=X=X=X*X*X=XH.H.*X~.OXT.!.*XoX+XJ.@X*XJ.T.oXT.H.D.Z.b.d.s.E d.d.Q T T R R D S S G G m L ` H z S ) R s.n.U.P.E.P.U.P.n.A.p.R S N b % $ 1 5 9 > t = : i 2.: : i : : : : : i , i 9.i a a = = a 9.> i i 7.i 7.9., < 7.0 0 , 9.7., 0 0 > 8.9.0 7.0 0 0 0 r.e r - O.w w o.O.+.+. ...B H J k.S.U.h.6X7X7XE.I.7XE.6X5XE.7X5XE.E.6XI.I.E.6X5XE.E.I.g.E.E.P.U.Y.9X(.-XY.(.(.(.-X9X0X0XdX^.~.~./.Y.^.^.-XqXgXgX9X9XgX(.^.A.Y.).W.E.E.6X",
"E.P.W.9X(.E.E.h.Q.h.h.U.S.i.f.h.h.U.h.p.p.k.Q.k.k.p.z.z.p.p.v.z.k.k.p.p.v.j.h.h.c.c.P.P.P.E.I.E.E.).hX6XE.7XE.m.W.W.Q.Q.U.h.S.S.p.D p.k.R R R T T T T d.Q Y s.Y Y E s.f.Q E Y T P P T Q A A A P I P A P I T P l P P P U U U ^ ^ ^ P P P W P ~ T ~ ^ ~ ^ ~ B.^ P N.K.~ W W ^ ! N.Q W N.G.J.;X;X*X!.oXK.b.G.OX!.D.Y.n.n.A.^.-XE.A./.(.R.(./.R.D.~.&XH.~.dXkX;X*X=X=X%X&X0X:XOX~.%XT.~.:XT.~.R.^.*XH.@XH.J.oXG.G.H.D.D.Z.b.d.b.b.b.d.d.Q T T I D S G G L m m B B N H G G R F E n.n.n.m.Y.U.U.Q.h.p.R S z b % $ 6 w 9 = > i 9.0.i , i : : , i i i a 9.9.< > = * = d , : i , 7.i , 7.a 0 9.8.0 a 7.7.9.0 > = > 7., 0 8.8.8.8.8.e e w >.O.O.o.O.O.X.+.+.$.$.G R k.p.j.P.).E.6X).NX7X7XCXwXNXwXNXhXNX7X6X7X6XE.W.5XI.g.U.E.Y.Y.Y.9XY.^.(.(.(.(.qXgXgXdX0X~.9X&X/.D.(.9X(.-X(./.Y.F.^.Y.^.Y.W.E.P.I.g.g.",
"Y.a.Y.eXY.U.P.h.c.U.h.h.h.f.p.z.Q.Q.i.p.k.k.XXz.l.p.z.z.h.p.h.z.k.k.k.v.z.z.z.h.j.h.g.h.g.5XP.E.P.E.7XI.I.).P.U.6XU.j.h.i.s.Z.s.p.D p.k.R R R T T T Y s.s.Y s.E Y E s.f.Q Y Y Y P Y P T A P P T T P P T I U U I P P P P ^ ^ ^ U P P P P ~ P M._ ~ W ~ ~ ~ ~ W U J.N.W W W ! G.J.B.B.J.K.G._.K.G.J.T.N.M.K.!.T.Z.R.A.^./.9X9XY.n.n.U.n.E.Y.Y.A.W.R.D.OXkXkX*X*X;X:X&X*XqXqX&X%X=XT.&XqXT.%X^.T.T.!.,X@X!.+XT.H.T.T.H.S.b.b.n.n.b.Q Q Q T R R S S G L N m m B B v B m m S S R l.A.a.g.P.n.n.A.f.p.z.J G G b $ 7 o.0 = > a 9.9.: : 7.7.2.2.7.i i a > = * > = = = ; = : < , i 7.< , , , 0 0 > 0 , 7., = a 7.8.8.< < 8.8.8.8.w.s e e O.o.>.w q o.q +.X.} @.H ) k.p.h.j.P.g.P.I.5X).E.7XE.E.7XNXNXgXNXwX7XE.I.6X6XP.g.E.6XY.W.E./.(.^.(.Y.Y.(.9X9X-X&X%X^.-X~.~.A.(.BXT.(./.(.^.Y.(.(.Y.Y.).P.I.E.I.I.",
"(.m.).eXn.n.i.g.h.Q.h.j.h.Q.z.S.eXQ.i.p.k.p.z.p.p.p.p.z.z.j.p.v.k.k.v.v.v.v.p.i.j.U.g.h.g.wX6X6X7XwXNX6X).6XI.6XNXW.Q.Q.s.s.R.S.p.R p.l.R R R T T T Y Q Q Y T Y P Y E T Y Y P Y P Y P T P T W M.P A P P A l P P P P P P P P V V P P P P ~ P V.B.P P P ~ U P W ~ *.~ P ^ W ~ B.*.! ! G.M.W N.B.N.N.K.S.G.oX~.H.Z.T.D.=XfXqX(.n.n.n.Y.Y.(./.&X/.qX9XR.%XvXvX;XOXOX0X*X*X=X=X*X=X0XOXsXbX=XvXdX&X~.~.sXOXJ.!.G.M.B.!.T.S.b.d.f.Q Y P Y T I D D G G G m m M B $.$.{ { B B ` G S D R s.a.n.a.i.a.i.f.z.D D S j c ] | w 5 s 9.9.9.: : i 2.2.i 7.i : , : * * a , , , > < a , < i 9.< 7.0 , 0 0 > 0 < 9.a = a 8.8.8.< t 8.9 r 0 w.w.w 5 5 5 o.7 3 3 3 +.X.# n B ` ) F z.p.U.h.P.Y.E.7X6XhX6XI.wXeX).U.6XE.7X6X5X7XE.g.m.P.6Xg.U.n.n.(.(.^.Y.(.9X9X(./.-XfX-XqX(.9X/.-XAX^.-X-X9X9X^.(.^.Y.W.).P.P.E.E.6X",
"eXW.eXeXh.g.P.g.P.U.h.j.h.z.z.p.z.h.p.p.p.p.z.p.z.p.z.Q.z.p.p.z.p.k.k.k.k.v.p.p.p.v.j.j.h.U.U.P.c.I.P.P.6X6XwXeXCX6XeXqXBXvXvX&Xs.S.S.l.p.R R R l.R A R P T T P I R d.Q T T E Y s.Q G.G.^ W M.T P P A P P A A P l l V V P U U U I T T _ W P ~ P V I ^ _ C.V.~ ~ _ ! ^ *.K.K.G.V.M.N.G.N.M.B.G.N.H.Z.B.Z.F.H.H.Z.%X!.T.R.A.Y.n.F.n.R.(.Y.-X&X&XgXbXdXvXmXkX=X<X*XqXR.R.&X=XOXH.*X*X=XsXF.%X*XD.T.kX*XH.G.R.T.G.b.T.G.M.Q Q Q Q W T A ) V.S ) G G L N m M M B { n v o v B B N k S D p.S.h.n.Y.P.P.eXf.F R G j b ] 2 7 r s 9.i : u p 2.2.2.u : > i > = > a > = t 7.7.i i < , a , > > , 7.a 0 7.7.9., , a a 8.8.= - w.0 8.e O.* 1 * q q X.X.+.+.+.+.+.[ ] { $.@.H J k.z.Q.U.W.eX6X6X7X7X7XhX6XP.gX9X6X6X6X7XeX6X).E.(.eXY.Y.R.Y.(.&XR.R.~.T.T./.-XfXgX-XqX9XeXrX9XgX9XY.9XBXeX).9XwX6X).6XP.P.W.g.P.",
"rXP.Q.W.h.U.6Xc.h.c.h.j.z.z.v.p.p.p.Y p.p.k.z.l.l.k.z.z.z.k.p.z.p.p.p.k.v.z.z.k.v.z.v.j.j.h.c.h.P.I.P.I.6XE.7X6XhX).6X(./.A.R.R.s.s.f.f.f.s.R R R F A R P ~ T T A I T T P P Y P E Y d.! P ^ ~ P P P P P P l l l P I I V I P P V P I T ~ T I ~ ^ P ~ _ *.B.~ ^ ~ *._ ~ ~ B.V.B.V.B._ _ _ ~ M.K.J.R.S.b.d.b.Z.K.G.%XH.Z.T.R./.n.f.Y.R.(.Y.-X/.Y./.R.T.~.:X:X%XOXOX=XT.~.%X%X!.K.OX:X!.T.d.H.&XZ.Z.=XOXH.N.M.d.d.b.K.N.d.W W W E W I S x.V.S G G G N m M M M M v v { v ..$.B B N G S R z.s.f.n.m.m.E.a.Y R R S N B n 7 w w.9.7.i <.i 9.9.0.2.: i i a i a a > > , 7.i i , , , , > = a 0 0 > , 9.9.7.= < 8.9.8.s r 0 8.e e O.w O.O.O.O.O.O.O.X.X.X.[ 3 2 ] } #.@.@.H ) p.l.p.h.W.E.wXhX7X).).6X9XLXAXwXhXCXCXNX9X(.W.6X9XW.Y.Y.A.Y.Y.T.T.%X~.~.-X=XdXfX-X9X&XeXwXwXBXgXeXrXBX9X(.6XeXeXE.6XW.).).I.6X",
"gXP.U.W.h.P.E.j.c.c.c.h.z.z.v.p.h.p.p.z.z.p.z.z.p.p.z.k.p.p.p.k.p.p.p.p.k.x.v.k.z.z.z.p.v.h.h.h.Q.W.6XwXNXwX7X6X).E.6X6X(.A.U.A.n.a.a.f.f.Y Y Y R I R T A _ P I I T R T P Y Y Y Q E E ^ P W W ^ P P T ^ P l l P l l l V V P V V A I P I P P U V V I ^ U ~ P V ^ _ *.V.U ~ B.~ B.*.~ ! N.G.J.+X;XH.F.S.D.F.K.H.D.!.T.T.~.R.%XA.A.^.^./.A.(./.Y.Y.R.R.~.*X=XOX!.!.-X/.&X&X*XOXR.%XsX!.!.OX=XvX/.T.%XOXT.S.d.d.Z.F.H.N.d.Q Q Q Q W I I ].x./ S G G m m m M M v v #  .] .. .B B c k z I ) T p.A.U.U.R.n.f.f.R S G b ....o.>.s a i i i 9.0.0.2.: 2.9.i a d > ; , , , , a > i a > a > e.a a , , 7., = - - 8.w.8.9 > s e e r w 5 O.O.O.q q q q q 7 3 3 [ [  .%.%.#.#.$.G R p.Y h.h.m.7X).6XhXwXhXBXAXBXNXhXNXhX(.(.eX9X9X9X/.R.Y.F.R.R.&X&X0X0X0XkXdXgXqX&X-X9X9XwXwXBXBXfXfXgXwX(.(.6X6XI.6X7X6X7X6XNX",
"Y.g.P.W.P.g.c.j.c.c.c.z.z.h.v.p.h.p.p.z.k.D p.p.D p.k.p.p.z.p.p.p.p.z.v.k.k.k.p.z.z.v.p.v.z.U.c.h.U.W.eXNX6X6X).hXwXhXgXhX9XeX9X9X/.Y.W.T.f.Y Q l.I ) T A B.P P R ) R R T Y T E d.d.E ^ W W ^ W P P P P P l P I l l l V I P P P l P P V l l I l V V V U *.U P ^ ^ U V.U ~ C.~ V.*.! N.+X$X+X#X;XK.L.R.~.T.!.~.!.!.T.T.~.T./.D.R.Y.Y./.Y.-X(.R.R.R././.&X*X%X~.~.-X%X&X&X&X*XOX%X!.b.D.%XT./.F.Z.%XT.S.Z.B.F.D.K.H.S.b.Q Q Q Q W I I ].) / z G N N N M M M v v ] ] # n ] n n c g N z I I R z.U.Y.W.A.h.z.s.R S N b @ + 4 * * = = = < : u : = < i < d d = = , , a , 9., a a > s 9 0 = 0 7.0 7.9.9.w.0 0 w.8.s 8.w.s s e e r e O.e w r q q O.+.X.X.X.X.&. . .{ { $.J x.x.R z.h.g.6XE.5XhXE.E.eXgX9X).E.7XwX6X6XwX6X9X9X(./.Y.R./.(.0X&X&XR.~.=X&X%X*X/.&X9X9X9XeX9XgXrX9X9XgX9X6XhXwX6XwX7X).).E.6X",
"U.E.E.W.E.g.g.I.P.h.h.c.h.v.v.j.z.z.k.Q.z.p.z.z.p.k.z.p.z.Q.z.p.p.z.Q.z.x.k.k.k.k.v.k.p.v.z.z.z.U.U.U.Q.6XY.6X6XhXNXhX7X).(.wXBXgX9X(.&XR.f.E s.~ A T T P L.I I I I I I P P P T T Q ^ P W ^ P W P P P P P P P V I I I I I P P P l P P P V V U Z ^ V I *.*.U V V ~ ~ V.^ ~ K.*.G.V.*.K.#X@XG.G.J.J.L.H.H.F.H.OX+X~.D.Z.H.T./.A.A.D.T.0X(.9X-X/./.W.9X-X&X&X/.^././.Y.R.R.^./.T.T.%XZ.D./.n.A.Z.Z.D.Z.d.d.b.Z.S.Z.S.b.Q Y Y Y Y Y I I x./ S z G N m m c v v v } } ] # # ] ....% . b ' z z A R l.f.S.i.i.Z.z.Q I I / g % 6 6 5 9 9 , i i 2.<.: i i : d d ; ; d a 9.a 9.a w.8.> a < 8.a 8.a , 7.8.9.8.> 9 8.8.s 8.s s e w.>.O.w O.O.>.e q e O.O.o.X.X.7 [ [ } ] { #.tX4Xx.D p.h.U.eXeX7XwXE.6XgXBX9XY.E.9XgXeXeXhXeX9XeX9X(.Y.R./.~.=X~.T.F.T.*X^.T.-X/.(.9XeX(.(.6XgX9X(.eXgXgXwXBXgXeXwXwX7X6X6X).",
"6XE.I.I.I.g.g.E.5Xc.h.U.h.h.z.v.U.z.z.Q.z.z.Q.Q.k.k.z.k.z.Q.z.p.h.U.Q.Q.z.k.k.k.k.k.k.p.p.v.v.p.p.i.i.i.h.i.P.P.6X7XE.E.E.6X7XhX(.^.E.Y.A.f.s.s.l.T T T A l.P l S z l l A A P P P T P P E P P W P P ^ ~ ~ T P l P C V C V V V P l V P U U U =.;.U Z *.'.V.U ^ U {.C.V.U ~ V.~ B.V.~ M.V.B._ V.K.N.S.F.G.Z.G.T.!.F.F.K.!.D.T.b.Z.&X~.9XR.W.W././.W.9X9X/.&X/.Y.^.R.A.Y.Y.~./.D.D.R.f.b.R.Z.Z.n.a.Z.n.f.f.f.f.d.b.d.Q Y Y Y Y Y T R I ) z z N N N M m v v v v } }  .# ] ......% o n b g x z S R I p.Y i.U.U.f.Y T I j j ' ..6 7 5 0 i i 7.2.: : : : f > = ; > > a , a > > - * > > - 0 8.> 0 e.7.> 9 r 9 w.8.9 9 r e r s e e r e e e q r q q X.7 7 X.| |  . .} { @.H tX` D k.l.S.Y.h.Y.).Y.eX9XgX(.6XeXhX9XY.Y.wXNX9X(.qXqX/.(./.^.-X%X~.T.%XsX*X~.fX0X&X9X0X(.9X9XBXgX(.9XhXwXeXhXeXY.E.wXwX7XwXwX",
"E.m.P.E.I.m.I.6X6Xc.j.c.h.h.z.v.z.z.p.z.p.p.z.k.p.p.z.p.k.z.z.p.h.z.z.z.k.k.k.k.k.k.k.p.p.p.p.p.p.z.h.f.U.h.Y.Y.6X6XI.).wXNXwXeX6X9X(.^.R.R.D.Z.D.l.R ! P T A l z l l z I I I W P P P ^ E ^ ^ b.P ^ ~ l._ T P l V l l l l l V U V l V U U U ;.( *.U V.{.C.;.*.C.@X'.V._ *.*.! _ *.W ! B.M.M.N.G.B.B.N.G.B.N.F.F.B.K.OX%XD.T.A.~.vX&X/.Z.U.R.W.W.h.Y.Y.Y.(.(.T.T./.Y.^.&X9X-XY.Y.F.b.A.R.R.U.U.f.Z.Z.n.d.s.s.s.f.d.Q Y Y T Q R T I S S z k G m H B { @.$. .}  .+. .# 2 2 2 2 O o $ n @ b N N / S R Y z.Q.A.s.i.E d.I C N ' $ $ 1 9 a , i , : < < > d >   ; > = ; * *         = > 0 8.8.0 8.8.t * e 8.e w.w.0 0 0 e e s e e w O.e e q q O.O.X.X.X.X.| |  .[ } } { m K G J k.p.f.s.a.Y.Y.Y.(.W.gXgX6XwXgXhX6X(.9XgX9X(.gXgX-X9X9X-X/.~.%XT.~.:X%X!.dX9X(.0X0X(.9XfXvX9X(.9X9X9X6XeXeXE.).wX7X).).E.",
"hX).NXAXwX5XwXwX6Xg.j.c.j.j.h.p.p.p.p.v.p.p.z.p.p.p.z.p.p.z.p.p.z.z.z.p.p.k.k.k.u.u.u.u.u.k.k.u.p.k.p.p.U.U.&X6XE.6XE.E.6XwX6X7XwXfX9X/.^.(.R.b.T.S.Q l.P A P I z l l I I / _ _ U P P T Q E Q B.P ^ ~ ! W P l l P V l l h l C U V l l U Z h V V ;.V Z *.;.Z U U V.V._ V.K.C.V.V._ ~ M.G.G.N.V._ G.B.B.M.Q b.N.G.G.G.H.oXT.&X~.=XkXR.R.S.R./.R.n.Y.(.(.E.9X9XY.F./.Y.&XqXqX-XY.Y.R.A.Y.U.U.a.A.h.S.h.s.s.s.s.E E s.Q Y Y T R T I S S z G k G c @.v v {  .} ] ] [ ] O $ $ O +     6 ..% b b b N k D R S.S.s.i.a.a.D.N.I z N b b ..>.s d a < = , a a 9.d * > d > ; = * - - - - > 0 w.8.s 0 w.8.> 8.8.w.r r e 9 s w.r e e e r e e w w w O.>.O.X.X.X.+.+.+.&. .} #.$.@.H m K ) D p.Y j.A.a.n.(.W.gXfX9XhXgXgXBXBXBXCXgX-XgXrX/.9X9X9X/.%X&XT.H.OX!.T.^.T.A.(.&XY./.&X9X/./.9XhXgXhXhXBXNXCXCXNXNXNX).",
"AXAXCXAX7X5XI.P.P.g.g.j.j.j.j.h.z.j.i.h.h.p.z.k.k.p.z.k.p.z.p.k.p.p.p.p.p.k.k.k.D u.k.x.x.].x.x.x.k.D p.z.z.h.h.h.P.E.(.eXeX7XNXNXhX(.9XfX-XR.A.T.D.B.Q T T P A l I l l z h l l S P P P P P W M.W P I T P V P P V V V U U l h V h V U U U U U V V U U ;.U V P ~ U U P U _ ~ V.V.V.N.N.'.#X'.N.N.G.!.B.! b.M.J.;X*XOXOXT.OX=X!.^.&XT.A.Y.%XW.Y.W.Y.R.W.^.gX(.Y.Y.R.Z.D.-XR.Y.n.Y.R.h.n.U.h.f.h.i.s.f.f.s.i.E E Q s.Q Y T R R I S S S G N N m m b v # v # # 2 2 [ 2 O O | o.1 1 1 6 o.6 $ ..b . b z _ _ L.l.S.A.A.n.d.T I S k b ' >.8 5 s 9 < 7.a d d > * f d ; d 8.s 0 9 0 9 9 > 8.9 - 0 9 9 - 8.e - r r w.w.w.s r e e e e e e q O.q q O.X.3 X.X.X.X.&.+.} } #.#.@.H H K J ) R p.z.f.f.n.W.9XrXgXeX9X).6X9X9XgXBX9XgXgXvX-X-X(./.OX0X=XT.H.~.T.%X!.^.T.R.R.R./.&X9XgXfX9XgXBX9XgXCXCXBXCXCXNXAXBX",
"7X8X7X7XE.m.I.5XE.I.P.g.j.P.h.h.j.j.i.z.h.j.v.p.p.p.z.p.p.z.k.p.p.k.k.p.k.k.k.k.D k.x.k.J J k.u.x.k.D D p.p.p.p.i.n.R.Y.W.eX6XwX9X6X(.(.9X9X/./.=X~.S.Q Y P P A l I l l z l z z h l I U W W ^ W l P T T V V U ~ U I I I C l l U V V I Z V Z Z Z U ;.U U U V U U ^ ~ U ~ ^ V ~ _ _ _ M.K.oX'.G.K.+X;X!._.oX@XaXMXJ._.!.H.OX%XT.T.T.T.n.n.Y.A.A./.Y.Y.Y.n.(.Y.A.Y.Y.T.D.%XY.n.a.A.Y.f.n.Y.n.h.h.s.s.s.p.s.E E Q s.s.R T I I I D S S z z N m m M n @ # ] [ %.%.] 2 | 2 O | X.4 7 7 o.>.6 2 ..n % b j z z I T E a.a.a.f.s.R R S G B $ +   w 9 r 8.d d d - * 8 8 ; d s 9 5 9 s 9 9 9 0 0 - r - s 8.w.9 r 9 r e 9 e e r e w.e e e e e w q o.O.X.3 [ X.X.X.[  .} } #.{ M B H H K ) x.l.p.z.Q.eXqXqX9X&X/.(.(.9XgX9X9X9XgX9X9XgX9X9X/./.0X0X&XT.~.=X*XqX=X*X%X~.&XfXgXgXfXgXgX9XhXgX9XhXNXgXeXeX6X6XhXwX",
"NX7XwXwXwXI.5X8XI.I.I.g.c.5XE.c.h.h.h.U.U.h.z.p.p.z.z.p.k.Q.z.p.p.k.k.k.k.k.k.k.u.u.u.J J J u.J J J D D k.p.p.p.F z.Q.S.U.(.(.(.9X(.9X(.9XgX9XqX0X%XD.l.d.Q T P P I h l z j z z z z z C I I P I l T _ W V P ! *.V I U U C h h V V h V Z V V V V ( ;.Z V P U ~ ^ P ~ ! ~ ^ P _ B._ ~ _ N.G.N.V.G.oXJ.G.G.N.G.+X@XB.K.@X!.!.!.F.H.OX%XD.A.R.A.n.(.A.Y./.(.qXT.b.f.b.R.Z.^.Y.n.n.Y.W.n.U.U.h.s.f.Y f.f.p.s.s.s.s.s.p.R R I S G G G G G N m m m v v v # 2 # [ | 2 O +.6 + 7 | 5 7 w w o.1 + ..$ $ n b g z z ) T f.h.a.n.z.f.R ) ) z b o + | q w >.9 d 9 ; 8 f 8 9 >.w 5 5 w 9 - - 9 9 s 9 r - s s e w.w.s e w.r >.w.e e e e e e e e O.o.>.O.X.[ 3 +.+.&.[ &.} { #.{ { { H H K ) ) ) k.p.f.h.A.T.W./.(.eXeXvXBXqX9XeXfX-X/.fX9X9X-XqXVXkX&XR.:XdX*X%X%X~.H.D./.0XqX9X-XfXfX(.9XgXwXhXCXgXeXwXhXhXCXNX",
"NX7X7X7X7XI.I.I.E.I.I.c.E.eX5Xc.h.h.h.Q.U.h.z.v.p.p.p.F D k.k.p.p.k.k.k.k.x.k.k.u.u.u.u.x.x.u.J J J J J ) k.k.k.k.Q.XXQ.Q.%XW.&X(.W.eXW.9XgX/.0X-X%XR.R.H.B.Q P I I l l z x x x z z x x h l l P P W _ W V ^ *.*.V P U U V l V C V h h V V V V V U U V V ^ U ! ^ P ~ ~ ~ U U B.B.~ ~ _ B.B.B.N.N.J.K.N.N.M.M._.K.N._.*XoXJ.H.Z.H.^.R.n.A.R.f.a.Y.Y.A.A.n.R.n.b.b.OXbXOX*X(.F.Y.Y.(.Y.A.n.p.Y p.p.z.l.p.p.p.s.R R R R I R G G G G G G L m m M v v # ] [ 2 [ 2 O o 2 +   3 7 1 1 1         2 + $ $ n @ n N / I Q B.f.n.S.z.l.l.) S z g @ $ 6 7 q 4 * *   5 8 - 9 9 * 4 5 9 5 * - 0 0 e r e 9 e e 9 w.w.- * e r e e w.w r e O.e e w w 7 o.7 | [ 1 +.+.| [  . .{ #.{ #.@.@.H H G J D R R p.s.f.h.U.R././.-XvXvX9XqX9XgXqX9XbX9X0XfXBXVXqX=X*X0X0X~.R.~.H.D.T.~.%X^.Y.n.^.(.Y.).9X6X9XNX9X6XhXBXCXCXhX",
"7X7X8X5XI.5XI.wX7X5XI.P.E.6XI.g.g.g.g.P.h.i.h.p.p.p.p.p.k.p.k.k.u.k.x.k.x.x.k.k.J u.x.tXx.K K K J J ) J J J J ) D k.z.p.p.p.f.S.W.U.&XW.eXgX/.-X-X&X&X*XOXL.Q P W U l l C j j x j g g j z j h l l P I P V U *.~ U U U U l V ( *.U l h V V V U U Z V V U U P U P ^ *.~ U P ^ _ ~ ~ U _ N.V.V.G.N.N.B.B.N.*.B.@X@XC.oX*X!.H.G.Z.!.D.n.f.Y.R.f.f.-X&XA.f.E F.F.T.!.*XmXOX&X/.Y.Y.A.U.n.h.s.Y p.z.z.l.k.p.p.p.p.R R I I R / G G G N m m m m M B { ] ]  .+.| +.+.2 2 2 1 + 7 X.1 1     1 + 1 6 1 6 | | $ ..b N j I l.Q i.f.S.f.f.f.R S k j c $ | 6 1 * 4 * 4 * * 9 *   1 5 5 5 9 s s 9 e - s e 8.8.e e 8.* * 0 r >.e e q r e O.e w w 5 1 7 3 | X.1 +.X.[ 2 [  . . .} { { @.H H K J D D R p.f.f.f.S.S.A.A.Y.qX9X&X9X9XqX9X9XqX^.(.(.9X9X&XqX0X*X%XOX0XoXH.T.%X&XT.D.Y.Y.(.9X(.(.9X(.(.(.Y.).wXhX9X6X6X",
"7X7XwX7XI.5XI.wXwX5XP.g.P.E.P.g.g.g.i.g.g.i.h.p.z.v.p.Q.Q.z.z.z.k.k.x.k.k.k.k.J J u.k.u.K J K K J J K J J G J J J ) k.k.k.p.R L.R.U.R.W.eXfX/.&X%X/.%X*X%XH.B.d.M._ l C I z j g j g g g j j z z P P I P V U ~ ^ ^ V U ( V V ( ( C l V U U U U ^ C h V *.U V ^ P ^ V.V.~ P P *.B.*.~ V.K.N.G.K.B.K.J.K.J.G.K.,XaXK._.@XK.F.H.K.OX^.Y.R.&X/.A.R.BX-XY.T.T.:X*X%X!.J.;XG.H.T.Y.A.n.a.f.f.p.p.p.l.z.R R R R R R R R D S G G G G L m m L N m v n ] v ]  .[ 2 +.+.2 2 | 7 3 X.o.6 6 1 7 X.7 7 6 1 7 7 7 1 ] @ . j z l.R Y f.S.s.s.s.Y p.D G b v ] 1 1 7 w w 8 5 w s r 1 5 q 8 e w.w.e * 9 9 w.8.8.s - s w.0 r w.e w.w.q w e O.e w w e w 7 o.X.+.+.3 X.X.7 3 |  .}  .v $.@.@.H H ` / ) ) p.p.Y Y Y f.S.f.f.Y.fXqX(.9X9XBXgXqXvXrXgXgXgXvX=XqX0X=X:X=X0X!.T.T.OX~.D.D.~./.(.9X(.(.(.).(.6X).hXhX6X).).wX",
"CXNXCXwXwX7X8XNX7XI.m.g.I.E.I.m.m.g.g.P.c.h.h.h.p.p.p.z.z.p.x.x.u.k.k.k.u.u.J J k.J D J K K K K J J J J G J J J J D ) D D D D l.z.f.f.U.&X%XR./.-X&X=X0X:XOXR.R.J.V.I C / z j j N b g g g g z / I I W U V V ^ ^ V V ( V.U C U C l l Z ( U U V V V h V _ ^ V W P ^ V.V.~ ^ U G.G.V._ N.K.N.N.G.! B.G.M.M.M.*.C._.K.K._.G.H.!.H.OX/.E./.^.A.A./.-X&XD.D.H.OX!.OXJ.+X+XH.T.F.D.n.f.a.f.f.s.p.p.R p.D R R R R R R R S S G G G L L L L H L M v v ] # O [ | 2 +.+.O   7 6 + 1 1 O 1 1 7 6 1 1 +   4 1 1   2 O X b x / R Y z.S.s.s.f.Y p.p.J k c # o + 7 7 7 5 8 w w w 5 7 w w e >.w - * 9 9 w.s r r - 8.8.w.e s e e e w e O.e e w e e >.o.O.O.o.q q X.X.X.[ +.&.[  .} $.$.{ B H K G J D R p.p.p.p.f.f.s.f.R.bXfX(.9X-XgX9X9XvXgXgXfXgXBX0XqXqX0XqX=XOXOX%X*XOX^.T.^./.Y.A.T.Y.A.Y.A.Y.9X).wXwX).E.(.NX",
"NXI.I.m.7X7X7XCX7X5XI.I.E.7XE.P.P.m.g.I.I.P.U.h.h.z.p.p.D F l.k.J k.k.u.u.u.u.J k.u.k.x.K G J K K K K K G K K J K J ) S S G S ) R R Y S.&X%X&X9XvXgXvXbXvX:X*X;X,X@X~ I / z z z g j b N j g x j h l U U V l P ~ *.^ *.`._ U ( ( C V V V l V V V V V V U V ^ *.^ U *.~ P P ~ V.*.M.U M.N.B.N.K.! B.J.B.M.N.B.N.K.K.K.J.G.!.OXT.^.R.A.Y.n.n.Y.^.f.A.s.b.Z.!.T.oXH.K.Z.Z.D.f.A.f.a.f.h.f.p.f.p.R R ) ) ) ) D D S / G G G N m m B H m M M M v { } ] 2 +.+.2 +.o.2 | 7 6 + 1 1   1 1 1 1 1 6 6 4 8 4 5 5 o.| $ ... k l R L.L.f.S.Y.h.j.p.k.G N B @ ..2 + 6 4 8 8 * -   1 5 r 5 - * * - r * w.9 * r w.w.s w.e e O.>.e >.e w 9 e e e q w 5 5 7 1 1 X.X.X.X.| +.&.[  .{ $.{ B B H K / / D R R R R R f.l.s.s.R.vX0XR.&X/.qX&X-XvX9X/./.9X/.~.dXdX*X=X=X*X~.=X:X^.D.T.T.D.R.n.Y.Y.n.A.A.Y.9XA.E.).).6XeXBX",
"7XP.7X6X7X7XE.7XI.I.m.g.g.6X7XP.g.g.m.I.7Xm.g.i.Y h.Y F R p.S.l.k.k.k.D D u.u.x.u.u.u.J J G G ` L L H K H L L H H m m ` k N ` / S D k.L.T.T.~.0XvXgXgXdXkX:XXXXXoXN.b.M._ I l z C ` N g g g j g j x j ( l V *.N.:.^ N.V.^ U _ I ^ ^ U ~ U C V V C U ( *.=.=.V.V.V.*.V.^ U ~ ! Q ! B.B._ N.N.B.N.@X@X_.N.G.oXoXG.oXH.H.b.J.*Xb.B.R.Y.n.n.Y.n.Y.A.Y.A.n.A.Y.R.Y.A.b.b.b.n.A.f.i.s.f.p.p.p.f.l.f.R R ) J J J J G G G G N N m m B $.M @.B { ] # ] ] O [ 2 O $ [ o $ 2   1 1 7 7 q o.| o.| o.6 & 6 4 5 9 9 w 6 $ # @ m G ) R Y f.n.f.Y z.R.F S S k c b  . . .7 7 O.w - 9 s s e q q w 5 5 5 >.w.e e w.>.>.e s q O.O.O.O.O.9 s 9 e w w r q w O.O.X.X.X.O.+.+.[ [  .} } #.B B H ` ` / ) ) ) ) ) R R R l.E s.T.=XD.T.Y.~.fX-X9XBX9X9X9XqX~./.qX0X~.%X&X0X&X9X&X^.R.R.A.Z.A.T.A.A.Y.n.Y.^.Y.Y.W.(.E.Y.6XwX",
"E.E.7X).6X5XP.E.P.P.P.g.g.NX7Xm.g.P.P.I.I.g.g.i.P.W.h.f.z.z.XXXXk.k.k.k.u.k.k.u.u.u.J J G G H ` ` K H H H H #.$.H M H H N $.H N ` G z R B.B.B.D.&X~./.&XqXqX<X*X;XoXN.M.M._ I l h z x . g g g g N g j C h l *.~ ~ ^ *.N.~ ~ U I V P ^ U ^ V V C I U U U U U U U U U *.P ^ T T P Q M.W W B.N.M.M.N.N.B.B.G.J.J.J.K.N.D.M.H.OXM.D.R.Y.Y.A.A.f.Y.A.A.n.n.A.R.Y.Y.n.b.A.Y.n.h.s.p.f.p.p.p.R R R R F R ) J G J G G G k N G H B M M M M M c } } } &.[ 2 +.%.+.....O ] | 1 6 1 7 7 7 w 4 1 + 6 +   4 4 - 8 9 5 4 1 ] n B N G S F Y E Y s.Z.R.s.p.l.) / k B n ] 2 3 q 5 - 9 9 9 w q 4 1 1 1 5 >.w.5 r w.w.O.w.e * 5 7 O.O.5 0 0 0 s w O.O.O.O.w q q X.o.X.X.X.[ [  .} } $.@.H H ` ` / J G J J ) ) ) ) l.T Q S.R.Z.T.T.&XvX0X9XgX(.&X9XqX0XqXvXdX-X-X&X-XY.%X&X^.R.Y.n.b.A.T.n.D.(.Y.Y.(.^.Y.W.(.E.E.(.E.",
"m.E.I.P.I.P.g.g.P.g.c.g.I.AXwXm.I.8X5X7X5XI.g.g.j.P.i.j.h.i.S.S.p.k.k.k.k.k.u.u.J J K K L H H ` K H H H H H @.$.$.B $.H H ].N N N N z ) x._ T M.OXT.H.*XqX:X;X:XMXzX<XJ.@X$X'.I z C j g b b b g N g x j h h U V ^ V ~ *.! ~ P U ^ ^ ^ P V V V V V V V V V V Z U V U V.^ U W W W l.B.W W G.J.N.M.B.M.! M.N.M.M.Z.Z.b.D.F.T.!.Z.~.R.F.Y.A.A.n./.F.A.f.n.Y.R.Y.F.n.n.Y.Y.n.a.s.f.f.p.Q.L.l.l.l.R ) R J J J J G G G G N N N B M M { M M v } } } [ [ 2 | | 2 $ ..# ] | 1 3   1 4 6 1             + 4 * - 8 4 4 7 | ] n b k z S P Y s.n.D.S.f.p.l.R / z N c n 2 2 7 5 r w.w.>.e O.O.O.w q 5 O.w * * r O.5 w w 5 O.3 O.O.* s 9 a s O.o.w w q 5 3 3 5 q X.X.+.|  . .} } $.@.H H K G J J J J S D ) R F T l.b.T.~.S.D.b.n.-X/.&XgX%X&X-X9XfXqXgXqX-X9X-X-X&XqX9X/.R.F.n.n.^.R.b.n.(.Y.Y.E.Y.U.W.Y.g.P.Y.g.",
"g.).g.P.P.P.P.E.wXP.P.h.U.NXE.g.P.8X5X8XI.I.g.g.c.U.g.h.h.i.h.z.p.p.k.k.k.k.u.u.J J K K K H K @.H @.@.@.H B H H @.M B B m B . H g N H ` ` / I L.XXK.J.:XqX&X*X;XqX,X@X'.<X2X'.I I / x x j g g . b g . g x j I l C P U ! *.~ ^ M.M.:.U V V I P V l l l V V C U U V U V.^ T ~ M.M.! M.W W G._.B.! B.B.b.! B.b.Q B.b.d.G.H.H.F.B.%XT.A.A.n.n.n./.A.A.f.n.R.Y.n.A.n.A.n.f.f.f.h.f.R p.Q.z.R k.k.J ) D J J J J G G G ` G N N m B @.$.M { { } ] 2 ] 2 2 | 2 2 + | ] | X.2 7 1 6 7 7 1 1 2 6 1 + 1 7 8 * 8 w 5 4 7 6 $ % b b k S I R l.S.T.f.s.Y l.R R / z g b v # 2 7 7 e e - * 1 5 5 q q 5 O.O.5 5 e q 1 e e 5 q 1 O.O.1 8.9 9 e O.3 q O.O.O.q q q o.X.X.X.[ &. .} } #.@.L H G G J J ) ) J J R D A R Q s.L.D.D.T.S.A.~.Y.(.vX0X0X0XqX-X/.&X/./.9X0X0XgXvXqX(.^.R.R.^.0X-Xn.n.(.Y.n.Y.E.n.P.Y.h.P.Y.g.",
"m.W.g.P.E.P.P.eXrXc.P.h.P.rXP.g.c.5XI.I.g.P.m.g.wXwXI.P.c.g.E.6Xp.p.k.k.k.u.u.u.u.u.K K K H K H M H @.@.B M M M B B c B B B c B B B B N B N G _ l._ V.;X*XR.=X=X;X+X@X;XzXzX#X*.=.=.z j j g g . g c . g g x C h C I ( U *.~ ^ N.M.*.U ^ U _ U V I U U I C V V V V U B.P P ^ ~ ~ ! N.B.M.J.{.N.M.B.K.B.b.G.H.G.H.H.F.~.=X~.D.H.=X^.A.b.f.A.n.R.b.Z.f.A.T.b.f.A.A.F.a.a.Z.Z.h.f.Y p.L.x.D J ) J J G J J J G G G G G G H H H { #.$.M { { } } 2 [ [ 2 +.%.+.2 2 | +.| 2 7 1 7 q 7 1   1 6 O   + 4   4 8 >.5 4 o.7 2 o ] B g k S R ) z.S.s.h.h.R.S.S._ I z z b @ $ ..1 5 *   * r 5 * 1 w O.w.w.w O.w.O.5 e w.e w.7 +.o.q s e 9 e O.  7 q q q q 5 5 q q 7 | [ [  .] { #.@.H H G G J J J ) ) ) ) R ) S.R T d.Q d.S.Z.R.~.Z.D.qX%X/.%X9X%XR.%X/.~.9X-X-X-X0X&X~./.~.^././.R.f.n.Y.n.a.n.A.i.a.P.U.U.U.a.",
"U.E.g.U.Q.j.j.P.c.i.h.j.h.rXW.P.c.I.c.m.m.m.m.g.5X6XP.c.c.g.E.W.p.p.v.k.k.u.u.u.u.K K K K H H H #.$.$.$.$.$.$.$.M @.v B B $.$.c n { ..B c g b N z I ) oXJ.N.=X*X<X<X>XxXmXxX,X{.'.`.( / ' j j g g b g b g . j j z C I I U W P ! U ~ U U _ V._ V U _ U U U V V V P U V.P ^ W W P ! K.G.B.K.J.N.B.M.H.B.M.!.@XH.!.oXH.OX:XOXD.T.%XD.b.E s.Y.A.D.b.A.b.F.T.f.b.R.T.S.s.Z.R.Z.s.s.s.z.z.k.D J K K K G J J J G G G H G G H H B B B @.M M v ] } ] [ 2 2 +.| | O O 2 2 2 O 2 1 5 4 1   6 | +.$ O 6 6 & 4 8 >.5 5 >.>.>.+ ..... g z z S R z.s.Z.Y.R.Y.Z.f.T R I N N b ] | X.q 7 O.w.>.r 5 w.w.O.7 1 q O.>.r e s e w.7 +.O.O.>.s e >.>.O O.O.O.o.w q w w w q X.[  .%. .$.$.@.H H G J J J J ) ) ) ) R l.L.l.s.l.Y s.s.E d.T.b.A.0X%X~.W.&X0X&XqX0X&X-X/.^.Y./.(.(./.R.F.D.A.A.b.A.Y.n.n.n.a.a.m.Y.U.h.a.h.",
"W.W.U.U.Q.j.j.j.z.j.h.j.i.W.U.i.g.m.m.m.I.c.c.g.g.I.g.g.c.g.I.c.i.p.v.v.v.k.u.u.u.u.K K K H H H H M M M M @.@.M v M n n v %. .o $ ] %. .# # n g N N I V._ ! +X!.G.{.,XuX>X<XoX{.J.'._ ( / j x x g b g b b . g g g x l l P ~ P P ^ ! *.~ ~ *.*.^ U U U U ^ ^ U ~ *.*.G.^ ~ _ ! P W N.B.W b.B.! ! B.G.M.M.oX!.B.K.D.b.F.~.D.b.B.Z.n.b.Q b.-XH.A.n.Z.b.D.D.f.Z.~.Y.f.s.Y.W.h.i.a.p.p.p.R D J K K H J J J G L L H H ` G N m m m M M v v @ v ] 2 ] 2 ] | O O   + | 6 | O 2 1 7 4 4 1 6 2 | + o 6 6 + 4 4 w 1 1 s w >.+ ....% b N k z D p.R s.A.h.n.a.n.a.s.~ ) / z B ..+.+.X.o.o.7 1 q e 5 5 3 3 X.O.5 r w.w.* *   3 O.q >.r >.w X.1 X.X.X.q q q r q O.q X.X. .%. .$.@.@.H H K G J J J ) J D R I R l.P T l.Y B.b.d.b.T.D.~.dX&X9X=X%X-X&XqX9X/.(.^.R.R.%X-X(.R.F.A.R./.R.Y.(.(.^.(.Y.n.Y.).Y.U.f.h.W.",
"h.h.h.i.h.j.h.h.Q.h.j.z.p.z.h.j.g.m.P.P.5XI.5XE.c.5Xc.g.g.g.c.j.i.i.p.v.v.v.v.u.u.u.K K K K H H $.@.M M @.$.{ c @.{ %. .v %.} # | 2 2 2 #  .%.@ B N j / I ^ @XJ.J.,XMXMX>X*X*X*X@X+XG.V._ I z z g c . b B g g g g g z l U *.W P ~ V.V.U P ~ *.U U U ^ P P U _ B.V.B.V.P U *.M.W M.J.N.W M.N.M.M.N.G.d.N.*XH.Q Z.H.B.Z.~.D.b.Z.B.A.H.n.D.fXD.f.b.Z.f.A.A.E n.T.b.s.s.A.Y.a.i.f.Y R R D J J K K K K G K G L L H ` $.H N N H B M v c v v ] 2 2 [ [ 2 | + $ o 2 X.| | + 2 1 5 4 6 7 6 + $ o o $ 2 7 + + 8     *       + + % ..B b N S R F F f.i.g.a.a.i.f.s.l._ z k n [ [ | +.O.q 1 O.q 1 7 O.o.X.7 5 - - e O.w.o.7 +.1 w * e 3 1 1 X.X.o.O.O.e w q w q X.| [ [ ] } B B B H G G J J J J G D ) R R R T ~ l.Y S.B.Z.H.%X~.R.~.S.~./.Y.R.R.&X^.Y.^./.&X(.9X-XR.A.n.R.0X(.Y.A.Y.m.n.Y.g.n.Y.a.Y n.U.A.R.",
"h.f.p.i.h.h.i.h.h.v.v.v.p.p.p.z.h.E.g.P.E.g.j.g.c.g.g.c.c.g.g.h.p.F F W.z.p.v.k.u.J J K K L K H @.{ { %.@.$.$.$.%.} v ]  .[ 2 O 7 7 | 3 O +.] # n ' g / h C C.B.V.oX,X,X+X*X=X%X!.~.H.B.Q W T S j g g g b c c b g j z I I V P P ~ V.K.P ! C.V.~ ~ ^ U U P P P P U ^ P P ^ G.U U *.N.M.W B.B.! B.! ! B.b.Z.M.Z.b.Z.B.F.D.b.d.b.b.b.D.s.b.^.H.b.b.^.H.n.Z.A.~.&Xn.n.f.f.n.a.i.a.a.f.p.R x.tXtX@.L K K L G L L L L N N m H @.M c { n n v v ] ]  .] | 2 6 + O + | | | O 3 1 q 7 7 6 + 2 [ 2 + + + + + + 7 6 *         + O O n n @ . j / A T f.n.Y.U.m.Y.Y.Z.f.Q R S B { v ] %.+.O 7 7 5 q X.7 7 X.X.O.w r 9 w.>.X.3 +.3 q q q o.3 [ +.X.O.o.w O.e w q q X.| 2 2 } { #.M m H G G J J J J J J D R I R F T Q T T l.Q E b.f.s.b.Z.T.%XZ.Y.&X(.&X/.0X^.Y.-X%XR./.^.R.(.^.Y./.n.n.(.Y.m.n.h.a.h.f.h.U.n.f.",
"h.Q.Q.z.h.z.v.h.v.j.p.p.p.p.z.Q.h.Q.h.z.Q.h.j.c.c.h.h.h.h.j.j.h.F F p.XXQ.v.p.p.x.u.u.u.K K K H B M @.$.M M { v v v ] ] 2 2 ] | 7 X.>.7 3 +.| 2 ] ..@ ' j l ( U I B.J.oXoX!.~.~.~./.^.D.B.M.Q A / / z g g g . g g x x z z l P P P *.C.^ ! V.B.! U ^ U U ^ P P P U ^ ^ P ~ V.W ^ P ! ! ! M.M.b.N.! Q b.b.F.B.F.B.b.b.b.Z.B.b.b.Z.b.T.n.F.~.T.D.D.~.H.b.Z.b.A.R.n.A.n.n.n.a.i.a.s.f.R D ) ` K K K H G H H H H L L m H L m m M M M { { v v ] ] [ [ ....$ + 6 +.+.>.2 + | 3 4 1 1 6 O $ 2 $ + $ 6 6 1 1 7 4 1 4 4 8 + 7 1 + 6 2 n @ g G z A R f.U.n.Y.E.Y.Y.A.S.f.R G $.B n  .%.2 1 >.>.>.O.X.| X.7 O.O.e >.>.7 1 1 +.7 w o.O.+.| +.+.X.o.3 1 q e O.w q 7 X.| [ %.%.$.B B H H G G G G J J J J R R T T T l.T Y Q Y Y s.E E Z.Z.D.R.n.R.%X/.&X(.&XR.~.D.R.(.0X(.R.&X&XA.n.m.A.n.n.n.a.n.h.n.Z.A.W.U.U.",
"R.Q.Q.z.p.h.v.h.z.v.p.p.k.k.z.XXv.z.v.z.Q.v.p.z.z.v.p.v.p.p.v.h.F p.z.XXQ.v.p.p.v.u.u.u.J K K L M { $.#.M v { v v v ] ] [ [ | 7 1 7 w.7 7 X.| O $ ..@ b . j C h I _ M.G.oXJ.H.%X9X-X&X%X%X%XR.B._ / z x x x . x g x x x l l S I I *.K.~ B.B.B.*.! :.*.! W ^ P P ^ P ^ P *.V.*.~ U B.K.G.M.! b.B.Q E d.b.F.b.b.d.T.^.T.H.~.R.T.~.A.^.A.A.Y.n.n.A.A.n.b.D.A.b.A.n.n.a.f.n.a.a.a.i.R R D S G L K @.L L L H H H H L H ` $.H m B @.@.M v # # } } ]  .%.,.$ o 2 +.7 X.2 2 X.7 q 7 7 1 1 6 2 + O $ 6 2 + 2 7 7 7 7 6 7 + 6 1 1 6 2 ] ] b ` N k S T f.a.U.n.n.n.n.h.s.p.z G N m B $.n 2 | X.+.X.7 | X.7 O.O.e >.w.X.1 O X.7 7 q q 7 2 2 X.X.w.O.q O.e q o.q 1 X.+.[ %. .$.@.$.$.H H H G G L J J J R R R l.l.L.B.l.B.d.d.E E s.Z.Z.b.Z.b.b.D.T.(.(.~.Y.(.-X&X~./.Y.A.D.n.Y.a.n.E.m.m.T.a.h.n.f.h.f.U.i.h.",
"qXz.p.p.p.p.v.z.z.p.p.p.k.k.x.x.k.k.k.k.k.u.p.k.k.u.u.u.p.p.p.k.D k.z.Q.z.p.p.p.k.u.u.u.K K K L L @.$.@.{ { $.{ v ] # 2 [ X.X.3 * 5 O.3 3 7 7   2 ..o X b b j j j C C U V.N.G.=X=X%XT.T.OX*X@XG.l.l.I l l z j j j j x x j j z S I _ V.~ *.*.! :.! M.M.! ! W ^ ^ W ^ ~ U G.V.V.*.G.{.;X+XN.M.N.N.d.d.K.T.OXF.Z.B.D.T.Z.b.A.Z.b.A.D.R.Z.n.Z.f.f.f.b.n.b.A.Z.b.n.b.f.a.f.n.a.a.s.R R D J J K H H H H L L H H H H H ` N B H m m B @.v { { } %.%.[ %.%.%.$ O 6 +.| | 2 2 | 3 X.q 6 1 6 | 2 O O $ $ O O 2 6 2 7 7 + 1 + 4 1 6 7 7 7 2 ....B b k S I R A.h.g.g.n.h.h.h.k.S J / N B b $ # 2 6 3 1 3 X.X.q q 5 q O.o.2 O +.+.X.O.o.X.+.+.O.O.O.q q >.O.o.O.o.1 +.+.2 +.&.} { @.@.B B H L H G L J J / R R R I ) T T Q Y Y d.d.d.Z.b.E d.b.f.D.~.-X9X(.~.&X-X(.R.^.R.Y.^.R.R.n.Y./.n.n.(.n.Y./.Z.A.Z./.f.R.",
"qXp.F p.p.z.h.z.p.p.p.k.k.k.x.x.u.u.u.J u.J J u.u.u.J k.k.J J J F D k.J J D D p.x.u.u.u.J J K L L M #.B @.@.%.#.v } ] ] 3 7 O.w.o.>.w 5 1 o.>.7 7 o.$ o $ % X X . j g z =.V.V.,X*X~.H.H.oX+X!.G.J.XXB.U I C l h j x x j k k k z C I _ P ~ U W W W b.:.W ! ! ~ ! B.M.M.! G.*.*.~ ~ M.G.N.! Q M.M.b.b.T.!.%XH.T.T.T.~.F.b.D.H.A.Y.A.D.n.n.F.A.F.A.Y.Y.b.a.a.f.A.n.n.f.f.n.f.p.p.R R J J J K H H L H H L L H H H H K m L H M M @.{ @ v { }  .} # } ] # $ $ | | | O o 1 | 1 1 + + 1 O + $ O $ $ $ O 2 2 2 O 2 2 O 1 6 7 7 X.7 3 7 3 ] ] # @ m z S l.p.p.f.n.P.m.g.n.p.D k.) G N b n ] ..+.X.3 3 X.O.w.w.>.e >.>.+.| +.+.o.O.o.7 &.&.O.e e 5 3 O.o.X.7 7 O X.X.O  .[ ] v M M B H H m L L G J G S R I R I ) R R l.T T d.b.d.b.f.Y s.b.E n.Y.F.D.A.n.n.A.Y.^.%XR.A./.(.Y.Y.Y.W.Y.Y.Y.m.a.A.f.A.R.vXeXbX",
"z.p.p.p.f.z.h.p.v.v.v.v.k.k.k.u.u.K u.K K u.K u.K K K K K J J J S S ) D k.u.D u.u.u.u.u.J J K L H L @.M M @.$.{ v  . .%.+.X.w.w.o.>.q q 5 o.o.1 6 6 + o 6 % o o b b b N ` ( _ K.oXoXoX+X;X;X#X{.R.OXH.! W I V h h x x g g k k k z V U V ~ ~ W :.:.N.M.W b.M.Q d.N.N.! _ V.~ U U V U ! ! W Q M.N.B.Z.H.Z.D.b.F.F.b.F.b.Q n.D.F.A.n.n.f.n.Y.F.Y.n.A.R.f.a.f.n.A.f.f.a.f.f.s.p.k.D k.J J L H H H H K H L L H H H L H ` ` H H @.$.B M { %.{  . .v } ] o $ $ 2 O 2 O 2 | X.1 7 4 + 6 O O $ 2 ] 2 $ + 2 ] 2 $ ....O 6 | 6 6 7 1 1 5 3 3 $ # @ b N G x.F Y h.Q.Y.n.g.n.i.f.Q.k./ / H B  .%.%.+.7 q O.O.O.O.r 5 o.+.| # +.o.O.>.O.X.&.+.o.q O.O.O.O.7 3 1 1 O | | 1 X.|  .{ v B $.$.$.N L L G G G S D D R S I A T R P Y Q b.E E s.Y s.b.b.A.Y.n.F.F.Y.D.Y.R.R.^.Y.Z.R.R.A.Y.n.n.Y.n.m.a.n.A.a.a.s.S.i.f.",
"p.f.z.p.z.U.h.v.z.z.v.k.k.k.u.J K L u.K K K K K K K K K K L L L L L u.J x.k.J k.u.J u.u.J J K K H L @.#.L @.@.M v } ] +.+.q q 1 * 4 1 8 8 8 4           6 $ + $ $ $ % b j x l I *.V.K.{.{.{.{.@XH./.R.B.M.M.U V C h x j j k k k l I _ P ~ ! :.B.B.J.N.! N.N.! ! l.M.P ! *.U U ~ ~ V.V.B.N.N.Z.T.K.K.T.b.Z.B.Z.b.b.b.b.b.Z.T.Y.n.n.h.f.A.A.n.n.a.f.A.f.f.A.n.n.f.a.Y i.s.p.p.k.J J K K L L H H H H H L H @.#.H L m H H m M H B M v v $.] ]  .v v ..$ # $ ] 6 | +.| | | 6 >.o.1 6 2 2 2 ....$ $ $ O 2 ] 2  ...O 2 2 $ 1 7 1 * 5 7 3 3 2 O n @.N G D p.z.Y.Y.U.n.P.Y.W.eXz.k.) G M n  .%.| 3 X.w.O.O.q * 5 >.+.2 O o   1 3 7 7 [ %.O.w O.O.q o.X.X.| 2 2 +.+.X.+.+.%.{ { @.$.$.$.H L L L G G G D I I D ) R I T Y Q Y b.E E s.E s.d.s.a.f.a.F.n.A.A.^.R.D.R.R.R.-X-Xn.Y.n.n.n.a.h.a.a.a.i.i.f.S.p.p.",
"Q.z.f.p.z.U.z.Q.z.v.k.u.u.k.u.x.K L #.K L K L H K H L H H H H @.L L @.m K G S J u.J u.u.u.u.u.u.L L H tXH @.M M { { # | X.3 q 1     * * 5 * 8           6 1 1 6 2 $ $ % X X j C _ *.C.C.C.C.J.@XT.-X&XH.H.J.B.~ ( U C z k k g k x V _ P T U ~ :.! G.M.! G.G.b.M._ B.P ! ~ U W :.W N.B.! M.d.! G.b.b.Z.d.Z.Z.Z.E b.A.D.A.Z.R.T.b.n.n.n.Y.Y.n.n.a.n.Y.f.n.A.f.a.f.f.s.s.p.R R k.D G J K K H K H H L L H H #.#.H M L ` H H H m m @.M v { v @ { v @ n ] o $ | 6 O | + 2 7 1 7 1   3 | ] ] ..] # o $ O 2 $ o ] 2 o ] ] 2 6 o.7 3 o.o.3 7 | # n $.B k S R R f.n.n.m.m.g.g.Q.h.z.F S ` m $.%.2 O +.O.3 q 3 5 O.>.7 O 2 | 1 7 1 1 3 3 +.O.r w q 5 7 X.+.+.| | +.+.X.X.X.] v { { B m M H L L L L G J R R S I _ R I T T B.Q B.Q E d.d.d.s.d.E s.b.R.b.b.b.b.A.T.~.D.n.Y.Y.U.Y.n.n.a.a.n.a.Y.n.A.A.U.Q.z.s.",
"f.p.Y p.h.z.Q.Q.k.k.k.u.u.u.K K K K K L L H H L K K H H @.@.#.@.{ @.B B H H H H K J K J J u.u.tXK L tX4X$.L H M M v v  .+.X.q O.q q O.w.w 8 5 w 8 5 - 4 4 4 4 4 & 4 6 6 o $ % j / / / _ N._.!.!.!.%X!.G.J.J.N.~ _ *.P h z k z S z _ *.U I W ~ P ! B.! M.oXb.Z.M.B._ W ! ! P ! B.W b.P ! Z.Q b.B.b.b.E d.Z.Z.Z.s.b.b.n.f.a.f.h.a.s.b.A.A.f.f.n.Z.A.n.a.U.f.h.n.a.s.E s.f.E R p.) ) ) ` J J ` K H ` H L L H L L L H N H K L L H m M M B B B B M v { $.n ..| 2 X.X.7 1 7 3 | 1 O 2 2 $ $ $ @ o @ @ # $ # $ ] ] $ $  .| | X.X.| | | [ X.2 o  . .b b z z ) p.s.h.n.m.P.m.m.h.i.p.z.k.S / B { o | 7 X.w.q 7 q 3     7 3 3 +.>.o.o.o.O.O.O.e O.O.o.q +.3 3 1 X.+.2 2 2 ] ] } %.$.@.B m H M L H G S S I S / ) R I l.B.l.d.Q T Y Y Y R P Q Q E b.D.Z.d.H.D.Z.H.^.F.n.A.Y.A.m.n.Y.n.P.^.E./.W.n.n.Y.A.s.f.",
"f.s.p.p.f.z.v.z.k.x.u.u.K u.u.u.K K K K H H H H K H H M { } }  .{ { n M B H H H H L L L J J J u.J L K tXK L H H m v n  .%.| | +.7 o.>.w.8 5 9 s - - ; - 8 8 4 8 4 4 8 +   + % @ g j z U B.J.oX!.%X*X!.H.!._.N.M.G.N.I l P x x l h l P V V I T T M.B.W ! H.b.b.Q N.B.! B.B.W Q N.M.N.Q b.B.Q B.H.! b.b.F.D.F.D.b.D.D.Y.Z.f.n.n.s.f.f.Z.A.n.n.A.A.n.A.h.A.f.f.h.a.a.E d.B.d.s.Q R R ) ) J J ` ` G G N N H H H H L H N H H L L K L H H H H B M M M v { @ # 2 O 7 | | | +.| +.o.2 2 ] # O # @ @ @ @ @ @ o o # @ O # $ # O O O O o o o # # #  ...@ @ g k S R Y f.n.g.E.P.E.E.P.h.z.h.p.A S N B  .+.+.O.5 7 >.O.O.o.>.O.X.o.o.o.>.>.e q O.O.o.o.o.o.O.+.+.+.%.&.2 2 ] [ [ ]  .{ M M M #.L m L G G S z S S I D A R R T Y Y T Q T R R Y Q d.d.Q Q Y E F.=X!.~.=X^.n.n.Y.n.g.a.a.a.n.U.n.h.n.f.f.Z.h.i.f.",
"l.p.p.k.k.p.p.p.p.k.k.u.J K K u.K K K H H H H H H @.@.@.{ } } } { { { { { @.$.$.H B H L L K L K K L L L L H H @.@.M { $.] 2 [ X.1 7 o.q * * * 5 - ; ; 8 8 5 * 4   4 8 & + 6 $ % X g j l U M.G.G.oXOXoXoX%XoXJ.J.+XoX! _ _ l l I l l l l l l P P Q W ^ Q K.M.b.! N.G.W ! N.! N.+XQ ! E Q b.Q Q d.Q b.b.Z.Z.b.Z.b.A.Z.A.n.f.n.A.f.~.T.Y.D.Z.n.f.a.f.Y.n.n.a.f.a.s.s.E d.l.s.R R R D ) ) G G J K G G L H ` $.@.H L H L H H L H K K K H H L M M M B c n @ n ] O | +.| 2 | 2 | 2 O o ..$ O v v @ @ @ @ # @ o @ o @ $ 2 $ O O # O o o # # 2 ] ] $ o X b j z A T f.h.a.Y.P.E.6XQ.U.U.Q.z.F R / $. . .%.| 1 3 O.O.>.w.o.O.O.o.o.O.>.>.w * q q 5 5 q q o.O.X.X.+.+.+.&.%.[ 2 ] } n c M H H m L L N G G S / S ) R I R R T Y Y d.B.d.d.l.l.B.M.Q Y b.B.B.F.D.! b.~.^.A.D./.E.n.a.a.h.n.n.h.Y s.s.s.f.p.i.f.",
"k.p.k.k.x.k.p.p.u.k.u.J J J J K K L K H H H H H @.#.@.@.{ } }  . .} } { {  .$.%.{ B $.@.M H L L H @.H L H H H @.$.B @.$.n v v 2 2 7 | 7 1 1 5 5 5 5 5 8 f 5   *   4 8   4 7 ..$ @ . g x h P ( l.B.F.H.!.OXH.G.J.,X;XG.G.K._ U R I P l l l l P P W ^ W M.H.F.F.Z.J.@X! ! L.M.B.+XQ b.b.M.b.d.b.B.b.B.b.b.b.d.Z.Z.b.f.f.f.s.f.n.f.A.b.b.Z.b.n.n.f.s.Y.f.h.f.f.a.f.s.E Q s.Y Y T R R ) ) G G G G G H H H ` $.@.H M H L L H H H K K H H L L L N M B M { v { ..] | +.%.....| | $ O  . .$ # ] n b c b @ n n n n n # n ] $ $ 2 2 2 2 ]  .2 ]  .........b N N z S R R s.h.a.m.U.P.h.c.E.h.f.l.].N @.v  .&.1 3 o.o.O.O.* * q o.o.o.w w q 5 O.w.O.O.O.>.w.o.7 X.X.+.+.| +.&.]  . .$.v B @.M m L L m k G / S S S R D A R P P P R d.T Y R Q l.d.Q Q S.R.H.M.b.Y E A.A.b.n.A.Y.n.n.n.n.U.A.h.f.z.z.z.p.p.p.p.",
"k.k.k.k.k.k.k.k.x.k.u.J J u.u.K K @.H H H H @.@.@.@.#.{ } } }  . .} }  . . . . .] } $.{ v } { M @.@.@.H H B M H @.M @.$.@.{ M @ o $ [ 2 O 2 | 7 8 8 5 8 d 8 * 4 4 8 w   4 7 6 + o o . g x j I ( W b.N.G.G.B.N.!.;X>XoXJ.@XG._ W l I I l l P P P T P W B.B.B.! ! G.oXB.N.oXN.N.oXM.Z.D.b.Y E F.%XD.F.b.F.H.D.R.D.Z.b.f.f.a.s.f.f.b.f.b.Z.b.n.Z.Z.s.D.f.n.n.n.f.f.f.s.s.s.Y R R R R ) / J G J G G K H L H H H L M M M L L H H H H L L L G L L L N m M v {  .] ] .. .$ O # # o o  .] @ # n n @ @ c v n v $ n $ # # $ $ $ 2 2 2 ] ..] o # 2 # # n v n B N k S S S R f.a.g.P.P.g.P.W.j.h.z.L.z H M #.%.2 3 O.O.>.w.* 1 O.o.O.>.o.O.O.3 o.O.o.o.w q o.1 3 O.o.7 3 3 +.+.[ %.%. .n M H $.H M L L G G z S S S / S S I A T T R R Y Y R Q Y Q s.Y Q b.b.E b.s.b.A.n.n.n.b.a.a.a.f.Z.Z.z.h.z.z.z.z.p.p.k.k.",
"k.k.k.k.k.k.k.k.x.k.J J K x.u.K K H H H M B { @.@.@.#.{ } } [ &. .[ &. . .+.+.[ # 2 %.&.} &.%. .$.{ { @.{ B B B B m M H H H H M v ..%. .2 $ +.+.6 4 4 8 8 *   1 8 w 8   1 4 1 4 o & $ n b j j z I ! B.B.N.H.+XjX;XjX<X@X+XJ.B.~ T ~ W P l P P P W T ! N.M.B.! d.K.oXB.N.!.G.G.oXB.d.d.E E B.G.D.H.D.B.H.!.D.A.b.Z.f.f.b.s.s.h.n.F.b.Z.Z.b.Q s.s.s.n.a.n.f.f.s.s.s.E f.l.R R R R R R J J J G G G H L N L H H H H M H L H @.K H H L G L L L L G L m m c B { { n ] ..n @ @ n  .....# o # n b . @ c n n @ @ # @ @ # ] ] ] ] $ $ 2 [ ..2 ]  .] # # @ n { B c N N z / S.S.h.h.P.c.P.6XP.g.h.p.D J H H  .[ 2 +.+.O.w.1 q >.q o.>.o.>.O.7 o.O.O.O.O.O.>.* 3 O.o.X.q X.O.| 2  .] v v c M #.H L L m G G S / G J ) G R R A R R R ~ Q l.L.L.Q E Q Y Y d.b.Y E E f.b.b.n.n.b.a.n.n.f.h.f.s.z.p.p.p.p.D D k.J ",
"k.) ) k.k.D J k.k.k.J J K K K L @.H L M M M { { #.#.{ { } } [ [ &.[  .&.| +.+.3 3 3 +.+.X.+.%.&.%.] ]  .} ] { $.#.{ M m M M L @.c n $.n v o n $ $ + + 1 1     + 1 6 1     4   4 + + 6 6 b . . x l U ~ ~ N.@X,XlX*XsX+X<X,X!.G.N.K.L.l.~ ^ T P A B.W B.J.N.T.G.G.,X*XZ.B.B.! B.G.Z.Q d.d.B.~.D.d.D.D.Z.H.D.d.d.a.Z.s.a.f.f.s.n.Z.b.E d.b.b.Q d.d.s.b.s.D.d.a.s.Q p.R p.p.R R R I R R J J K K G K H L L H H H H H H @.H H $.@.H H L G K K J G G L L L M B @.B v { n n @ # ] %...] v @ v n c @ c v v n v @ @ @ # n ] # # # # # # ] # # 2 ] ] 2 ] ] v { v c B B m G R f.s.i.h.h.c.E.I.g.h.h.k.u.J L { } 2 +.+.X.O.1 q o.  1 X.1 1 1 1 o.O.q 7 w o.O.w O.O.O.O.O.O.o.2 1 [ 2 @ { v B B M L L m k G G S S G S S G / S A I ) R I ! B.B.d.E Y E Q Z.S.Q s.E d.b.f.a.a.i.A.Y.A.f.f.s.p.z.Y R k.k.D u.k.J ",
") ) k.k.k.) J k.J J K K K K H L #.@.@.@.{ { { { #.#.{  . . . . . .[ | | [ +.+.1 X.q >.O.7 X.7 1 >.1 O 2 2 ]  . . .$.@.@.#.L m L M c B M B v n # @ o o $ 6 + + 6   1       4   * 4 + + + % o @ b x l C P _ K.'.oX@X*X!.<X,X!.J.@X;XK.l.l.! T P P ! P T B.W G.! ! J.G.d.M.B.M.K.H.d.Q Z.d.E Z.Z.B.b.Z.Z.D.Z.s.b.Z.D.f.f.b.s.a.f.n.D.b.F.T.T.H.T.T.b.b.Z.~.b.E s.s.f.p.R p.R R R ) ) ) ) J J G G G L L L H H H M m H @.H L @.K L L G G G J J J J J L G G L H m m B n v @ v n  .v } ] v v v @ c v v @ v n n n n n { ] # # # ] ] ] ] ] ] ] # o o # [ ] ] v @ { { c m z R R p.z.U.P.E.c.g.g.5Xv.z.F u.H @.n %.%.o.O.7 3 q * 7 o.1       o.o.*   * 1 * q >.O.>.e q w.O.O.X.+. .] %.n B $.M M M m N G k N G G G G ` _ / ) L.K.l.P P T P Y Y s.s.Y Q d.Q d.E d.D.A.f.f.n.A.Y.n.i.a.a.f.Q.p.p.z.z.k.k.x.x.",
"l.k.k.k.k.k.k.k.u.K K K H L L L #.#.@.{ { } { #. .{  . . .&. .| | | | +.X.O.X.3 O.>.O.w O.>.w 5 O.q 1 X.q X.X.[ O  .] { v M $.m M c M M B @.B B n n v n ] $ + 6 + 6 4 & 4 *   * *   4 7 6 $ % n j h h l I V.{.+X;XoXoX;X,X!.!.*X'.N.B.N.B.W P P P T ^ M.Q W P b.J.N.M.B.Z.Z.K.R.M.Z.B.E b.T.Z.b.D.b.Z.D.Z.Z.Y.A.R.f.a.b.s.D.R.0X=X~.*X~.~.d.s.s.d.s.B.D.S.Y Y s.s.p.p.Y Y R R R ) ) ) ) J G G G K L L L L N M H M H H M m H H L J J J J G G J J G G G G G L N m c v v n n v v v v v @ @ v M B n v v v c @ @ @ # n v v n ] n ] ] ..] ] # # ] ] ] v # %.} { ] v $.N S S ) z.i.U.5XP.E.5XeXQ.Q.v.x.K H @.$.] | +.X.O.O.O.o.>.O.>.>.w.q >.>.>.w >.w r O.r O.e w.r O.O.1 +.%...%.{ v $.@.M m N N N m L L G G G G G S S I ) I T l.Q T f.f.Y s.Q Y d.Q b.Y d.Y.Z.n.Z.f.n.n.a.a.f.a.i.S.Y p.z.k.p.k.k.k.",
"R R p.R R J J J u.K K H @.@.@.#.#.#.@.{ } } } } } } &. .&.&.+.X.| X.>.>.X.o.>.w e >.e r 9 e r r w.e 5 w.w.w.O.o.1 2 O # v v B c M M B c c M c c M c c c n # @ $ $ 6 4 + 4 *   4 * * 4 8 6 + O % b j j j z ( _ B.L.G.T.*X*X!.!.=XoXoXT.J.K.B.Q P P P P ! P P ^ B.T.G.G.J.T.T.!.OXG.D.D.b.D.~.S.b.n.d.b.Z.d.d.b.d.D.f.f.A.Z.R.Y.%XD.b.D.D.H.d.s.E d.f.s.d.d.E s.S.R p.p.Y Y R R R R R D J G G G J G L L L L N M H L H H N L H H H G J G J G J J J J J J J J G G G H B B B B { B v v v v v { M v c c c c @ @ @ v v n n n n ] ] ] # ] # # v ]  . .] %.} %.} } ] v { m N k J k.p.z.Q.c.E.E.5Xc.c.j.v.k.G G N @ $ ] 2 O 3 3 X.O.>.O.O.O.q q e w e >.>.w.e - O.e e 5 w.o.1 +.+.o o @ n B M c m M N N N L L G G G G G G / S I A P T P P Q T Y s.Q Q N.Z.M.d.Z.D.b.a.a.i.a.a.a.a.b.a.s.S.s.z.z.l.p.p.) D ",
"R R R R D D J J K K H H #.#.#.#.#.#.#.{ } } } } }  . . .[  .+.+.| 3 o.o.q O.w.w - 0 0 r r > 9 9 8.- * w.w.8.s w.>.o.7 X.%. .] { v v { v c M c c m c g c c @ @ % % + & + &     4 + & 4 4 4   & $ n b b g g z C I _ B.oX<XOX!.OX:X@X+X+X@XoXR.N.Q d.! l.G.W ! N.oXoXG.B.S.Z.Z.T.*XD.D.H.Z.T.^.Z.b.Y.Z.D.D.Z.b.Z.n.Z.s.f.Z.b.D.n.S.A.f.d.d.b.Q s.s.d.S.f.E s.s.s.S.p.f.f.p.p.p.R R R R D J J G G K G H H H L L L L H K H L L H H H G G G G G J J J ) ) ) J J J J G L H m m B $.@.M { { { M M M v c v v v c v n n n n n v # v ] ] v ] n n ] ] ] ] o  .# ] # # # # n c m m G G S k.p.i.h.c.P.c.c.c.v.p.R ) / ' $. . .2 [ 3 X.7 o.5 5 w >.e w.e w.e w.w.e r w.w.e - w w.O 3 | $ n @ @ B M M B H B m m N m N N G G G G / S I I I I P W l.Q Y Q Q W B.N.b.b.Z.Z.b.s.a.a.a.a.a.a.b.s.s.l.p.z.z.l.k.p.) D ",
"R R ) ) J J J K K K H @.#.#.#.#.#.@.{ { } } [ [ &. . .] 2 [ +.| >.6 o.7 4 4 w   - s 8.8.8.8.8.9.e., < 9.9.7.0 8.w.9 >.>.O.X.2 ] ] ] { v v B M M m m m c c g . c % o % $ + + + 6 + + 6 6 + & + 6 $ n b @ . j z z _ B.H.J.R.!.OX;X*X*X*X*X%XOXT.G.K.K.oX;XB.L.oX+X<XH.Z.Z.Z.Z.T.:XD.D.H.S.D.R.Z.Z.n.f.f.f.f.s.s.s.~.D.A.Y.A.%XR.^.~.T.D.H.H.Z.b.b.s.S.f.s.f.f.Y f.f.f.f.p.f.p.p.p.l.) R ) J J G J G K K L H H H B $.@.H L L H H G G G G G G D J R R ) ) ) ) D D S J J G m N $.H m @.B M v v v v v B B B b v M n v v v v @ # v v # o @ # n # # # # v @ # # # v v ] v B B H N G J D p.z.U.c.j.c.c.j.j.p.l.x.` ` $. .] [ | X.7 O.q r e w.e >.w.s r s 8.e r >.w.>.- * O.  3 +.| ] v n $.@.H H B m m m m N N m m N G G / S ) I I T P Q d.T Y W Y ^ d.B.E Q Q Q d.s.E a.a.a.a.b.f.s.s.f.R p.l.k.k.k.k.k.",
") ) J J J J K K K H L H @.#.#.#.@.@.{ } } [ [ |  . . .] 2 | +.7 X.7 >.w * * 9 * - a 8.7.7.7.7.7.0.7.7.0.9.9.9.0.7.= 7.s * 5 5 1 7 | [ # # { v c B B m m m k g g b . @ b % % % $ $ $ $ $ + o + $ 2 $ % % @ g z z ) _ l.B.L.R.oXOXOXR.R.%X%X!.J.T.T.J.@X<X_ M.L.G.M.Q Q B.B.d.Z.^.F.D.T.Z.D.D.Z.T.b.b.f.Z.D.A.b.b.Z.a.Y E E D.b.Z.D.D.T.~.T.Z.s.s.s.S.S.f.S.f.R f.l.f.p.p.R R p.R ) R D D J S S G J G L G K ` H N $.K H N L H L G G G G G S S R R R R R R R R R D ) x.) G G G L c m c M M v c c c B B B c c c c @ v @ v n v @ @ # v n v ] n v ..{ v v ] ] v v # ] ] .. .$.{ L ` G u.z.z.j.j.c.c.g.c.Q.Q.z.) G N B v # +.X.o.O.e r e e r - 0 - - s s - * r e >.r * O.1 | >.+.] # v { { M M m m m B m N B L L L L G G / ) I A T P P Q P Y W W W b.N.N.M.Q d.b.b.s.s.b.f.f.f.s.s.s.p.F R k.k.) ) k.k.",
"J J J J K J J K K H H H @.@.@.@.{ { { } } [ | &.[  .&. .| +.+.| 7 3 O.O.5 w w.s 0 8.8.7.7.9.9.7.7.<.3.0.0.q.0.0.0., 9.7.= - 9 9 5 3 3 O # ] v c M B m m m k g b g g g g . . X X X o o % % o + $ 6 2 $ @ @ c j z I I R l.L.R.R.T.OX!.OX0XqX%XoX+XoXoX'.J.W ! M.M.M.Q d.G.D.B.T.0Xd.Z.D.d.b.D.Z.T.D.R.T.%X=X%XD.D.R.n.d.n.b.D.b.b.f.f.a.b.s.s.i.s.S.T.S.f.l.f.Y s.z.f.Y Y R R R p.R I D R J J G J J G G G H ` H H H H B N L G G G G G G G S S I R R R I R R R R R R k.) R S G G N m m m m c c M M B M c c c c c c @.v v n v # v { %.%.] ....n ..n n ] ] ] # # # ] [ [ [  .{ { $.L F D z.j.h.c.I.I.I.5XW.h.p.) ` $.v # %.+.O.O.e - r 9 9 r 8.- > 8.e * * e w.>.q r w.o.O.>.+.] n n { B v c c c m B M L H H H L L G k G ) S I _ ~ T N.W ! ! W ^ W B.J.M.Q b.B.b.d.f.f.s.s.s.s.p.p.R R k.k.k.J J J J ",
"K K K K K K K K K K H H H H H @.{ { {  . . .X.X.| | +.+.| | X.7 O.O.O.O.q s w.0 r a 7., 7.7.7., 0.3.4.0.3.4.1.3.4.3.3.9.7.a a 8.9 q q 1 1 [ ] v c m m k m k k N k H N g k j g g . X X X o o % + 2 O O $ n b g j z l P Q B.S.D.T.*X*X:XkXkXkXqXqX<X,X@XoXN.G.N.L.N.Q E Z.Z.d.D.sXQ b.Z.d.b.T.F.D.Z.D.D.Y.T.Z.s.f.%XA.b.T.D.T.Z.Z.A.Z.a.f.a.n.n.S.U.S.z.f.p.p.p.s.z.s.R s.s.s.R p.R R R ) ) ) ) ) J G G K K H H K H H N N L L L G G G G G S S S I R R R R p.p.p.R Y p.p.R I S G G H N m m c c M B B m c c c c c v $.{ v v v v {  .] ] o n n # { @ ] { n { v n n  .X.2 2 [ } } $.L J u.z.h.c.g.c.P.P.5XI.h.l.x.` $.c v %.+.o.w.8.8.- r.8.8.e.8.8.w.0 * 5 w.w.w r q O.>.>.+.$ o ] $.{ M v v M m m M M L H L L N L G N z / I I _ _ l.G.Q l.! ^ P ^ M.G.^ P Q E E E E f.R s.f.R p.k.D k.k.k.k.J J J J ",
"K K K K K K K ` ` K H H H B B @.{ {  . . .&.&.X.+.&.X.| 2 3 3 3 q O.O.e - 9 e 8.0 9.9.7.9.7., < , t : <.<.3.1.6.<.3.<.0.q.9.<.9.9.w.w.q 3 7 2 # c v c g m k k z k / z x k z x z j g . . X X X o O o o $ n n b j k x l I I T B.R.K.H.T.!.OX;X,X;X;XjX,X,X+X<XJ.T.K.b.Z.T.K.b.F.=Xb.D.T.Z.R.-X/.Y.T.^.T.A.A.f.E n.Y.a.E Z.S.!.S.H.D.A.b.A.n.Y.h.h.f.i.i.s.i.p.f.h.f.p.Y s.s.s.R R R R p.k.) R R ) J J J ` K G H $.H H H H G L G G G G G G G S S S S F F R Q p.p.p.z.z.l.p.R I D / S N N N m c c c B c g m m c c n { n v v n { n v v n # { ] @ { # n n @ n @ # n  .%.2 O 2 ] } #.c m G x.z.U.g.P.I.I.8X5XP.U.z.R S H M %.| O O.O.w.r 8.8.8.8.w.8.8.s 9 e >.r - 5 r r 5 1 O o # ] v v v v v M M M B m M B m m m N G G z S A I T P W ~ l T T P W _ _.@XW W Z.! Y d.d.d.R p.p.R k.k.F k.) k.k.J J K K ",
"` m K ` J K K K L H $.$.B M { { } [ [  . .[ &.+.&.X.X.X.X.O.o.5 O.w.e 8.8.8.8.9.7.9.9., 9.0.7.7.0.u u 5.6.4.<.u 3.: 3.q.3.: <.0.q.0.> = - 5 7 | $ ] v c g m k k S S S A l l l l l h j x j g X b @ @ @ c n n b c c g j z S I ~ _ oXN.K.oX,XjX>XlX>X>X;X*X%X~.T.H.oXOX*XjX:X*XsXkXF.H.^.T.A.Y.Y.b.S.~.M.T.~.d.F.T.R.D.b.~.dXH.OXG.b.Z.s.b.D.A.n.a.h.h.z.f.f.z.f.f.s.Y s.f.s.s.s.Y p.R R p.R F R k.R ) ) J G G L H H H K H G L J G G G N N G G G S S R R R Y p.p.s.s.Y Y p.p.p.R R D ) G H ` m m H m N m m B B M v c v v { n v c v @ # # { ] @ n n { ] @ v # # .... .o o [  .[  .] v B G J R p.z.E.I.NX5X6XP.c.p.p.) tXm n ] 7 o.>.r 8.w.8.8.9.0 * r 5 w.O.e w.8.8.e e q 3 | [ %. .# # # v { n M c c m m m m m N N G S S I I ^ P P W Q ! l.Q W ! N._ W P ! G.b.d.M.l.d.f.s.R k.k.S ) ) ) J J K K K ",
"` G J ` G J J K K H H @.{ { #. . .| [ [ [ 2 2 [ +.+.+.+.X.o.O.q e 8.e 8.9 0 0 9.< 9.9.t 7.0.9.0.q.3.4.4.4.4.4.q.4.: u 0.3.: <.4.0.9.< = = - 5 7 1 $ @ @ c m c g S S S A A A P P l l l x x j . j g g g c b b c c c c N z k l I _ '.J.,XcXKXKXnXMXjXkXkXdX:X&X%XOXH.H.B.Z.F.B.M.Q d.b.b.b.a.n.U.n.H.*XZ.T.~.Z.T.T.~.T.F.~.%XQ b.Q b.B.E s.A.n.n.f.f.f.z.s.p.f.p.p.s.s.f.f.E Y s.f.Y R Y Y Y R R R D D D J G G L H H H H L G G G G G G G G G G G / S / R R R p.f.f.s.s.s.p.p.p.p.R R D k G ` L B N k N k k B B v v v v v { B B c B n {  .%.{ v { } v ] # ] } v } }  .n # ..| [ X.[ ..n c N J k.z.Q.E.wXg.g.c.c.c.h.z.]./ H ] ] &.O.e 0 < t < < = * 5 1 O.>.w.e.7.8.w.w.O.o.+.X.+.[ ] ] ]  .$.v M B m m m m N N N N G S S I T ^ ^ P T T W ! ! Q M.L.B.d.W l.B.Q P P Q Y T Y R R R D ) ) ` J K G K K ",
"].J J J G ` ` J K L L H { #.#.} &.[ [ &. .[ &.+.+.+.+.+.O.O.O.e 0 8.s 8.< , , 7.a 9.9.* < 7.7.: 3.: 3.4.4.4.4.q.q.<.3.q.0.3.4.q.y.q.2., i a 9 9 5 6 2 ] n n b b z z l l l A P I T ~ ( z C / z z g g g g c c b b . g N N z z I ~ K.V.'.$XzXlX>X>XqXsXkXqX=X*XqXvX=X:XH.K.!.!.F.! Z.Z.A.A.n.n.Y.n.B.OXB.Z.H.Z.T.D.s.d.b.H.T.E Z.F.B.A.f.n.A.n.n.f.f.f.z.s.i.p.p.f.s.s.f.f.E E f.S.s.f.f.Y R l.k.R D D J J J G L H H H H G G J J G S G G G G G / / S / R R R p.l.l.f.s.s.f.f.f.p.p.p.R S G / / ` N N G k k N B m v { n c B v v c v v v {  .v # { v v } ] .. .] ]  .] # 2 | | X.+.7 | ] v B G G J k.h.Q.g.I.6XE.P.i.i.L.G G c # [ +.>.e r a e.8.9 s e.e w.8.0 7.0 8.- * * 1 7 2  . .# # v  .{ @ v @.m m c c m m N k G S S I I T T P W ^ T ~ W T W _ ! ! Q ! M.! ^ W S.Q Q d.R R R D ) ) J J J L K K ",
"3X` G G J ` ` G K L H @.@.#.{ } &.X.&.&.&.[ &.+.+.X.X.X.O.O.w r 0 0 0 8.0 7.a , 9.9.7.* 7.9.7.< < * u 4.4.4.1.<.<.t : 3.4.<.<.4.<.: = = : a a d w w o.| $ @ # b N z z z l l P I U _ _ C C / z x h x j j j g b N b g j z / _ _ M.{.V.V.V.J.+X+X;X*X,X0X:X*X=XdXbXsXvX*XoXOXF.b.B.!.H.D.F.n.n.U.n.B.*XZ.Z.H.Z.R.S.Z.S.S.T.H.! Z.T.Z.D.n.A.Y.n.f.i.h.f.z.s.p.l.f.S.f.E E s.s.s.h.S.s.s.Q Y R p.p.D R ) J J K L L L H H H G J J J J S S G G G G G / S S S I I R R p.s.s.s.s.s.s.p.p.R R R ) S / _ S S G z k N N B B { n c n v v @ v v @ ] { @ # } @ # ] # # ] # # [ [ 2 1 | 7 3 X.3 X.|  . .@.N L ) R h.j.c.E.c.c.j.c.XXk.` N b ..%.>.O.e w.e.7.> a 0 > 8.8.0 , t < * * 5 o.+.1 2 2 o # # { ] @ v { c c m m m m m k N S S S P P P P ~ T ^ W T P P P ^ ^ Y ^ ! B.b.M.K.d.d.l.l.R R R ) J J J K K K ` ",
"4XG G G G ` J G H L @.#.#.#.#.} &.&.+.+.+.+.+.+.+.+.o.O.w.O.q e 8.7.7.9.7.9.9.7.9.9.9.t 0.9.7.i q.u 0.q.4.q.4.4.: t u 3.3.1.<.4.: = = = = i 9.0.a 9 8 8 1 + + % b z z z z l C I _ V._ C I _ I l C z z z j g j ' N j x x l I ( _ V.*.B.N.J.+X@X+X;X,XqXsX0X0XdXkX;XqX@X*X0XH.F.OX=XH.n.n.n.n.Y.F.H.0XT.T.%XT.~.F.%X^.D.R.H.M.B.F.n.A.f.n.A.f.a.i.S.h.f.p.p.z.l.z.S.s.E s.E s.s.s.s.Y Y f.l.p.R R R J J J K K K H H H G G J G ) ) G G G G G G S S S S S I R I I R Y Y Y R s.E E s.s.f.p.Q T ~ l.S A S S k N N H $.M v v { v v v { $.{ { { # v n @ ] ] # O 2 # o [ +.2 O 1 1 * q q q X.+.+...n c N ) p.v.j.U.j.c.c.6XeXz.k.S N B $.[ 7 7 r 0 > > a 7.a 9.e.7.0 0 8.w.s w.e.w.2 [ [ # ] ] } n @ v B c m B B B m m N N S S A A P P T T P P T T P P ^ W W W W B.G.! ! B.T T l.l.R R R ) J J J K K ` ` ",
"x.S / ` G J G G H L H @.{ {  .} [ [ X.&.&.+.+.+.7 X.o.o.O.q r s 8.7.8.9.< 7.9.9.9.9.0.i 0.9.7.9.0.: 0.4.: <.1.4.3.<.0.0.q.q.4.t.q.4.q.2.y 2.0.q.7.> 9 d 8 7 7 $ @ g g j j h z C _ _ _ l I V.*._ _ / C / C j z ` x z / _ U l l V P P W _ G.oX!.@X,X,X;X;X:XdXvXbXvXsX*XvXVX:X=XkX%XA.n.Y.Y.n.n.n.Z.OXb.H.%XD.T.F.Y.Z.d.D.D.D.Z.D.n.n.a.h.Z.f.f.f.Q.f.p.R p.p.R f.f.E s.s.E E f.f.s.E s.l.l.p.p.k.D J J J K K K K H G G J G S R R / J D G S S S S S S S / R D D I R Y R p.s.s.s.f.S.S.s.Q d.L.F.T R ) R S z N N $.M M v { v v v { $.n ] v v ] # # ..} [ ] ..[ 2 | | O   7 5 3 q r e q q 7 [ ] ] v H J x.z.XXQ.I.c.7XwXj.p.R S z N @ 2 7 7 w s 9.0.9.i 7.i < < a 8.8.r * 1 3   2 [ # 2 # v v v n M c b B B m c m N N S S S A P P Y T P P T T T ^ W B.! B.M.H.!.W E B.T T l.l.R R D ) J S G G G K K ",
"].G / ` / G J K H L H { { { { } &.X.[ [ 2 3 1 1 3 3 3 5 q - - e e 7.8.8.t , 7.7.7.9.9., 9.9.9.q.0.: q.q.<.4.4.q.1.<.4.1.1.6.1.6.5.2.q.u = 2.4.4.y : d d w >.o.6 X . b g . x j C z C P l I M._ _ V.( U ( ( C ( =.l ( C.`.V.U V P ^ P W W M.K.J.@X+X+X+X*X=XsXbXVXVXkX:XvXvX%X~.~.T.b.n.Y.Y.n.m.n.T.~.b.T.&XZ.D.D.D.Z.b.T.D.D.b.Z.n.n.a.n.U.n.h.h.S.f.p.R R p.R s.f.s.s.f.a.f.Z.Z.E s.s.p.p.R Y R ) J J J J K K K K G G J R D D R R ) ) ) D D S / G S S R S S S R R R R p.s.s.f.f.D.U.s.s.Z.A.A.E l.l.) I G z m H B M c { v v v { v v # # ] ] # ] [ # ] ] | | 2 2 O O 1 o.q r e r >.w.O.q q X.X.[ B L J J z.z.c.c.8XeXc.U.S.l._ / M n  .>.>.w.9.< < i 7.9.9.9.9.e.w.w.w.w.>.3 | X.2 2 # ] n @ v v v b c c m m m N m S S S S A P Y W ^ T T ^ P ^ ~ B.W B.M.K.J.W W L.d.Q l.R R R D ) ) J G G J G G ",
"3X` G J J / G G H L @.#.#.{ { ] &.+.+.X.X.[ 3 3 O.O.q q w.e r e s 8.8.8.= , a , 7.7.: t : , = , 0.: 0.q.1.q.q.q.<.<.4.<.1.6.1.5.3.y 2.: = 5.1.: * * > d ; - 8 + o % b b % g j C z I U I ~ M.^ P *.^ V I I I ( V.V V I I V V P ^ *.! M.! M.N.N.H.K.oX,XkXkXkXdXdXjXsXqXbXdX*X=X=X&XD.A.T.Y.Y.(.fXBXbXOXdXvXT.^.~.D.D.T.&XT.^.b.A.h.n.a.U.W.A.h.p.S.f.p.p.R p.Q l.R.f.s.a.h.A.Z.f.s.f.l.p.R p.p.R k.) J J J J J G ) J J ) R I R R D R ) ) R D R ) R S S S S S S / D D R R R R Y p.z.S.i.Y f.f.f.s.s.R I D ) S k N N m c B M M v { v v v v  .} # ....# [ [ [ | 2 2 | | X.o.5 r O.e r w.w.q 5 q q 7 v v H G D k.h.c.E.6Xc.I.Y.S.s.D G c { %.>.w.8.= 7.9.0.0.9.9.9.8.> 0 w.w.O.1 | >.+. .[  .{ @ @ v B b c c c M B N k z S S S A F P P P P T P P ^ ! M.P ! W b.B.P Q B.W Y T T R R R x.x.) ) ` ` ` ` ",
"3X/ S G G G K K L H #.$.#.#. . .&.+.X.[ | +.O.X.o.O.O.e e w.w.s w.w.8.0 0 0 7.9.9.7.9.2.q.0.: 0.q.: 3.u u <.1.<.: <.3.3.6.4.1.5.2.y 2.2.u q.0.u y i i = - e q 1 O % ....b ' . ' j l =.P P N.W :.@X~ P *.K.K.'.'.U U I P P P ^ ~ ^ P P W W Q B.G.M.G.*X,XsXkXkXKXbXjXkXMXkXdXqX9X-X(.9X(.Y.Y.E.A.%XD.Z.&X-XZ.b.Z.T.T.T.T.T.T.T.Y.n.P.n.W./.h.s.p.T.p.R Y z.S.Y f.A.a.E n.n.Y Y f.i.f.f.p.p.Y Y R D J ) J J ) J J x.) D ) l.l.R T R l.k.R F F ) D D D S S S S G G / D D ) l.l.R R z.S.Y s.f.a.h.a.Y R l.R S R G G G N m B B v M $.{ n {  . .n # ] 2 ] [ [ 2 O O 3 +.7 4 o.5 5 w.r r w.e - r r r q +.%. .B ` S z.i.g.c.P.E.W.h.i.R J L $.$.[ 7 e < i 0.< , t , , < t * r *     7 | | + 2 ] ] n @ v B n c B B m B N N N S S A A P P T P P ~ ~ P _ oXM.! ! N.oXG.! W N.d.Q Q l.R R R k.) S S J / G G ",
"tXk G G G G N L H H $.$.$.$.%. .&.&.[ [ X.X.O.q o.O.O.q e s s s w.w.0 r 9 , 7.9.9.i : : <.2.u 0., t : : : u <.u 3.4.3.3.4.5.5.5.2.: 2.0.: 2.4.u p 9.i ; - r *     + $ ] o % X g j x ( l P N.P ^ G.U ^ B.N.B.M.B.! ! ~ W ^ ^ W ~ ^ ^ W ! W W :.B.B.G.;X,X*X>XzXKXkXjXMXmXvXdXdXdX(.R.R.^.Y.^.).A.F.D.Z.T.T.b.B.D.~.H.Z.D.^.^.Y.n.U.P.a.n.A.s.s.f.R.z.p.z.&X&XD.D.&XA.f.n.A.n.f.n.Y s.f.s.p.R R l.k.R ) k.k.J J k.k.R ) x.L.l.R R R l.R R R R k.I D D R R G G G S S S S R ) R R R p.f.s.f.h.f.a.Y Y s.z.p.R ) G J G G N m M c c B v v v n v @ # ] [ [ [ 2 3 7 7 7 7 3 1 o.w w s   9 w.9 - r 0 8.w.w.>.+.] ' k ) l.h.E.eXwX5XP.g.Q.x.J L B n | w - < < < , 7.7.7., 0 - 9 r * 1 X.7 1 O 2 ..%.$.n c B B B @.@.B B N N N S S S I R T N.B.N.G.N.~ ! N.! W W M.N.:.W Q N.Q Y R Q R R R ) ) / / / / J G ",
"$.G G H H H L H L B @.#.{ {  .] &.+.3 X.+.7 O.q 3 q r 5 e e 0 e * r - 9 8.9.9.i 0.0.2.: <.4.<.0.3.: 3.<.<.3.q.q.q.3.<.<.<.<.1.<.: : p 2.= : : : i i > ; r 8 1   4 6 6 ..% % @ . j x I h I B.P ^ ! P ^ *.M.! ! b.E W W W ! ! M.M.M.b.N.N.M.b.B.N.B.M.!.@XJ.@X>XlXkXkXmXVXvXdXgXvXfX-X-X/.Y.Y.Y.a.n.R.A.D.T.F.H.~.~.H.Z.D.^.^.F.f.m.n.g.n.Y.S.S.Q.XXT.f.S.R.S.S.f.A.n.a.a.a.a.a.a.f.Z.z.s.p.p.z.XXx.k.k.x.x.R D k.R R R R R R R T R l.R R R R l.R I R R ) ) / G S S / ) S S D R R k.R p.R s.s.i.i.f.f.S.p.R R ) ` G ` ` H H m M B v v {  .} # $ [ [ | 2 1 3 X.o.7 1 7 1 7 8 5 r   e s - = 9 9 8.w.e 5 7 3 ] c N ) L.eXrXrXW.h.g.E.Q.x.J G @. .+.>.w.8.9.7.9.9.a , 0 > e w.5 O.w.>.7 o.|  . .n v c B B b B B m m m N k z S S I R T ~ U ^ ^ P P U *.M.! ~ ! M.W W b.M.T P ! l.T R R R ) ) ) ` ` ` ` ",
"$.N N L L H L H M M { #.{ { { ] ] [ O X.+.3 O.o.q >.e w w.w.e w.8.w.0 0 w.9.9.7.9.9.0.3.2.4.u <.<.u 0.0.q.q.q.4.4.<.u u u 1.5.1.2.2.0.0.: i i i : > = ; 9 9 5 4 7 | 6 | $ % n . b g z h C _ P ^ N.*.*.V.G.G.H.T.Q Q d.M.B.N.L.N.B.M.M.b.! b.N.N.N.W N.J.G.@X+XoXsXsXvXbXdXfXvXBXfX9XfX9XE.Y.^.Y.n.R.n.n.D.n.F.^.^.H.D.T.T.Y.Z.n.a.n.a.a.A.s.Y E l.l.Y f.f.Y f.h.a.n.n.f.a.a.f.f.n.A.z.s.s.s.f.Q.p.l.l.l.l.l.p.F R p.p.R Y R T T Y ~ Y Y Y Y R R R R R ) ) / S S S / / S S S R R ) I R F Y f.Y f.s.s.l.E Y R R ) S ) G N m N N B c n $.%. .] ] [ [ | | 7 | o.X.7 7 q 8 q q - 5 - s a - > a , 0 8.w.0 w.w X.6 b N ` L.R.Q.Q.U.I.5Xv.p.D G G B } +.e w.e.9., 9.> 0 < , w.w.* e e.>.1 o.| 6 $ @ n B c c c b m c m m N k z S S I I T W U I P P ~ B.N.B.*.~ ! M.! W ! ! P Y N.L.~ R R R R / ) / G S z ",
"` N H H H @.m M H B @.$.$.%.$.} +.+.3 +.+.3 O.O.O.w.O.e w.w.9 8.0 0 - > a , i , 0.2.2.9.q.0.<.u 3.<.3.3.4.5.4.<.<.u 3.3.3.0.q.0.2.0.q.0.: 9.9.7.i a - ; 5 8 4 4 8 6 + 6 o o $ X b g j x h I V ^ *.U U ! ! M.Z.B.Z.Z.S.D.H.H.L.G.N.M.b.d.d.N.G.B.N.W G.@X!.@XoXG.,X*X:XdXqXfXvXBX9X9XgXrX(.(.9X-X-X-XY.~.&XT.T.~.~.T.D.T.R.Y.A.n.a.n.Y Y Z.f.s.z.f.l.s.S.n.Y m.n.n.F.Y.n.n.n.n.n.a.f.f.f.f.p.Y p.s.s.p.R p.f.f.i.R l.z.z.p.~ T P T l.T Y Y Y R R R R R R R R S S S S S S D I / R I S ) R p.l.Y s.Y E f.s.E R F F D ) S k k N m m c v { ] v @ # ] | | X.o.X.q q q o.w r >.w.w r 9 8.a < 7.9.a 7.9.0.7.9.9 e o.| ..b G R p.S.U.U.E.h.h.h.k.) G B } 7 >.e.e.0 e.s a 8.9.e.0 * 1 O.1   6 + + ] n n v c b c m B c N N G z z z I I P P P P P P P P ^ ^ ! W ^ W B.M.W ^ M.^ W L.K.! I R R R S S / / G z ",
"$.H H L @.#.L H @.@.@.#.{ } } 2 +.+.[ +.+.3 O.O.q q 5 - e 9 r s < > , 9.e.e.9.0.q.0.9.0.9.i <.0.0.0.<.: <.3.0.3.: <.3.3.3.4.4.<.= : 2.< = i i < , 0 > ; 5 8 8 8 8 6 1 6 o O $ o n b b x h l l P ( U U _ M.G.F.b.B.b.Z.Z.D.L.F.B.G.N.B.B.Z.J.J.M.M.M.oX+X!.!.J.H.kX:X=XqXqXfXgXfX9X9X9XwX9X9XgX9X(.R.Y.^.R.A.D.D.%XH.A.T././.Y.n.n.Y.n.A.9XOXXXqX0XR.n.Z.h.g.m.m.Y.n.f.a.a.n.b.a.n.f.E i.f.f.p.f.R.d.Y i.s.Y i.s.s.f.z.f.p.R T P l.L.d.T Q T f.l.R R R I D R R R _ R I R ) ) I I ) I R R R p.R R d.s.f.s.E s.R k.x.x.) S G G N m v v n v # o # [ 2 6 7 7 3 1 5 q q 5 r e s r - 9 8., < 9.9., 7.0.: : 7.> a s >.o.# N / ) z.h.g.P.g.g.j.p.p.J G c  .O.>.- - a 0 > 9.9.8.= * 5 O.1   7 6 $ ] $ @ c @ m c B B m N m H N z z I I P P ~ ~ ~ ^ ^ ! B.B.! W W ! G.N.~ ^ B.W W B.N.R P R R I S / ` x.x.` ",
"H H B m M H M @.M { #.{ } } ] # 2 2 O [ +.X.O.O.7 5 * r e e e w.8., 7.7.9.9.i 9.0.7.7.7.< t , 9.3.2.3.<.3.<.3.: : 2.2.: : <.<.: = : 2.< = i , < ; 9 > - - 8 8 8 4 1 7 7   2 ] # B b b j z l l I l l V ^ W M.Z.Q d.f.f.b.S.D.Z.M.Z.B.B.M.B.J.J.M.B.B.!.!.G.G.N.J.kX,X=X0XqXqXqX9X9XeXwXhX9XgXvXfX&X(.-X0XR.T.=X~.OXH.Z.^.-X&XY.n.Y.-XY.R.9XT.D.=X&Xh.f.f.a.m.m.n.U.n.h.m.m.f.n.n.A.h.i.s.z.z.z.Q.&XS.s.f.f.a.a.f.a.s.Y Y R R R R K.oXl.Y s.Q p.f.Y R R I R R R R L._ R ) ) I I I V._ I I R R l.p.S.d.s.Y E f.p.z.l.l.R S S S z k c n { ] ] # ] ..2 2 3 1 1 1 5 q 5 - r r - - - > a < < 9.9.: <.0.<.3.0.9.9.a s q 2 n N / k.j.c.E.m.m.I.U.z.Q.x.H v 2 +     * - ; 0 , < = * 5 q 7 1 7 7 + ] n @ { c m c m m c m g H z k I I I P P ~ ~ T P P _ G.'.*.M.M.B.G.B.! ! B.W T d.l.R R R R R I R ) ) G S ",
"M H $.H #.#.M @.{ { #.$.#.%.%.&.%. .[ +.+.+.X.q q 5 r e w.w.8.8.8.< 9.9.0.7.t : , t * = , a 9.7.7.0.3.<.3.<.3.: : 3.3.t : 3.3.u 3.0.0.9.i 9.7.a - d d - 8 8 - 4     1 6   2 $ @ v g g j z l l l V I I U W ! M.Q Z.Z.Z.A.D.D.S.b.H.K.G.B.Z.oX+XJ.G.N.G.B.N.G.N.J.<X!.!.*X0XqXqX9XvXvXCXBX9X9X9X(.(.9XgXgXR.~.bXfXT.D.T.&X-X/.Y.A.(.-Xn.n.Y.f.f.&Xn.Y n.U.m.m.a.g.a.f.n.Y.n.a.n./.a.a.a.h.S.S.f.S.T.A.n.f.n.U.U.h.i.i.s.f.S.l.l.R oX<Xd.P Q Y Y R Y Y R R R R R R l.T A I R I I ) ].].) l.x.l.x.R Y P Y E f.f.Y R R R R R ) S S G c v n n v v ] | | | 7 1 3 q w q r r r r 9 s 0 = , < < 0.0.u 3.0.4.4.4.0.0., 9.w.>...n N / D v.Q.g.g.E.E.g.v.z.S N $...w.o.s >.w.8.9.7.8.e r 1 q 7 7 6 O ....X v B H m m c c N N G k l z I I P I ~ ~ ~ W ^ ^ ~ *.*.B.N.B.M.W ^ W Q Y T l.l.l.R R R R R I / / S S ",
"B @.M M @.H @.B { c M { %.%. .%.] 2 +.X.X.1 * * * 5 e w.e 8.8.7.8.8.t 9.7.7.= , 9.< < i 7.7.> 7.7.2.3.u <.3.<.u 3.3.<.u <.4.4.3.u 0.3., , 7.= 8.= 9 s 8 * 4 8 5   O 1 + O 2 $ b . b j x x l A l P P l P P W ! ! N.F.H.R.R.d.s.f.S.F.F.~.T.oX,XoXJ.!.J.H.!.T.D.F.F.B.b.!.=X&X&X%XfX9X(.BXgXgXBX9X(.Y.9X-X~.%XkXoXJ.R.%X0X&XY.n.Y.E.Y.n.n.^.(.(.9XU.A.Y.n.m.a.a.n.U.n.(.n.n.n.F.A.a.f.A.W.&XR.S.U.XXR.s.s.S.h.f.h.f.E n.f.Y f.f.d.L.Q Q T T s.p.l.s.Y z.T R B.R R l.R I I R R D S R S D S D D R I T T R T T R T T A l.l.) R S S ` N g B n @ # ] [ | 7 q 7 q w r e e - 9 s 9 a s = i i 7.0.u : <.q.6.5.q.q.0., 9.9.w.w + @ H J u.XXj.j.g.6XI.c.h.p.F / B { +.X.7 e 9.7.9.s e r q q 7 7 7 2 2 # v # v m c c m m k k z S S z l P P P ~ ^ ~ ^ U N.V.M.*.W ~ ! ! M.! M.Q ! B.+XXXl.l.I R T R I S S S S ",
"c { M c M M B M #.{ { $.{ ] ] } # 2 +.X.O.>.>.O.w.w.O.w r 0 8.8.- - * a 7.a * = a , i 7.< = i 9.9.2.u : u u <.3.: u 3.3.u <.3.3.<.0.7.7.7.7.= a 9 d s w 4 4 7 7 1 2 | | ....@ X b b j x l l A l l A P P ^ W W ^ W M.d.Q b.b.n.Y.Y.D.B.D.R.T.@XN.B.G.H.H.!.D.b.b.F.Z.Z.OX=X~.~.R.R.(.E.fXeXhXNX9X6X(.gXfX&XOXsX*XOXOX%X&X/.Y.n.n.Y.Y.n.n.Y.U.P.U.n.h.n.n.n.n.n.Y.Y.n.^.Y.f.a.A.n.a.f.n.U.Y.Z.s.s.z.S.i.i.f.s.s.s.f.i.n.f.a.n.f.f.Q T d.s.s.f.R s.p.Y l.R R l.Y T ~ T I I R S S S J D S S S S J D I R R R R R T R l.L.l.R D R ) tXG m N m c n }  .[ 7 o.q q 5 * r s - - 9 9 0 a > 9.0.9.3.<.<.5.4.1.<.6.q.3.u 3.0.: =   2 { m L tXx.z.Q.eXE.c.I.P.j.k.G m v # O 1 0 > = = * * r o.w X.| 2 2 [ } v v c c m m m k k S S S A I I I P _ ~ ~ ^ U B.*.U U ^ :.M.M.M.Q d.M.! Q l.) R R R I R T R ) / G G ",
"B $.B B @.@.#.{ M { #.$. .} } %.%.%.w.+.>.>.o.3 O.O.O.q r 9 a a > - * a 8.9.= , e.0.9.0., : 9.7.7.i i 2.7.i , 2.9., , u : 3.0.0.: 7., < , , * - - - 5 1 + 1 7 7 + 2 [ 2 ] ..v @ b j j z z l l l P P P T W ^ ^ P T G.d.P d.D.A.~.R.%XT.R.%X<X@XG.N.J.oXOXOXH.b.B.*X*XOX:X0XOX/.~.qXBXgXBXhXhXNXeXhXgXCXBXdX*XqX*X%XoX~.~.R.Y.Y.Y.Y.A.n.m.m.m.m.A.n.m.n.n.n.A.A.T.T.m.Y.Y.h.n.Y.Y.A.Y.A.n.n.f.i.s.i.z.p.s.f.s.f.s.s.Y f.f.s.f.s.E Y Q N.B.B.S.f.s.s.Y s.T T Q A T T I I R R D S J D J J G G G G S S R R I R R R R l.l.) R D S D ` G m m m c n ] ..%.X.X.q q 5 1 e 9 - * r a 0 > , 7.7.i u 3.4.4.4.<.: 6.5.<.<.3.0.2.: - >.>.] c L J p.U.Q.P.g.I.c.U.k.J H { ] } | e w.0 e.w.w r q q q 7 3 ]  . .@ c c m m m m k k S S S S I W I I *.*.*.^ U V.*.U U U B.B.M.d.T Q d.E ! Q T R R R R R _ _ _ ) / / ",
"@.$.M B @.@.@.M M v #.{ ] ] ] &.[ [ +.[ O.O.q 1 q w e e w.w.8.7.8.8.0 e.e.9., 7.0.9.7.9., , 9.< , , i 7.9.i , 9.0., 7.0.9.9.0.7.< a , , , > - 9 e q q 7 3 7 | 6 ......n $ n @ . b g g z z z A A I P P P T P ^ ^ ! @XN.Q Z.H.b.D.F.%XoX!.;X;X@XoX!.+X*X%XOXT.D.T.sXqXOX=X=X%X0X9XgXVXBXBXBXCXAXgXBXBXZXVXbXkXsX:X*XOX^.~./.R.E.E.n.n.n.n.m.m.P.Y.U.n.n.n.n.A.n.Y.Y.n.U.n.n.n.n.R.n.A.Z.f.f.f.s.f.h.z.f.z.S.h.h.s.f.a.Z.n.f.f.s.f.d.Z.L.d.s.B.s.Y f.Y s.Y T Q Y Q T I I I S S S ) D J J J G G G S S D D D D R R R A I R D R D S z G m H m c n v ] +.2 3 1 7 7 5 >.e.w.d s w.8., , , : : 3.q.4.<.q.<.: 6.<.u u <.1.q.u > w.w.>.....G D k.h.h.g.I.g.h.p.J J N c b $ w w.r w.>.r r O.w w q X.X.%. .c c c c m m m k k z S S S I I U I U U U ^ U ~ ^ U *.*.B.! Q ! T W E P M.Q T l.R I I I R ) / G G G ",
"$.@.c B $.B M M $.M $.} # } #  . .]  .7 X.3     q q 1 5 e 8.9 - 8.8.a 8.8.a < i , : 9.7.: i 9.9., a i , i i 7.9.9., 9.0.a i 7., < 7.8.0 0 r r e q 5 3 1 + 1 O o o o # # n { b b b g j z S z A P P P P P P P P W ! oXM.d.Z.F.E Z.d.S.F.S.T.oXJ.T.oX*X*X~.!.H.H.!.=XOXD.K.T.~.=X-X&X9X(.9XBXNXCXgXfXgXgXgXfXqX*X:X:X=X&X(./.Y.Y.n.m.m.Y.Y.P.n.P.P.P.n.n.n.A.Y.A.Y.A.Y.n.f.A.f.Y Y.Y f.f.f.n.f.s.a.&XU.z.W.%XU.U.S.S.A.R.A.n.f.f.S.S.L.H.d.d.Z.s.Y Q Y Y Y E Q Y Q T T T R R R D S G G G G J G G G S S S S S S R S ) D S S S ) ) G G H $.H m v c n # o O 1 5 7 5 e e.s - ; 8.e.9.i 7.i 2.0.q.<.: 6.<.: 6.<.<.<.<.1.6.1.p 0.8.r 5 | B N ) R h.g.I.g.c.h.z.x.G N N b o.>.7 8 q * r 8.0 r r q | ..} c c c c c m k k z z S S A A I U T ~ U _ *.*.! U V.V.B.B.! ! B.Q Q Q Y M.T Y l.R R R I A S S S G H ",
"$.$.m @.$.H B B $.M $.v } %.} %.+.[ +.+.>.o.q o.O.>.O.w.w.e 9 8.w.8.> > 0 > < 7.9.i 0.7.: i 9.0., 9.8.a a 7.a a 0 = < , < > 0 0 * 9 s 0 e 5 w O.5 7 7 2 2 [ ] $ # @ v @ c B b c N N z z S S A P P P T W ~ W W W ! H.Q d.Z.D.d.T.T.S.S.F.oX<XoX+X@X;X;X*X%X~.^.OX*XOXF.F.H.T.~.T././.Y.(.gXeX9X9X9XgXfXgX0X=X=XdX0X=X-X/.W.Y.n.g.A.n.Y.Y.P.P.).).P.n.Y.Y.Y.Y.n.Y.n.Y.n.n.T.Y.a./.Y.Y.n.h.n.n.f.n.R.f.i.Q.R.f.f.s.Z.A.Y.h.s.E Y Z.d.b.Z.d.f.S.d.Q S.Z.Z.L.D.F.S.B.Q R ~ l.x.k.) S G G G G J J G G S G S S S S G S ) G S S S G ) G G K $.m c c @ n ] ..| 1 1 8 7 >.9 -     a e.i * 7.2.0.4.5.<.u 6.<.u 6.5.5.6.6.6.6.1.1.5.2.< = 5 ..b ` G F i.c.c.c.c.h.p.F I I b $.,.>.X.O.* r 0 r - - 4 1 # @ @ v c c c m k k S z S A A A T U U _ *.V.V.C.*.~ {.V.V.V.M.B.G.l.W b.! B.d.R l.~ R R R I / J G H $.",
"H $.B B @.M M M @.{ { v } }  .%.] O 2 2 | 3 1 7 3 q e O.e - - 8.e.s = = a a 7.9.0.9.9.i : : i i > 7.8.a 7.a , > - = - > 9 0 9 = * 9 e e e 5 O.O.7 X.+.[ 2 2 ] o n c c c c $.$.$.N N / S S S I P P P T ! ! W W ! M.H.d.Z.d.H.Z.T.R.Z.oX*X<X*X+X>X*X,X:X*X*X%X~.*X*X*XT.T.R.T.R.A.R.R.Y.9XBX(.rXvXBXBXBXZXvXbXbXZX0X0X&X/.Y.U.n.m.A.m.A.E.n.Y.(.(.Y.n.Y.Y.A.Y.n.Y.A.A.A.Y.R./.Y.&X9X/.A.n.A.A.A.R.(.U.Y.9X/.n.Z.h.f.n.n.a.a.a.a.Y.E E b.d.d.b.d.s.s.d.f.s.d.d.d.Y R Q l.l.l._ ) / G G G J K G G G G G G S S S G S S z G G z G G k G H L c M B c #  .%.%.1 1 w o.e 9 > = = a i *   : u 4.1.<.5.1.6.1.1.6.6.6.q.t.5.5.1.<.1.q.0.2.8.o.] B / S z.h.c.5XwX5Xh.z.z.R z N n $ O 1 3 e r.0 0 9 q 2 ] n v c c c m m k k z z A A I W _ ~ T U *.*.U _ *.U C.*.V.G.B.B.K.M.Q b.b.M.B.l.) l.T R A S S G G L K ",
"B $.@.B H B H M @.$.v } } ] %. . .2 [ 7 X.7 q O.3 1 * 1 w - - 8.s - * - e.e.7.i 9.9.7.9.2.i 7.i < , > > > > < > 0 a 0 9 - - r 9 r e e r r * q 7 1 3 | 2 # ] ..# v c m c m H m g k G / S l P I P T P P W W ^ W M.B.J.b.M.E S.s.d.Q Q *XqXoXK.K.;XoXOXoXT.!.^.^.%X!.OXT.T.^.~./.Y.R./.(.vXAX^.9XBXVXvXfXBXvXVXbXbXdXqX9X/.Y.P.n.n.g.a.Y.(.Y.Y.Y.n.P.n.Y.n.A.Y.A.R.Y.n.A./.n.Y.F.F.A.n.a.n.Y.U.A.Y.R.R.(.eXY.a.f.a.A.U.A.n.A.Y.Y.qXT.~.-XT.D.D.Z.Z.Z.Z.d.E E s.d.Q Y T R R R D R ) G G G J J L L G G G G z k G G G G G G G k G G N m m m m $.$.n @ n  ...O + >.o.1 * * - > > = = = u : 3.<.<.5.<.5.<.1.6.5.5.5.6.: 5.5.5.5.6.4.3.e.>.1 o b k x.h.c.5XrX6XP.W.eXT.l.z b g @ O X.w 0 0 0 >.O.|  .{ c c c m m N k k z S l l I _ B._ I U V.*.P ~ V.*.C.*.V.G.*._ N._ W b.b.Q l.Q T l.R R I R ) / G L H ",
"$.B m B ` B m B M v { } v ]  . .&.[ [ +.>.X.3 O.O.o.w.w w.e.r w.s 8.s > e.a t , i i i 7.i , 7.9.> > = = > > > 9 9 0 - e e r 9 - r 9 r 5 5 3 7 X.3 +.| O  .....n B m m N m m N N z z I z I ~ I _ ! ! M.! M.B.:.N.G.M.E b.Z.Q d.d.d.M.;X;Xd.F.qXOXR.*XoXT.%X%X~.%X~.T.D.~.^.Y.%X&X-XR.A./.-XR.&XqXgX-XgXZXBXfXgXvXqXqX9X(.(.6X(.E.P.6XY.eXm.n.A.Y.^.n.n.m.Y.^.Y.^.R.^.Y.^.A.n.R.n.n.h.a.n.Y.Y.A.n.Y.a.n.Y.Z.n.Y.Y.Y.Y.R.Y.Z.n.A.A.R.D.b.a.b.Z.b.Q b.E E d.Y E b.E T P R T R R I S / G G G G G G L G G k N G G N m m L L L m m m m m N m m H B v v { ..] o 1 o.6 1 * 9 - ; > i y 9.0.<.3.1.5.6.5.5.5.6.y.6.6.6.6.5.6.6.6.6.q.q.3.q.8.1 O %.' G ) h.6X6Xc.g.P.P.n.s.R S N c ..| O.w.r 0 w >.+.$ n b c c c g N k k z S S I I I T T U ! G.V.*.V.*.*.C.*.V.V.B.M.B.*.W N.b.d.Q Q Q Q ~ T I R ) G G H $.",
"B B B B H B m M $.{ { v v } %.%. .] 2 2 +.X.3 O.O.X.O.7 w >.- 0 9 s r = w.8.= = 9.7.i , < < < , ; > - > 0 9 9 9 s 0 9 s s 9 9 r - w w e O.q q o.3 | 2 2 %.] n b m k m G m k N z G S ) I I ~ ~ M.M.d.d.! N.G.! ! ! b.! B.Z.Z.R.!.:X>XmXlXK.T.:XoXR.*X*XT.T.T.T.~.%XH.D.*X0X&X0X0X(.R.Y.-X9XR.&XqXgXvXZXZXvXdXvXBXBXBXgXfXwX9XeX(.Y.).E.).Y.Y.^.Y.n.n.T.Y.^.(.Y.E.R.F.n.F.n.f.A.f.m.n.n.n.Y.Y.Y.Y.Y.A.W./.Y.Y.Y.n.Y.n.f.f.f.s.n.D.D.A.b.b.F.F.b.d.d.Y E s.E s.E P E P Q R R l.) R ) / J G J G H G N G G G m m N H m m N m m m m m c m m B $.@.v @  .%...o + o.o.5 s w.s d a a i 2.0.u 1.1.6.6.5.1.6.5.t.t.6.6.6.6.6.5.5.6.y.y.4.q.e.r 5 >.+.' / R S.P.g.E.6XE.P.h.p.R S k $.%.>.w.e w O.o.6 $ @ c B M B c N k z z A l l I ~ ! ~ I ~ B.*.~ *.C.C.{.*.*.*.*.*.V.K.K.B.b.! Q ! Q R T T I R ) / G H $.",
"N ` ` B H H L B $.{ M v v }  . .%.] 2 | +.+.7 +.O.7 7 3 5 q - - - 9 - - 8.9.= , 9., , < , a , a > 9 9 9 9 r - 9 s 9 9 w w 9 5 w q >.>.o.q 7 3 3 2 2 o o ..% b b N z G G G S G S S l I I A P T W d.Q Q E b.B.^ ^ B.G.N.G.G.G.R.J.<X*XsX,XT.OX:X%XR.0X=XT.D.T.~.~.~.D.D.-X-X^././.Y.F.Y.&X-XY./.9X%XdXbXvXvXBXZXLXBXBXgXhXhX9X6X).P.m.E.a.n.n.^.Y.n.Y.T.A.Y.^.Y.^.R.n.b.Y.Y.F./.Y.n.Y.U.U.Y.Y.P.n.h.n.A.n.n.U.U.n.n.n.n.Y.Y.f.b.^.n.A.A.n.F.F.b.b.D.Z.T.F.D.^.n.f.S.f.B.d.R ~ R F R / J J G K K K N N N N m m m H m m m m c c c M B v c B { { n @ n ....o + X.7 8 s s d d a i i 0.2.u <.1.4.5.1.5.6.5.t.t.1.: 5.5.5.<.1.5.6.6.1.y.7.* > w.>...b / T s.n.6XwX6XE.Y.A.l.F S H $. .+.7 3 o.3 O # o c c v M c N k z S S A l P ~ _ ! W ~ *.*.~ _ V.K.K.K.C.V.*.*.V.V.! b.! Q d.M.d.T T T I I ) G G L H ",
"' ` N m N H H @.$.M v { } ] } ]  .] 2 | +.X.3 | O.3 3 q q q w r r e 9 8.w.8.= e.e.7.9.a 8.e.0 8.0 0 9 r 9 5 5 w 5 5 r 5 5 q 4 5 7 q 7 1 3 1 2 [ O 2 # @ n @ b b N S / ) S S S S ) I V.L._ l.N.M.b.d.b.Q d.M.b.N.<X@XG.J.oXH.H.B.G.G.J.K.G.T.oXXX%XqX=XT.T.=X=X~.%X%X&X9X&XR.~.R.Y.Y.Y.-X9XR.(.9X0XvXdXqXbXVXBXBXBXgXgXBXBXgXwX7X).E.wXm.Y.).(.9XY.(.-XR.^.(.(.(.R.n.Y.9X9X-XfXfXY.^.Y.Y.(.).n.m.a.n.h.h.U.Y.U.n.f.n.Y./.R.n.n./.A.T.D.A.F.Z.b.b.b.d.S.s.b.D.Y E s.Y f.Q Y l.R R R R G G G G G G G G k N L N m m m c c c c c v { { @ @ n n n n @ $ % o o + + 1 w 5 5 - - > = : 2.2.u u 1.5.1.1.6.5.5.t.6.u <.6.6.5.5.q.6.q.1.t <.: * 9.9.w.7 o b l ~ A.Y.6X5XE.E.U.U.Y R S N c $ 2 2 | 2 # # @ n c M m c m k z S S P P P P ^ ~ ! *.*.*._ ~ V.K.C.C.*._ *.'.#XK.! B.b.b.M.d.Q Y T T P I I G G L H ",
"` ` N N ` $.@.$.$.@.v { } ]  .}  .] [ X.%.+.| >.O.3 7 o.q O.w.e r e e w.8.0 * 8.8.0 s 9 s w.r s w w 5 5 w w w >.5 q >.5 8 >.q 7 X.7 3 1 3 2 2 [ ]  .%.$.$.b N g z S S S S S S S S A R l.P T b.Q b.b.b.! B.F.G.!.J.B.! H.!.Z.S.B.K.G.G.G.!.OX%X%X%X0X&XD.T.0XdX%X&X-X-X9X&X&X-XY.~.^.R.-X9X/.-X-XvXvX0XqXBXBXgXgXfX9XhXBXCXNXwXeXwXeXhXY.(.gX(.9XA.(.(.(.-X9X(.Y.F.b.R.-X/.R.(.(.Y.^.Y.Y.(.).P.n.Y.Y.Y.6X9X(.Y.A.Y.Y.Y.R.Y.A.R.9XY.R.D.Z.F.D.D.H.G.Z.D.d.Z.T.E s.Y Y s.Y Y Q T I R I S G J G G G G S z G H N m m c c c @ @ # v { ] # $ ] n n v o ..$ o       1 o.  * * - > = i 0.0.u u 1.4.1.1.5.6.5.6.5.u 5.6.1.5.5.5.5.6.6.u 1.u : 0.7.> *   % ' I ! a.Y.U.P.P.E.W.f.l.R S N B $. ...%...# n { v { B m k k k z A P P P P P W ~ ~ _ *.*.*.C.'.'.V.=.*.C.{.#X'.V.N.B.b.M.Q Y Y Q Q T T ) G G H $.",
"$.` B H $.$.@.$.$.@.M $. .]  .} ] 2 # # 2 3 3 >.>.3 7 X.q O.w.>.5 e e e 8.8.- 9 0 9 r - 9 e - e w q 5 7 o.o.q w 1 o.>.q q >.o.3 +.X.| | +. .2 ] {  .$.$.$.b N z z S S S A I ) R R T T Q T Y N.B.b.Q Q ! F.!.G.H.Z.b.b.J.K.! M.G.@X_._.!.+X*X<X&XOX&X&XT.D.*XfX%X9X9X/.-X0XqX0XA.~.~.R.&X-XR.W.R.*X&X*XdXbXvXgXvX9X9X9XhXhXeX).Y.).Y.n.m.).vXT.^.n.^.Y.Y.^./.W.A.D.D.-X-XY.Y.Y.Y.n.(.).Y.).P.m.Y.6XY.Y.9XrX/.Y.Y.&XY.F.Y.Y.R././.A.F.n.b.D.H.H.H.D.b.Z.d.d.Z.E s.f.s.l.s.T d.T A T R R / / / G G S S G ` H m m B v c # v v ] ]  .] $ $ ] n # $ $ .. .$ o   + 7 8   * - d , > i 0.2.u : 1.5.<.1.5.6.1.5.6.<.1.5.<.<.1.5.u 5.6.1.q.5.1.q.q.0.8.w >.,.j I Y (.U.P.P.6X9Xn.A.l.R ` ` $.$.] %. .@ ] { v { m m k N z z I P P ^ ! _ ~ ^ U U _ *.*.*.C.'.C.C.V.V.V.V.*._ b.Q Q d.d.Y Q b.Q W R R S G H $.",
"' ` B N N N m B M B M $. .]  .} } ] [ 2 2 1 3 >.+.1 7 3 q w.w w r s w.e w.w.0 - w.w.0 r e e r w w 7 1 1 7 7 1 1   6 7 3 3 7 7 O X.[ 2 | %.[ ]  .{ M M B ` N ` / S S I I S ) _ R _ l.T Q Q Q G.F.b.b.b.B.T.OXG.G._.J.K.@XoXN.T.<XaX+X@XOXoXJ.J.L.OXOXOXT.H.=XdX%XfX9X&XfXgX0X9XY.Y.R.R.%X%XY.R.R.=X%X=XdXfXqX9X9XwXhXgXgXhX9X6XE.).E.n.A.9XgXY.Y.^.(.Y.Y.(.W.(.^./.-XvXqX^.-X9X9XY.^.Y.Y.).P.m.).).m.P.(.^.Y.Y.(.Y.a.n.^.Y.A.D.n.b.n.b.Z.R.!.D.Z.H.M.S.H.Z.d.d.s.E R l.f.s.N.B.~ R R R ) / / G S G S G / G m m B n v v ] } [ }  .2 $ $ $ $ @ % ..]  .2 + 1 6 q 7 r r 9 d > = : i : u u 5.5.<.5.6.5.5.5.q.5.6.6.t.1.6.t.t.t.5.: 1.1.u 1.q.q.9.0 >.+.. C T /.Y.P.E.wXwXY.Y.R.l.x./ H m v { n # v ] v B c m k / z z I I P W M.M.~ ^ ~ _ ~ _ *.U _ K.C.=.*.*.V.V.V.V.! E E b.Z.d.d.M.Y Y T R R G G H ",
"/ $.$.N k m N B M M c { } @  . .] ]  . .X.2 3 +.| O 3 3 q w.5 1 r r e r s r *   w e - - e w 5 q 7 1   O 1 1 O O 1 | 7 | | 2 | # %.] # ] } # # { v M m c ` $.].z I I I I I R R I T d.Y Q d.d.Z.Z.d.b.Z.b.Z.F.M.G.G.F.M.G.T.T.*X,X*X_.@X<XoXoXOXoX=XR.T.T.~.dXvX%X^.Y.^.qX9XY.R.R.Y./.&X0X9X/.&X&X0X&X=XdXdXgXgX9X9XgXNXNXNXBXNXgXgXgXwX9XgXgX^.^.^.-X^.(.-XR./.Y.R.~.dXR.n./.&X^.Y.Y.a.n.6XE.n.).Y.b.Y.9XY.n.Y.T.Y.Y A.9XF.f.A.A.f.n.Z.D.%X%XD.b.H.b.Z.~.Z.Q b.E s.s.S.f.Q B.Q P T R R / / G G z ` G k G H m m v v v v } ..[ ] ] o O $ 2 ] O o 2 $ 2 o O 1 4 w o.5 - ; - = > a 9.2.2.u 1.5.1.6.6.t.6.5.6.5.6.6.4.6.5.5.5.6.5.: 1.t.6.1.q.0.: = d + o ' h l.S.Q.5X6X6XE.W.eXU.Q.D ) k N m c v c n B @.m N k / z z I I ^ W ^ ^ T ^ ~ *._ *.V.U ( }.}.`.C.C.{.{.K.V.B.! ! N.G.M.Q E E Y T R ) J G G ",
"/ 4XtXk N N c B M M v v } v v  .}  .%. .%.[ [ %.+.O 3 7 X.w.q 1 q 5 r 5 w.q * * 5 q 3 5 q w.q 3 3 6 + + | 2 O | %.%.] | | O ] ] { M v M M v M B M M B N G $.x.S R T P P R R T s.Y E E b.s.E Z.a.s.b.D.Z.H.T.F.H.!.Z.B.*X*X*XR.!.T.G.G.H.+X:X*X%X*XOX%X:X~.dXsX^.D.T.R.R.~.A./.R.n.^.&X&X&X/./.-XqXOX*XdXqX0XfX9XvXBX9XgXgXBXCXCXAXAXLX9XvXvX/./.9X9X&X-XR.^.D.R.%X0X:X^./.dXqXT.n.n.Y.(.(.Y.P.U.b.n.R.^.-XF.R.-XA.F.Y.(.Y.f.R.R.~.T.=X0X=X%XK.N.G.N.G.T.b.d.Z.s.s.S.B.Y s.S.f.P R A R / z G ` G G N N N m c c v c @ n ] # o O # o O $ o.| 1 7 7 1 7 1 4 1 4 >.w 5 ; * - > > a a y = : 3.1.1.4.y.y.1.1.6.5.1.6.1.5.5.5.5.5.1.1.6.6.5.<.5.4.u p 0.d 8 6 n z l.j.P.P.E.6XE.E.E.c.h.p.) ) z N N g m H H N N k z I l I P I P P T P M.~ *.*.*.V.C.{.$XyX=.*.C.*.C.C.V._ _ M.K.B.N.P Y Q Y T R S S J k ",
"z ].` k N G m H M $.$.{ { } }  .&.[ [ # &. .[ %.+.O 7 o.+.o.O   O.>.>.>.w.>.1 7 o.>.o.7 3 o.X.7 >.>.2 2 +.+.] ..%. .o ] $.{ { c B m m M B M M H B L L G G / ` S T Q Q Q s.T E f.E f.f.Z.s.a.Y.n.Z.S.Y.D.T.H.S.!.OX!.oXkXqX*XR.R.*XOX@XOXOX!.!.!.=XOX^.%XT.0X0XT.R.&X&X^.&X/.0X^.R.&X9X9X0X-X&X-XqX%X*XqX0XqXfX0XfXvX9XBXCXCXgX9XgXfXBX9XfXfXqXbXgX0XR.R.^.%X=X=X=XqXqX*X&X9X-XR.A.(.9X(.E.Y.E.Y.A.T.&XqX&XY.Y.9XF.n.A.^.Y.n.(.(.n.Z.R.T.H.oXK.B.J.G.G.K.d.Q F.b.Z.Z.d.E d.S.s.Y R D R G z G G m N m m N m m c n { v n ] $ $ .. .$ 2 1 6 4 1 8 5 8 q 5 7 5 5 w 8 ; ; ; > 9 > > < * * : u u 1.4.t.4.u 1.6.5.5.q.6.6.5.5.5.6.5.1.5.5.5.u 1.4.u 1.4.9.a >.| ' ) p.h.Y.).5XE.5X5XI.U.h.h.R A I G k k m N G / N S / I P P T P ^ T P _ B.V.'.{.K.K.{.$X{.V.C.{.K.#X#X'.'.'.#X,X@X+XG.H.b.Q Q ~ D / ` G ",
"z / / k N L N H M $.#.M {  .{ v } 2 2 # [ +.2 [ 2 O 3 X.+.+.3 6 7 o.7 7 1 7   1 X.7 1 O 1 +.X.O | $ o o ....] ] v ] @ v { n { c M m m M M M M H H m G G G S R I R Q Q s.f.Q E f.f.n.A.A.f.n.R.Y.A.S.D.D.D.D.Z.!.H.H.H.*XR.oXoX%XkX>X:X>X;XoX!.oXT.H.!.=X~.sX0XT.Y.&XfXdXvX0X&Xn./.-X0X0X9X9X-X&X*X%X&X*X-X0XqX&X&X9X/.9X9XrX9X(.&XY.9X9XBXgX-X9X9X9XR.^.&X%XfX=X%X=X=X&X/./././.R.(.(.).).).).Y.9XvXbXKXqX&X(.gXY.n.A./.T.Y.(.^.A.R.OXF.L.*XoXG.T.K.G.H.M.b.H.B.F.b.E s.Z.f.T Y T R I S S G G N N N N N m c m B { v # ] 2 2 | | 2 6 | 7 7 w 5 - w 5 5 r r 5 9 ; * = > a a d > i > u 2.2.1.1.5.1.: : 5.t.6.6.y.t.6.t.t.t.6.5.5.6.t.q.<.1.1.y 1.3., < w 3 n z I f.U.6X).6X5XI.I.c.h.n.s.T A l z S k k G / z z I P P I ~ ~ ! ! ~ N.*.*.K.{.=.=.[.}.C.C.'.{.K.{.#XC.*.C.'.{.N.K.b.B.d.T Q ) I / ` G ",
"z k N G N G H L M @.@.M { #.{ v }  .%.%.+.%.2 [ +.| | 3 3 | 7 7 7 o.>.+.o.o.1 2 2 2 2 2 2  . .2 ] n # # ] v @ v o n M M c c M M m m m N L L L H H G G J R ) ) T Q Q Y E l.f.s.s.A.Z.A.Y.n.Z.W.R.A.A.D.Z.T.^.H.!.oX!.T.oXL.OX*X:XkX*XOX,XqX*XOX*XOX%X0XbXqXbXvX*X9X&X9X0XfX/.&X-X0X-X-X-X-X=X-X^.%X=X=X*X&X0X9X/.-XqX9XfX9XqXNXBXAXqXBXgXBXBXdXqX(.9X-X&X=XT.0X%XOX%X~.T.R./.%X/.Y.Y.Y.^.W.Y.Y.Y.&X0XdXvX&XR.R.-XY.Z.Y.9X(.^./.Y.Y.~.~.Z.D.*XJ.N.J.J.H.!.K.F.T.Z.b.d.Q f.S.d.Y R R R I S J G G G N N N N m c c B { # # $ 2 2 2 2     6 8 w d ; - 0 9 9 0 9 9 d > ; ; > d i > > p : u 2.2.1.1.1.1.u u 5.6.1.1.t.t.5.6.6.t.t.6.6.y.y.q.u 5.4.u q.q.0.9.8.w ..b S ~ s.Y.P.6X7X5X7X5XE.E.n.b.Q P R R z k G z k I I I l I ! W ^ ^ P M.V.*.K.{.*.V.{.}.C.C.C.'.C.V.C.*._ C.'.K._ B.Q Q d.Y R ) I S G k ",
"S k N G G L H M M #.$.@.M v v {  . .%.&.[ %.2 [ +.X.| 2 3 [ 6 7 X.X.+.2 2 2 O O [ ]  . . .[ ] v { { B { { v v M M @.M m m N N m N N L L G G G G J G J R R l.B.Q l.l.f.f.d.d.f.S.R.b.n.Y.n.n.A.Y.Y.R.T.D.%X0XOX!.=X=X*X;X!.%XOXR.*XJ.H.OX*XOXOX*X=X=X0XdXT.%X*X~.-X/.0X-XqX-XfXvXBXvXgXqX9XfXqX~.%XsXdX=X*X0X=X/.0XgXgXVXgXBXAXAXVXVXIXVXbXBXvXvX0XfX0X&X9X/.fX0XT.~.T.D.T.%X(.Y.Y.(.9X9XY.n.U.(.&X~.=X=X&XR./.%XY.A.(.qX&X/.R.Y.R.T.T.Z.R.@XG.G.J.T.H.J.H.D.H.B.Q B.B.d.d.Q Y Y I R I S J G G N N k N N m c m B { v @ # 2 [ | | +   1 - 8 8 ; d > > 9 9 > > i y i i i i : = = : y : u 1.u u 1.1.1.6.t.t.5.5.6.5.6.5.5.6.t.q.6.6.y.q.1.t.t.u 4.4.4.9.0 s 7 ..b z T b.i.P.E.I.7X7X8XE.n.n.d.Q T A S S / l S V.l.U P ~ B.W P P P B.B.~ V.C.*.*.C.C.C.C.V.K.C.*.C.C.'.{.@X{.N.J.b.M.M.W Q l.R S J S ",
"G z G G L L L M H @.@.@.{ v M $.} ] ] ] # ] O O ] 2 2 [ X.| | +.+.| +.2 [ ] [ ]  .[ ] ]  .} v v B c c v M M M B H H N m G K G G G G G G G G G G ) ) ) R R B.S.s.s.S.S.d.s.E f.Y.R.f.n.A.n.n.A.Y.Y.Y.T.D.%X:X!.H.@X!.H.OXT.OXoX!.*X@X+X*X%X!.OX0XdXsXvXbX%X=X0X&XD.~.qX/.-X9X-X/.qX-X0X-X/.9XqX^.~.0X0XOX%X-X%XR.-X0X9XgX9XvXBXgX-XgXLXgXvXBXvXfXfX0X0X&XqXdXdX0X*X0X0XqXvXVXBXqX&XgXBX9X^.(.(.(.-XT.&X%X&XR.&X~./.Y.(.-XY.Y.A.F.R.T.H.K.*X<XK.oXJ.!.G.N.Z.Z.Z.d.Q L.L.d.Q Q T T R R R S S G G k z k k m m m M B { # # 2 2 6 | 7 1 1 4 5 9 ; = a ; > a > : y y : p y y p p y y p 2.p 2.4.1.u u 1.5.6.t.y.6.5.6.5.5.5.<.<.<.u : : <.: = 1.1.= 1.4.: <.< 8.e o...b C ~ R U.E.I.8X7XI.E.).A.a.s.E R R S _ S I L._ P P ! N.! ~ _ M.{.J.C.'.#X{.{.{.C.'.K.*.C.K.*.C.K.C.C.K.K.B.G.b.b.N.Q Q ) D S / J ",
"G G G G G L L L L M m M @.{ { @.} v v } } ] ] O [  . . .+.[ 2 X.[ [ +.%.%.+.] ] # %.%.} { v v $.$.B m m m m m m m L G G G G S J S G G G J / ) R R R R s.s.f.f.s.Q f.f.f.f.f.Z.R.Y.b.D.Z.b.Y.R.R.Y.A.D.T.~.~.F.H.*X!.T.*X!.*X=X0XqXsXsX>X*XOX*XsX%X%X:XkX%X:X0X&X-X*XqXD.T.*X&XT.Z.Z.T.T.D.~.&XD.*XqX*X!.%X=X%X~.0X9X&XqX(.gXBXfXfXvXBX/.fXVXbXBX0X-XfXqXqXbX-X&X%X%X%X=XgXbXgX-XqXgXfX(./.-X9X/.gX0XgXvX=X%X0X-X&XA.^.~.F.F.A.Y.T.R.D.D.*X*XN.J.J.oXN.B.F.Z.Z.! M.G.N.Q Q Q Q T T A R / S G / N G z k k m m m M v @ # ] 2 2 2 1   4 * 8 d = = i > i 9.i y a p y y : y p 2.2.2.0.u y u 2.1.u 1.5.5.4.5.1.u <.6.q.6.6.6.6.5.5.5.6.y.4.1.4.1.: 5.q.4.0.3.9.e.w.>.$ N G ) Q.eX6X7XNX8X).NX).n.R.A.S.l.I ) I I l.P A V W *.W ~ *.*.J.V.V.C.'.{.K.C.C.{.{.*.C.'.V.J.C.V.V.N.C.b.N.! M.M.T T ) D S ) J ",
"G G G G G L L L L H L M M M M @.{ } v {  .v  . . .%.%.] ] ] ] [ &.] ] [ # ] # ] v %.%.v { v v B H N N H m m L G G G G G J J S ) D R R R R R R R R Y R f.s.Y a.f.s.s.E f.A.Y.R./.A.Z.W.S.b./.&X/.~.A.D.~.*X!.D.*X:X=X=XkX*X*XoXOXkXsX,X*X*X*X=X=X*X~.~.=XT.=XdX0XdX=XvX*XdXdX*XT.~.~.0X0X%X0XdX~.vXMX:XOXqXvXsXqX=XqXqXvX&XfXVXgXqXbXAX9XgXbXqXvXqXqXBXgX9XbX/.-XkX=X&X0XdXqX9X-X/././.Y.n.n.R.-X=X&X0XdXD.D.T.R.~.n.R./.R.(.(.-X&X&X~.H.;X;XG.H.G.!.G.G.T.H.F.d.B.B.Q Y Q d.Q Q T A R ) S ` ` / / G k k m b c c n # # 2 $ + 2 7 + w 4 8 s f i a : i 9.y : p p : p y y p p y u p : : u 2.u u 1.1.1.4.6.6.5.5.6.6.6.6.5.6.6.q.q.t.q.5.1.4.u u 5.q.1.3.<., 9.s >.1 $.B G D p.j.P.7X7XI.7XP.P.gXY.f.L.P R P P W A W W ! *.~ *.*._ *.V.V.V.V.K.C.C.K.'.#XC.{.$X{.$XJ.C.V.N.G.b.B.Q B.Q P T l.) S ) S ",
"S S G G G G L L H L L L H @.@.@.#.v v #.$.{ } $. . .} # # [  .[ &.&.[ } ] } } %. .$.$.{ v v M B m m N N N G G G G S S ) ) D D R I R R R R p.p.R Y s.n.A.n.a.a.a.s.A.n.R.&X~.0X&X%XD.Y.F.F.(.(.R.%X~.%X0X0X*X0XbXlX:X:X:X*XqXbXvXbXkX+XoXoX~.*X0X=X~.=X0XOX*XfX=XT.!.!.%X0X=X*X=X0X:XvXVXvXVXZXvXZXmXsXkXbXmXbX=XqXfX=X&X&XfXbX0X9XVXbXqXbXVXVXAXvXfXZXfXvXbXbXfXvXvXqXvXbXqX0X-X(.9X-X^.R.-X9X&XdXdX%X%XT.Z.~.&XT.Y.D.Y.R./.^.Y.~.~.D.F.!.!.G.K.J.aX_.oX:XN.Q b.M.d.! Y Y d.l.Y Y I R ) G G G G k k k k g c b B # n $ $ 2 2 3 6 1 1 4 * > > = =   = : = = = y y y : 2.2.u 2.p : : y u 5.u u 2.1.4.1.t.6.1.5.6.6.6.5.6.6.t.6.1.u = = : u : : 1.<.: : <.t 7.> = 5 ] @ B z F z.U.E.6Xm.wX7X(.gX9XR.S.s.Q Y T ! ! M.! M.! ~ ! *.*.*.V.G.J.{.'.C.C.C.C.{.V.{.{.V.@XK.C.{.J._.b.b.b.G.S.P K.XXR S S S ",
"` G S G J G G G K L L L L L L B M v M $.$.{ { $.{ { n v {  .{ } %.%.%.%. .} } { { { { B M M B H G G G G G G S S G S D R R R R R R s.f.p.s.s.s.s.n.h.n.n.n.a.m.Y./.W.Z.~.%XR.&X(.R.Y./.~./.-X&X(./.~.%X=X*X~.OX:XkX:X*X*XOX*XqX%X*X;X;X<X=X;X*X0XsX=XsXdX&X*X0X&X~.&X*X=X0X*XOX*X%X~.0XkX0XdXvX:XvXjX*X:XkXbXbX=X*X=X%X%X&X0XgX-XdXVXBXvXBXZXLXLXVXVXLXVXbXvXqX&XgXqX&X0XqX0XgXdX&X&X&X/.%XqXqX/.*X*X%X*XOX~.=X:X=X-X-X0X0X&XR.A.T.~.T.!.*X@XJ.oX<XzXoXN.H.b.Q F.G.N.N.M.M.L.H.d.T I R ) S S G z k z k k k g c c n @ $ 2 1 2 | 7 6 8 4 * - ; = : i 7.9.p : : y y y = p p y u u = y y u 4.5.p 4.4.5.1.q.6.<.1.6.t.q.6.6.6.q.6.1.<.1.1.1.2.u u 3.3.<.u : < 9.9.a w.+.[ $.` ` XXqXCXCXwXLXAXCXAXBXvX/.T.H.b.d.d.Q ! ^ ! _ *.B.*.*.*.{.'.K.'.K.C.C.K.{.$X{.,X,X{.,X{.#X,X;X;XG.F.F.!.G.Q J.XX) ) ) R ",
"G S S S S S G J J J G G G L G N m M @.$.@.M M B M M v { $.$.{ v  .#.} } } v M M M M M B N N H G G G G G G / / ) ) ) R T R R T Y s.f.S.f.s.s.f.h.U.n.h.n.n.m.P.(.R.A.f.Y.Y.n.^./.R.Y.D.A.Y.&X^././.%X&X9X0X:XqXkX,XOXoXoXR.OXOXL.oX+XsX*X=XqXOX*X:X*X:X0X*X:XdX0X=XdXdXdXdX=X%X=X~.T.*XdX0X0XsX=XsX>X@X*XsXkXkX=X=X=X&X=X-X-XqX&X0XfXvXgXdXBXZXZXbXbXAXvXfXgXgXqXvXgX=X0X0X0XvXvX&X&X-X=X&XqXqXR.:X%X0X=XOX:X0X:XdX:X&X&X&XR.Y.D.^.~.R.~.*X!.K.@X@X;XoXB.N.M.E Z.B.B.M.Q Q B.B.Y Y I R R S S S k z z k b m c c @ @ o o $   + 7 1   8 8 f d > i i , 9.a > y y : y u : p 2.u 1.2.u 5.5.5.0.q.1.2.4.4.5.q.5.<.1.6.y.6.5.5.6.6.5.<.1.q.q.5.4.<.u 3.3.3.3.<.0.q.0.9.e.o.|  .B m J z.XXeXW.AXAXhXgXeXrX/.OX%XG.M.N.M.l.W *.B.B.B.*.! B.#XJ.V.V.V.V.V.C.#X$X{.$X,X#X#X'.K.{.{.{.G.G.H.!.K.M.H.L.R R I S ",
"l S R ) D S S D J J J J G G G G L H H H M M M H H M M #.$.$.{ M $.#.{ M M { #.$.H H N G G G G G S I I R R ) ) ) R ) l.Q s.d.s.Y s.f.Z.b.f.f.n.Y.n.m.m.P.U.n.Y.).n.A.A.&XR.n.-X9X/.T.n.b./.9X~.%XdXqX0X*X&X=X0X0X:X=X:X:X*XqXkX:XbXnXKXkXdXbX=XsXvXsXfX0X*X*X=X*X=X0X0X:X:X=X&X=X:X&X0XvXdX0X0X=X*X,X<X,XsXsXsX=X:X:X*XdX0X=XfX0XfXfXbXbXfXBXKXVXvXvXVXBXbXVXLXAXvXvXdXgXdXqXgXqX&X0XvXqX&XqXgX%XqX*XkX=XR.:X=X*X0X%X~.~.~.R.R.~.^.T.Z.G.!.G.B.!.@XJ.J.N.G.F.Q F.J.K.B.! ! B.B.P P P I R S S G S k k k N N N b @ @ o $ $ + 6 7 4   w d s 9 = i i : 9.7.i 2.2.p 2.2.p 4.4.1.4.0.4.q.0.4.4.q.u p 4.1.1.1.1.u <.5.6.5.1.5.6.6.5.u 1.4.5.u 3.<.<.3.<.3.3.3.0.9., 9.8.5 7 | ..M G ) S.Q.U.gXBX9X9XeXBX~.&X0X~.H.oXG.B.B.N.B.M.B.*.M.N.#X{.G.C.K.K.'.{.$X#XJ.{.@XJ.{.K.V.J.{.K.N.G.H.!.H.M.B.B._ R I S ",
"S R ) _ ) R R D R R ) ) J G G G G L L L H K @.@.@.H M #.#.@.M M @.B M M M M N L ` J J G / ) R R R R R R R R R R R s.f.s.f.n.n.a.a.b.A.n.n.n.Y.Y.P.n.P.Y.Y.U.Y.E.n././.9X(.R.9XfX/./.(.-XgXvX=X0XvXgXqX*X*X:XdXsXqXqXkXkXqXvXVXvXKXKXLXvXdXbX:XkXbXkXsX0X=X:X0X=X0X0X*X%X:X0X:X0XkXsXdXvXdX=X%XOX+X,X,XsXsX:XsX:X=X*X*XqXqX=XdXdXvXfXBXBXgXBXKXBXBXVXVXAXVXAXAXBXdXvXgXkXgXdXdX0X0XdXvX=X%XqXkX%X*XOXkX*XOX0X:X:X=X*X*X0X0X*X&X*X-X%XT.~.;X@X_.<XjXK.G.G.J.G.b.!.+X{.G.:.! N.N.Y P P I I S S G S k k k k N N b @ o ....+ 6 o.6 4   8 5 > =   i y : i i y 2.2.y u u y 2.2.u p p p 2.p u p 4.: u 4.5.6.q.6.6.6.q.t.6.5.6.6.6.5.<.1.4.3.: 3.3.2.2.2.2.i i < i < 9.0 * 1 3 ] n m J x.L.S.rXNX9X9XhXAXgXbXZXvXsXzX+XJ.G.N.l._ B.N.N.J.@X'.J.'.'.K.{.#X>X$X{.{.@X{.oXJ.'.#X,X{.G.Z.G.H.Z.E Y d.! I I I ",
"A I I R R l.R R R R R R R S S J L L L L K @.K H H H L H H L H @.@.H H K K K K J J J D D R R p.R R R R R R Q p.s.f.f.s.a.a.f.f.a.b.n.Y.A.n.n.Y.Y.Y.Y.Y.U.P.P.Y.Y.Y.-XY./.9X(.9X9X(.-XqX9X=X-X/.0X0XqXqX0XqXdXvXbX*X;XsX:X%X:XkXqXsXzXbX,X*X:X*XqXsX0X:X:XqXdXdXsXqX0X%XOX:XsX0X0XsXsXsXdXsX=X%XOXsXMXlXlXjX,XsX:X:X0X:XdX0X=XdXdXfX0XfXdX9XgXBXdXBXVXvXBXbXBXBXfXvXBXvXgXgXdXgX=XqXqX*X^.*XdX0X~.%X:XkXkXdXdX:X0XqX0X:X*X&X%X&X&XsX0X*X;XzX,XoX+XlXJ.K.oXJ.B.b.N.oXN.:.^ E M.M.P T I R R A S S z k k k g k m b @ X ] $ o 6 6 &     5 ; > ; : i : = u y : : : = = : : p 1.u u u u y : : y u = : u u 4.q.q.5.5.6.t.6.5.6.6.5.5.<.5.q.0.: <.2.2.i i i : i : 7., 9.- - w o.+.$.B G R p.f.%XqXeX(.eXgXfXdXbX0X;X*XK.B.G.N._ M.N.B.M.N.{.J.K.J.J.C.C.{.$X#X{.#X#X#X@XoX'.$X2X{.J.H.OXoXOXD.S.XXH.B.V.~ ",
"A T R ~ p.p.s.R f.~ R R R R R / J K L K K H L L H H H L L L H K H L L L G G J ) D R R p.p.p.p.p.p.R s.s.f.f.f.h.S.n.h.h.n.m.m.m.n.Y.^.Y.Y.Y.Y.Y.P.Y.Y.n.n.P.E.W.(.9XY.^.fX-X-X9X-X~.-X&X^.^.~.=XdXdXqX=X-X&X:XdX,X>XkXsX*XqXvX:XqXjXsX;X;X*X*XsXkXdXqX0XdX0X%X~.=X=XOXOX:XqX:X*X;XqXqX0XqXqX:X;XnXmXkXzXjX>XsX*XqXdXdXdX:X=XdX0XfX=X0XqX0XvXBXgXVXVXgXBXvXBXAXBXBXVXvXkXvXvXbX0XvXqX~.&XvXdX*X:XdXbXqXkXbXdX=X0X0X0X&XT.D.R./.%XOX&XoXOX;X@XG.K.jX@X_.+XH.M.N.b._.N.:.W W N.B.Y T P I I S S S z k N k g g m c . o $ + o + 4 & &   - f d > i i : i 2.2.u p u u u p p 0.0.4.4.4.0.4.5.0.q.t.p 0.0.1.q.6.4.5.5.6.q.1.1.5.5.5.5.1.1.q.4.= u i 7.< , i > 7.a 9.7.a > t e w +.%.B N S R l.%X9X9X6XwXBXbXbXZXbXkXqX+X+XoXK.N.N.G.B.B.G.;X@X'.{.{.{.{.}.>X#X@X{.#X+X@X#X{.$XjX@X<X*XsX:XR.L.L.R.B.l.N.l ",
"P B.oXXXB.Q Q f.f.f.Q Q p.R R ) ) J J J J K K K K K K L H H K K K K K u.k.) ) k.l.l.z.z.z.h.f.f.f.f.f.f.f.f.h.h.A.n.A.Y.).W.Y.Y.A.T.(.(.^.Y.Y.Y.n.E.Y.n.n.Y.(.(.Y.9XY.(.fXY.Y.-X-XR.&X9X9XdXdXdXvXvXdX0X=X=XkXmX>XsXkXkX>XkXbXqXlXvXqX:X;XOX;XdXsXdXsXdXvXdX*XOXdXvXkXkXmXVXvXkX:XdXqX;X:X:X;X*XlXzX*X;X,X>XsX*X%X:X0XdX:X0XvXsXqX=X*X=X0XbXVXvXbXZXBXAXBXBXBXgXfXbXkXgXbXVXVXdXVXvX0XbXLXvX=XVXvXmX%X*XvX:X*X:X*X0X:X~.R.OX&X~.R.OXoXoX;X;X+X;XzX,XoXoXB.B.<XJ.@XK.B.! M.K.G.Q P P I I A z S z k k N j c b c . n o o & + + 4 4   - d > = : y : u p u u y u p u 0.4.0.4.2.2.1.0.2.u 4.q.t.p 0.4.4.q.1.1.1.5.6.6.1.1.6.5.5.4.1.<.u u   : i 9., i a > a a , , > w.0 w.o.X...@ m G S l.R.&X(.6XhXAXAXZXLXVXvXkX>XjX<X+XJ.J.oXJ._.*X,XoXK.J.{.{.{.#XxX,X#X{.{.#X+X;X$X2XuX{.+X@X;X!.~.OX*X=XL.T.*XP ",
"T K.T.L.d.Q B.f.z.Y R f.p.Y p.l.R R k.) ) k.J J K K K K K K H K J J J J k.k.p.F p.s.f.f.f.s.s.s.f.s.h.s.h.n.i.a.h.n.R.^.(.n.A.Y.D.H./.9X-XT.T.(.T.T.(./.^.0XgXgX9X/./.-X/.A.Y.-X/.qX9XqXdX0XbXBXAXVXfX=XsXMXZXZXjXaXlXmXkXkXmXbXmXbXkX=XdXbXvXZXvXkXdXdXsX0X:X:XVXkX:XsX:X:XdXOX*X,X:X>XqX>X,XjXnXaXsXsXsX:X%X;X*XkXbXsX=X,XaXaX=XdXkXsX:XkXZXsXfXVXVXBXBXgXgXBXgXZXBXbXVXvXqXdXkXkX=XdXbXqX>XkXvX;XOXzXbX:X;X;X:X>XzX:X@XjXMX+XOX*XK.!.*XoXoX+X>X;XoX!.G.G.@XG.! B.M.^ ^ K.! W T I P A A z z z z z k g g g . . X % + O + 4 5 4 * 9 - ; = = y y u p 2.y u 4.2.1.4.1.p p u u 2.0.2.p p 4.q.u y u u 5.1.1.4.1.1.5.: <.5.6.5.u u 2.0.p : : 9.i = : i , a i < < > 8.- q q 7 [ } M m G k.S.A./.eXgXBXZXvXbXZXVXVXbXkX;X;XoXG.K.J.H.J.oXK.'.oXoX#X$X#X2X$X{.$X$X#X2X}.#X2X$X#X,X;X@XOXOXOXOXoXR.:X>XT ",
"A W T T Y Y d.E f.s.f.f.p.p.p.p.p.Y p.F F R J k.J J J J K K K x.k.k.k.D D R p.p.p.s.a.a.a.f.h.Z.f.s.S.n.U.U.a.n./.Y.Y.Y.Y.f.n.Y.^.%XqXdX&XT.T.9X(.9X9XY.D.qXbXvX0X9X9X9X-X&X-XdX0XvXqXdXqX(.-X9XqXdX0X%XOX=XjXzX+X>XSXKXsX*X:X:X=X=X0X=XqXvXkXbXvXdXdXdXdXqXqXsXZXbXdXkX0X0XkX*XsXMXMXsX,X;X*X,XKXzXkXsXqX;X*XqXbXZXZXMXsXzXMXMXmXKXKXKXKXLXIXmXvXZXVXbXBXBXNXBXvXVXBXVXZXBXvXvXvXvX0XkXbX:X,XsXsX;X*XkXmXkXjXqXjXkXlX>X+X,X,XJ.+X;XoX+X;X!.J.!.J.K.G.!.H.J.+XK.M.N.B.E ^ G.W P P P P l z z z j z z j g g g c @ n ] $ + 4 8 5 ; - 8 - > > : p p u u u u 1.4.p 1.u y u p p p 2.0.p y p 2.0.: : p u 4.4.4.6.5.1.<.5.6.q.4.1.u 1.0.9.p i i a a , , i < > , 8.e.a s w >.7 O 2  .$.@.G R Y s.h.n.W.rXvX0XkXVXVXVXZXbXsX:XoXJ.J.H.G.K.K.V.K.@X'.'.'.'.$X#X'.{.#X{.#X'.{.$X$X#X,X,X*X*XH.H.H.H.L.J.H.A ",
"! Q P Y Q d.d.E E f.z.f.s.f.f.p.p.p.z.z.z.z.k.u.u.k.u.u.k.J J k.J u.k.k.p.p.p.f.f.f.s.a.a.a.f.h.h.h.U.U.S.n.a.f./.A.Y.T.(.m.n.A.%X~.^.~./.^.(.9X(.9X9XT.R.sX0X%X/././.%X-X0XqXfXfXfX0XdXgX0XqXgX=X0X0X=XsXbXMXsXmXmXKXZXzX:X0XsX0X0XvXdX0XsX0X:XdX0X:X0XqX0X0X0XsXsXsXkX:X:XkX*X;XlXlX>X,X,X>XzXnX,X=X*X*X*X%XsXkXvXsX,X,XaXlXnXlXzXsXMXbXmXZXsXbXZXBXgXvXgXgXBXAXBXvXvXvXBXVXVXbXbXkXbXbXqXqXsX:XsX>XkXkXsXsX;XjXlXjX;X+X,X,XoX;X,X@X+X,XJ.K.J.+XoX_.@XK.G.K.! G.K.B.W W G.W P I I I S z z z j j j j g g c b b % % O   4 4 4 - - 8 ; f i y p u y y u u 1.2.u p 1.2.4.0.4.2.2.2.y : p 2.2.: = u u 4.4.6.6.6.t.6.4.q.6.<.: u 1.2.i = > > = < > ; a < s a 8.w.9 0 5 O.X.3 +.%.$.H G S Y s.h.f.U.eXbXvXvXbXbXbXvX:X0X*XoXOX+XJ.N.K.'.G.'.#X{.C.K.'.J.C.V.'.#X#X$X#X$XuXuX>XuXsX,X;X*X=X=X:X%XoXR.d.",
"F.B.Q s.M.b.d.E i.f.f.s.p.p.p.f.S.s.s.Y R z.p.k.k.k.k.k.k.k.k.k.u.k.x.x.z.f.f.z.s.f.f.f.f.f.f.f.i.i.f.n.a.h.h.A.9X/.^.Y.^.Y.(.9X0X&X~.%X-X-X9X9X9X-X0X-XdXbX:X*X0X-X&X9XqXgXgXgXVXvX0XqXdX0XqXvXvXvXbXvXZXLXKXnXKXnXkXsX:X=X:XsXqX:XvXkX:XdXkXdX0X=X*X:X0X:X=X=X~.*X0XdX*X*XsX%XoXsXzX,X,XjXlXlXzX:X>X;XqXvXbXVXbXlXsXsXsXzXMXmXjX;X+X,X:XsXbXaXsXvXbXgXgXgX9XgXLXvXbXZXZXKXVXdXmXVXvXbXnXjXkXkX:XkXkXkXsXsXjX*X>XsX*XoX<X>X,X;X>X>X@X@X;XoXJ.oX+XoXJ.J.G.N.J.! B.N.W P ^ N.l.Q T I I P z z z j j j j g g g c b % o O + 8 8 5 8 - ; ; f p : y y u u 1.1.5.4.p 2.u 1.2.p p 2.2.0.0.p p 0.0.p y 2.4.4.q.6.1.5.q.5.5.6.4.u u 2.0.0.9.> > = = > > > > - 8.0 0 8.9 w.w >.q 3 [ ] @ m N S R l.S.U.W.gXbXBXVXVXVXZXmXdXqXqXjXMXzX@XJ.+X$XK.K.{.'.C.K.{.C.K.K.#X2XuXiXxXiXcXcXxXjXjXqX:X0XdXqXdX0XOX%XOX",
"B.d.d.d.d.f.E Y f.f.s.p.p.Y R z.S.f.a.s.h.z.p.p.p.p.p.p.k.k.p.l.k.k.p.p.p.p.p.h.s.f.h.h.n.n.n.h.f.h.h.U.a.f.h.U.R./.(.U.Y.Y.(.&X=XqXdXfX-X^.^.(.(.^./.F.~.qXOX0XvX0X-XqXgXfXqXdXvXqX-X-X0X9X-XfX&X-XfX&X*XsX,X*XjXjXsX,X=XOX*XsXkXqXvXdX*X0XqXqX0X=X=XqXdX0X:X0X*XsXkXdXOX%XsX*X,XMXMXsX>XjX>X,XzXlXMXsXvXLXKXZXbXlXzXjXjXuXjXzXzX>X;XjXaXsXbXsXsXvXBXgXvXgX9XvXIXbXBXZXZXLXKXbXVXmXvXbXkXsXlXjX0XvXkXsXjXkXlX,XsX>X+X+X,XjX,X;X,X,X'.@X,X+XoX@XoXJ.K.J.N.N.J.M.M.N.W W ! J.G.N.T I I S z z z j g g g g g . @ % % + + 4 4 4 * - ; ; ; f y = : y u 1.5.u u 5.p p 1.4.2.u p 2.0.0.0.y y p y y y p 0.0.q.q.1.1.5.u 1.5.1.u 3.4.2.i a > ; * - 9 - 9 - * r - r e 5 5 5 7 1 O 1 # @ B N / I Y s.Z.W.qXqXbXBXbXVXVXvX0X*XqXzXzX+XB.B.oX,XC.M.C.C.V.C.C.K.'.'.{.$X$X{.}.1X2XuXuX>X>X>X:X*X=X-XqX=X^.=XqX",
"OX%X&XR.Y.A.d.f.a.f.Y Y f.p.f.R.h.f.A.Y.W.Q.h.p.j.p.i.F p.p.p.p.p.p.p.p.p.h.h.h.h.h.f.h.h.h.h.h.h.n.n.eXn.h.n.n.n.Y.(.Y.Y.Y.^.A.&X*X*X%X~././.(.Y.(.0Xb.A.=XT.*X-X/.^.-X9X&X-X9X&X(.-X-XdXgXqXgXfX0XgXfXdXmXjXjXlXlXsXsXkXkXkXbXvXkXbXsX*X*X%X%X0X=X:XdXkXqX0XdX0XkXvX0XOX=XbXsX:XvXlXsXsX>X,X;XzXlXlX;XqXmXvXqX*X>XsXjXjXzXMXMXjXjXjXnXzXzXbX:XkXvXbXfXgXBXqXBXIXvXbXbXbXLXZXbXVXmXvXvXjXsXvX:XqXkX:X,X>X>XsX*X>X;X,XjXlXlX>X;X<X;X'.+X2X+XoXT.@XoXoXoXN.B.N.~ *.N.U ~ W ! T P I P l l z z j j j g g g g . @ @ o + + + 4 *   * ; ; ; p y : y u u 1.1.u u 5.u u 2.4.u y u y y u p y p 4.u 2.2.0.4.4.4.4.u u 4.1.1.1.u y u u : = = *     - r * - r 5 5 5 q w 1     1 3 2 | %.%.@.m G S A P E f.A.&XdXdXdXvXvX0X*XkXmXmXzX+XJ.@XzX$XC.V.K.'.C.C.C.#X#X#X}.$X#XC.{.}.'.{.$X#X@X<X<X*X*X=XdX9X&XvXVX",
"VXbXbX9X/.%XA.n.s.f.E Y f.f.p.Q.h.a.h.f.h.h.v.z.h.h.j.i.z.U.h.p.p.z.Q.Q.Q.Q.Q.S.h.h.h.h.h.g.g.g.i.a.f.eXA.U.W.W.(.eX9XY.Y.^.9X9X0X&XR.R.&XfXfX9X9XgXVX%XqXZX0XdX-X&X&X-X9X-X9X0X9X9XfXqXgXvX9X9XvX=XdXdXmXKXlXzXlXzX*X;XzXvXdXkX=X0XsX=X=X0X*XqXsX0X0XdXsX=X:XdX%XqXsX:XOX:XbXqX+XqXjX>XqX>X>XsXmXkXsX*X>XkX:X<X,XlXmXmXmXKXLXLXnXmXSXKXKXKXLXnXbXvXbX=XdXBXqXBXVX0XVXZXZXKXkX0XKXVXbXbXlXvXmXqXkXjX;XqXkX>X,X*X>X;X2XMXzXuXuX,X+X;XoX+X,XoXK.J.K.J.oX@XN.B.K.M.K.@XB.N.M.M.~ T P A l l z k k j k g g g . . @ % $ 6 + 4 4 5 - - ; ; ; f y : u u p 1.5.u 1.4.p p 5.4.1.p 0.2.u p y : p 2.y 2.p 2.0.2.u u y y 1.1.3.1.u u 2.u : : =   * * 5 r - 5 5 w q O.O.o.O.q >.>.+.| [  .$.B m S S T R E s.n.%X0X0XdXmXVXbXnXkXnXlX;XoXoX<XjX$X'.C.'.{.'.K.C.=.V.V.=.K.C.( V.#XV.C.#X@X{.@X+X=X%X0XbXdX0XVXZX",
"VXvXgXR.Y.W.n.s.f.A.f.Y f.f.Y s.f.a.n.h.j.j.j.U.h.z.h.U.(.eX&XW.v.Q.Q.z.h.h.z.h.a.a.h.h.n.n.g.g.g.h.a.eXh.h.U.U.Y.W.(.R.(.(.9X9X~.%X&X&X&X-X%XR.-X~.&XT.gXKX9XgXfXgXgX0X-X-X-X&X9X9XfX9XqXvX9X9XqX/.fXfXkXMX*X>X+X>X,X;X:X*XOX0X0XqX0X~.%X=XOX0XvXdXdXdX0X&X=XdX!.:XsX0X%X:XkXOX;XkXzXjXqX,X,XzXSXaX;X+X,XsX*X;X:XMXmXjX>XjXcXMXlXMXnXKXZXLXLXSXmXkXvX=XkXVXqXvXLXbXZXbXvXmXkXVXKXZXmXVXmXZXKXkXmXkX>XbXKXnXnXlXlX,XzXMX,X<X>X,X+X,XoX@X+XG.N.J.J.{.oX{.B.! N.*.! B.P W ^ W ~ ~ P A l l z z z j N g g . . . @ $ 6 6 + & 4 5 4 ; ; ; ; : : : u u u y u y u p y u 2.5.u p 0.2.y p 0.y p y = p y u y : = y : : u u 1.u u 2.2.p : i > * - 9 5 5 8 w 5 w 5 7 q 7 o.7 >.+.+.+.# o v c H N S R l.l.D.&X:XqX0X0XvXvXqXzXjXnXzX+XoX+X+X@X#X'.C.C.C.C.C.=.=.=.V.=.{.{.=.}.#X*.*.#X#X{.@X;X>X*XdXZXvXgXAXAX",
"fXvXfX9X9X9XR.n.Y.f.A.i.Y f.Y f.i.Y i.i.i.h.h.U.j.h.j.j.h.j.i.P.h.i.j.h.j.h.h.i.f.n.n.n.Y.E.m.P.W.U.Y.eX).U.(.W.eX(.Y.(.^.n.W.9X^.&X-X%X~./.&X&XqXvX0X0X0XgX0XfX^.&X9X(.-X9X(.&X(.9XR.Y.fX(.~././.-XqXfX:X;X>XsXlXjXvXMXvXvXdXvXZXvX=XdXqX0X%X%XOX0X=X%XdX*X0XsXsXdXqX:XOX;XbX0X>XkX>X,X,X<X,X>XjXaX,X,X>XqX>X;XqXmXnXuX>XzXSXMXnXzXlXlXjXMXnXsX>XlXnX:XVXLX0XdXIXZXbXbXkXkXkXkXLXVXbXVXVXZXmXvXkXvXzXnXmXqXmX>XlXmXmXxX$X#X>X#X@X<X{.oXoXG.K.{.K.'.G.N.M.! N.V.! ~ ~ ^ ^ ~ ~ P P z z z z j j g g . g g X X % % 6 6   & 8 8 ; ; ; ; ; : y y y 2.1.1.4.1.4.4.: 2.1.5.1.p p y y p p y p p u p p 2.p y p 0.2.u 2.2.u u p i : = = d - * - 9 5 - 8 w w q w 1 7 o.O.7 | >.| | # # $.$.m N S / R d.l.S.T.OX%X0XqXkXMXkXqXzXmX2X;XlXlXzX{.C.V.V.V.C.C.*.C.C.C.C.C.=.*.V.*.V.'.C.C.V.K.N.J.oX:XdXqXgXvXgX",
"BXZXAXBXvXgXqXqX9XR.R.h.s.h.Y f.f.a.h.h.h.h.v.z.z.z.h.h.j.j.U.eXh.j.h.h.i.i.h.h.f.U.n.P.Y.P.g.g.P.h.U.(.W.Y.(.Y.Y.Y.n.U.Y.A.(.-XY.(.9X9X0XfXvXvXdXvX0X0X9XfX^.F.D./.9X&X(.(.(.9X(.qXR.Y.fX/.R./.-X9XdXvXvXkXqX,XlX>XqXzXVXZXkXkX0X=X%XdX0X=XR.R.*X:XOXT.0X*XdXvX=X=X*X=XOX!.*X*XJ.,XsX*X+X;X+X<X@X,XjXsX,X>XqXsXnXZXMXjXzXMXHXmXMXlXmXMX>XzXmXMXaXMXnX>XmXKXqXbXKXlXkXnXbXkXkXkXLXmXkXvXbXmXbXvXbXbXqXkXnX,XMXzXuXlXxXuX,X,XuX,X#X<X{.{.oXJ.@X;XN.N.J.B.*.N.B.N.K.V.*.~ ^ I P l l z z z z z j g g g b b . X % o + + & 4 w 9 - 8 > > p y p p y p 5.p 1.u 2.2.: 4.u 2.2.p 2.p : y 0.p p p p 2.p p 4.y y 2.u y 2.2.2.2.i i i = = d d - - 5 5 - 8 w 7 7 7 6 7 7 | 1 3 | o # # { $.B B N G G R T T s.Z.T.~.:XkXkXmXnXsXlXKXlXuXnXnXlX$X'.K.'.'.C.C.*.V.V.*.*.V.*.;.*._ *.C.*.V.M.N.M.B.K.%X*X=XqXvXbX",
"bXVXBXgXqX9X9X9X-XR./.n.a.n.f.A.Z.f.z.h.h.h.j.h.j.j.j.h.i.j.E.eXi.g.U.E.g.h.W.eXA.W.U.Y.Y.n.P.P.h.n.Y.6XY.n.E.Y.m.Y.W.(.eX9X9X(.Y./.9X-X&X0XqX%X%X0X~.^.~.qX(.T.9XqXgX9X9X9X(.hXeXBX(.W.BX0X-XfXfXfXgXgXdX:X*XOX>X;X*X%X0X=XH.~.:X*XOX0X*X*XOX*XvXbXdX0XbX=X&X~.%X%X~.:X:X~.*XkX@XjXmX,X;XlX>X,XzXlXMXjX,X>XlXmXmXnX,X,XaXzXcXzXzXjXlXzX>XlXmXnXlXmXmXzXmXZXkXKXIXVXMXmXmXVXLXLXIXLXKXKXKXZXbXvXmXmXqXqXnX+XjXlX;X,X;X>X,X>XxX,X$X2X#X+X#X{.#X,XG.G.#XV.N.+XG.K.*.U ^ ^ ^ ^ P V l l z z z j j g g . . % X X o o + + & 4 8 - * ; > f i y p p y p u y u y u y = p 0.0.4.4.0.p y : p : y y p 0.2.p p y y 2.u y 2.y 2.i i i d > ; d 8 *   4 4 4 4 4     O O 2 1 1   2 [ O # $ { $.@.N N G G ) R s.d.d.S.F.oX*XqXnXmX,XMXKXlX,XuX,X;X#X'.'.{.K.V.V.*.C.C.V.*.=.;.( *.~ ~ *.~ *.U _ ~ ! B.oXXXT.R.0XkX",
"0X0X9X-X9X&X/.-X9X9X9XY.h.a.f.Y.n.a.f.f.j.j.i.h.U.j.h.U.h.U.eXrXU.E.wXrX6X6XgXBXgXgXW.W.E.m.E.P.g.Y.6X6XU.n.).(.n.).9X9X9X9X(.Y.Y./.9X9X&X0XqXOX~.qX=X^.Y.-X-X/.fX-X(./.(.(.W.eXeXrXY.Y.vX9X(.fXfXgXgX9X~.T.oX*X;X<XOXoX:X:X~.0XvXqX&X:X%X%X~.*XqX0XOXR.qX%X*X%XOX=X%X0XkX*X:XbX>XzXmX;X,XmXjXlXKXmXMXjXsXzXnXnXmXlX,XjXMXMXnXnXMXjXlXnXnXKXLXSXmXmXmXlXmXmXlXKXKXjXqXmXmXMXnXmXIXLXKXLXLXLXVXbXVXVXlXlXVX;X>XnX;X,X;X2X,X$XuX#X#X>X;X,X$XoX#X#X'.J.#XG.V.{.V.B.C.~ ^ U U ^ P I l l z j j g g g g . . . X % % o + + & * 5 *   ; > ; > : : y y p 2.u p u p u : 2.2.2.y y p y = = p y p p p p p : y : y p y y p : : : = > > ; - f 8 * 4 w w 8 7 7 1 O 1 2 2 2 2 2 +.%.] ] # n B c m m L G ) ) d.l.S.H.R.*XsXkXnXnXlXKXLXmXzXxX>X>X#X{.#X{.C.V.V.*.*.V.*._ *._ ( *.~ ~ ! ^ ~ I W T ~ l.L.L.l.S.OX=X",
"&X=X0XqXvXgXfXgX9X9X9XY.n.n.Y.(.n.f.n.h.f.j.i.h.W.h.h.U.c.U.6XeX5XE.6XeXW.Y.(.-X9XeXn.U.E.P.E.P.g.Y.W.E.P.n.(.6XY.(.9X6XE.Y.n.A./.(.fXfX&X0XqX!.%XvXvXqX%XgX9X/.9X(.(.(.9X9X(.eX(.6Xn.Y.BX9X/.=XqXqX0X&X~.OX:XvXmXqX*X;XbXmX0XqXsX0X%X:X%XOXH.T.*X%XT.T.0X%X=X=X*XsX*X=X:XOX*XsX*X+X,X!.;XMX;X>XjXjXjXjXjXzXzXjXlXjX>XcXmXcXHXKXlXzXnXmXmXKXLXmXmXnXnXMXmXmXlXHXKXlXlXKXKXmXmXVXZXVXbXZXLXZXvXbXKXKXnXnXKXjXzXKX>XuXuXxXuX$X$X#X{.;X#X#X#X'.{.{.J.G.V.V.*.~ U ^ C.U ^ U ^ P V V l z z z g g g g g . . . X % $ & + & & 4 8 - - d ; ; : = : y y p u y y : = = = p : y : = y y : : p p p p y y y = y y : y = = y : : > = ; ; * - 9 8 4 8 w 7 6 7 X.| 2 | ] ] # .. .[ [ # # # B b c m m L G D D R Q B.H.oXdXlXsXzX>XnXKXLXmXnXmXzXlX$X$X$X#XK.'.'.V.*.*.*.*.V.V.V.V._ Q Q P T P T I I W _ _ Q B.T.XX",
"D.&X0XqXdXfXfXgXBXhX6X).(.wXNXBXU.A.R.Y.n.h.j.j.Q.j.j.U.P.h.h.P.P.g.m.P.g.b.Y.Y.(.T.n.W.6X).7XE.Y.E.P.n.g.g.P.U.n.n.(.W.U.n.n.Y.9X-XfXfX&X*X:XT.bXmXvXfX9XBXgX(.9XfXgX9X9XeX).eXeXeXW.eXAXgX-X-X9X-X&X%X*X0XkXzXmXqXqXsXkXdX%X^.*X%XR.&XOX=X%X=XvXvXqX0XbX*XOX~.=XdX=X*X*XOX*X*X>X*X;X+XsXlX+X+X,XuXjX>X,X,XjXzXjX>X>XxXxXuXxXmXaXzXmXmXzXMXnXzXnXnXMXnXFXFXmXHXKXMXlXmXnXnXmXKXZXVXbXVXLXmXkXmXKXVXnXlXHXlXnXKX>XuXxXcXuX#X$X#X;XuX#X@X{.K.J.K.V.V._ V.V.~ *.*.V.U P U U ^ C l l I C z g g g g g . . X X % $ o     4 8 d ; * 9 ; ; p > y p y u 2.2.2.2.p p i 9.p 2.p p p p : : : y y p y y p y p y y p p y i i 9.9.> > - * 8 d 4 1 4 4     1 6 2 O ] ] ] # ]  .# ] v n v B B B M M L G G D R T B.S.F.OX*X%X>X>XzXmXmXzXxXxX,X2X;X#X@X'.V.C.C.M.V.C.V.*.V.C.V.V.! T W P T A I I A l I P A T l.B.",
"Q D.R.R./.&X-X9XBXhX).Y.Y.E.).E.Y.T.(.Y.n.h.j.j.c.h.h.U.U.h.h.Y.E.m.P.Y.A.Y.-XfXBX9X9XwXwX7X6XI.).6XY.Y.U.P.W.(.n.U.(.W.U.Y.U.(.9X(.0XgX0XdXbXqXKXVXdX-X~.fX9XR.-X9X9X(.E.E.U.W.wX6XW.9XBX-X(./.-X(.~.~.&X=X*X*XjXOX:XsX*X;X=X*X%X%X^.%X~.=X:XdXvXkX*X~.0X~.=XdX=X:X*X*X%XOX:X*XsXsX>X>XlXlX;X@XlXzXjX,X;X,XjXzXlXzXaXxXzX,XxXmXjXlXmXmXzXxXmXcXmXmXnXmXmXmXHXFXMXlXmXKXHXmXmXnXvXbXbXZXLXZXbXLXKXmXmXnXmXMXnXmX,X2XuXcXuX#X$X$XuXzX#X{.'.C.J.C.V.V.V.V.G.C.G.K.{.V.*.*._ U P l l C C z g g g g . X . X o % +     & 4 8 9     ; ; > i : y p y u 2.4.0.0.0.0.9.p u 2.p y y = = = y y y y y = y : y y : p a p i a 9.9.; - 9 5 w w + + 6 1 O o 2 | # o ] ]  .] { } } %.%.$.c c c m M m L G S D R s.H.L.N.R.@XOXjXlXjXnXMXjXmXFXuXzXjX@X'.'.K.V.V.M.C.C.*.U ~ ~ U ^ W P Y P W P I z z l S A l A R R ",
"T l.S.S.OXqXfXfXhXhXeX6X).E.W.W.P.Y.(.P.g.g.g.h.h.h.g.g.h.j.U.NX7X5X7XwX).).9XfXgX(.(.(.).).I.P.E.6X6XeXeX9XAXLXBXNXBXeXW.6XeXhX9XR.-XdX&X*XdX=X=X=X*X*XR.0X9X/.gXfX9XT.(.9X9XwXwXE.U.^.9XY.^.^.R.~.~.~.!.!.oX@XmXoXOX*X~.*X*XR.%X=X*X0X~.~.T.!.T.OX~.OXdX*XsXbX=XOX!.*XoX!.*X!.@X;X+X*XjXjX,X@XjX>X;X;X>XjX>X;X,X,X+X>X>X$XcXHXuX>XzXzXuXMXHXnXmXFXmXnXMXMXmXnXnXlXMXMXzXlXnXnXZXLXLXLXIXKXbXKXLXVXLXKXKXmXmXlXuX2XuXcXuX$X2X,X#X,X{.J.'.J.{.J.G.V.{.B.*.C.~ *.V.U U U U U U l h z z x g g g . . X . % % 6 $ o + 4 4 w 8     - ; ; y = : y y u u u y : : p p = : p p u y : : y p p y p y = y y d : * ; : = : : ; =     8 4 8 +   O 2 6 + O 2 ..n @ n ] { n { n { { n n c B m B M m m G S S D R l.B.B.R.%X@X,X>X;XjXjXuXKXLXmXHXKX,X@X,X$X'.K.'.C.C.*.U _ _ ~ ~ T P ^ P ~ P I z S I I I A S R R ",
"A L.l.L.oX0XgX-X9XhX6X9XwXNXhXCXwX7XE.g.P.c.P.g.g.P.i.P.P.h.h.eXE.I.I.5X7X7X6XE.Y.(.6XE.E.eXI.P.P.6Xn.P.9XY.eXfX6X9X9XwXwXeX(.(.Y.H.%XvX~.qXbX&X&XqX0X~.%XqX9XY.gXvX(.A.(.qXW.eXE.(.g.(.9Xn.(.9X/.W.T.D.OXOX!.,XmX*X@XT.R.%XT.R.%X^.&XT.D.&X%X%X%X=X*X:XsX*XOXqX+XK.H.OXoX+X*XoXOXqX;X<X;X<X@XG.,X2X;X2X<X>XjX>X$XuX;XuXxXxXFXFX$XcXHXxXxXHXmXnXnXnXnXnXnXmXmXKXmXMXmXnXMXHXHXKXHXHXVXLXVXKXVXVXbXkXVXKXVXZXZXMXlXlXmXmX,X#X$X#X#X#X@XJ.C.K.C.V.V.V.V.*.U U _ ~ *.~ U ^ V V V l l z z j g g g X . . X . X o o o   + + w 8     8 d ; ; : y p u u 1.u : : y p : * y 2.p 2.p : a a p p : i y = y p a ; = i : > > > ; = *           2 6 2 O 2 # ] n @ @ n B b c c m c B M M c M M B M H H G G S R _ l.l.G.K.J.*X;XqX;XnXmXKXIXIXcXcXmX,X#X@X<XK.V.V.C.*.V *.K.=.*.;.*.~ ^ P P V P ( U I z z l z / z ",
"_ XXl.L.N.D.R.n.^.9X6X).(.wXeXwX6XI.I.I.5XI.I.c.c.P.g.U.U.g.h.wXI.m.I.5X6X7X7X7XwXwXwXE.P.7XE.E.eX6Xm.P.9XY.(.9XY.^.E.Y.).W.W.(./.&XdXZX0XfXdX^.%X0X0XR.D.R.&X&XfX9XY.n.^.qXY.Y.n.(.Y.(.9XY.9XfX/.-X=XkXmXjX>XMXmX,X=XoXOX=X/.W.%X/.~.T.R.&X~.~.~.OX~.OX=XOXR.*XoXH.oX+X!.oX<X<X>XjX<XoX<X*XqX,X>XjX,XzX>XjXzX,XuXcXxXcXFXcXcXcX2XmXKXmXmXHXnXlXzX,X>XnXKXKXnXMXmXnXKXKXHXLXKXFXmXmXmXLXmXVXBXVXbXbXKXLXVXbXmXmXLXmXnXzX#X#X,X$X#X@XJ.V.V.K.C.V.B.V.V.*._ *.M._ *.~ ^ P V l l l h j j x x g . X . . X . X o o o       4 4     f ; = ; : y u u u 3.1.1.2.4.0.p : p 0.p p y = p y = ; = : : = : > *   * i > a , > > > - * 4 4 + + + 2 + o $ @ n n @ @ b N m c m m c b m m m M M M H H H G G / ) R T W N.L.J.+X+X;X>XnXlXxXKXHXxXHXmX2X$X#X#XK.C.C.K.V.U =.[.C.=.*.C.*.U U U V l V l l l l z z / z ",
"l _ T N.S.S.D.A.^.hXeX(.).wXwXeX7XI.5XE.5XI.g.c.c.E.P.E.W.g.n.wXE.I.I.I.I.I.E.E.6X6X7XE.E.NXwXhXeX6XE.eXBX(.9XeX^.(.).^.(.(.(.9XvXgXvXZX9XqXvX-XvXvXdX=X0XkXBXBXfX-XY.T.9XBX9X^.P.9X(.(.E.n./.Y.R.%XT.:XsX!.*XzXsX<X+X!.~.0X&X^.&X&XD.D./.~.^.T.%XOX~.%X=X%X~.OX!._.oXOXoXoX;X;X;XqXOXOX;X:XqX;XnXnX2XlX>XuX2X#XuXcXxXcXmXxXcXcXxXHXKXcXcXmXuX2XjXuXMXLXLXSXnXmXmXnXHXmXMXHXFXmXKXmXHXLXVXbXvXBXKXLXLXKXZXbXvXmXlXsXzXMXzXzXuX#X<X@XJ.G.J.#X{.V.V.K.'.C.C.{.{.C.*.U P V V V l h h z z j x j g . . . X @ % % $ o + +   & *     8 ; * ; : : y y u 1.u 1.2.p : = * y p y = = = y y = ; ; > : ; > > > > > d > d > = 0 d 5 5 4 6 6 2 2 2 2 O ] $ n n @ @ c b b m m m j b m m m M B H H M m G G / S S I P ! B.G.oXJ.@X,XjX;X,XcXcXcXPXKXcXxX2XzX#X$X#X{.{.*.V.C.;.U Z U ^ P I *.*._ _ I I I / / / ` / ",
"l R P M.d.d.b.n.^.6X).).E.eX6X6X6XI.7XE.E.I.g.I.c.5XE.E.E.P.E.rXE.I.I.I.I.5X7X7X7X7X7XW.6XNX7XwXE.).wXNXCX6X9X9X^.6X6X(.6X(.(.eXgX=X-XfX~.&XvX0XkXqX=X*XqXbXbXvX-XT.Y.(.9XBX9XW.(.wX(.(.(.(.9XY.R.-XZ.T.OXG.;XsXoXoX!.H.H.%X/.Y.(.-Xn.Z./.D.D.T.^.^.~.%X%X~.R.T.*XoX!.OX*X,X:X;X@X*XoX<X:X*X<XoX+X+X{.;X@X,X2X$X2XiXuXuXuXuXxXcXcXFXFXzXuXxXuXzXMXcXHXLXKXmXnXmXZXmXmXlXzXmXFXmXmXnXnXKXvXvXkXkXVXZXvXbXZXmXbXZXlXjXlXlX2X2XuX;X@X@X{.J.@X,X#XV.G.{.{.C.C.'.K.V.~ U V V P I l l z C C j g g . . . . X @ % o o o       4 8 * ; f ; ; f p p p 2.4.u u 1.2.p : : = y p y = = = y : = > > > > ; f > > d > i ; 0 > ; s d 4 4 + 6 $ 2 2 | 2 $ ..$ n @ b c c b b m b b b b m m B B H H L N m N G S S l T P W Q M.G.G.!.,X;X@X>XKXPXHXPXKXmXxXzXcX2X$X#XC.C.*.=.C.;.U U ~ U P I _ ~ I I P I P I I z I l ",
"_ _ P Q Q Q E n.Y.n.m.P.P.E.E.E.I.I.wXE.I.E.E.wXwXAXNXeX6XE.E.eXI.P.I.E.6X7XwXwXwX7X6XE.W.NX6X7XP.).wXeXwX(.wXhX).eX9X(.(.(.(.9X9X/.%XqX0X-XdX&X~.%X%XR.~.&X&X/.~.Y./.9X(.gX6XY.(.9XW.^.(.(.9XY.R.qXT.R.=X*XsX;XoX+XOXT.D.R.^.Z.R./.b.n.R.Z.D.~.!.!.%X*X%X~.~.R.OXOXoXOX=X:X;X;X+X%XJ.oX*X<X;X;X+X;X+XuX;X,XuXuXuXzXuX2XuXuXuXcXxXxXxX2XuXxXlXmXMXxXlXMXmXmXlX>XlXzXnXlXzXmXmXxXMXMXlXnXkXVXbXkXKXLXbXbXKXmXmXKXKXKXKXmX,X#X#X{.{.oX{.K.{.+X'.*.V.{.C.~ U _ U ^ U U V V U U l l l z z j x . . . X . X . @ o o         4 8 * * 8     ; y y y y p 1.1.4.2.y p p y : p y = = : : = = ; ; ; ; ; > ; * 9 9 d > a > - s w * + + 6 + $ # $ # o n % b @ b c g c b b j k N N N N N B M L L L L G G G S I I P W ~ ! B.B.J.+X+X<XxXLXPXHXKXPXFXFXcXHXxX$X'.C.{.C.C.K.=.=.=.M.M.~ I ^ P l l P P l I P l I l ",
"A P P M.B.b.a.n.Y.n.a.Y.Y.(.).).E.5XNX5XI.E.6XNXI.wX6XI.E.P.E.6XP.P.I.5X5X6X).I.E.E.6X).6XNX7XwXW.eXwX6XwX9XwX9X(.eX(.^.).(.6X9X9X/.-XdXfX-XqX%X/.R.R.~.&X=X&X%X(.^.-X9X/.9X(.Y.Y.Y.Y.Y.n.n.Y.n.R.0XR.D.~.OXOXG.J.@XOXR.D.T.&XY.F.Y.b.n.D.A.H.%XT.T.%X*X~.!.~.T.D.~.oX!.!.!.oX*X@X+XR.%X:X;X>XzXxXcXxXHXzXuXuX2X>X2XuX2XxXxXuXxXzXuXzXuXuXxXuXcXuXlXnXMXnXmXnXzXlXzXnXzXxXKXHXmXmXnXMXmXkXmXbXkXLXIXVXVXKXvXbXKXKXKXLXKXzX>X2X,X<X;X@XG.K.oXJ.*.*.'.V.^ U *.U U P U P P ( U l l h h j j x . . . X . . % X o o   6 4   4 8     ; ; ; f d p y y p u y u y = : p = : y : : : y ; ; ; ; = ; ; ; > - > s 9 9 - 9 - * 9 8 + + $ 6 o o o @ o o n % n b c g g g j k k k k k N N N m m m M L G G S S S I P P Q _ _ M.M.K.J.J.<XcXKXHXHXPXLXKXKXHXPXcXuX{.#X$X{.C.C.=.=.*._ _ ~ T W ^ ^ ! *._ W _ W I U P ",
"A P T B.B.b.Y b.Y.n.m.).E.eXeX6X7X7X7XE.E.I.7XwXwXNX7XE.6XP.I.).P.I.5X7X7X7X7XE.E.6XwX7X7XNX6XeX6XwXNXwXAXNX9X9X(.(.W.Y.).6X6X(.9X^./.&X&XF./.R.&XF.A.-XdX0X&X=X^.Y.T.^.Y.(.Y.U.a.n.Y.Y.n.Y.-XT./.-XR.Z.T.~.H.Z.G.!.T.T.D.D.&X^.F.A.D.A.A.T.D.^.D.Z.D.T.F.D.H.G.D.OX~.H.H.H.H.OXT.OX@XqXzX,X,X>X#X$X;XxX>X>XuXuX$X$XuX2XxXcX2XuXxXuXzXuXzXuX,XzXuXMXmXmXnXnXmXmXKXZXKXmXmXLXLXKXMXzXzXVXzXkX0XqXZXKXkXmXZXMXKXLXKXmXmXnXjXlXKXKX>X>X+XK.K.@XJ.*.*.{.V.I *.K.V.*.P ~ ^ P ( I h l x x j j j j j g X b . % o o $ + 6 4   4 8   * f ; * > f : = : p : = = : = : p : a p p y y f ; ; > ; * ; > ; - ; ; 8 *     ; * * 8 5 1 o $ % @ o @ v % o n % ' b g g g j j k k N z k N N N m m N N L G G S S S I I I l.l.! Q W N.J.G.{.zXmXcXFXPXFXFXKXmXHXxXuX#X#X$X{.C.C.=.=.*._ l._ W W W ~ M.! ~ W ~ T P I l ",
"T T Y Q Y E Y A.a.a.n.Y.P.6X6XI.hX5XI.I.E.I.7XNX5X5XE.E.wXI.6XhXE.E.6X7X6X7X7X6X7XwXhX7XE.wX7XNX6XwXNXrXAXgX6XwXeXeX(.).9XhXeX).(./.(.-X-XA.^.R./.A.~.vXvXT.T.0XT.Z.n.A.Y.(.Y.W.n.Y.W.Y.n.(.(.n.F.Y.Y.F.~.*XH.H.T.OXT.T.Z.n./.Y.Y.A.R.Y.A.R.D.D.~.D.T.T.D.!.OXT.%X=X~.H.~.OXoX*XoX%XOX>XqX+X+X;X#X#X{.,X#X;XuXuXuX>XzX2XxXxX$X,XxXuXuXuXzXzX2XnXMXzXjXzXlXzXzXlXmXmXLXKXKXLXHXxXMXjXMXLXVXlXkXVXIXIXmXKXLXKXLXLXKXmXFXKXnXnXMX>X#X<XoXG.K.oXC.U V.{.*.V *.C._ I ^ ;.U V U C h h h x x x x . X . X . . X X o $ 6 6 &   4 8     ; ; * ; ; ; y p 0.p = : p : y a y y : : : > f ; ; f ;   ; - *       - * * - 5 * * w 7 6 o $ @ % @ n n n @ b . b j N j j z z z z z j z G G G N N L L L G G S S / I _ W M.! ^ P ^ B.+XK.J.>XcXxXcXHXcXFXKXFXHXcXcXiXcXcX$X'.C.*.;.U ~ _ ~ T ^ T W ! P P P W W P T P ",
"P T Y W d.b.n.n.a.a.n.Y.P.6XU.P.7XI.).).7X7XI.5XI.E.E.m.).I.E.CX7X7X7XwX6XI.E.7XE.6XhXwXwXhXNXAXwXNXCXCXBXBXwX(.).9XeXhX9XwX6XwX(.^.9XfX/.R.qX(.qXgX/.vXVXD.D.dX~.n.Y.(.^.(.(.n.a.P.(.n.n.(.^.m.n./.R.D.R.T.D.T.R.R.H.D.Z.A.F.Y.A.n.Y.^.A./.^.R.H.T.%X~.~.*X~.!.~.D.S.T.%X!.H.~.*XOX,X*XoXT.J.@X,X{.uXxXxXzX,X2X2XuXuX2XxXxX,XzXxXzXzXxXxXuXuXmXnXuXjXnXaXnXnXaXjXjXmXKXSXmXmXcXmXmXLXLXnXKXKXLXIXLXZXnXMXmXKXmXlXKXmXKXKXlX>XzX,X<X;X@X+X+XV.~ V.C.U V C.*.P U U _ I V I V x h x h x j j j j . X X X X X o o 6   &   8 * 4   8 ; ; d f > p y p y = p p : 9.: = = = = ; ; * * ; ;     4 4 4 4 4 8 d 8 * 4 4 7 1 o.| | $ # b b c ' n c @ g g g j ` j j j j z j z z S z k G G N G G G G S z S S I I P I W ^ W ! B.+XK.;XuXcXFXiXGXcXPXPXFXHXPXHXmXmXxX>X{.{.V.~ V._ l.~ W T P ^ P W E P T P P ^ P ",
"W T Q B.R.~.R.A.n.P.W.).m.E.P.m.E.).7X).7X7XI.7XwXE.E.5XNXwXE.5XI.E.E.6X7X5X7X7XE.6XwX6XW.W.W.wXW.7XeXeXwXhXwXeX6XwX9X9XeXeX(.(.W.n.Y.9X/.^.fXqXvXBX%XqXvXD.D.dX^.F.-XgX9X-X9XY.Y.Y.).n.a.R.Y.a.A./.Y.b.D.Y.S.D.T.T.D.F.A.A.Y.R.Y.E a.A.b.Y.D.T.F.D.H.d.b.R.T.H.S.D.T.R.^.D.D.~.OX!.OXT.K.oX+XjXzX#X$X>XuXuXuXxX2XuXzX2XxXzX<X2XxXxXuXuX2X,X2XmXMXuX2XMX,XlXlX,XnXlXlXzX>XuXxXxXFXmXKXKXzXnXlXMXVXMXvXbXnXmXmXmXlXKXmXmXSXzXzXnXzX,X,XoX'.'.B.U V.V.~ I {.=.V Z _ *.U C U C l j h z C ' ' b . X X X X X X o o +       4       8 f 8 f f > > : p = * a y : 9.a i > ; ; > ; ; ; 4 *     * 4 8 8 8 & 4 & & 4 7 7 6 X...$ o X . . . c c c b b g g j ` z z C l l l z S I S z S S k G z z G S S ) S I _ I I T P P ^ W N.*.V.{.2XiXuXxXxXPXLXHXLXPXHXcXcXcXuX#X{.K.*.C.M._ ~ W ^ W ^ ^ Q W ^ W P P W P ",
"Q ! B.Z.D.Z.n.n.(.(.eX6XP.6X6XE.7X7XE.m.P.5Xm.7X7XI.E.5XwX).I.I.7X7X5XE.I.E.5XE.5X7XwXW.I.U.W.NX6XwXwX6XwXwXwX9XBXAXAXgXhXwXwXeX(.n.R.gX9XE.-X-X0XfXR.&XdX~.&XvX&XY.(.9XT.Y.Y.n.W.W.(.Y.Y.9X(.n.Y.T.n.f.A.A.Z.S.D.A.A.A.A.F.Y.T.F.b.T.%XA.A.Z.T.b.D.T.b.Z.OXT.B.b.D.R.T.T.D.T.OX~.~.*X~.T.@X+X,XjX#X#X#X;X;X{.#X$X,X2X,XxXxX,XuXuXxXcXmXmXuX2XxXmXzXlXKXzXmXnXaXlXzXlXlXlXmXmXxXmXmXmXmXlXnX>X>XjX:XjXmXnXnXmXZXmXLXKXKXKXmXmXLXnXzXjX<XoX{.V.B.{.K._ U {.V.U *.U ( I C I C h h h j C ' b j . X X X X X % % $ 6 + 4 & 4 4   4 8 4 * ; ; ; ; > a p : a > = i < ; > > > - ; ; 4 4 & 4 4 + 4 4     + +   + 1 1 1 + $ $ o X X c b b g g g g g g z C _ C I I C l l S A S A A S S S G G S G S I ) ) ) _ U W ~ T ^ W ~ N.*.~ V.{.#XuXiXiXHXPXPXPXIXLXcXFXHXxXxX$X$XK.#X_ U _ U W *.^ W M.:.! *.~ ~ N.N.",
"W W d.b.b.b.D./.&XY.W.Y.n.7X6XE.hX6XP.P.g.6XI.6X5XI.7X7X6XI.E.6XNXNXwX7X7X7X7X5XE.7XrX6XW.eXhXAX6XwXrXeXNXNXNXhX9XBXBX(.(.E.eXeX9X(.gXAXgX^./.R.Y./.A.T.=X~.~.9X-XD.Y.^.Y.A.Y.n.a.g.U.n.n.R.Y.f.n.A.n.n.Y.Y.n.Z.Y.A.Z.A.A.Y.Y.A.f.n.~.~.f.A.Z.b.B.D.OXT.~.=XT.Z.Z.Z.Z.A.T.H.T.*XZ.K.oXT.K.J.G.J.+XJ.{.#X2XuX$X;X2X2X2X$XxXcX2XzXxXcXxXxXxXzXxXFXlXuXlXKXzXnXlX,XjXlXnXmXKXLXKXcXFXHXmXmXMXmX>XsXmXjXjXlX>X;XjXnXmXKXZXZXZXmXmXKXlXzXlX2X;X+XK.G.#XK._ U {.=.;.V.Z C V V l l h x x h j j X X . X X X X % % % $ 6 6 6 4 4 8 & 4 8 *   * * * * = > ; * ; ; ; d ; ; ; - ; ; ; 4 4 & & 8 4 + 6 4     6 6 + 6 2 O + O ] n @ @ c c g g g g g g j j z / ( C I I V C l I A P A A S S S S / S I S I ) I I I I U _ ~ W ! *.G.K.B.'.}.{.1X2XuXHXKXHXPXIXPXmXJXPXxXHXiXuX{.#XK.B.J.V.G.{.! *.N.M.W W P V ! *.",
"G.b.! b.D.T.^./.R.U.Y.Y.m.).E.I.).E.).wXI.wXhXwXwX5XwX5XE.7XNXNXCXCXNXNXNX7X7XE.E.wXNX7X7XNXhXhX6XeXeX).NXgXwX6XeXgXgXW.(.eXNXNXE.(.9XgX(.Y.^.T.&X9XR.R.-X~.D.D.A.b.A./.^.Y.Y.n.m.n.Y.n.a.n.n.n.n.n.A.F.Y.A.n.Z.Y.A.n.A.Y.Y.n.b.n.f.b.b.a.R.D.Z.Z.Z.D.Z.D.!.H.H.F.Z.n.Y.R.b.Z.OXH.!.*XoX!.=X*X,X,X;X;X$XzXcXuXxXcXxXuX,XxXcX$X$XcXxXuX2XuXuXuXMXzX,XjXmXaXzXzX>XnXMXlXlXMXHXHXxXmXmXmXnXlXMX;X>XmXzXjXzXsX>XnXLXmXmXZXZXVXmXMXmXlXjXlXjX,X+XK.K.C.*.U U C.( U ( C V V V l h h h h j j j X X . . X X % % X o o $ o   &   4   4 4     4 *   * * ; *   = ; > > ; > ; ; ; * * 4 4 & 4 6 +   + + O $ ..$ $ ..$ o 2 $ ..] n b c g g g g g k N / z l h ( V I P l l l I I T I A I S A S S S / I I R l l A l U _ T P U ! M.C.V.{.{.`.}.}.2XxXcXcXHXPXPXHXLXIXxXHXxXuX{.{.#XK.@XC.C.J.W :._.C.*.*.W U K.{.",
"G.Z.Z.D.T.H.A.A.n.Y.).6XU.E.I.E.eXI.E.7XI.7XwX5X7X5XwXE.5XwXCXCXCXNX7X7X7XI.E.E.wXNXNXE.E.6X).E.U.E.E.P.hXwXeX(.9XwX6XY.6XwXwXeX6X9X9X9X(.(.fXqX9X9X/.R.%X~.D.F.b.A.^./.A.b.h.m.a.n.Y.n.a.n.n.f.a.a.n.n.f.a.f.n.A.n.f.f.n.A.b.a.A.a.f.D.b.T.A.D.b.Q b.b.B.F.Z.D.D.D.R.%XT.s.s.^.d.F.oXH.H.OXoXoX,X2XjX,XjX2X{.#X$X,X2X2XcXFX2X$XcXxXzXuXxXuX,X2XMXuXzXmX>XzXMXlXmXlXlXzXzXcXcX2XxXuXzXcXaXuX*XsXmXzXzXlXjXlXZXLXjXzXmXZXVXVXnXmXKXnXmXMXjX;X'.#XK.*.U U =.U U ;.C V V V h l j h h z j j j . . X X X % X X o o + o o     &   4 4   & 8 4 ; 8 - 9 ; ; f f ; * * - - - ; * 4 4 4 + + 6 + o + O o o $ o o $ o o ] ] ..] v c c g g b j j z z I z l h ( l I V l V l V P T P P T I I R R S I A I ) W ~ _ _ M.V._ U ~ ! ! *.~ *.*.=.{.$XuXuXcXcXcXKXPXHXPXIXcXKXHXxX>X;X#XK.K.*.*.B.W ~ @XJ.C.K.V.V.#X2X",
"b.b.b.F.H.D.D.R.f.Y.Y.).Y.P.g.E.NX).g.P.P.E.E.m.E.5XNXwXwXNXNXhXwXhX6X5X5X5X7X7XNXNXrXE.W.6XW.W.P.E.6XE.AXCXNXgXwXNXrXwXwXNXwXeXeX9X).W.W./.-X^.Y.Y.F.A.^.^.F.F.^.(.&XT.n.a.n.n.n.Y.9X).n.Y.Y.n.a.a.f.n.f.a.f.n.S.h.f.f.b.b.a.a.f.E n.R.b.n.d.b.d.b.H.D.F.D.B.Z.A.A.Y.~.Y.s.d.^.Z.!.;X~.J.OX!.J.K.<X,X<X>X,X'.#X{.$X2X,XxXGXuXiXHXmXuX,X,X,XuXcXzX>XjXSXaXzXlXzXzXjXzXnXnXmXcXuXcXuXxXHXjXzXaXnXKXMXjX>X+X+X;X*X+X+XMXnXlXMXMXVXLXmXmXmXMXjX;X2X#XC.*.U =.;.;.*.V h l C h h l h h h j h . . . X X X X % % o % + & + o   +   + 6 4 4 8 8 5 8 ; > ; > f > ; ; ; 9 8 - 4 * 4 4 & & o o % $ 6 $ $ $ % o o $ o o n # ..{ n b g . g g N k k j z l l l I l V V V P l l A P P P T T R ) R S I A I _ l.L.V.M.B.V.M.! *.M.M.~ ~ U _ C.'.#X$XuXxXxXxXHXPXHXKXIXHXPXPXmXcXxX;X#X{.J.K.C.V.N.{.C.B.V.*.U V.'.",
"<XF.b.Z.T.~.^.~.Y.R.Y.Y.Y.P.i.E.wX6Xn.P.).E.I.E.rX8X5XP.E.5X7X7XE.7X7X7X5X8X7X5X7XeXhXhXNXNXwXwXwXCXAXgXLXCXgXeXeXBXCXAXCXCXNXNXCXNXeXwXgXgX9XY.(.^.^.^.-X&XD.D.D.Y.Y.n.n.A.Y.Y.Y.^.9XA.a.n.n.a.f.a.n.Y.A.n.A.Y.U.U.A.Z.n.f.n.n.b.b.n.Z.f.^.D.d.Z.T.*XR.H.R.D.S.n.n.f.b.Z.b.Z.^.%X=X:XJ.G.@X+X+X*XzXzX+X;X,X@X2XuXcXcXuXiXxXuXxXuXuXuX,X>X,X,XzXjX>XMXLXMXlXzX>XzX0XsXMXnXmXnXxXLXcXmXLXnXMXlXmXnXjX>X,X*X,XqX,X>X>XZXmXzXlXlXZXmXlXMXnXMXjX,XuX{.C.*.U C.*.( U V h l V h h z x h x x . . . . X % X X % % % o o o o o o + o + 6 &     4 8 8 8 d 8 f 8 ; - d f 9 8 4 & & & + &   6 o o o o o % % ] @ % n @ o n @ @ @ @ b g g j N j j z z z l l V I l V C I I I P P ^ P P P P A I A I _ _ _ _ R W _ I P W W W ! ! V._ C.C.{.}.C.C.[.}.uXuX$XiXHXcXcXPXHXPXIXcXmXcXuXuX>X$X#XK.C.B.K.V.N.{.J.G.#X,X",
"G.+XJ.!.OX~.OXT.A.R.9X9X(.(.(.W.BX9XA.(.9XP.).7XhX7XI.I.5X7X7XE.E.5X).E.7XNXNX6X7XNXCX9X).wXwXeXW.hXBX9XfXAX).E.6XNXBXhX7X7XhXwXNX9XhXgXgX9X(.(.-X9X(.(.(.^.T.n.Y.Y.n.n.n.Y.n.a.f.a.n.a.i.f.f.a.n.n.n.n.n.n.A.Y.n.n.f.a.a.T.n.n.A.T.F.b.n.D.n.E A.n.E E f.f.s.n.a.a.n.b.D.Z.^.%XOX;X@XN.K.@X@XJ.<X+X<X+X#X,X,X{.#X2X$X#X2XiXuXuX$X2X>XuXuXuXmXmXMXxXmXmXzXlXnXqXvXsXdXbXkXvXqXMXnXlXmXmXzXlXlXnXkXdXsX*X*XqX*X<X,XsXzXlXlXnXmXKXVXlXMXmXzXcX>X#X{.'.K.C.V.C.V.U l h h h h h h j h j j j . . . j b X X % % X o $ o o o o o o + +     4 4 4 4 4 8 4   ; 4 - 9 w 8 4 + + + + & o o $ % % $ % % % @ . . @ @ v # # @ v c n c / z C l z I I z l l C I C l I I I I l l ~ P P T T T P P A P R _ _ _ ~ T W W ! ^ ! ! P _ *.V.*.*.C.V.=.C.C.$XyX$X1XiXHXPXPXPXJXPXJXFXKXKXxX>X#X{.{.{.K.G.oXoXL.K.G.M.L.N.",
"G.!.F.J.!.T.~.H.^.~.-XfXgX9X(./.LXgXn.Y.eXP.6X7X6X7X7XwXNXNXwX7X7X7X7X7XwX7X7X).wXgXBX9XeXhXrXwXY.gXgXgXBXBX).E.9XwXeX6X6XwXhX6XwXfX9XfX9X6X(.(.(.(.Y.Y.E.A.n.n.n.A.A.n.n.n.n.a.a.a.n.n.f.Z.f.s.n.f.f.f.f.f.f.Z.E f.Z.n.b.D.f.E a.b.b.b.Z.A.f.Y n.b.f.b.A.n.f.b.b.a.n.n.D.Z.H.T.H.OXT.N.J.+X@XJ.J.G.{.;X;X<X,X2XuXcXxXuXxXxXuXuX,XzXuXzXzXuXnXMXlXuXzXzXaXlXnXjXmXvXdXbXdXvXqXbXbXkXmXnXzXzXjXlXkXqXqX*X*X:X<X*X,X+X+X,XaXjXaXsXmXjXzXmXjXxXuXxX$X#X{.C._ ~ U I ( ( _ =._ / j . j j j j . . . b . X X . @ X X o o o o o o o o o   + 4 4 4 4 4 4   * s d 9 s w 1 4 + + + + + $ % % o @ % @ @ @ . . . . @ c c v # v v b g C l V l h l z l l l P I C l C l l I V I *.W P ^ T T P T P P T T I T T W T E W ^ ~ _ W *._ *._ ( *.*.=.C.=.}.}.}.|.yXcXJXPXIXPXIXIXPXIXPXxXuX>X,X,X;XoXN.G.G.M.F.G.B.K.G.",
"J.!.H.!.OX~.%XOX~.^.^.-X9X/.Y.(.LXfXF.(.gX6XwXhXI.5XE.E.7X7X7XNXNXhXNXCXCXwXwXNXAXAXLXCXBXAXAXNXY.gXgXgXCXwXeX(.9X(.).E.E.7XwXE.wXBXhX9X6X(.hX(.^.(.Y.Y.(.n.m.n.a.n.n.n.n.b.b.b.a.f.A.Z.f.h.s.E S.f.Q s.s.Q Q f.Y s.S.f.f.f.d.d.E s.a.s.b.b.a.E n.Z.n.n.Z.b.a.f.f.a.f.f.S.b.Z.B.S.T.J.G.oX;X+XJ.J._.<XuX$X@X#X2X2XxXxXxXcXcXiXuX,XzX2X2X,X,XuX>XlXzXzXlXnXmXnXjXdX9X*X0X=XdX*X:X>X*XjXkXsXzXzXvX;X*X:X%XOX%X!.!.sX,X>XjXzXjXzXmXmXsXzXKXMXcXxXHXmXxX,X{.V.M.*.( V C C / ( ( Z C j j j . . . . . X . . % @ @ o X X o o o o o o & + &   & 8 o.8     8 >.8 4 w 8 + + + + + + $ $ $ % o @ % @ @ @ . . . . . c c v c v c c g z l l l l l C C I I ( ( I I ( U I I V I B.~ P P T P P Y Q Q Q W T T Q l.! ! l.! B.N.V.K.V.V.V.=.*.C.{.'.}.$X}.`.}.yXGXJXJXPXPXIXIXPXPXKXcXHXKXFXzX>X;X@XJ.R.G.J.J.G.J.H.",
"J.G.H.@XOXoX%X%XD./.%X9X9XY.A.-XAX9XU.(.CXwXwXwXE.6XE.E.7X5XI.wXhX7X7XNXNXwXNXAXBXBXAXBXgXBXrX6X(.hXNXeXwX6X6X).9X6XwXeX7XNXNX7XgXCXwXwX9X6XgX6X^.9X^.^.9XA.a.n.a.b.n.A.n.a.f.n.f.f.A.f.E s.E E S.s.Y Y Q Y E f.s.s.S.Y E E f.B.Q E E E d.s.a.f.b.Z.b.f.b.f.f.n.A.b.b.f.D.F.T.T.Z.H.H.G.@X,X+XJ.@X,XxXuX#X#X$X#X#X$XuXuXiXiXuXuX$XuX,X,X,X,XzXuXzXzX2X>XlXlX>X,XsX=X*XqXqXvX;X;XbXkXnXbXzXkX>XqX*X%X=X&X%X%XH.K.;X+X+X;X,X;XaXnXlXjXnXLXKXKXmXKXmXuX$X{.'.'.G._ I C h h h h h h h j j . . . . . X % % % % % @ X X X o o o o $ $ + &   + 6 8 4     4 w     * *   + + + $ $ % % o % o @ % @ @ b g g g . . c c v v c c g g z l l l P P l l I U _ _ *.*.C.V.V.V._ *.M.Q T T T P Y Y d.d.d.l.l.! _ M.M.M.B.M.V.K.C.C.V.V.C.=._ C.}.'.}.|.[.-.[.|.pXcXcXJXJXPXPXHXKXHXHXPXPXmXjX,X;X+XJ.T.T.T.H.G.G.G.",
"oXH.oX*XOXoXOXOXY.0XqXgXvX9X(.9XLXeXU.E.rX).E.E.7XwX5XE.wX6XI.6XwX6X5X5X5XE.E.6XE.(.vXgXwXNXNX6X6XeXNXE.).eX6XE.6X).wX7X7XNXhXwXgXgX).eXwX(.hX(.Y.9X).).(.n.a.a.A.A.A.A.n.a.s.f.i.E f.s.Y s.s.f.l.R T R R R R d.Q Q L.R p.R R Y Q Q Y E f.Q E d.E d.s.s.s.f.b.A.A.f.f.f.Y.D.T.T.Z.H.D.Z.R.+XoXH.oX<XaX;X{.@X$X$X$X$XuXuXuX$X$X$X#XuXuXzXxXxXmXMXlXlX2X>XjXjX>XjXkX:X=XqXsXbX0XqXMXsXMXvXjX>X;X>XdX=X=X=X=X*XT.T.vX*XH.oX,XaXaXaXsXjXMXKXKXLXcXmXxX>X;X#X{.'.G.*.U U I V h h h h h x x . g . . . X . . X X % @ X X X o o o o % $ o + + +           1 7 +   1   O 2 + $ 2 $ o o X % X . @ . . g g j g g g c c c c c c j z z z l l l l l l V P I I _ U U U U *.*.V.M.! W W W Q T Q Q Y Y Q ! Q ~ ! ~ ! ! _ *.M.V.*.*.*.C.=.;.`.}.`.`. X[.[.}.$X1XyXiXGXJXJXPXPXIXIXIXLXKXmXnXnXqXoXK.T.OXoX_.J._.@X",
"@XJ.*X*XT.!.OXOX/.&X/.&XgXfX9X9XAXrX(.6XgX).E.I.7X7XI.I.7X7X6XwXwXwX7X6X6X7X6XE.P.).gXfX(.wXwXE.6X6XNX6X7XCXwX6X).E.E.I.E.7X).).hX6XY.6XwX(.9X(.(.9X(.(.(.n.b.n.W.Y.A.Z.n.a.E E s.Y l.f.E s.R R R R R l.l.l.R R R T l.R R R R Q Y Q Q Q f.Q Y Q E f.f.a.s.s.a.f.f.E s.s.A.n.n.d.f.Z.Z.b.F.T.H.G.J.K.{.#X{.J.#X2X,X$XuXiX2X$X$X$X;XxXxXxXxXxXMX>XjXjXlXnXMXlXzXkXsX&X~.=X*XqX*X0X;X*XkXvXqX>X>XkXvX0X=X=X*X*X!.OXmXsX@XoX*X,X,X;X;X,X,XlXmXKXzXxXcXxXxXjX#XJ.K.G.U U I P V V C C h x x j g g g . . . . X X . . X X X X o o o % % % o % + + + o   + + 6 1 1 6 1 2 2 o o % % o o X b . . b g g b j z k j g c c c c m N k z z z l l l P P P I I P V ^ V P V V ^ V P W W W W Q Q Q Q Q Y P Y W W ! M.W ! ! *.~ ! V.~ *.=.C.C.`.{.|.}.}.|.}.[.|.1XyXpXiXGXHXJXHXJXIXIXIXLXKXKXHXmXjX+X!.@X;X@X_.oX{.+X",
"oXH.;X@XZ.T.%X*X0X~.R./.9X9X9X9XBX9XeXrXBXeX6XwX7X6X7X7XNXNXwX7X6X7X7X7XNXCXCXhXNXCXLXCX6XwXrXE.6XwXCXNXhXCXNXwX6X6X6XI.5X7XP.E.eX(.).7X9X6X6X9XwX9X(.9X9Xn.n.Y.R.Y.Z.h.f.s.s.Y l.p.z.l.R R R R I R R R R ) R R T R Q T P R R l.P R Q T Q T Y T Q d.d.Q s.a.Y Y f.s.f.f.A.n.n.a.a.n.n.b.S.D.D.D.G.N.J.@X{.{.$XuX$X#X2XxXuX$XuXuXuXcXxXuX2X,X2X#X>X;XzXnXlXjXjX;XkX=X=XkXdXkX:XvXbXkXKXKXlXqX>XvXqX&X=X=X*X~.H.~.%XOXJ.F.N.G.G.G.@X@X+XjXMXmX,XzXmXxXzXuX+XoX'.J.V._ P V l l l h h h j j . . g b . . . . . . . X X X X X X o % $ % o o % ....$ o + + + o + 2 O $ $ o o % % X X X b g g b j j N z z j j j j b m m m N k z l P l V P I U U U U U ^ ~ U ~ ~ ~ ~ P ^ ^ Y Y Y Y Y E Y d.Q Q ! Q W M.G.! B.M.B.~ _ C.*.*.V.V.C.`.[. X}.|.|.[.-.`.}.1XpXpXcXcXcXGXHXPXKXKXKXKXKXmXlXjX>X<X+X,XoXK.{.K.{.",
";X+XzX,XT.:XvXbXdX&X0XBXBXqX9XqXgX(.6X(.wX6X7XCXNXhX7X6X7XeX7X6XwXwX6X5X7XwX7X).9XgXAXgXE.NXCXwXrXCXCXAXNXNXwX6XI.6X7XE.7X7Xm.).7X6XwX9XeX6XeXhXhX(.(.NX9Xm.a.Y.A.A.n.h.f.f.s.E S.R l.R F R ) ) R R R S F R R T T ~ l.d.A T P l.R ~ R P T T T s.T s.s.E s.f.s.s.f.i.s.i.n.a.f.a.E n.n.n.F.T.R.T.B.K.@XoX{.;XxXxX2X$XuXcXuX2XuXxXcXmXzX,X$X>XlXjXKXjXzXlX,XaXlXsXkX:XdXKXVXmXdXVXvXvXKXKXlX:X>XbX~.^.0XdX=XR.S.T.oX~.H.N.G.oX!.G.T.T.@XlXmXmX;XlXKXxX>X>X>X>X,X+XB.~ P P ^ ^ l h h h h x . . g b g . . . . . . X X X X X X X o % X @ % n $ % o o $ ....$ ] ..O o n @ @ n n @ . . b g g j g x k x z x k k k k k k k z j S l P l P P P P P P ^ ~ ~ ~ ^ ~ W ^ ! ~ B.^ E Y Y Y Y Q W Q ! b.M.! W :.G._ B.*.*.U ~ '.=.`.'.`.`.}.}. X|.}.|.}.[.[. X}.|.1XiXuXcXHXHXPXHXPXLXKXKXKXmXmXnXlXsXzX;X<X>X+X,X",
",XJ.<X,X%XqXdXqX0X&X~.=XqX&X-XvX/.9X9XeX6X6X6X7XE.7X7X).6XwXwXhXhXhXNX7XeXNXE.E.eXCXBXhXwXAXAXE.6XCX7XE.7XI.8X6X5XI.I.5X5X7Xm.E.7XP.E.m.E.6X6X9X9X(.(.gX(.m.Y.9XW.R.h.f.h.p.p.R R R ) R F R ) D ) R R R R R I T T T T P P R ~ l.R R R R R l.B.l.T Y E Q Q Q s.f.p.s.s.h.R.T.n.f.n.Y.Y.Y.R.Y.R.T.J.,XzXjXuXuXuXxX$X$XuXiX2X$X,X>XuX,X,X2XxXFXFXlXnXmXmXmXlXzXjXsXkXsXkXkXkXqX*XkXbXdXkXsX0XdXdXdX=XqX=X&X=X*XOX=XbX*X!.H.G.J._.B.N.J.oX;X,X;XaXuXzXlXlXzXzXzXjX,XJ.N.! W ~ ~ l h C h h j x . g . g . . . . . . X . X X X % % % . X @ % % % @ o o % $ % % n n # # . @ @ . . b b g . j j g z z z j x z G k x k k k k z z / I l P P V V ^ U U U U U P W W W W Q W ^ P d.Y P Q B.B.Y M.d.E W W ~ G.G.*.*.*.~ _ V.C.C.{.=.-.[.[.`. X}.}.|. X[.}.}.}.}.yXyX1XuXcXJXPXIXLXLXLXKXLXLXLXLXnXKXLXSXmXmXzXaX",
",XoX>XjX:XkXbXvX0X0X=XqXqX-XfXVXgXgXgXgX9X6X6XwX7XwX7X6XeXeX6X6X7X).).E.6XeX6X6XBXCXgXNXwXwXCX5XwXNX5X6XNX7X7X7XE.E.5X6X5X7Xg.I.5XP.E.).6XwX(.6X(.(.(.9X(.n.E.eX(./.Z.A.S.s.Y F R R ) ) S J ) J S S D D R R R T R R R T I R R l.R R R ) l.l.l.T Y T T Q E T E Q R p.R p.z.f.s.s.f.D.n.Y.R.Y.Y.T.T.+X;X;X,X,X1XuX$X$X$X$X#X#X>X>XuX2XuXjXzXcXlX,XuXjXzXlXzXjX>X,XqX*X;X;X:X;X=XbXmXqXdXqX:XqX:X:X0XgXqX*X*X&X%XsX%XT.H.F.N.!.oXN.M.J.@X;X,X;XzXzXHXKXmXzX,X<X@XT.H.!.J.B.W P V I C l z z x x j j . . . . . . . X . . . X . % . X @ @ @ @ @ @ @ o @ $ $ % v v # n . c c . g b N j x j x x j z l z l z z z z z z z S l l / U l V ^ P P P ^ U U ~ _ W *.M.~ E W W W ^ M.W E M.N.N.W Q Q W ! W W B.*.~ U *.*.*.=.'.{.`.=.-. X}. X X}. X|. X X}.}.}.}.$X$X$XyXcXcXGXHXKXLXLXmXnXMXmXKXqXmXKXlX,X;X<X<X",
"@XJ.,X>X<X:XqXdXkX=X%X0XvXbXbXVXfX9X9XwX9X6X6XwXwXwXE.P.(.6X6XgXeX(.I.).eX6X7XeXhX9X).6XE.E.6XI.wXNXE.wXCXNXrXCXE.E.7X7X7X7XI.6XrX6X6X7X).wX).6XY.E.).(.E.Y.9X9X(.Y.a.f.h.Y R p.R D D J G G J J S G G S S R R I I T T I I R R R I I R R R R R A R l.l.l.l.l.l.l.p.k.p.p.f.s.i.f.E f.a.n.A.n.A.A.H.H.K.K.@X#X#X$X{.}.$X2X1XuXuX,X2X2XuX2X,X2X>X+XjXzXzXzXjX>X,X*XlX*X@X@XOXoX@XMXmX:X0X0X=X0X:X*X=XdX9X&X*X/.!.%X!.!.!.H.H.+X*XH.G.<X;X;XoXJ.+X@X@X;X,X*XOX%X*X*X*X+XH.B.M.! P V C l C z x . j j X . g g . . . . . . . X . . . X c @ . X . @ . . @ b n c @ @ @ b . g g . . j j g x x x h z l l C l h l z S S S S / z l l.M.P I *.~ U ^ P U ~ W ~ ~ *.M.W E W Q W W B.Q W M.B.B.W d.B.B.N.M.B.K.V.V.;.C.K._ U V.C.-.=.-. X|.}. X X X.X|. X}.}.}.|.$X}.$XiXxXiXiXcXmXKXFXmXmXmXHXLXMXmXmXjX,XaXaX,X",
">X,XMXMXqXqXqXkXqX!.T.0XbXvXdXdX0X/.(.9X9X6X6XwX6XwXeXwXBXNXrXBXwX9X7XwXNXwX6X6X).eX6X).E.6XwXE.E.7XP.5XwX7X6XwXE.5X7XE.I.I.g.m.5XP.P.P.P.W.E.).(.6X(.9X9X9XgXgX9X(.n.n.n.Y Y l.z.R S J G G G G J J J S S R R A A I R F S D D D R A F F A I R I R T R R p.l.l.l.k.l.k.l.l.f.s.f.s.n.f.n.A.Z.A.D.D.G.B.N.{.{.}.$X}.$XiXiXiXxXxX,X2X,X>X,X#X;X>X,XjXjXzXlXlXlXjXsXmX>X,XqXkX>X:XKXvX*X:X0X=XqXqX0X0X9X~.R.&X/.D.F.T.T.H.F.F.J.H.B.B.oXoXoXJ.J.+X@X_.*XsXsXsXdXdXqXbXqX!.K.@X@XM.P I C C j x . x . . . g g g g . . X . . . . . g . g g . X . . . . @ b b c @ . . b g j j g j z z j C z l z S l h I l l z z S A A S I S I V.V.U ! V.~ ~ I V ! *.U W ! ~ W ^ Q M.d.W W M.~ W ! W ~ ^ ! M.*.*.*.B.{.C.*.~ C.{.( ;.{.[.-.-.-. X|.}.[.[.|..X|. X}.}.}.}.1X}.}.yXyX1XuXcXmXFXHXLXIXIXIXIXKXKXVXMXlXnXmXzX",
"nXnXKXKXmXnXkXMXsXOX0XVXbX0X0XdXvX9X9XgXgX9XeXhXeXhXhXgXBXgX9XgX9X9XNXwXwXwX).6X6XhXwX6X7XhXNX7XwXCXwXwXNXCXwXwX8X7X7X8X7X7XE.I.8XI.I.c.P.P.U.P.E.W.).9X9X(.9X9XU.P.n.Y.Y.s.f.S.XX) S J K G H G L K L G S G S S S S I S S S S S R A I R I R ) R F R T I R R R R R ) R R l.s.E s.s.b.f.n.A.f.Z.F.K.H.K.{.#X$X$XuXiXiXiXuX1XuXuX;XuX2XuX2X,X>XzXzXMXlXlXzXzXjX>X,X>X<X>XvXmXlXkXKXvXOX0XdX*XqXdXdXfXqX^.D.~.^.D.D.^.D.B.Z.K.F.B.b.M.G.G.K.K.J.+X+X*XjXMXvXkXdXdX0XqXqX*X!.@X'.B.U _ I V h x x j j j g g g g g . . . . j . . . g g . . g . . . . . b b c . g g g g x x x x j z C z / I C I I l l I l I I z l S S A l P I U U P U U P U P ^ V.V.! ~ _ ! W W d.B.l.Y P M.! ~ W ^ ~ ~ ! M.*.*._ *.K.C.=.=.{.{.;.C.$X X[.[.`. X.X.X X|.yXyX.X}.|.|.}.{.$X'.}.1X1X$XyXcXcXmXHXKXLXLXLXLXKXLXLXVXkXlXmXnX",
"nXlXmXnXMXlXqXkXkX;XvXLXZXvXvXbXvXqX9XgXgX9X9XhXhXhX9X9X(.(.-XfX9X6XwXI.I.6XE.6X9X6X).).6X6X6X5XNXAXhXwXAXAXNXhX7X7XwXwXCXNXNX7XNX7X5Xg.P.g.P.g.g.n.Y.(.Y.m.n.n.Y.Y.P.^.&XY.R.XXL.) S G L H H L L L L G G G G S S S S S S G G S S S R ) ) ) ) R ) ) R I R ) ) R D J D ) x.l.Q s.E n.b.Z.n.s.b.F.K.!.oX@X$X2X2XuX$X1X2X$X#X$X>X#XuX2XuXuX>X2XjX2XMXlXlXzXjX>X,X;X>X;XsXlXlX,XOXkXmX*XqXdX&X=XdXdX&X0X&X~./.R.D.T.!.D.B.F.!.T.G.H.G.G.B.N.N.B.G.N.H.oX*X%X%X&X=X-X&X=X&XT.T.J.B.~ *.U l h x h j x j g . . g g . . . j j g . . . . . g g g . . . . g g . . g g g g j h h x h j l h C C l I I I P I C ( _ P l P I A l T P V V V U U P _ U U C.C.~ ~ ! M.M.! W Q W T ^ V.*.~ ~ ~ B.V.B.V.V.C.=.=.K.C.=.C.}.[.*.`.}.`.}.}.[.[..X1X|.|.pXpX.X|..X1X}.`.1X}.1XiXyX1XpXiXcXmXmXmXnXlXnXKXKXZXKXKXbXVXKXmX",
"mXMXlXjXkXvXsXvXkX*XsXmXMXvXvXfX0X9X9XfX9X9X9XgXwX9XfXgXqXqXfX9X(.(.(.P.U.6X).6X9XE.Y.E.6XE.I.I.E.I.g.m.wX7XI.E.5X8X8X5X7X5X5XI.7XI.g.g.g.m.P.g.m.W.6X(.Y.n.^.).E.Y.m.n.Y.n.f.R l.J G J L L L L L L L H H G G J G G G G G G G S S A I ) R I R I R R R D D ) ) R J ) ) k.x.l.Q Q d.D.D.T.D.d.F.~.F.!.oXJ.#X$X$X$X{.}.$X2X$X$X,X;XuX,X,X,X,X,X,X$X;X,XjXzXzXzXzXzXnXlXnXnXzX,X%XkXZX*XqXdX%X*XdX=XY.&X&X/./.R.D.^.D.D.Z.Z.H.H.B.N.B.B.! B.B.! B.B.G.H.T.T.T.~./.~.0XqX&XoX*X,XoXN.V._ I l h h j x g g x . . x g g g j j x . . . . g g g g g . . g g g . . g j g g Z C C C C C C l l l l l I I I ( I I I V l P I I P W P V P U *.U U V.~ U V.V.U U W ! ! W W W Q T ~ K.M.~ _ B.K.C.M.M.*.C.-.;.C.C.U =.{.`.-.`.}.}.[.|. X[.1XyX|.|.pXpX.X|.1X1X|.|.uX1XiXGXyXyXpXiXcXFXFXmXnXlXmXLXLXmXVXKXVXLXLXmX",
"KXnXlX>XlXnXkXmXkXkXVXbX:XfXvX0X=X9XfXgX9X9XgXCXgX9X9XfX9XgXVXgXE.(.E.).eXwXwXeX6XE.Y.).wX7XE.I.).P.m.I.hXE.P.7X7X7X5XI.5XI.E.E.7X7XE.7X6XwX6XY.Y.wXhX6Xn.Y.gXBXE.E.P.).9X&XY.f.R R ) ) G G L L H L L @.K L N G G G G G G L L G / S D R D S D D D R / D ) k.x.) D ) ) ) l.R Y E E Z.Z.D.Z.E Z.R.F.T.J.G.{.$X$X{.1X$X$X$X#X#X>XuXcX2X$X$X<X;X,X;XuXjXlXlXzX>X,X;XjXjXzXjXqX>XqXVXKX%X:XqX~.&X0X&X(.&XY.A.T.R.^.=XH.OXT.F.H.F.b.d.B.l.! N.N.Q ! b.! B.K.T.^.%X%X~.&X0X%XR.%X,X+XJ.{.C.*.U l V C h x g g x x x j j g j j x x j j x j g x x g j j g j j g x j g g x h h h h C C V l U I P l l l l V I l l l P l P T P P P ^ ! *.V.~ U V.U P V.B.^ W ~ W W T Q B.M.! M.'.V.W ~ V.K.V.V.V.=.C.V.;.`.[.;.C.}.{.C.=.-.[.[..X}. XpXpX.X.X.XyX.X.X1XyX1X1XiX1XiXiX|.|.yX1XiXuXuXuXxXzXcXLXKXmXKXZXzXbXZXMX",
"LXKXmXmXKXVXbXmXsXvXKXVXfXbXbXfXfXbXVXBXfXfXqX9X(.(.9X9X&X(.0X(.(.eXeXeX9XhX9X9X^.E.P.eXBX).P.P.E.6XI.6XNX6X5XhX7X7X7X5XwX5X5XNXCXrX8XNXNXW.6XW.6XY.6XP.a.P.eXI.g.Y.E.eXgXY.n.Y.S.p.R R x.S J G L m L $.H m m H N N z S G G L G G S S S S S S S G G G J J ) ) R R R R R R R s.f.f.f.s.f.b.Q d.K.K.@XN.K.C.2XiX}.iXiXiXiXxXcXcXxX,X;X,XuX>X,X,X;XzXlXjXlX,XsX;X*XvX:X:XsXqXsXkXkX0X&X&X0XfXqXdXgXgX-X^.A.T.0X*X~.!.T.H.H.!.G.b.b.G.l.d.l.d.! d.Q Q Y E d.B.d.~.%X-X&X0X0XvX%X!.oX>X{.C.*.V I U h h x x x x g j j x j g . g j g j ' x x j j x x h x j j x x j j x h V h I l V V l l P l V l V _ V P M.P P T I l T l P P ~ _ ^ ^ U U *.U ^ *.K.! B.B.W ! ! ! M.W W *.V.*._ V.'.C.*.*.V.{.|.}.{.}.$X[.|.1X}.[.[.}. X|.|. X X1X1X.X|.yXyXyX.X.X1X|.}.}.}.yXiX$X|.1X$X$XuX2XuXuXuXKXKXIXLXKXKXKXmXKXIX",
"KXKXmXmXKXmXlXMXdXdXVXvXqXBXVXvXdXkXbXbXgXfXgXqX9X9X9XfX9X9XgXgX).eX6X6X9X9X9X(.-X/.n.W.eXU.U.E.eXE.P.7XwX5X6X7X7X5XE.E.wXwX7XNXhX8Xg.I.I.P.E.E.E.Y.6XE.g.g.E.P.P.Y.A.n.Y.a.n.Y.Y.z.f.R x.D J G m m m m m m m N N k z k G L L G G S S S S S S G G J J J J J / ) R R k.p.p.f.S.S.s.f.d.B.B.Q Q Z.N.@XJ.{.'.$XiX#X1X1X$X1X2XuXuXuX2X$X;X,X$X;X>XjXsXjXsXzX;XqX,X*XbX;X:XkX:X*X=X=X:X&X-XfXfXqXgXgX/.~.&X~.&XfX&X!.T.!.H.H.!.H.B.N.<XR.L.N.d.Q Q Q Y Y Q b.Z.b.~.%XT.T.~.-XkXaX<X+XaXK.V.*.P P I l h x j z z j x x j z z x j x x h z x x h h h h h z h h h j j z l V V Z U V V V l l P l I I I *.P U K.U ~ M.M._ G._ M.T W ~ ^ W ~ *.V.~ U *.G.^ ~ B.! B.B.M.M.~ ~ U _ _ ~ M.C.V._ ;.*.C.'.'.`.`. X[.|.|.}.[.[. X X.X|. X|.1X.X|..XyXyXyX.X.X1X1X|.1X1XpXiX1X$X$X$XuXuX$XiXmXmXKXHXPXLXLXLXLXLXLXIX",
"LXKXKXKXKXmXvXbXvXkXbXkXqXBXBXgXkXdXvXvXfX0X9X9XgXgXfXfX-X&XgXfXP.W.(.(.eX9X(.E.9X/.R.9X9X).6X6X6Xm.m.eX6XI.5X5XI.I.E.5X8XwXwXCXhXwX8XhXNXwXNXwXW.6X6XE.m.Y.(.).m.Y.Y.P.).n.E.(.Y.Z.z.l.l.R J G G N m m M B B m N N N N N L L L G S S S S S G G G J K J J G R R S F R R Y Y E s.s.d.Z.D.H.Z.Z.!._.;X>X#X#X1XcX2X2X1X$X1X1X$X$X,X,X;X>XjX>X,X2X2XsXaXsXlX;XsXsX,XmX:XsXmXsX%X:X0XdX=XfXdX0X-X0X9X~.~.&XR.R.%XT.T.D.H.H.H.!.G.N.G.J.S.B.B.d.d.d.d.P Y Q d.d.Q T.R.T./.~.%X:X:X_._.zXK.J.V.~ ~ T U ( C h x x x x z z z z x x x x h h . x h h h h l / z h z C l l l V V U I P V I V P ~ I _ U U *.P I V.V V P P P W ~ ~ P ^ ~ Q M.B.V.C.*.! B.J.! M.M.! N.N.N.B.W ^ *.V.V.*.V.C.C.V.C.C.C.'.'.`.`.[.[.}.}.[.[. X X X.X}. X.XyX.X|.yXyXpXyX1X1XyX1X1XyXpXiXuXyX1XyXiXiXuX2XxXmXxXcXcXHXHXmXnXmXKXKXLX",
"LXKXVXVXKXmXbXVXbXkXVXbXvXVXbXdXbXkXvXvXfX9X0X9X9XfX9X9X-X&XgXgXU.(.9X9X9X(.Y.Y.(.Y.Y.9X(.(.eXY.Y.a.P.eXE.g.I.I.P.I.5X7XE.wXrXNXwXhX7XhXNXhXNXNX7XhX6XE.P.(.P.a.i.m.Y.Y.(.Y.E.E.A.h.h.p.k.) D G / N N @.$.H M B N m N m m N m m G G G G G G G G G G G G G / R I R R ) R R R s.f.s.d.B.Z.Z.B.H.*X@X;XuX{.{.#XxXuX2X$X$X1X$X#X#X$X2X,X>X2X,X,X>X,XjXsXjXMX;XzXkXsXmX:XsXbX:X*X0X0XkX0XdXfX%X/.-X&X-X/.~.A.F.~.T.T.Z.F.D.D.K.Z.B.G.b.Q d.d.Q d.d.Q Y Y T T T P B.B.Z.%X^.%X*XaXOX,XzX_.<XJ.V.K._ l.U V l l j x x x z C z z z j h C l h j C l l C C ( l h z C h x l V V ( V V P U P U _ P I V V _ V V ~ l V P ^ P ~ U ! ^ ~ l.Q ~ ~ *.*.^ ^ ~ V.~ ! B.! B.N.M.M.:.*.J.'.K.V.K.'.'.`.{.`.`.{.{.[.`. X[.[. X[.[.}. X X}.|.|.1XpX.X.XpXyXyXyX1X1XyXyX1XyXpXiXuXiXuXuXcXxXuXuXcXxX>XuXxXPXLXKXmXmXKXLXLX",
"LXKXnXmXZXVXbXbXkXdXVXVXbXVXmXvXmXvXvXvXvXfXgXfX9XgXfXfX9X-XqXfX(.fXgXgX9X(.T.R.9XY.A.T.Y.Y.(.n.n.U.Y.W.E.g.h.c.P.g.c.I.c.6X5XE.I.6XE.7X7X8X7X7X7XwXE.I.I.).P.n.P.P.E.m.P.P.P.P.n.j.f.R R k.D J J G G ` @.M m M m m m m m m m m L L G G G G G G ` K G G / ) / S R ) l.l.l.l.l.z.E s.Q Q Q Q b.J.{.{.;XK.{.#XiX2X$X#X$X2XuX2XuXxXlX>X<X@X{.+X,X;XjXaX>XzX;XzXkXqXkX=X:X:XoXOX=X%X0X=X0X9X/./.0X0X(.R./.R.&XqX&X~.Z.D.H.H.D.B.B.D.H.S.b.d.Q Q Q Y T P P P Y P l.d.Q T.Z.S.!.:X!.<X>X+X>X{.K.+XV.M.U V h l z l h l h j h h C C l C U C U ( C Z ( ( ( l l U / V V ( U V ( V V V P V P I l V V V _ V U V.U _ _ *._ M.^ _ ~ _ B.l._ ~ C.*.~ ~ ~ B.^ W _ ^ W W ^ ~ ~ *.G.G.V.V.K.'.C.V.C.=.C.'. X[.[.[.`.[.[. X}.}.|. X X.X1X1XyXyX.XyXyXyX1X.X1XyX1X1XyXiXiXuXiXuX$XiXmXxXcXHXmXxXmXPXIXPXKXKXKXHXKXLX",
"LXKXVXKXLXKXbXnXvXkXVXVXvXbXbXnXVXvXvXvXgXfXfX9XfXBXgXfXqX-XqXgX/.9X9X-X&X/.^.(.-XY.n.Y.Y.E.(.Y.n.Y.h.n.Y.U.h.h.g.i.g.g.i.g.g.j.P.eX6X7XwX8X7X7X5XE.I.).E.P.A.eXE.I.E.m.P.P.E.E.P.h.f.i.p.z.R ) R ) ` G m M M m m m m m m m m m B N N N N N G L H G L G G / / S R R R R R R R p.Y Q Q Q d.Q b.G.N.C.@XK.{.$X2X$X$X$X1XuXuXuXuXcXzX>X$X#XoX+X,X;X>XsX;X,X;XjX,X,X:X*X*X*X*X0XsX:X0X0X9X-X&X&X9XfX/.Y.R.R.-XfX&X~.D.T.R.T.H.Z.B.D.R.S.d.E Y Q Q Y T P P P T T S.l.M.F.Q d.*XsXJ.H.,X,XjX@XoX;XK.B.V.U l l l l z I x h h l C l h l U C U U C Z U U ( U C ( ( C C ( ( V ( C V I V U I _ I U _ _ V.U _ V.~ *.~ ~ U U P ! W ! M.M.N.V.C.C.V.C.B.G.! ! W ^ M.B.B.B.! ~ *.M.*.V.'.K.=.*.`.C.'.}.}. X[.[.`.[.}.}.|.|.|.}. X1XyX.X.X.X.X.XpXyX1X1X1XyXyX1X$XyXuXiXiXuXyXuXuX$X>XuXuXuXuXcXKXmXnXKXLXKXKXLX",
"LXLXKXKXLXKXmXmXMXkXVXZXMXnXnXnXmXbXvXvXfXgX9X(.(.fX9X9X9X-XfXBXA.Y.Y.R./.^.Y.R.Y.n.n.T.R.Y.^.n.f.h.i.h.U.z.h.h.j.j.Q.c.j.i.g.h.W.eXP.I.8X5X7XwXI.8XhXNX7XP.m.P.m.g.E.P.P.P.I.E.c.j.h.z.U.eXz.p.l.x.) G m L B M c M B M m c m M M m m N N N N N N N L G G S S S ) ) R R R R R E s.d.d.M.Z.G.K.oXN.N.{.{.'.2X#X{.}.$X1X1X$X$X$X$X;X,X2X>X;X>XjX>XzXMX;X;XsXlX;X>X:X:X*X:XbXbXdXsXsXvXqX&X-X&X(.qX(.R.W.Y.R.(.R.R.D.R.R.T.D.Z.b.Z.Z.Q Y E Q B.B.Q Y Y T Y R P l.~ s.B.Q d.kXvX=X;X;X>X,X+X<X;XoXK.V.U I ( _ I l h l C I U U C V C C V C C V V C V ( C l V V l l C U V ;.( V U P *.*.V._ *.*.*.C._ U *.^ ~ ^ ~ _ *.*.V._ ~ ~ W ! _ *.*.*.V._ V.! M.N.M.J.oXoX_.N.*.B.M.M.V.'.C.=.V.{.[.}.$X|.}.[. X[.}.|.|.|.|.|.|.|.1X1X.X.X.X.XyXpXyXyXyXyXyXyXyX$X1XuXiXiXiXiXxXcXxXFXGXcXmXxXFXLXHXHXLXPXPXIXIX",
"LXKXVXVXZXbXvXbXjX>XmXKXmXVXmXmXbXvXvXvXvXbXgX-XgXBX9X/.R.A.R.-XY.R.R./.9X/.A.n.^.Y.Y.(.^.Y.Y.n.n.a.a.U.U.j.v.p.p.i.v.p.h.j.i.i.U.W.P.I.7X5X8X8XwXNXAXNX7X7XNXhXP.m.6XE.I.P.P.E.g.g.U.W.eXBXU.p.S.l.) ) G m m B m B B B c c c M M m m m m N N N m H H H G G / ) S D D R R R p.f.S.S.B.Z.F.K.J.+X<X<X>X>X#XcX2X$X$XuXiXuX2X2X,X,X#X;X>X,X+X>XnXmXnXKX>X>XMXmX,XjXsX>X*XsXZXkX~.%XsXbXfX&X0X-X^.0XW.W.-X(././.Y.R.Z.D.A.Z.Z.d.s.b.b.Q d.M.F.H.S.Y Y T Q T T A R A P Q Q Q ;XoXZ.H.*X;X+X+X,X<X+XoX'.M.U U U I l V x l I U C h h C C V V V l V V h ( C V V U U ( *.U V *.=.V U V V._ *.I U U _ C._ V.V.U U V ^ ~ ~ ~ V._ ~ ! ~ M.B.V.;.*.*.W B._ N.J.M.M.! ! *.:.*.C.V.M.V.V.*.*.C.V.-.C.[. X[.[. X}.|.|.|.|.}.|.|.1X.X.X.X1X.XyXUXpXpXyXyXpXyXyXyXyX1XiXcXiXiXcXxXiXcXPXKXFXmXcXHXLXKXHXmXSXHXKXKX",
"ZXKXLXKXLXLXmXKXKXLXLXIXKXnXnXnXmXsXdXvXqXqXgXgXvXvX9X9X&X~.&X%X/././.qXvX&Xn.Y.(.A.Y.^.n.n.Y.Y.s.i.s.f.p.p.p.p.p.p.z.v.F D x.p.h.eXj.i.I.c.I.8XwX7XwXNXNXwX7X7XE.E.NXwXP.E.E.P.c.g.P.h.j.z.h.h.l.p.R D J K N m m H m m m m c M @.@.B $.$.N H @.B H H ` G G S S / D D R R R R Y L.R.F.B.S.K.oXK.{._.;X{.{.2X1X$XiXiX2XGX2XuXcXuX,XmXMX;X,X2X>X>X,X*XjX>XzXjX!.sX*XOX!.=XkX:XOX:XvXqX&X-XqX~.R.qX/.eX(.Y./.(./.R.F.R.R.R.T.Z.b.Z.D.b.B.Z.M.H.Q P P Y ) R R R F I T P Y N.OXJ.G.!.;X;X;X;X;XoXK.oXJ.N.B._ _ _ I V V l U V h U I h h V U U U Z V Z *.U C U =.;._ =.=.U C.C.C I V.*.U _ U ~ *.*.( ( *.*.*.*.U ~ G.V.*.V.M.~ ! N.B.^ *.*.B.B.B._ ! N.*.~ ^ W M.N.M.U *.V.M.*.*.C.{.K.V.V.`.}.}.[.`.}.[.}.}.}. X}.|.|.|.|..X.X.X.XyXpXyXyXyXpXyX1XyXiXiXiXGXcXiXiXuXuXuXiXxXxXuXuXxXxXcXcXxXcXcXuXcXKX",
"LXKXKXZXKXKXmXZXLXKXKXLXLXmXnXbXbXsXkXbXdXqXfXfXfXfX-X-X*X/.0XbX9X(./.qXfX/.A.F.W.n.n.A.f.b.n.s.s.p.p.p.p.p.k.k.k.D k.k.J x.].].Q.XXh.j.h.g.P.c.wXI.I.wXNX7X5X8X).6XNXwX5X6X5X5Xg.c.E.h.i.h.i.i.s.i.p.F F S k G N ` N m g B B M B { v H H B H B B m @.H tXG / G R R R R R R R d.Q M.d.d.B.G.oXJ.G.N.{.{.#XxX2X#X1X2X#XuX#X$XuX,X,XlX2X@X+X<X+X+X@X*XlX,X;X>X+XMXsX:X=XsXkX:X=XsXvX0X&X&X&X^.(.gX/.(.(.(.(.^.Y.F.R.Y.R.R.T.D.T.T.T.b.Q Q Y M.E Q R T ~ T P R I R l.T A T B.B.S.!.%X*XOX+X<X@X+X>X;XJ.G.K.K._ P V l l U U V V V h U U U ^ U Z Z U C.;.U U *.;.U ;.( U -.C.U Z *._ _ *.V.*.U U U ;._ ~ U ~ ^ ~ C.C.~ ~ ~ ~ _ B.M.~ C.C.*._ B.J.J.N.B.B.B.G.!._.N.U U *.*.C.C.K.}.C.}.|.$X$X|.|.}.|.}.|.|.|.}.}.|.|.yXyX1XyX1X1XyXpX1X1XyXyXyXyXpXiXiXiXGXcXxXcXuXuXiXiXcXcXcXxXuXiXFXmXxXcXcXxXmXPX",
"LXZXKXKXKXKXmXKXKXzXlXKXKXlXqXlXzXqXkXbXvXfXgXgX9XqX/././.R.=XBX&XY.Y.-X(.n.f.h.W.n.n.n.f.A.A.s.f.s.p.l.k.k.k.k.J S S G G G ) ) k.k.p.z.p.U.eXU.I.c.5XNXNX8X5XwXCXCXAXNXwX6XE.5XP.E.5XP.g.E.E.U.h.s.z.z.L.].) S G G G N g m m M M M c c m B H m H m H H tXG G S S I R R R R l.L.Y Q Y ! M.B.K.K.J.K.#X#X$XxXuX$X2XuX1XiX$X2XuX2X$X,X$X#X<X$X<X,XlXnXZX,X+X,X*XzXsX:XsXMXvXsXsXsX0X*X*X=X/.~.&X0X&XeX(.-X(.Y.Y.(./.A.D.Y.b.b.D.b.F.b.d.b.Q d.Y Q T T R P A T A I T P A P Q d.d.Z.T.R.oXOX;X;XqXmXsX@XT.;X<XV.U U _ ^ _ U V V V U U ( I V Z U U U =.U V Z ;.( U ( U U -.C.( U _ *.V.U ( _ U U ( U U U ~ *.*.*.V.*._ ~ ! *.B.*._ *.{.*.! _ M.J.J.*.B.B.N._.@XK.M.! *.V.C.{.'.'.{.C.{.}.}.[.[.[. X[.}.|.|.|.|.|.1XyXyX1X.X1XyXpXpXpXyXyXpXpXpXpXiXGXiXiXcXxXxXcXiXiXiXxXcXHXHXcXcXmXPXHXHXHXHXmXLXIX",
"IXFXKXLXLXKXKXLXLXmXVXLXKXlXMXKXMXzXkXvXbXvXvXgX-XqX^.Y./.^.*XgX&XY.R.9X(.n.n.U.Y.Z.n.n.n.A.A.f.f.p.k.l.k.) k.J x.K K K K H L L z S J k.D R Q.p.U.W.wXrX7XE.E.7XNXhXNXNX7X6X7XwX7XwX6XI.E.6XU.g.Y.U.R.XX0XqXL.) _ I / tXG k m M M M M M m m B B @.B m H H G S S S I R R R R l.L.Q Q Y b.M.b.G.K.N.K.@X{.'.}.#X{.#X1X$X2X$X1X$X$X,X,X>XjXzXjXzXnXlXjXsX+X+XjXqXkXsX:XsXkXsXsXdX:X%X%X=X-XR.~.-X-X(.(./.Y.A.n.Y.9X^.n.R.~.b.b.F.E Z.Z.b.D.B.b.P Y Y P T Y Y T A P l P P I Q s.Q Q Q B.L.R.oXoXOX,X<XJ.J.+X+XG.B.G.B.U ~ P V V ^ ;.^ U I V U ;.~ U ;.U V Z ;.( U U U ;.=.=.;.U *.C.V.U U *.U ( *.( _ *.*.V.V.*.*.U *.*.B.V.V.B.M.*.{.*.V.'.G.V.G.B.M.W ~ B.N.M.*.V.V.C.C.{.'.C.{.'.{.[.[.[.[.}.}.}.}.|.|.|.|..XyXyX.X.X.X1XpXpXpXUXpXpXiXpXpXpXiXiXyXyXiXuXuXxXuXuXxXxXFXHXHXcXcXHXcXxXxXxXcXcXHXIX",
"IXFXKXLXLXKXKXLXLXLXLXLXKXmXZXLXmXbXkXkXbXvXdXfX9XfX~.~.0XgXvXfX-XT.(.9X).P.U.Y.Y.h.h.h.h.a.s.s.p.Y R k.D J J K L L L H H B B H H H H H G G J S D k.z.h.h.c.P.I.7XE.wXNXE.E.NXwXE.5XE.6XwXwX6XE.6X(.eXR.A.D.B.L.L._ ) ]./ N m M B c c m B m c m M L L L L G G G R R R R R Y Y Y E E Y b.B.B._.@XN.K.'.'.C.'.#X}.}.$X}.}.{.$X#X$X2X;X,X>X;X<X,XzX>X+X*X,XjXMXzXsXkX:X:X=XOX=XqX*X=X&X-X~.A.R.0X0X-X9X/.Y.Y.Y.T.(.F.b.^.&Xn.F.~.b.D.T.b.Z.d.Q Y d.d.T Q Y T R P T P R I A Y R Q Q Q Z.D.H.!.!.!.@XK.H.T.oXJ.G.N.G.*.*.*.U U ;.U U P U I I _ *._ _ =.*.U U ;.;.U Z ;.=.=.*.;.( *.K.V._ C.C.( ( =.=.V.V.~ ~ _ ~ *.~ _ B.V.*.B.V.N.*.'.*.V.{.V.M.B._ ! ^ W M.N.*.*.C._ V.C.'.C.V.{.{.{.`.`.}.|.}.}.|.|.$X1X|.|.|..X.X1X1XyXpXpXpXpXpXyXpXiXpXyXyXiXiXiXiXcXiX2XuXuXiXcXcXFXHXcXuXxXHXcXxXcXcXHXHXHXIX",
"LXFXKXKXKXKXmXKXLXKXKXKXmXmXVXmXbXlXsXsXbXbXdXqXqX0X(.-XvXVXVX9XT.Y.Y.W.P.g.g.n.A.h.i.h.h.i.Y f.p.Y R k.J J J H K @.@.@.@.{ { $.M M M B $.$.H H ` J R p.h.Q.7XNXNXeXCXAXE.E.CX7XNXwX5X7XhX6X).7XwXeXeXY.h.f.s.d.Q Q I R z G N N $.{ B @.$.$.H H m L $.L K G / S I I R R T R T Y E Q E b.Z.B._.oXK.K.K.{.#X$XxX2X2X2X#X}.#XuX$XuXuX<X#X<X@X@X;X>X>X,XzXnXMXjXqX*X=X:X:X:X=XsX0XOX=X=X9X%XR./.0XqX-X9X/.(.9X9X-X/.D.b.~.%Xb.D.OXF.H.OXZ.B.d.Q E d.B.Q T P P T P T R R R P Y Y Y E s.S.D.H.OX;X>XkXT.*X0X;X+X@XJ.N.B.V.*.^ U =.U U ^ I V P U U U _ *.=.;.( ;.;.U U -.C.C.-.=.;.;.V.*._ =.C.*.=.C.=.*.V.~ *.V.*.B.*.B.C.V.B.B.V.N.*.V.*.*._ ~ V.N.P W W M.K.K.B.*.B.U V.C.'.C.V.{.{.`.-.`.}.}.[.[.|.}.|.|.|.}.|.|.|.1X1XyXyXyXyXyXyXyXpXiXpXyXpXiXiXiXiXcXiXuXcXcXFXGXFXFXFXcXuXcXPXHXHXLXHXPXIXPXIX",
"FXHXKXFXFXKXmXKXKXVXVXVXbXbXmXbXqXkXkXkXmXbXqX9XfX(./.fXdXfXdX^.Y.Y.n.n.n.m.g.h.h.j.i.p.h.f.f.l.p.R R k.J J K H L @.M v M v v } v v v { { { { { @.H J D D i.c.5XwX7XNXCX6X7XAXNXwX7XI.6XhX6X7XNX7X6X6X).^.^.n.b.d.b.Y R S J N L H c M m B H m m L L $.L ` k J S S I R T R s.s.Q E d.d.B.Z.M.G.G.N.K.K.#X$X$XxX1X1X1X}.{.$XxX$X,XxX,X,XjXuXjXlXjX+X<X>XjX,X,XsX+X!.:XsXsXsXkX=XOX=XqXqX-X-X0XqXgX(.(.^.(.9X(.(./.&X^.-X=XH.^.&XH.b.OXZ.B.b.d.E Q b.Y Y P Y T P T P R R T T Y A Y Y s.f.d.L.OX;X>X~.=XqX:X,X;X@XK.V.V.*.P U *.^ U U P V I _ U U ;.U ;.;.( ;.=.=.-.[.`.C.C.=.*.*.=.( _ _ _ =.C.C.*._ V.*.V.K.V.V.V.K.C.V.B.V.V.M._ V.C.V.~ *.G.N.^ W W B.J.J.N.~ ~ *.C.K.'.C.C.}.`.`.`. X}.|.}. X|.[.}.|.}.|..X1X1X1X.X.X1XyXyXyXyXyXpXiXiXpXiXcXcXuXuXcXiXxXGXGXFXxXcXFXFXFXcXFXPXxXxXHXxXmXPXcXcX",
"FXKXPXcXHXLXKXLXmXMXbXmXbXvXbXVXqXbXmXmXVXvX&X/.0XY.R.gX=X^.%XF.A.Y.m.a.n.n.g.h.h.h.i.Y p.p.p.R R R R ) J G H L M @.{ } {  . .%.} #  .%.&.]  .%. .B N G ) k.p.i.h.P.W.6XE.7XAXCXwXwXI.7XCXhX6X6XI.E.eX6X6X9X(.-X9X-XY.T.L.x.S J m B @.m m H m B M M m H L N G / S R R I R T T Y Y d.b.Z.Z.B.G.N.N.{.#X,X#X{.2X$X}.#X}.}.2XcX#X#X,X@X;XjXjXjX,X'.>X>X,X*X@X>XlX<X:XbXvX=X=X:X*X*XdXvXqX-X0XqXgXAX9X9X-X(.^.n.Y.qX~.T./.%XH.^.~.Z.! !.b.Q E E Y E Q P Y Q d.d.Y T A I I P I P P Y Y s.s.Q B.H.J.H.T.R.~.oX+X+X@XJ.K.C.C.C.'.C.^ ~ U ^ U *.=.( U *.U *.;.( ;.C.`.[.[.-.=.=.*.*.=.=._ C.'.V.=.V.V.=.=.K.*.*.V.*.V.C.V._ ~ *.V.*._ *.*.V.V.*.*._ W ^ ~ ! M.N.N.M.:.! _ V.V.V.=.`.$X[.C.[.}.}.}.}.|.|.|.1X1X1X.X1XyXyXpXyX1X1XyXyXyXyXyXiXpXiXpXiXiXxXuXuXxXiXiXcXiXiXxXcXGXFXcXcXcXGXFXFXPXcXHXIXcXcX",
"PXIXHXFXPXIXPXLXZXbXZXbXVXKXZXKXVXVXbXsXdXvXqXqXdXR.R.bXgXR.~.A.A.m.m.g.n.U.n.f.n.h.f.p.p.R D D ) D D G J K L L M M v { %. . .%.+.+.| +.O.+.>.+.+.# n m m G G L.S.f.n.W.5X7XNXwX7XwXeXAXLX).(.).6XwXwXwX(.9X(.wXfX9XY.W.h.s.p.R S G N $.$.@.c M M M M H N N G S / / R R R R R Y Q Y Y ! M.M.M.N.C.C.#X#X#X{.,X2X#XuXxXiXiXcXiX,X,X;X@X$X<X@X;X;X;X>X>X;X,XsXqX*XqXdXdX:X&X%X%X%XdXfX(.(./.9X&X/.Y.A./.R./.R.Y.R.D.R.Y.^.%XD.%Xb.W @XG.! Q b.Y s.Z.Y P Q Q Y Y R R R F F R R P Y P Q Q d.~.OXD.Z.T.N.K.@X;X,X+XJ.J.uX,X'.{.'.C.K.*.U *.C.C.V.C.C.*.=.C.C.-.-.-.;.-.-.=.;.=.*.*.*.*.*.*.*.C.K.*.;.*.-.C.=.=.C.K.V.C.C.*.*.*.*.*.*.~ V.*.! ! ~ ~ ~ ~ ~ ! _.{.N.*.~ C.#X'.*.C.'.C.C.'. X`.}.$X}. X[.}.}.|.1X1XyXpXpXpXyXyXpXpXpXpXyXpXyXyXuXuXuXiXGXuXiXxXuXcXcXuXiXuXcXGXxXcXFXFXFXPXPXPXHXHXHXcXHX",
"IXIXPXFXPXPXKXKXKXSXKXVXZXZXvXVXZXbXdX9XdXvXqXqX~.T.~.qX%XD.~.Y.Y.P.P.n.A.U.f.i.s.p.R p.k.k.u.u.k.J J J J L L H M { { ] ] 2 2 2 | 7 7 w.w.q o.O.3   # v n B g k ) R S.R.z.c.6X6XeX6XeXgXgXE.wX6XNXNXgXBXhXwX9XhX(.).E.6XY.n.n.a.R R G G $.H H B M M B H N N S S / ) / D S I R ) T Y Q B.G.G.K._.oX{.#X#X#X#X2XuX#X$X$X}.#X1X1X#X,X,X$XuXuX<X;X+X,X>XqX;X:XdXkX0X=X0X0X=X*X=XdXdX%X&X/.9X-X9X(.eX(./.0X(.%XR.R./.n.Y.D.D.T.Z.~.Z.G.jX;XJ.K.J.d.Z.f.Y E d.d.Y Y Y R I I ) R R P T P R T E Z.B.Q Q G.K.oX@XoXoX@XoX{.uX#XC.'.K.V.=.~ ~ ~ ~ ;.~ U U U ;.-.=.;.-.-.-.-.C.=.*.*.*.*.C.*.V._ ~ *.V.*.( =.C.-.;.*.=.=.*.*._ U U *.*.*.*.*.*.W ^ ~ *.V.V.V.C.K.#X{.! ! *.*.{.{.C.`.{.'.C.{.}.`. X|.[.[.`.}.}.|..X.X1XyXpXpX1XyXpXyXyXyXyXuXyXuXuXuX2XuXcX2XiXxXiXxXxX2XuXcXHXmXxXcXFXcXcXFXFXFXcXHXPXHXKX",
"HXPXHXFXHXHXFXFXmXZXZXVXZXbXdXZXZXvX0XgXVXvX=X&X/.-XgXbX0X%X~.n.U.n.A.S.S.Q.l.p.S.z.k.k.J J L J J J G J L L H @.#.$.#.] [ &. .[ 3 3 3 O.O.1 3 w.O.3 | [ ..%.$.$.` l l R p.U.(.eXeXeXBXBXwXwXCXwXhXgXeXNXhX(.9XhX9X9XwXeXY.a.n.f.p.D ) S G m L c H M B H N N S S S G / D D ) L.XXl.B.L.J.G.B.N.K.{.J.K.{.K.{.$X$X#X#X}.{.}.1X2X$X,X$X#X,X>X$X,X;X>XjXjXqXsXkXdX0X=X*X*X*X*X*X=X0X%X%X/.qX(.^.Y.(.9X-XqX/.R.A.F.^.R.&X&X~.R.T.0XoX@XcXuX+XoXoXM.Z.b.d.Z.D.d.T Y Y T I R B.I R P Y R d.Q Q d.b.d.b.Z.L.J.oX+X;X+XoX#XuX#XC.{.{.V.*.U *.~ U *.=.;.;.U -.[.-.;.-.[.-.=.C.C.=.*.=.V.{.V.V.*._ V.C.V.=.'.'.C.=.=.C.C.=.*.*.U *.K.C.B.C.K.C.B.*.V.C.B.*.J.{.{.#X{.*.B.V.*.'.'.C.`.}.}. X|.$X[.}..X}.}.}.1X1X1X1X1X.X1XyXyX1XyXyX1X1XyXyXiXiXiXiXuXuXiXcXuXiXcXxXcXcXiXxXKXHXFXcXFXFXcXFXFXHXKXFXHXPXKXKX",
"HXHXHXHXPXKXHXFXnXSXmXmXZXVXmXLXZXbXdXVXZXdX&X&XdX=X&X&X%X%XW.n.Z.f.h.p.z.z.k.k.x.k.J J K K K K G G L H L M H @.$.$.} ] +.%.+.2 X.o.q O.e * * O.5 * q 7 7 o.| ..' b N N z R z.Q.S.W.NXwXwXNXrX7XwXBXeXCXhX6XgXCXNXgXBXgX(.n.(.Z.f.F ) x.S J ` L H L G G N z S S S S S R R l.L.XXL.F.H.H.G.M.M.N.C.V.V.{.'.$X#X$X#X#X#X$X2XiXuX$X$X;X@X,X2X,XuX>X>X>XsXjXsX:X=X%X%X%X%X:X:X&X~.%X%X/.^.&XY.Y.n.^.n.n./.F.A.n.D.(./.-X&XR.R.R.qX~.+XcXzX,X@XoXF.H.T.F.S.Z.s.E T T R T ~ '.A T P T l.l.d.Q d.d.b.B.N.H.J.oX,X>X,X@X<X>X#XK.{.{.K.V.C.{.V.*.K.C.( ;.V.[.|.[.-.-.[.-.;.C.[.C.C.C.C.{.*.*.*.V.C.C.V.=.'.`.C.V.C.{.{.C.C.C.V.C.{.J.V.J.C.C.K.K.@X@XC.V.N.B.! V.V.*.*.*.{.}.{.V.V.`.`.-.}.$X[.}..X|.|.|..X.X1X1X1X1X1XyX1X1XyXyX|..XyXyXiXiXuXuXuXuXiXcXiXiXcXxXmXHXFXHXHXHXFXFXHXmXcXHXcXHXPXcXmXHXcXxX",
"PXHXHXHXHXFXmXcXmXKXSXmXVXmXZXLXKXVXdXBXVX0X0XgX0XR.D.R.%X&XR.A.S.f.z.p.p.l.R D k.D D J J K K K K K K H M m M M { ] # ] +.+.2 O 7 o.O.O.>.e r w.0 r e e w e w 7 7 6 +.$.$.` G ) R z.U.P.5XwX5X7XCXAXhXCXNXhXCXCXNXwXgXgXgXrXBX&XXXz.z.XXD D S S ` G G G S S G S S D R R R R l.l.s.Q d.B.N.B.G.J.V.C.C.,X$XuX>X$X}.#X#X$XuXuX2X$X$X>X>XxXMXjXuX<X,X;X*X;X;X@X!.~.^.T.%XqXdX:X=X0X&X*X/.9X/.9X-X9X/./.9X(./.Y./.9X^.^.^.D.~./.0XT.G.<X+XJ.B.M.d.B.T.Z.d.s.Y Y T Y l.! ! XXP T Y Q ! W Y Y P Y E E d.G.K.N.G.K.K.{.@X#X#X{.{.#X{.K.{.{.V.V.{.C.;.-.{.[.{. X-.-.-.-.-.[.`.C.C.C.C.C._ *.*.*.V.*.U U =.=.=.=.=.C.V.*.*.V.V.C.'.V.*.V.B.*.*.U *.B.! B.V.M.~ V.K.N.C.V.C.`.C.=.V.{.{.C.`.}.`.`.}.}.|.}.[. X|..X1X.X1XyXyXyXpXyX1XyXpXiXiXiXuXyXuXxXcXGXxXuXxXxXcXHXFXcXxXcXcXcXFXcXcXHXzXHXPXcXcXFXcXcX",
"PXFXcXFXcXcXcXcXmXKXmXnXkXkXbXkXbXbXdXbXbX-XqXdXqX%X-X0XqX-XA.n.h.f.z.p.l.x.R D z.x.) J J L L L L H H H M c M { } ] 2 ] | 7 3 7 5 q e r e r.0 8.e.0 8.w.8.w.e.s r 5 q | %.$.m k S ) p.i.W.6Xc.eXNXNXeXNXNXNXNXhXhXeXgXrX6XeXAXvXBXeX&XVXz.z.R ) ) D S S S S G S D R R R R R T T Q E E d.b.b.Z.K.V.C.{.>X,XuX,X$X}.}.#X$X$X#X#X#X2XuX>XuXuX;X,X@X,X+X@X+X<X@XOX;X:X&X=XkXkX=X=XdX-X=X-XfXqXgXrXrXgXfXBXfX0X/.(.9X~.Y.W.R.&X-X0XT.!.,X;X+XF.F.Z.T.T.b.f.d.d.d.d.s.d.Q W N.P P P W Y P P Y P Y Q Q d.B.! W B.N.N.{.#X+X#X{.{.$X$X#X{.K.V.V.{.C.C.}.{.C.-.C.-.-.`.`.C.`.-.;.=.*.*.V.V.V.*.*.C.V.=.V.`.`.C.V.C.C.V.*.*.*.V.C.V.*.*.*.*.~ ! ^ ^ ! ^ *.~ U ^ ! *.~ *._ ( ;.V.C.C.}.$X[.[.}.`.[.|.}.|.}.}.|..XyXyXyXyXyXyXyXpXpXyXpXpXcXcXiXuXuXiXGXHXGXxXuXcXcXcXHXcXuXuXxXcXcXFXcXcXKXFXPXIXFXFXPXKXPX",
"PXFXFXPXHXmXFXHXmXmXbXkX:XkXVX:XsXbXqXvXbXqXdX-XVXqX9X/./.R.f.f.a.a.f.f.l.z.p.R l.) ) ) ) J K H m M M M M v { $.] ] 2 3 7 7 X.>.w.O.w.r r 0 < , , t , 9.a > > = < r w.q 2 $ o b b / S R z.Q.j.Q.eX6XW.rXhXhXwXwXhXhXhXhXY.6XCXwXE.U.E.rXn.A.f.f.f.Y I R D D J S D R R R R Q f.l.d.Q Q d.d.Q b.B.N.V.'.@X#X{.#X{.{.}.#X#X#X}.$XuXuXuX$X$X#X@X,X,XuX<X+X>XsX,X,XzXvXqXdXbXvX*X%XdX*X/.R.9X-X9X/./.(./.9X(.(.^./.&XY.A.R.R./.~./.H.oX<X+X+XF.K.D.T.~.Z.b.S.S.B.B.S.d.E E b.Q Y P Q Y P d.M.d.d.Z.N.Z.N.! B.+X;X@X;X>X$X#X{.{.$X$X#X$X@X{.K.C.V.V.V.=.*.=.-.=.-.[.`.=.C.-.*.=.C.V.V.V.V.V.C.{.{.{.}.{. X[.[.'.'.`.C.C.*.V.C.*.V.C.V.*.~ C.V.K.#XC.#X*.*.*.V.C.*.V.*.V.C.{.{.C.`.{.-.}.|.}.}.1X.X1X|.1X1XyXpXyXyXyXpXyXpXpXpXyXpXpXiXuXuXuX2XuXcXcXiXxXiXFXFXcXFXcXuXxXcXmXmXFXFXHXPXHXPXPXHXFXKXHXPX",
"FXxXFXPXKXcXcXcXmXmXlXzX>XmXIXMXmXZXsXdXBXvXBX9XvX-X/.Y.(.&Xn.a.m.a.f.E R l.R R R I S D G G L L M M M v v v }  .] [ 2 | O.>.O.>.e w w.w.8.w.8.8.9.7.9.e.< t > , , , e.w.w.w.X.%.n ' j N z ) k.z.Q.P.W.wX6X).I.7XNXwXwXCXwXCXCXE.E.E.eXNX6XE.P.n.h.i.R R R D D S F R l.p.Y Q l.D.E E E d.d.d.M.G.N.B.J.K.J.C.@X{.{.{.$X$X$X#X1XxX$XuX,X,X,X,XzXzX>X<X,XMXnXjX>XzXsX:XkXZXVXsX0XbXdX%XR.0X9X&XR.(.9X(.9X(.(.Y.Y.Y.Y.n.^.R.R.D.Y.D.@X+X@X<XT.OXT.~.~.b.d.Z.B.d.M.N.b.Q Q b.Z.Q E b.E E B.K.b.d.S.N.Q M.M.G.+X{.C.#XuX$X{.K.`.#X$X{.K.J.{.K.V.V.*.~ ;.=.`.C.C.[.[.C.*.C.`.K.{.}.{.'.*.*.*.V.K.C.C.{.`.`.`.C.C.`.'.{.{.*.V.V.~ V.{.B.V._ C.V.C.{.B.{.C.C.V.{.#X{.{.C.=.C.}.[.-.C.}.[.[.|.[. X1X.X.X|..X.X.X1XyXyXyXpXyXyXpXpXyXpXpXiX2XuXiXuXuXiXiXuXcXiXHXGXiXcXmXcXcXFXmXcXFXHXHXKXHXKXPXHXHXPXFXHX",
"FXFXcXHXFXxXmXHXmXKXMX>X,XnXLXjXvXLXbXvXZXdX9XqX0X9X9X/././.n.n.n.a.Z.f.R l.R R ) ) / S k H H m @.v v %.} } %.%.[ X.+.O.O.w.5 w * 9 s 8.e.8.7.9.9.7.9.9.= = 8.7.7.7., 0 8.w 5 o.| ....% g N N S p.h.U.eXW.P.6XwXAXNXNXCXCXCXAX7X7XCXAXCXwX7X6XE.a.g.f.Y R p.R R F ~ Y Y Y s.f.s.Y a.E Q b.Z.Z.H.K.C.C.@X,X,X$X#X#X#X#X'.{.$X$XuX$X$XuX$XuX$XuXxX>X,XjXnXlX>X,X,X*XoX;X:XOX*X0X~.=XT.Y.vX-XA.-X/.9X9Xn.Y.Y.Y.-XY.Y.T./.^.F.A.Y.R.G.+XoX@X~.D.R.T.%Xb.Z.Z.Q b.B.b.E Q d.b.E b.! Z.P E d.! P ^ d.B.P W B.B.B.N.B.{.xX#X$X{.{.uX$X$X#X{.#XC.C.{.=.*.=.C.`.`.[.C.=.`.{.{.'.C.*.*.V.V.*.C.'.'.C.C.C.`.C.`.C.C.C.V.=.*.*.*.*.*.V.V.V.V.*.*.V.C.C.*.*.V.*.*.V.V.}.{.'.V.{.|.$X}.[.[.}.}.|.}. X|..X.X1X.X|..X.XyXyXyXpX1XyXpXyXpXpXyXiXiXiXxXiXiXcXHXHXiXFXFXxXxXxXcXFXuXxXmXxXFXKXmXcXcXxXmXFXmXmXFXHXKX",
"cXFXcXHXKXcXmXKXFXmXzXMXmXKXLXzXvXKXdXdXVXvXqX9X-X9X9X^.R.Y.n.h.h.s.h.f.R k.) J ` J G G N m M v  .v v  .%.$ %.| O 1 1 w o.e 5 >.9 d 0 > a > = < , < > < * t 0 , 9.0.9.9.a - * 5 8 7 1 $ ....{ N R p.f.%XW.W.wXNXCXrXrXNX8X7XNX5XNXCXNX7X8X7X7X6XE.Y.n.i.p.f.R R Y Y A P Y Y a.a.f.f.d.b.Z.Z.Z.H.K.{.;XuX,X#X#X$X$X$X$X{.$XuX2XuX$X2XuX$X2X#X>XzX,X#X+X;X+X+X,XsX,X*XsXkX:XdXvX0X/.D.Z.0X&XD.0X9X(.(.n.Y.n.n.(.n.f.F.Y.F.F.T.R.T.N.;X+X!.T.H.~.^.=XD.!.OX~.;X,XOXb.d.F.F.b.b.Q E Q B.N.b.W Q M.d.! M.G.B.B.V.N.{.uX{.#X{.$XxX$X$X$X$X$X{.{.{.C.*.{.{.'.C.`.C.-.C.=.V.C.=.*.*.*.*.V.*.*.V.C.`.C.=.C.-.=.-.V.=.*.;._ *.V.C.C.V.*.*.V.C.C.C.K.C.V.K.*.V.K.C.'.C.'.'.{.$X$X{.[.[.}.}.`.`.[. X|..XyX.XyXyXpXpXpXpXUXpXpXpXyXpXpX1XyXuXiXiXuXuXuXiXiXuXuXxXuXuXcXFXHXcXcXmXxXmXKXFXHXHXcXmXFXmXcXmXmXmX",
"cXmXxXFXPXcXcXLXmXuX,XxXcXlXlX>XdXmXvXvXbXvXqX%X9XgXgX9XeXeXY.Y.f.p.z.k.J ) J G H L H $.@.M } {  .] # %.%.O | O O 7 5 O.e 5 * r > a a a a , = t > , a < * t a 7.2.2.2.7., = r 8.>.>.8 w o.X.| % N S I L.L.S.(.eXwX6XwXrXE.7XNX8X8X7X7X8X7XhX7X7XNX7XE.n.U.R.s.Y l.d.Y s.s.Y i.a.a.E E d.Z.b.b.G.N.K.@X@X_.K.{.,X#X#X#X#X>XxX2X2XuXiXuX#X$X#X,XuX#X@X$X2X>X,X>X>XaX;XsXdX:X0X0X%X&X*X&XbXvX-XfXfX^.W.E.(.E.E.-Xb.n.^.R.n.Y.R.Y.H.!.zXsX*XOX*X0X=X:XH.^.OX*XsX:XoX*XH.*X+XF.G.B.W W M.M.W W B.G.N.Q ! M.! *.N.V.@X>X{.{.{.$XiX$X#X#X#X{.K.K.C.C.=.}.`.C.V.=.C.`.C.`.C.V.*.*.V.C.C.V._ _ =.C.C.=.;.`.-.=.C.`.C.V.C.V.C.C.V.*.*.*.~ *.V.*.*.*.V.*.*._ *.V.*.V.V.K.'.C.[.[.`.`. X}.}.`.[. X X|..X.X.X.XyXyXpXyXyXpXyXpXpXyXpXpXyXiXiXiX2X$XuXiXiXuXuXxXHXcXcXHXHXHXFXxXmXxXnXHXmXmXmXmXKXLXHXmXHXFXcX",
"FXHXxXHXIXFXcXLXmXxXuXxXzX>XuXlXqXvXbXvXqX0XqX-X9XgXgX9X6XeXE.Y.s.p.z.k.J K K H H L #.$.{ } } &.&. .2 %.+.2 2 1   o.w e s 0 0 > = a 8.8.9.9.a i a 9.e.a = , 9.9.0.2.2.7., < 0 8.8.w.9 0 w 5 o.2 n N z / I I p.s.Q.h.I.7XI.7XNXI.7XhX7X8XNXCXNXNXwX7XeXE.(.eXY.Z.f.B.d.b.f.Y a.a.f.a.E f.Z.d.d.G.G.N.N.K.K.J.#X>X{.{.{.{.$XuX#X#XiXiXuX$X2XuXxXmX$X,XxXmXMXzXjX,X,X;X>XsXsXdXdX*X&XqX0XvXbX0X-X9X^.Y.Y.Y.a.A.(.a.E.-XR.n.Y.R.F.T.!.>X=X!.~.%X*X%X*XH.T.T.!.*XoXG.K.! M.G.W G.G.b.B.B.Q P E b.M.B.W ! B.:.B.K.K.#X;X{.{.}.#XuX#X{.$X$XC.K.'.C.}.{.{.C.C.C.=.`.{.C.C.C.V._ _ V.C.'.V.*.V.C.C.=.=.C.}.C.=.`.{.C.V.C.C.C.*.U U *.*.*.*.V.*._ *.C.V._ *._ ~ ~ *.*.*.( -.C.C.C.`.[. X[.[. X|. X|..X.X|.|.|.|..X.X|.1X.XyXyX1XpXiXpXiXiXuX2X$XuXcXcXiX2XxXKXcXxXFXFXcXcXxXnXxXmXHXmXnXxXxXHXKXmXcXmXmXxX",
"HXPXcXHXIXFXxXPXxXxXxXuXuXuXjXnXsXdXvX0X%X0XgXfXgXgXgX(.(.6XI.n.h.z.z.k.J J H H H @.$.#.} ] } } [ [ | +.2 + O o.7 >.w w s 0 8.8.> 9.e.a a a 7.9.0.9.0.7., 0.0.0.0.0.0.7., < 0 a 0 7.; 9 0 w w.O...{ $.' N / ) l.R.h.Q.wXW.NXNXE.NXNXNXwXCXCXhXNX5X7XhXP.n.W.h.f.s.n.f.f.a.i.h.a.n.f.E a.d.E E Z.N.N.C._.oX{.{.@XK.J.{.J.#X$X#X#X#X$X}.#X2XxXxXxXzXuXxXxXjXjXjX,X>X>XsXsX0X0X=XOXT./.T.R.&X^.^.-X(.).9X9XY.^.(.a.(.(.Y.n.Y.Y.A.~.H.T.T.K.!.~.^.~.~.T.%X%X*X:X+XoXJ.N.B.@XW oXN.! B.! ^ W B.B.M.G.W M.N.M.B.N.B.C.{.C.'.{.{.}.}.{.$X$XK.{.{.{.$X#X{.{.}.}.`.{.{.C.*.V.C.V.V.C.C.C.C.C.'.{.C.V.C.}. X-.*.C.C.*.( ;.*.*.*._ *.V.V.*.C.C.*.*.C.'.V.U U U U *.C.'.C.*.[.[.[.[.[.[.[.-.-.[.[.[..XyX|.|..X.X|.yX.X.XyXyXyXyXyXpXGXiXcXiX1XuXiXiXiXxXuX#XcXPXcXuXFXFXcXmXlXmXcXmXKXmXmXcXuXHXLXmXxXmXmXmX",
"xXcXuXxXFXuXuXcXuXxXuX#X>XxX,X,X,X;XdX0XqXbXvXqXgXgXgX9XeXeXE.E.Y.U.Q.x.D J L H L B @.{ v ] } [ &.2 +.2 1   1 >.o.>.s s w.0 7.8.> e.e.a , , i 7.9.i 9., : 0.q.0.2.0.9.< t = 7.9.7.a = - 0 s w.O.O O $ % @ N / ) L.f.U.eXW.wXwX6X7X7X7X7XNXCX7X6XwXwXhXI.Y.9XY.n./.%XY.f.a.a.n.a.b.a.a.a.s.a.b.H.oX{.@X@X_.G.J.@X@X#X$X{.$XuX$X$X#X2X$X2XuXxX$X$XuXuXuXuX,XuXuX,X,X>X>X,X=X*XOXR.=X&X/.&XqX*X%XqX9X(.hXgX9X9X9Xn.-X(.A.n.Y.A.A.^.D.G.H.H.~.%X^.~.H.~.:X:X:XsX*X+X>X,X,XnX@XjXK.b.! W E B.@XJ.N.J.W M.G.B.N.N.*.B.{.C.K.{.[.{.}.}.{.#X{.{.{.{.}.K.C.{.}.{.K.{.'.V.*.C.C.C.C.C.'.{.V.C.C.C.C.C.C.[.`.=.*.C.C.=.*.*.*.*.*.*.V.V.B.*.V.C.*.*.C.'.*.U U *.*.'.'.{.`.C.[.[.[.[. X X[.-. X|. X XyXyX.X.XpXyXyXpXpXyXpXpXpXpXiXGXGXiXiXiX#XiXxXuX1XuXiXuXKXPXmXxXFXFXFXcXxXmXxXxXmXmXmXcXxXKXLXHXcXmXFXFX",
"xXcXzXxXcXuXxXcXcXcXzX#XuXmX,X+X@X*XsX:XdXbX0X(.9X-X9X(.6X6XE.).E.U.U.f.D J G G N m B { { } %.%.+.X.+.| 7 + 7 >.5 q s 0 8.s a e.t 8.w.0 0 7.i 7.< t 3.: t <.3.3.3.0.9.= * t 0 9.7., < ; > 9 9 5 5 3 | 2 n $.` ` S l Y U.h.Y.g.P.E.P.E.I.6XNXwXwXrXwXNXeXCXIXCXCXBXgXR.A.n.a.m.a.f.n.n.b.n.Z.H.*X,X;X<X@X_.K.#XuX#X<X;X#X>XxX,X>XuXcXxXcXxXcX2X$X>X2XuXuX2XuXuX#X+X,X>X>XqXqX0XqXvXqXqXvXVXvX:XdX9XY.Y.P.n.Y.^.Y.R.Y.Y.A.A.A.n.A.b.Z.T.F.H.^.Z.D.D.~.=X%X*X=X@X+XJ.'.<X,X<X>XoXG.K.G.M.G.+XH.! M.b.G.oXK.K._.K.{.#X{.{.[.[.[.}.{.{.#X$X{.{.$X{.C.V.{.'.V.V.`.C.V.V.V.*._ *.V.C.K.*.=.V.*.=.C.C.-.C.-.V.C.`.C.V.=.C.V.*.V.*._ ~ _ V.C.*.*.C.C.*.*.C.{.'.{.V.V.*.*.{.[.[.[.[.[.[.[..X.X|.|.pXyX|.yXpXyXyXpXpXyXpXpXyXyXyXiXpX$X1X2X2XuXuXuXuXiXxXxXHXHXxXuXxXcXFXuXxXmXxXlXmXnXmXxXxXmXHXcXzXzXMXMX",
"KXPXKXPXKXHXKXKXcXxXuX#X2XcX,X,XOX*X0XT.^.*X^.^./.(.(.(.(.).I.).E.m.g.i.F p.J G ` m B $. . .%.%.2 | 2 X.6 6 7 >.5 w w.- - - < 0 t 8.r.< , 7.9.7.3.< 0.4.: 4.4.3.: 0.9.: < 7.7.a , , i , > 0 9 9 w q o.3 1 ..n b ` / ) +XXX&Xf.A.m.m.7X7XwXNXwXwX7X7XAXNXBXAXhXCXBX9XA.A.Y.n.n.m.a.n.n.f.a.s.Z.T.J.G.G.K.K.K.{.#X@X@X@X{.$XuX#X#X#XuX$X$X#XuX$X2XuXuXuX2X,XzXxX,X>XzXzX,X*X%XOX%XdX/.~.0XdX0X&XqX(.W.).(.).W.n.a.f.n.n.n.n.n.n.s.d.H.%XD.F.T.b.b.H.~.%XT.!.*X@X;X,X+X>XoX;X;X+XJ.J.J.B.M.J.K.! ! ! N.{.N.V.C.V.K.{.'.C.K.`.{.}.[.{.{.$XC.'.$X{.C.{.$X{.=.V.K.C.V.'.C.V.V.C.'.C.V._ V.C.=.*.C.`.C.C.C.C.C.C.C.*.*.*._ *.V.*.U ^ ~ _ *.*._ *.*._ *.*.=.*.`.V.'.C.'.}.}.[.[.[.[.[.[.|.|. X|.yX.X XyXpXyX.XpXyX.XpXpX1XyXyXpXiX1XuXiXcXuX$XuXcXcXxX2XFXmXuXxXcXFXKXxXnXKXmXHXKXHXmXMXmXmXmXxXzXxXxXxX",
"JXGXFXHXGXGXHXHXxXuXuX,X2XFX<X;X%X~.0X~.^.0X^.F./.0X9X9XhX6X).wXY.E.).n.h.R k.J H M #.} [ 2 2 | 2 [ | 1 1 1 1 5 5 9 r * - 9 ; = < < 7., , 9.<.3.3.3.<.3.<.4.4.<.0.q.0.t = 7.9.i i 7.7.< 7.a 0 0 - 5 5 w q 3 2 o % b j ` ) R z.S.(.E.eXhXCXCX6XNXNXAXLXAXgXwXhXfXgXeXW.Y.P.g.m.n.Y.U.A.n.D.F.B.!.oXG.K._.G.H.@X@X{.@X@X@X#X;X$X@X#X$X<X>X,X,XzX,XzXxX#X,X2X$XjXzXuX,X,X*X:X:XOX&XR.qX&X0XdX/.T./.(.P.Y.(.(.(.^.n.A.Y.D.A.^.-X~.D.^.=X~.~.H.^.b.b.~.:XH.T.OXoX;X!.;X;XOXoX;X,X<X@XJ.@XG.N.G.N.K.K.,X#X#XK.V.V.K.K.K.K.C.C.`.{.}.C.'.$X{.{.C.#XC.C.C.}.#XK.#X{.{.C.*.*.V.}.#X`.C.C.*.C.V._ =.`.'.C.C.C.*.*.*.( *.*.*.*.*.V.*._ *.V.*.*._ I ( *.*.*._ U *.*._ V.C.=.}.`.-.[.}.`.-. X|.}. X|.yX.X.XyXyX.XyXpXyXpXUXpXpXGXGXGXcXcXGXGXcXuX,XcXPXHXxXuXcXFXuXcXFXcXHXKXHXmXmXKXKXmXxXxXzXcXmXcXcXxXcXPX",
"PXHXcXcXxXiXuX2X2XuXzX+X<XmX+X@XOX~.%XZ.F.=X&X-X-X0X9X9XhXwX6X6X).(.).a.a.F D J L M #.%.+.[ | | O 1 7 7 1 5 5 5 5 >.w * - > = a < < 7.7.7.3.<.0.0.4.4.3.4.q.0.1.3.0.2.t : i 0.i i 9.9.i i > > 9 0 d 9 e w o.>.+...] b N G S ) k.S.U.eX(.6X7XI.E.NXNXNXNXBXBXBXvXfXrX9X6X(.).E.Y.n.n.n.a.b.Z.S.OXF.N._.+X@XJ.J._.J.{.oXoX{.@X#X<X<X;X;XjX>X,XuX2XxXuX,XuXuXuXxXxX2X>X>X,X>X>XOX*X=XdX~.~.-X~./.9X6XE.(.wX6X^.Y.a.Y.&X-X~.~.%X~.T.0XdXOXT.Z.D.b.b.oXsX!.J.J.K.;X*X%X~.OX;XqX;X*XOX+X;XoX@X;X<X;X#X#X{.K.C.V.V.*.*.=.V.=.C.`.{.}.`.}.1X}.{.'.#X'.'.K.#X$XC.K.V.G.C.C.=.V.[.'.V.*.=.C.V._ ( =.C.C.`.=.=.( ;.=.*.V.C.C.*._ ~ U U _ V.C.'.'.C.C.V.=.C.*._ V.*._ =.=.*.`.C.C.`.[.`.`.|.|.|.}.}..X|.|..X.X X|.yXyXyXyX1X1XpXiXiXiXiXiXiXcXuX$XuXcXxXuXuXcXmXuXxXcXxXcXcXxXxXxXnXmXcXxXcXFXcXxXxXFXFXxXxX",
"GXiXuXiXiXiXuX2X$XuXzX@X@XnX+XJ.Z.T.R.Q b.OXD.T.^.Y.Y.).E.Y.I.P.m.Y.Y.g.n.p.R ` H M { %.[ 2 X.+.| | >.>.O.e w 9 9 w.e * s w.0 9.9.7.q.9.7.<.: 3.0.0.4.<.q.q.4.1.3.0.: t < < 9.i i 9.0.9.< > s w.e.w.e >.w.w.w.X.$ ....$.$.` ` ) k.s.A.a.g.E.E.E.eX(.W.).eXfXfXfXgXCXBX9XwX9XE.P.U.n.n.a.f.f.f.H.H.!.!.!.!.J.J.<X@XJ.J.{.oXoX+X,X+X+X<XjX>X#X,X,XzX#X$X2X,XuXuX2X<X;X2X,X>XqX*X:X:XdX*X=XdX=X&X-X(.E.6XwX(.Y.n.b.A.(.&XT.F.A.A.Z.D.T.b.Q E B.b.B.sXkX!.!.*X*X>X+XqX*XqXbXkX>X>X:X,X;XK.'.+X'.G.V.K.*.*.C.V.*.*.V.`.`.`.}.[.[.}.}.}.$X{.{.{.{.'.{.{.}.#XC.{.K.G.B.=.*.*.=.*.*.*.*.C.=._ V.'.V._ =.U ;.U ;.=.*.V.C.V._ U U U U *.C.'.C.*.=.`.`.V.*.*._ C.V.*.V.C.C.'.[.[.[.[.`.[.1X|.|.}. X|.|.}..X.X X|..X1X.X|.}.|.1X1X1X1X1X1X1XcXiXuXxXcXuX$XuXcXmXxXcXFXcXFXFXFXmXcXcXcXcXxXxXPXKXHXHXHXHXcXGX",
"HXGXxXuXuXuX,X$XuXcXzX#X+XMX+XJ.G.%X*XB.R.;XS.A.A.a.n.Y.n.a.g.h.m.).W.n.W.S.p.) K M { %.# 2 +.>.+.X.w.>.r w 9 - - 9 - * 9 a ; > , 7.0., u 3.3.3.q.0.<.: q.q.<.u 0.0., = , i 0.9.< i 9.9.= - s w.8.- * * 1 q X.3 3 +.%.%.$.B m k D F z.S.R.wXeXE.6X6XeXeXeX9X9X9XBXAXBX9XwXeXY.P.E.E.(.Y.R./.W.%XOXOXH.K.!.J.oXjX;XJ.K.@X,X;X<X;X#X@X+XuX2X#X,X,XcX#XuXuX2XcXuX,X@X;X>X;X,X,X<XqX%X:X0XdXvX0X~.^.9XY.(.9X^.Y.Y.Y.(.(./.T.D.^.^.D.B.D.Z.b.F.!.~.OXkXsX!.+XzXMXMX:XqX*X0XdX+X@X;X<XjX,XJ.+X>X#X#X#X{.C.J.#XK.C.}.uX#X}.{.$X}.{.}.}.'.{.`.`.{.'.C.{.V.V.C.V.@XJ.N.~ *.=.*.*.*.*.=.=.V.*.*.C.'.V.( _ *.C.=.C.`.=.=.=.=._ *.K.C.C.C.C.C.*.U U C.C.C.V._ ( =.=.V.`.'.{.{.}.[.[.{.[.}.1X}.|.}.}.|.|.|.yXyX|..XyXpXyX1X.XiXiXiXiXiXuXiXiXxXuXuXxXxX2X#X2XxXxXiXxXFXFXFXFXKXmXxXxXxXuXuXuXxXcXiXxXxXiXiXcX",
"FXHXcX2X2X2X2XuXcXcX2X,X;XjXoXJ.G.!.T.Q F.%XB.b.A.a.Y.eXY.n.W.wXwXNXeXP.(.U.p.k.J L $.%.2 [ +.>.q q O.r * r 9 = 8.w.e.s 0 7.a 7., , 0., 3.0.0.0.q.q.: : 3.0.: : 3.2.< t , 9.9.9.= i 0.e.= * r 9 r - r 5 1 3 3 1 3 o.| ..] c B H J S k.L.R.&X).P.).wXNXhXwXhXwX(.BXVXgX9XrXeX(.9XW.Y.R.Y.U.Y.A.Z.H.T.K.T.*X@XoX;X+XJ.J.+X,X<X+X;X+X@X+XjXuX,XzXuXcX#XuXxXuXmXxX$X,X2XjX;X;X,XOX;XOX*X=X*X&X%XT.^.(.Y.T.(.Y.A.Y.Y.Y.A.A.b.b.F.Y.n.T.~.T.Z.D.T.!.!.T.~.H.T.*X;X,X,X*X%X:X=XJ.@X>X+X,X;X'.+X,X@X@X@X@XV.C.'.V.*.C.$X'.C.C.}.}.'.}.{.=.C.C.`.{.`.K.{.V.C.{.K.@XV.V.V.{.{.C.V.=.C.C.V.=.*._ _ =.*.*.V.C.C.=.C.C.( U ( =.U *.C.*.;.;.U _ *.( ( _ _ *.C.*._ =.=.C.'.C.'.`.`.=.-.[. X}.|.[.}.}. X|.|.|.1X1X.X1XyXpXyXyXpXGXiXiXiXiXiXiXcXGXxX1X2XuX1XuXcXcXcXcXxXFXFXxXxXFXcXxXxXxXxXcXcXcXcXuXxXHXcXcXiX",
"1XxXuX$X2XiXxXmXxXuX#X,X$X$XK.J.@X@XoXM.H.*XF.Z.f.a.Y.eXQ.U.wXCXwXwX6XP.E.P.h.p.) G ` $.v | %.>.o.w e - * 0 a > 9.a 8.0 < a 7.7.0.3.q.3.0.3.<.3.3.4.t : 3.0., <.<.<.i , i 0.7.7., i 9.s *   5 5 - * r 5 5 q 3 1 7 7 | | ] ] %.$.H G G ) p.f.U.Y.E.eXeXE.(.hXgX9XBXgX9X9XhXwXwXBX9X9X9X/.Y./.R.S.H.H.H.!.OX!.L.K.T.J.oX<X<XoX@X;X+X#X#XuXuXuXxXuX,X#X$X2X2XxXuX#XjXzXzX,X,XjX,X>X:X:XdX0X*X*X%X&X-X(.(.-X^.^.(.Y.^.T././.Y.R.-X^.D.T.D.d.B.Z.H.H.OX!.G.Z.H.T.J.T.%X=XdXqX;XkXmXzXnXnXzXMXmX2X;X#X#XV.V.'.K.V.C.'.C.V.=.{.{.C.`.`.=.C.{.'.}.{.{.{.#X{.{.'.#XC.V.V.{.K.C.*.V.C.V.*.*.=.*._ =.V.V.C.C.C.;.;.;.Z U ;.=.U U ( V V U U _ *.*.( _ ( U ( *.( *.*.C.'.=.C.`.V.*.=.[.{.`. X[.}.[.[.|.|.|.|. X X X|.1X|.|.yX1X|.|.1X1X1X1XyXcXiX2XuXxXuXxXHXHXFXFXxXcXFXiXiXFXcXxXxXcXFXHXHXHXPXHXPXIXHXHXcX",
"1XcXuX$XuXuXuXuX2X2X@X$X#X{.K.{.J.G.T.B.Z.D.Q E Y i.n.A.j.z.&XeXP.I.I.g.I.P.h.i.p.D G m n  .%.X.O.r r r > a , > a > > = = , , , 3.: 0.<.3.: u 3.3.3.: : 3.0.3.<.3.q.7.7.7.0.7., i < > =     - 5 s r 5 * 5 w.w.w.O.q o.+.X.[ %.{ c L H x.x.l.Z.Y.W.).Y.U.).gXBXgXvXfXqXgXgXgXNXBX(./.9X(.R.(./.Y.T.S.D.R.T.D.D.S.OXR.R.@XOXoX+X;X+X#X@X,XuXuXxX,X$X$X$X,XuXuXuX$X>X>X>X;X>XlXsXqXzXsXbXdX0XqX*X&X9X9XfXfX-X9X9X^.^.R.&X(.A.Y.&X/.D.T.^.Z.T.~.:X:XqX*XT.H.OX*X!.T.OX*X:X:XqXvXMXlXjXMXjXxXmXcXxXxXcX;X$XuXuX$X$X$XC.K.'.}.{.C.`.C.`.[.}.[.|.{.}.}.#XC.V.V.@XV.*.*.C.*.*.V.C.C.V.*.V.V.*.*.V.V.=.=.C.C.;.=.=.;.=.[.C.( ;.=.U U C.V.V.C.=._ *.V.*.U U U ;.*.C.C.*.C.`.C.=.`.{.`.C.[. X}.[.[.|.1X|.}.[.[.`.[.|.}.[.|.1X}.|.2XiX1X1X2X2X$X$XuXiX2X2XcXcXxXxXuXxXcXuXiXcXxXiXuXiXxXcXcXiXHXGXHXHXyXuX2X",
"1XGXxX2XxXxX$X$X#X$X@X$X{.{.J.#XJ.B.J.M.Q Z.Q f.s.z.S.s.Y z.Q.z.h.P.I.g.c.g.g.i.i.R ) z $.$. .2 o.5 - r 8.8., a 8.e.e.a 7.7.i 9.u : q.<.3.<.<.3.0.4.<.: 0.0.3.: <.q.: <., i i = 7.i a 9 9 - w 8 e w w.e q O.q q O.1 3 O.3 3 &.# v B m k ) l.l.A.n.U.W.(.eXgXgX9XgXfXgXBXBXBXVXBX9XfXBXrX/./.Y.n.f.s.D.OXR.T.R.H.qXOXD.R.<X:X*X*X<X;X#X;XuXxXcX$X#XuX#X$XuX>XuX#X,X,X,X<X>XMX,X;XjX;X:XOX~.*X~.^.R.^.&X^.A.^./.D.R.A.Y.n.a.n.Y.n.Z.D.T.b.T.T.%X%XZ.S.H.K.H.H.K.oX*X&XOX*X>X>XqXjXzXlX,X,XzXxXxXuX2X#X#X;X{.C.'.}.C.{.}.$X{.C.[.C.[.}.$X[.}.{.}.{.C.V.K.{.#XV.V.J.J.V.B.C.{.{.K.C.{.V.( ( *._ ( *.;.;.;.=.C.;.C.{.-.U =.C.( ;.C.=.( V.*.I I ( _ ( U ( *.*.C.=.U =.V.=.=.'.{.C.C.}. X}. X X1XyX|.}.}.}.[.}.1X1X X|.1X}.#XiXiX1X$X1XuXuX2X2X2X$X2XcXcXxXxXuXxXHXxXcXGXcXxXiXiXxXcXxXcXHXyXxXcXuXuX}.",
"uXFXcX2XxXcXuXuXuXxX{.{.$X'.#X$XG.N.+XM.B.OXd.L.E Y R p.R p.k.p.h.h.P.I.P.g.g.c.g.i.R x.G N c # | 5 5 w.w.0 a a > 7.9., a 7., 2.3.: 0.<.3.q.: 3.3.u <.3.q.q.0.0.q.3.: <.u 7.0.i i = i a 9 - * 9 9 - w 5 5 >.q w.>.q q O.7 3 &.[ } M B m S ) T E s.Y.9XgXBXgX9X(././.&XgX-XqXgXbXqXBXBX(.9X(.(.R.Y.S.%XqXD.~.~.~.qX~.R.%XoXoX=X*X<X;X<X@XuXzX#X$X{.;X2X>XcXcX,XuX2XnX;XjXzXlX>X>X>XoX*XsX*X%X0X=X=XfX=X~.~.^.A.b.^.Y.Y.Y.f.f.Y.A.Z.D.^.D.D.D.S.T.Z.M.B.B.Z.H.!.H.OXOX%X=X:X>XqXjXzX,X2XxXcXxXxXxX;X>X$X>X2XK.'.$XC.C.C.'.`.[.{. X}.}.`.[.}.{.{.{.*.C.{.V.B.K.G.N.K.~ B.B._ *.*.*.V.C.V.*.*.U U ( *.;.;.-.=.;.U ;.U ;.=.V.=.=.=.*.( ( =.( U *.( U _ *.C.`.C.=.;._ `.=.=.`.'.C.`.$X{.[.-. X}.}.1X[.|.yX1X1XiXiXyXcXHXuX2XGXxX$X1X1XGXcX$XuX$XuXiXHXHXxXiXcXJXHXxXiXcXuXxXiXxXHXHXJXxXiXuXiXxXiXuX2X",
"HXPXFX2XiXuX$X2X#X$XC.{.@XK.@X{.G.B.K.Q ! N.Y T R R R R D D J D h.h.h.P.P.P.I.5Xg.g.h.Q.x.` N v [ 3 3 e w.s a 8.< > < * * : : , , : 3.<.3.3.: 3.0.<.3.3.0.3.: <.4.<.: <.i < 7., > = > , > - 5 s e w w.8 q w.q >.w.q q O.O.3 +.[ } { $.M N / R R p.S.U.Y.W.eX9X(.9X-X9XvXqXgXqX9XqXvXBX9XrX9X9X/.Y.T.&X0XY.%XT.S.qXR.R.%XoXR.%X*XoX{.oX@XxXmX,X<X>X>X$X$XFXKXuX2X2XnX>XzXxXxX>X>XuX;XjXMX:X:XdX0X*X=X0X=X&X-X&X^.9X^.F.Y.n.n.(./.D.T.T.Z.D.%X~.*XD.H.H.D.L.R.T.H.R.T.T.~.oXoX@X@XjXzXxXHXHXxXcXuXxXzX,XxXxX{.'.$X{.{.}.$X}.}.{.`.`.[.C.[.[.C.`.{.V.C.{.V.*.V.*.*.V.! B.B.*.B.*.*._ _ U U U U ( =.C.;.;.;.;.U Z U U U ;.;.U U U U U U ;.( ( =.*.*.*.;.U U U U ( ;.=.( ( -.'.C.C.}.'.{.[.}. X`.|.}.}.1X$X}.2X$X{.1XxX1X1XxXiX2XcXcXcXcX$X2X$X2XuXiXHXiX2XiXcXuX$XuXHXiXGXGXcXHXcXGXmXcXxXxXxXuXuXuX",
"xXxX,X#X,X,X#X$X{.#X{.$X#X'.#X{.N.M.M.W ! l.P Y T I S S S G J J R p.j.j.j.i.c.I.c.g.j.Q.p.) G `  .X.X.O.w.s > a = < , < , 7.i <.3.3.3.4.4.3.u 3.3.: <.3.0.<.t <.: : : i i : : < i i 9.9.s 9 5 w e w >.4 1 8     1   1 q w.7 &.] &. .$.B m G S I R R p.s.a.W.eXR.9X-X9XBXfXvXgX0XqXfXvXqX9X(.6X^.A.~.-X%XT.*XT.F.*XT.H.%X%XOX*XqXoX@X<X,XMXmXuX,X;X,X,X,XcXmX>X2X>XnX2XzXuXuX,X;XuXjXnXlX*XOX&XR.OX%X0X=X~./.-X/.qX/.R.&X^.R.9X/.^./.~.A.T.%XT.T.S.!.T.F.H.H.F.K.T.H.T.~.oX@X+X;X+XaX,XcXcXiXHXcXcXxXuXFXHX$X$XcX2X$X$X$X}.}.}.[.[.|.[.}.}.C.`.{.'.K.{.C.V.N.B.V.*.~ *.! ~ *.U ^ U *._ *.=.*.*.C.}.C.*.;.;.( ( *.*.*.=.*.U U U U V Z ;.U U *.( ( *.;.( ;.*.=.=.-.C.=.=.`.}.[.`.[. X}.}.|.}.[.$X$X[.#X}.}.2X$X}.1X2X$X$XiXuX1XiXiXuXxX#X2XuXcXHXHXHXiXiXGXFXuXuXcXHXiXiXiXuXiXxXGXiXiXiXiXuXuXuXuX",
"2X2X#X#X2X$X{.#X#X#X#X>X#X{.,X@XB.B.M._ B.l.Q ~ I I S S G G N L D R k.k.p.i.j.c.c.i.i.U.p.D D ` { [ +.X.>.>.- 0 = = < i 7.i i 2.3.<.u 3.4.<.u <.3.u 3.0.0.9.u 0.3.2.9.0.0.9.7.7.i 7.e.9.s 9 * 5 r * 5 1 5 5   5 O.4 1 7 X.2 [ [ }  .%.B c N S S D F p.p.f.W.-Xn.Y.^.-XgX&XqXgXgXBXvXBXgX9X9XhX9X&XgXvX-X=XdX=X:X=X%X%X*X%X%X*X;X*X,XlXzXlXlXuXjX+X,XuXuXcXxX,X>X>XzX,X,X$X#X$X#X@X,XzX>XoX%X:X&X*X%X:X=XH.T./.D.(.Y.D./.^.Y.T.Y.n.F.Y.Z.H.%XD.Z.b.R.H.B.K.L.S.T.K.K.H.!.OX+X;X,X>XmXuXHXcXuXKXcXcXmXxXHXHXuXuXFXuX2X$X|.{.}.}.[.}.|.}.}.}.[.[.{.C.*.V.*.*.V.M.N.V.M.N.M.M.C.V.*.C.C.C.V.V.*.( =.C.;.U U U U U ;.V.*.;.( U Z U Z U ( -.*.;.;.( *.=.*.=.V.C.C.-.-.`.`.`.[.}.[.`.[.|.[.[.}.}.$X1X}.}.$X$X$XuX2X1XuXiXiX2XuXuXuXiXuXuXcX$XuXiXGXGXcXiXuXxXHXcXiXiXcXHXiXuXiXuXuXxXHX2X2X2XuXuX2X2XuX",
"2X$X#X$X2X,X#X#X#X}.}.#XK.K.{.J.M.B.B.M.M._ T R I / S G H m m N G G ` u.k.k.z.Q.j.i.h.W.z.p.D J H {  .] | w * - s a 7.0.9.i 3.0.3.<.: 3.4.<.<.4.: : 3.<.<.<.: 2.u 2.7.i 9.9., < a a > = * *   4 w - 5 5 q w 7 >.w.o.7 X.3 [ 2 [ }  .%.{ m N N S S S k.l.l.~.&Xn.&X9XfXbX9XgXvXvXBXbXBXBX9XgXNXgX(.qXdX/.%X%XT.~.^.*X*X~.OX=X:X,X:X>XlXjX>XsX>XjX>X,XuXjXnXmXuX>X2X2X;X$X$X$X>X+X;XuXMX,XOX:XkXqX0X*X0X=XT.^.%XD.~.R.D.^.T.n.T.R.Y.~.%XR./.&XD.Z.Z.R.T.Z.R.R.H.OXD.F.D.H.K.K.J.oX,XmXxXKXHXuXJXxXcXKXmXmXFXxXiXxX$X$X1X1X#X}.{.C.`. XC.[.}.[.{.{.=._ *.*.V.V._ B.M.M.B.:.B.J.C.C.{.'.*.U U U U ;.;.Z V Z U U U U =.U U U U U U V Z U C.=.( ( ( =.=.*.;.;.( ( ;.;.-.-.-.`.[.`.`. X|.[.[.[.}.|.|. X$X$X#X#X$X#X}.$XuX2X}.#XuXiXxXiX1XcXuXxXcXHXxXuXuXuXcXcXiXiXcXiXHXcXcXHXcXxXxXcXuXuXuXuXzX2X,X$X",
"2X#X#X#X#X#X#X#X{.'.K.C.V.V.C.V.~ ! M.W ~ ~ A I S S z N @.@.{ $.H H H L L J k.z.j.j.j.Q.h.p.D D K @.@.v # 6 5 - d 9 a 9.7.: 3.4.3.3.3.0.3.: <.4.3.3.0.3.2.0.3.0.7.7.9.a a 9.0 ; 8.a - * * - * q e w q 5 w o.q o.3 1 1 o.2 | 2 ] ] }  .{ M B m G G S ) R s.D.~.D.9XqXgXVXgXbXbX0XqXfXgXgX9XgXhX9X-XdXvX*X0X*X^.OXF.OXOXH.R.*X:X:X;X@X;X*X<X>X,X,X>X;X2X2XuXzXuXzX2X2X,X,X2X2XcXuXxXSXmXaX*X:X:X*X=X&X:X=X%X*X=X^.R./.^./.^.Y.^.~.*X=X0X~./.%XZ.Z.S.~.T.D.R.~.T.oXR.T.T.R.T.J.oX<X<XuXuXcXcXuXJXHXcXLXHXcXmXcXxXxXuXuXuX2X#X#X}.`.[. X`.`.[.[.[.C.=.*.C.C.G.V.! ! *.! W P ~ M.! *.C.V._ U U U U ;.=.U U ;.*.;._ ;.*.I C U U ~ U U U ( V.*.U U U =.;.( U U U ( ;.=.-.`.-.-.-.-.`.[.}.[.|.}.[.}.}.}.}.{.{.{.{.'.{.{.'.{.`.}.uXuXuX#X|.uX$XuXiXGXcXcXcXcXHXcXuXiXGXiXiXiXuXxXuXuXxXuXxXuXuXzXxXuX,X#X",
"xX2X,X#X{.#X#X'.'.{.K.C.C.K.V.C.*.~ N.^ T M.A I z G k m $.#.#.%.$.@.@.H L L J u.v.p.i.h.i.p.p.J G L M v @ | >.8 9 0 > i : : 0.0.3.3.3.3.3.u u 4.3.3.4.3.3.q.3.0.i , 9.a > 9 > = w.s 9 - e w 5 o.w r q w >.>.o.o.o.3 7 X.2 &. .} ] ] } n B B m L G G S D R s.b.n.A.R.&XfX-XkXqXOXqXvXgXgXfXBXhX9X9XfXvX/.=XqX*XR.OX=X%XR.T.T.H.OX+X!.*X*X*XqX>X;X,X<XjX2X,X>XjXnX2X2XjX2XuXuXFXiXaXxXzX,X:X0X=X%X%X&X=X&X&X&X&X^.A.~.^.^.T.A.D.A.A.A.A.Z.T.R.Z.D.S.T.R.H.T.R.R.H.R.R.~.oXOX+X;XaXzXzXuXxXuXuXHXJXxXHXmXcXFXcXcXcXxXxXxXuX#X#X$X}.}..X X[.[.`.[.C.;.*.V.*._ *.W W N.B.! W *.M.U *._ *.*.*.=.;.( ;.=.U U ~ *._ ( *.U V I U U U I P V.=.C.=.;.*.;.-.( ( ( ;.=.V.C.C.[.[.-.-.`.[.[.[.[.[.|.}.[. X[.}.{.'.{.#X{.{.}.}.{.$X}.uXGXiX1X}.$XuX}.$X$XuXuXuXcXiXcXxX2XuXxXuX2XuX$X2X,X,XxXuX2X2X2XuXuX2X,X;X",
"#X#X#X#X{.#X$X#X'.{.{.K.#X#XC.'.{.N.{.W Q L.S I / / m c { { }  .v v v v M L L J D p.v.U.h.z.h.p.J K K H @ n +.  1 9 s 7.i p 0.: 3.<.3.2.0.q.0.q.q.3.0.3.3.3.: , < = a a * * * * 0 5 * - >.>.5 e w 5 5 O.w.q 1 3 X.3 +.+.[ %.%.] } v n n B B m H N G G D R Y Y Q s.Y.&XqX~.qXdX=XdXVXdX9X9XBX9X9XBXVXVX&XqXbXkX~.!.OX!.!.OX!.oXsX@XoXkXsX*X>XqX,XlX;X2XlXMXmXnXMX2X>XxXxXxX2XmXuXuXlXjX,X:X:XOXT.OX=X=X%X%X~.T.H.%X9X~.D.F.A.T.Y.Y.A.A.Y.~.%XD.T.Z.D.T.R.T.R.R.Z.F.S.D.L.K.H.oX<X@X{.#XuX2XuXcXHXxXFXxXxXmXxXxXcXiXcXGXcX2X$X|.[.`.|.[.[.[.C.`.`.*.*.*.U U _ ! *.N.M.! ~ N.N.! V.*.*.U U *.;._ *.*.U V U U U U ;.;.U ;.*._ U ^ P *.( ;.( ( *.;.=.=.;.U ( *.-.C.C.`.`.-.-.[. X[.}.`.-.}.[.`.[.`.[.{.{.#X$X$X#X$X#XuXuX#X$XiX2X$X$X1XxXuXcXxXxXuXuXiX2XiXcXiXiXcXuXiXGXcXcXxXxXFXuX2X2X2X2X2X$X$X$X",
"2XuX#X'.K.,X{.$X{.C.{.C.*.C.C.V.~ ! ! W T T I S G G m c {  .&.} # v ] v v n { $.` J F v.v.h.i.p.R x.].` G m @ @ $ 6 r 9 , i u u u 2.p u 2.2.<.3.3.3.3.3.0.<.u i > < i a < < 0 > 9 * 1 * 1 5 * 5 5 5 w.w q 3 1 q O.O.+.+.2 2 [ ] ] { $.$.M c N N G G J J D D R R f.F./.R.%XvXvXgXgXvXqXqXvXbXfXfXvXvXVXVXKXLXdX;X:X;X*X*XoX!.jXbXOX%XvXqX*XOXkX<XjX+XT.,XMXnXlXMX2X2XMXMXjXjXlXuXsX;XOX+X*X*X@XoXOX%X*XOXR.OX%X!.&XD.R.n.f.Y.W.R.R.T.0X~.0XvXT.~.~.~.%XD.%XT.F.T.F.%XR.K.@XJ.+XjXoX#X#X2XuX1XiXcXxXFXxXxXPXcXHXPXGXHXGXGXGXiXiXpX1XyX1X X[.}. X`.=.*.=._ *.V.~ ! N.b.P E :.W ~ ! ^ ! *.^ *.U U U U P V U ;.=.;.Z ;.;.*.=._ V l U =.U ( ;.;.;.;.U U =.;.( -.C.*.;.;.-.-.-.`.`.`.`.}.[.$X XC.}.[.`.#X`.`.$X2X#X{.#X{.$X#X2XuX$X1X2XcXcXxXuXuXiXiXuXyXiXGXGXcXxXxXcXuXGXyXcXGXiXHXuXuX$XuXxX$X$XxXcX",
";X$X'.K.{.uX{.{.V.C.{.K.V.K.K.V.~ ~ W ^ ^ T I S k N B v v ] [ &.]  . .[ [ +.%.$.m L J x.p.z.i.p.S.XXXXk.S G m . n | O.s s 7.2.p 0.0.i 2.2.: : u 0.<.: : 3.<.u i < < i i : i a a w.w w 7 5 w r s q 5 w.o.7 1 1 o.O.X.3 7 2 2 &.} v v B B m m N N m G G G J ) ) k.E f.D.Y./.qX9X9X9XfXgXgXvXvXqXqXvXvXVXvXvXvX;X=X:X;X;X:XoXJ.>XqXR.T.0X:X:XqXbX:X,XqXqXjXnXnXlXnX>XjXnXmXzXzXzX,X;X<X*X;X,X;X;X:XdXdXqX=X=X*X~.T.D.T.^.Y.Y.(.W.U.Y.D./.^.~.:XD.T.S.T.T.S.~.D.D.T.!.oXN.J.+XJ.@X;X{.{.{.#X$X#X2XxXuXcXxXcXPXFXPXPXcXJXJXJXGXpXpXpX1XyXyX|.}.}.[.-.=.;.=._ *.V.~ ! W d.T W B.W U :.*.V.C.! B.U U U ^ V V U U ( ( ( Z ( U Z V V I U ( Z Z U Z ( *.;.U ;.( ( =.=.;.;.=.C.C.=.-.`.`.`.}.[.1X}.`.}.{.[.}.`.`.#X$X}.'.'.#X2X$X2XiX1XuXuXxXiXuXuXxXcXiXuXuXiXcXiXuX2XuXuX$XiX{.1XuX$XuX#X#X$XiXxX2X$X1X$X",
"#X#X'.{.#X>XC.'.V.C.{.V.*.V.*.~ U W W W T W I S k k m v ] } } [ 2 [ | 3 7 O.+. .v H G J u.x.p.p.S.S.z.R D S G N v ..o.O.0 0 , < 2.i : 0.0.: 3.3.3.<.: : 3.9.i i > a 9.i i 9.a s w 5 7 7 q w e >.q 1 O.7 1 1 7 >.X.3 1 7 2 | %.] c c c m M B N N G G G G J J J R Y Y d.Z.R.(./.(./.-XgXvX9X9XqX9XdXvXVXvXdXbXvXvXqX;X:XkX+XT.>X*XF.F.=X;X*X*XsXOX;XmXmXnXKXKXnXnXmXmXKXKXnXMXMXsXqXkXbXbXvXqX:X;XqXqX&X*XsX=XT.H.H.%XD.b.Y.R.W.n.Y.Z.Z.~.D.!.D.S.b.T.D.D.OXZ.T.T.OXR.N.oX@XK.oX#X'.{.'.{.{.{.1XuX$XuXzXuXcXcXKXHXcXJXPXJXGXpXGXpXpXpXyX}.`.[.[.`.U U U I ^ U P P l ! P P ~ U ! C.B.V.C.*.*.W U ~ I U ;.=.*.;.( ;.Z ;.U V V U *.( ;.( ( U Z ( ;.( ;.;.;.;.=.*.;.-.=.[.`.=.=.-.-.-.[.C.}. XC.`. X{.$X}.{.$X2X#X'.'.#X$X#X$X2X$X$X1X1X2X2X2XuXiXuX2XuXcXGXiXuXuXuXuXiXHX1XiXJXiXxXiX$X2XuX2X$X$X$X#X",
"{.#X#X{.{.{.C.#XC.K.{.*.U V.*.U U ! *.*._ W I z G k m n ] [ [ X.3 1 7 w w >.>.+.%.{ m N J x.k.D Y E E p.F A ) ` b n | 7 5 - < t : : = 0.2.t <.<.<.3.<.3.9.q.0.9.7.9.9.a 0.e.> - - 5 7 q 5 5 - 5 *   q q 3 1 q X.3 3 7 X.2 [ %...v B m c B N m N ` / G G G S S D R Y d.d.A.R.R.(.0XqXBXZXfXfXBXgXbXVXVXbXbXVXbXqXzX:XqXvX*X@XqX;XK.T.dXkXOX!.;XOXqXmXzXsXKXLXmXmXnXnXVXmXjXzXMXkXbXZXKXbXdXsX0X%X&X-XR.~.0X%XF.H.&XqXZ.f.R.R.W.R.R.D.b.=XZ.D.H.Z.Z.~.F.D.*XF.OXR.T.R.J.@XJ.N.oX#XJ.{.'.{.{.{.2XuX#X$X,X#X,XuXHXGXcXJXJXJXGXGXJXJXGXGXpX}.`.[. X[.;.;.;.U I U ^ P P B.P l *.*.*.K.~ ~ ~ ~ ~ ^ W ~ ~ U ;.=.*.( U ( ( ;.( Z Z _ *.I l Z ( ( ( *.=.( ;.-.;.( *.*.;.=.=.`.`.;.=.`.`.`. XC.`.`.-.`.}.}.$X{.{.$X2X$X#X#X$X$X#X$X2X1X$X$X$X2X2X$X$X1XuXuX$XiXcXiXuXuXuX2X1XGXyXiXJXiXuXiX1XiXuX#X$X2X2X$X",
"'.{.{.V.V.V.V.#XC.C.C.*.=.{.C.*.*.N.C.V._ U I z k g B n v ] [ +.3 1 w e e w.w.>.+.] v B ` K J D f.Y.R.R.f.R x._ z b $ 2 3 r 0 0 9.0.i 0.2.t 0.0.0.0.u u 2.9.i , > a i < a >     - 5 q q 7 5 5 5 1   7 7 3 3 o.o.| | | | 2 2 %. .c B m m H N m N G G G J G G ) ) Y Q B.d.b.T.T.R.-X(.gXVX9XqXvX9XvXbXbXvXkXbXbX0XbXsXqXzX*X@X>X<XoXOXlXmX,X;XsXsXzXzX+X+XnXmXzXmXlXjXbXbXkXvXmXbXVXKXVX:X&XdXvX0X0X0X%X/.0X~.F.T.0XdXD.T.0X%X/.9X~.T.F.kXF.D.!.F.H.OXZ.D.*XH.OXT.K.T.T.oXJ.J.+X@X{.{.'.}.#X#X2XuX#X#X$X}.uXcXJXHXHXJXJXJXJXJXPXPXGXJXUXpX.X.X|.[.-.=.=.*.U U ~ ^ P M.P P V._ P ^ U P ^ ~ ~ W W W U C V C Z Z Z Z Z Z Z Z V I ^ l h Z ( U ( ;.( Z U -.;.C U ;.( U ( -.-.;.-.[.}.}.}.`.[.}.[. X$X}.C.C.C.'.#X#X#X#X#X#X#X{.$X$X#X$X,X2X2X$X1XuXiXiX1XiXcXiXuXxXxXuX1XGXyXiXGXyXyXuX$XiXxXuXuXiX2X#X",
"C.C.C._ V.V.C.#X*.=.*.*.C.{.=.*.*.V.V._ I l z z k g B v ] | X.w.7 r w.e - w.w.e 7 1 ] { $.m L ) p./.&XR.f.z.XXx.S N c # 2 7 w e , 9.i 7.i : 0.0.3.<.: : 7.9.< = = 0 > < > *   * 5 q 5 5 5 5 w O.5 1 7 7 7 7 O.O.| X.[ [ [ [  .] c m m m B N m N N G G G G G ) ) A Q L.l.B.D.F.A.R.Y.9XgX&X9XqX~.fXdXvXvXsXkXZXbXmXvXqXsX,XoX+XoXoX!.=XlX;X,X>X;X,X>X,XzXmXzX,XMXlXkXbXVXmXZXLXVXbXKXZXdXdXBXBXfX0XfX0X0XqX-X^.~.dXqXD.T.0X~.Y.&XH.H.T.vX!.!.:X%XT.~.F.D.:X~.OXH.H.oXK.J.oX@X+XJ.{.#X'.{.#X}.$X#X{.{.$X#XcXJXPXHXJXJXJXJXPXJXPXJXJXJXUXpXyXyXyX|.`.-.*.;.P P ~ V I _ V V V._ P P *.^ ^ M.:.:.W W ^ V V ( ;.U C Z Z V V Z V V I V U =.;.U ( ( Z C Z -.;.V Z ;.( Z =.-.-.=.-.[.[.}.`.`.[.|.}.{.}.`.`.`.'.K.'.#XoX'.K.'.{.'.#X$X}.$X$X$X#X1XiXcXiXyXcXGXcXiXiXcXGXcXcXJXpXpXGXiXiXcX$XuXiXuX2X2X$X'.",
"C.K.{.=.{.{.`.{.*.*.*._ V.C.U U U ~ U P l l z z N g v @ ] +.X.+.7 q w.r * w.w.r 5 1 | |  .v M G D f.f.p.Y i.W.p.R S z b $ 2 7 5 9 9.a i 7.<.3.3.: t : 7.e.e.7.i > w.a 0 9 - 0 s 5 q 5 5 4 1 5 7 1 3 o.+.>.7 7 2 2 X.[ [  . .] v m m m N m N G N G G G G G G G / F T l.d.d.Z.b.Z.%X/.9XgX9XfXvXqXbXbXbXVXdXsXVXvXnXmXsXkXlX;X+X+XoXH.oXsX!.@X@XoX+X>XlXSXKXlXuXMXMXkXvXmXvXVXVXvXbXVXZXVXBXBXvXgX0XfXfXfXfXfX0X&XdX*XD.S.~.Y.Z.%XH.H.*XsX!.!.:X=XT.!.!.T.0X%X!.H.H.@XG.K.@XoXJ.K.{.{.C.'.{.{.}.'.C.{.$X}.xXGXcXcXGXGXGXJXPXJXJXJXJXJXUXpXpXpXpX1X[.C.*.*.I ^ *.P U _ C U =.( _ *.*.^ W C.:.! ^ ^ P I *.`.`.;.U Z U V Z U h V U U U ;.( Z ;.=.;.;.;.-.;.Z ;.-.=.=.[.[.-.-.[.[.`.`.;.`.[.|.`.C. X=.{.}.}.{.'.#X{.C.'.{.#X#X$X2X#XuX#X$X$XuXxXcXiX1XiXiXpXyXuXiXiXyXpXpXyX|.yXyXuXyX$X$X2X$X{.#X{.V.",
"=.`.$X`.#X{.'.{.C.C.*._ C.C._ V.^ I P V l z z j g g B @ O [ 3 X.1   w *   0 > * 0 r w 7 | # v c ].l.F l.R Y Q.z.R R I N b v $ 6 w s > = , i , <.<., <.7.9.> = = > 8.> - - - s 5 * 5 5 q w 7 w q o.+.+.| | O 1 2 2 +.[ # ] ] v n B m m N m N G k G G G G G J G S R A T T T Q Q b.Y.A.Y.Y.A.^.9X9XbXqX0XmXbXbXKXvXkXmXkXbXKXkX,X:X@X!.*XlXoX@X<X;X>X,X>XjXxXzXMXmXZXvXvXvXsXvXvX0XvXdXdXvXgXqXfXbXfXgXgXvXgXgXqX/.-X~.R.D.OX&XH.*X*X*XdX0XH.F.!.!.H.!.OX!.0X%XH.K.K.+XJ.J.@XN.N.J.K.'.V.C.'.'.{.C.`.{.#XC.2XyX|.yXiXiXpXJXJXJXJXPXJXJXJXJXJXJXpX.X[.C.;.;.V P *.P l I V U ( l V I U V P V.W E P P ^ U *.C.=.U U ( Z V Z Z h V U C Z ( Z Z ( ( Z Z -.C.;.( =.`.-.`. X-.-.-. X[.`.`.=.[.}.|.C.-.}.C.C.{.{.'.{.#X#XK.'.#X$X{.#X,X}.$X#X2XiXxXiXiXuXpXpXpXpXiXiXiXuX$XyXpXyX|.yXiXiX$X$X}.2XuX#X{.{.V.",
"{.iXiX`.V.#X=.{.}.*.C.C.*.C._ ~ V U _ ( I l z k b b c $ [ [ X.+.o.>.w.5 - s 0 * > 9 5 O.| | O @ B ` S ) k.f.U.h.Y Y l.I z b c ..o.w d 9 a 9.9.7.9.0.0.7.i a * = > s 0 - - - - 5 * 8 w q 5 7 q 7 X.3 3 X.X.1 2 +.[ # O # v # v B m m m m N L G k G G G G G G S S x.) R R Q Q s.d.d.f.b.Y./.9X9XfXvX*XdXbX:XkXVXsXkXzXvXbXmXlXlXMX;XsXlXsX+X+X*X+X+X;X;X;X<X,XuXuXkXvXdXqXVXZXkXbXZXdXVXZXVXVXvXVXBXvXVXVXVXBXqX9XvX~.F.0XVXkXOX%X!.H.D.!.T.K.OXOXH.D.Z.B.!.*X!.K.@XG.!.J.K.J.J.#XK.$XC.#X$X`.}.}.}.`.}.C.}.yX}.yXiXGXJXJXJXJXJXPXPXPXJXJXJXJXpXyX|.[.-.=.I V U V V l C l l V l I V l P ~ W P A P V V I ( U Z V V Z Z U h V V ( ( V C Z ( ( Z Z C ;.-.Z Z Z ;.( ( ;.=.;.;.-.-.-.[.-.[.1X`.-.|.}.{.}.$XC.V.V.{.'.#X#X#X#XK.{.$X#X$X{.uXiX1X1XiXiX1X$XiXiXiXuXpXcXiXpXpXpXpXpXcXiXyX$X$X2X2X'.{.C.C.",
"$XcXiX{.{.uX`.#XK.U *.*._ *.^ ^ V U U I l z z k g c @ ..+.+.+.>.>.>.>.q 5 >.w.0 9 9 9 >.w q 1 # b B m G R p.f.i.i.p.l.~ I C j b ..o.o.s s s a , i 7.7., i 9.d s s 8.s 9 r 9 r 5 w 5 w q 5 6 1 | X.| 7 7 7 2 | %. .] ] v v v v c m m m m N G G G G G G G G G G S ) R R T R Q Q Q Y a.A./.-X9X-X-X0X*XbXVX:XdXZXbXbXbXvXkXzXjXkXkX*X+X*X*X!.J._._.J.J._.@X+X;X,X>XzXkXqX:XVXLXVXLXLXZXLXLXVXVXvXZXZXgXvXVXVXbXgXbXBX0X&XqXdX~.S.T.H.T.T.!.Z.M.T.!.B.F.D.D.T.!.K.H.T.K.!.H.K.J.C.#X{.$X'.$XuX}.$X}.#X{.#X[.{.$X[.|.yXyXpXUXUXGXJXJXPXPXPXJXJXJXGXpXyXyX|.`.*.*.V.V V l V l l l l C l h l I T P P ^ I V U V.V.*.*.*.U ( ;.V V l Z Z h C Z Z V h C Z ( ;.Z Z Z ;.;.;.-.-.=.;.-.-.-.[.`.`.|.'.-.'.`.C.{.}.C.C.{.,X#X#X{.#X$X#X$XuX$X$X}.uXiX2XyXiXiX1XyXiXiXiXiXiXcXiXpXpXyXyXyXyXyX$X|.$X1X2X{.#X{.{.",
"}.1X$XC.{.2XC.'.*.U *._ U _ P I U I C l l l z k c c @ ] ..1 O 1 1   O     r s 0 > > a w.w.w.o.o.2 n n m G ) R p.h.h.a.f.Q I I j n ..6 7 w r d > i < < * * > * = 9 - - 5 5 w w w w * w 5 1 7 1 X.2 | 3 O O 2  .%. . .} v M { { M m m m m m G G G G G G G G S S S R I I I T Y Y Y E a.f.n.A.Y./.-XdX=XvXVXdXbXKXbXMXvXkXqX>XqXjXjXsX=X;XaX;X@XoXoX+XoX!.+X,X,X,X,X+X;XsXkXZXZXkXbXdXqXVXbXqXqX0XZXZXvXVXVXVXbXqXqXqXqXvXVXVX=XD.T.*X=X*X%XH.D.OX~.R.H.Z.F.!.T.F.Z.G.!.!.G.{._.N.@XC.C.*.{.1X{.{.C.=.=.`.V.`.|.[.$X$X$XyXyXpXUXJXJXJXPXJXJXPXJXJXUXpXcXuX#XC.C.K.P V l V l l l x l C l l I I I W _ V._ V.'.C.*.( ( Z U ( V Z h V U h Z ;.( Z ( ;.-.-.`.;.( ( -.=.=.-.-.-.-.`.[.`.[.[.`.}.{.C.`.`.'.{.{.C.{.#X2X@XJ.K.'.#X{.$X2X#X{.{.2XuX1X$XpXpX|.yXpXpXpXiXiXiXyXpXpXyX|.|.yXyX$X|.|.$X$X`.{.`.{.",
"`.[.[.=.'.}.*.=.*.( V._ U _ ^ ~ _ U V l l z z k m c @ ] | 1 O 3 3   1 1 5 w.w.s a a 7.9.w.s 9 q 7 2 ] b b G F R f.h.i.s.E P Q I g n o $ 6 4 0 9 8.0 , > = s > - s r 5 9 5 8 w 8 9 5 >.w 7 o.| | 6 | [ O O 2 2 2 } ] ] v B @.@.H m m m m m N G G G S S S S S S S ) R R T Q T Y E Z.f.a.Y a.n.R.=XdX=XdXvXsXvXVXvXqXkXkXsXjXlXlXkXzXsXlXbXzX>X*X@X;XoXoX;X,X;X+X;X;X;X:X;XsXkX:XdXvXbXLXZXbXbXVXIXZXZXLXZXBXZXbX9XqXqX9XqXkX0X&X=XdXqX%XOX~.~.%XH.R.H.B.T.=X*XOXT.M.oXK.B.{.J.V.{.{.K.V.}.$X`.C.=.C.K.{.=.=.C.-.`.}.}. X|.yXpXGXJXJXJXJXJXJXJXJXGXGXGXiX$X{.'.J.U P l l l l z h x z x j z z l z I V l P _ U P V I C Z U V U V U =.Z ( ;.;.;.-.-.-.=.-.( Z Z =.( ( ;.=.=.=.-.-.-.-.*.=.C.C.=.C.`.'.C.K.V.K.K.{.V.B.{.{.@X'.#X$X'.'.{.1XyX1X1XpXyX$XyXpXpXpXpXyXiXyXyXyXyXyXyXpXyX$X}.{.$X$XC.`.=.C.",
"}.}.[.-.[.`.=.=.*.*.V.U U _ I _ _ U V l S z k g c c v } ..3 3 O.w w >.o.7 >.>.- > > a 7.a 9 - 5 O.o.+...n N z R p.h.i.i.i.Y d.~ G N . @ 2 6 w 9 a > 0 0 - s 9 - s r r w 5 5 5 5 5 9 r w 7 1 7 2 2 [ 2 2 2  . .] ] v v v M M M M m m N N N m m G G G G G S S S D x._ _ l.B.d.d.d.b.d.f.b.Z.A.Y.R.R.R.qXvX=X:XvXkXjXlXvXvXnXmXmXMX:XkXbXkX>X,X*XT.T.J.J.+X<X@XoX+X+X+X>X,XqXzXqXkXvXbXZXvXsXdXdXLXZXbXZXbXdXVXVXfXBXvXqXfXvXqX&X=X0X:X~.R.T.T.~.Z.D.^.T.%X&XD.Z.B.:.oXB.:.oXJ.V.{.$X#X}.$X#X`.`.V.}.#X}.V.-.C.-.C.`.`.`.[.|.yXpXpXUXUXJXJXJXJXJXGXJXGXiXuX}.'.'.*.W V V l z I z j j j j k z x x z l l U *._ U _ *.U U Z V ;.U U =.Z Z Z Z ( ;.( C Z ( C C Z ;.( ( ;.-.-.=.-.=.=.`.*.C.'.C.V.`.}.'.C.K.C.{.G.'.K.J.;X#X<X{.#X$X{.{.}.uXiXuXpXpXiXyXpXpXpXpXpXyXiXpXyXyXyXyXyXyXyX|.}.}.$X2X{.{.C.{.",
"1X}.[.=.C.*.*.=.U U *.P U *.U *._ I P S I S k g c c v ] 2 O O 3 - w >.1 * q r * * = , a 7.> 0 e w.w.>.+...' z R F p.h.h.a.s.d.Q S G N m ..+.w 5 8.9 8.8.- 8.d - 9 - 5 5 5 5 5 8 5 5 * e 7   2 2 2 2 2 O [ +. .[ v v v v v c m m m m N N m m G G G G G S S D D D _ _ _ _ _ Q Q Q E E s.n.A.Z.n.n.Z.D.:XvXdXdXvXkXbXbXvXlXMXnXnXbX0XvXbXsX*X;X:XoXoX@X;X,X;X+X@X+XoXoX>XjXjXkX,X>XqXkXnX0X0XkXkXIXKXdXmXZXbXbXbXvXvXvXbXVXAXvX0XqXdXdX0X:XOX^.*XOX=X0XT.T.T.b.Z.d.G.+XN.N.;X@X{.#X{.{.}.}.{.'.`.C.C.'.C.*.V.`.{.[.`.`.`.`. X|..X.XpXUXUXUXJXJXJXJXJXGXiXiX$X{.{.V.U P P l l I z j k k k N z k k z l V U ~ P V I U V U Z V ;.U Z Z Z C C C Z Z Z Z ( ;.Z Z ( -.;.;.`.[.-.=.=.=.C.{.C.}.}.'.C.C.{.C.'.'.K.{.G.'.oX@X+X+X$X#X$X$X{.}.#XyXiXyXyXyXyXyXpXpXpXpXyX1XpXyX$XyXyX$X1XyXyX$XyX1XuXiX}.|.[.$X",
"|.`.-.;.-.( *.=.U ( *.C U V.U _ I V l z S z k k c v v n 2 2 3 7 9 8.s * 5 w.w.8.- > 9.9.9.> 9 0 e e 8 7 $ @ k z F R h.s.a.h.f.f.D D ` N B +.6 1 e - s s * s s r >.s 5 5 5 5 5 5 w 9 5 >.o.1 | +.[  .[ # ] | ] o # v v M M M M L m N N N m L G G G S S S S S S S I I I T T Y Y Y E Y Y i.s.s.f.n.T.T.*XsXdXkXvXdXbXkXjXkXlXzXzXkXkXvXbXkX*X:XqX*X%X;XqXqX>X<X+X@X<X@X;X@XJ.+X+X,X<X>XkX;XqXMXmXIXLXMXKXLXKXVXbXgXgXqX9XgXvXfXfXBXvXvXgXkX0X&XqX0X0X0XZ.Z.~.^.=X~.T.+XN.J.>X+X{.#XC.C.{.{.`.{.}.`.C.'.V.;.=.C.C.=.-.C.-.-.`. X|.|.yXyXpXUXGXJXJXGXGXGXGXcX2X$X2X{.*.! _ I l z x j g g g g g g j z l P U U U *.V.*.V _ ( Z -.;.Z ( ( Z Z Z ( ( ( ;.( =.( ( ;.-.;.;.-.-.=.;.;.*.=.C.=.`.C.C.*.*.C.M.C.V.B.K.B.K.K.G.oXoX+X@X#X#X{.#X$XyXpXyX1X1XyXyXyXyX1XyXyX$XyXyX|.yXyXyX1XyXyXyXyX1XuXpX}.{.[.|.",
" X-.-.-.{.=.C.C.*.=.V.U _ =.V V l l l l z k k k B B n n ] | X.O.s s 5   r e.w.e t < 9.9.9.< > 9 0 > * * + o b j S S k.Y Y S.f.f.p.D x.S N $.% O >.5 >.w   5 w 5 w q *   1 5 5 q w w >.>.7 2 2 [ O [ | 2  .%. .v # { { M c M M m N N N m m G K ` G G S S S D D D I P P T T T Y E Q Q Q s.E s.z.D.H.R.&X&XR.!.*X0XkXqXqXkXlXzXzXlXqXqXkXdX:X*X*XOXK.oX<X<X<X+X@XJ.@XoX,X;XoX@X@X+X+X>XzXOX*X>XjXIXKXzXVXZXkXbXbXqXBXqX9XgXVXgX0XgXvX0X&X=X&X~.&X%XS.~.b.Z.Z.b.D.Z.G.H.! N.<XK.V.C.V.V.'.C.=.`.`.;.K.{.=.;.V.`.C.*.;.;.;.;.=.`. X X|..XyXpXUXUXGXUXpXJXJXGXuXiXcX;XJ.J.'._ I z l z j j g b b b m N z I ( U U V.C.*.*.{.{.*.{.C.-.C.-.( Z ( ;.( Z Z ( ;.( ;.;.`.=.=.-.-.=.=.`.C.=.=.=.V.V.'.C.*.'.K.'.V.B.'.J.<X@XK.@X@X<X@X#X#X#X2XuXiXiXiXyXyXyXyXyXyX|.yXyXyXyXyX|.yXiXyXyXyX1X$X|.}.}.|.C.`.C.|.",
" XC.=.-.=.( ( =.( =.*.U I C V l V h z l k N g m c c v # o | o.1 5 8 w - w e.s   - 0 s > > > < a , a - r r 6 | n . N / I R f.n.h.s.Q.XXx.R z N b %.n $ 2 1 O.1 7 q   * 5 5 q 5 5 5 5 7   o # o # O ] ] ] %.%.] v n { B M M H @.B N L L L N G ` tXS G G / S S S A I P P T Q Y Y Y Q Q Q Q Y Q B.D.S.Z.H.R.T.R.*XqXqX:XjXzX,X;XqXzXjX:XvXzX@X*XsX@XoX,X,X>X;X_.!.oX+XJ.J.oXoXoX+X<X,X+X,X@X+XjXuXKXKXjXKXKXkXdX0XfXvXfX9XBXLXVXdXVXbX0XqXkX9X0XqXdX~./.Y.D.%XM.G.G.@XG.M.J.J.G.G.B.J.{.}.{.V.=.V.=.=.C.*.*.=.C.C.;.;.=.=.;.=.-.[.-.`. X X.XyXpXpXUXyXGXGXGXiXxXGXuXxX+X#X'.V._ z l j N N N . c c c x x z / ( ( _ *._ *.*.*.=.C.;.;.;.C C ;.;.Z ( ( ;.( Z Z ;.( Z Z ;.Z Z ;.*.*.=.C.C.C.'.'.V.V.C.{.G.G.'.+XoX'.'.K.<XK.'.{.#X#X{.{.}.pXpX1XpXiX1XpXpXyX|.1XyX|.yXpX1XyXyX1XiX1X1X|.|.`.[. X=.-.}.[.",
"=.C.C.C.;.U ( =._ =._ I I I C I C l z j k k k m m c @ o $ +.+.1 8 o.>.5 w w.w   * - > = = = = a < a a s e r o.6 ] { N z I p.i.i.i.n.A.z.R A z k j . @ ] 2 +.1 7 q   1 5 w w 5 r 5 *     2  .] ] # [ 2 # } } @ c v M M M M @.@.L m G G G z S G ` S S S S S S I R R Y P P Y Y Y Y d.Q Q T Y T Q d.d.d.Z.H.H.T.OX=XqXqXzXkXqXqXlXMXbXkXlXjX*XqXjX*X,XMXlXlXzX*X*X;X;XK.J.;X+XH._.,X;XoX+XJ.@X>X+XzXKX;XsXsX;XkXdXgXqXgXqXvXZXvX0XdXbXqX0X9X&X&X9X9X/./.Z.~.dXsXzXMX>X@XJ.;X;XoXJ.B.C.'.{.C.*.=.C.V.C.[.C.C.C.=.-.;.=.-.-.;.;.;.=.;.=.-.-.[.}..XyXpXpXGXGXiXyXxXFXxX#XoX#X'.B._ P z j z j N @ n v b b g g j h l C U V ^ _ U *.=.U U U U U ;.( U U Z ( Z V V U ;.( ( =.;.=.`.[.=.;.( K.`.K.C.V.V.V.V.K.N.L.K.G.G.'.'.@XK.#X#X{.{.{.$X}.yXyX}.$XyX|.yX.X1X|.yXyX.XyXyX|.1XyX$XyX|.|.}.1X}.|.|.[.[.|.}.",
"C.`.'.`.=.=.V.`.( _ U C I U I U I I l z z k k g g b @ o # 7 7 1 8 >.>.5 w w.w - s 9 9 a 9.9.> > a e.9.s 9 9 q 1 2 n g x I l.f.Z.S.S.S.f.Y R I / z N b n # ]   1 o.1 7 w w w r w >.>.o.| | ] } ..2 [ 2 # ] ] # v v M M M M B M m m z G G S z z S S S S S S I ) _ l.Q T T Q s.Q Q Q Q Y Y T T T Y Q E b.S.S.D.R.OXqX>XjXqX*X:XqX,XqX:X*XOX+X;X,X*X+XsX>X>X>XOX+X+X<XJ.oX>X;XJ.oX,X<X{.@X@X>XMX>XMXlXoX;X:X:XdX=X=XqXvXvXbXVXbXdXvXbXqXqX0X9X9XfXfX^./.F.=X0X:XOXOX,XH.:.B.N.B.G.B.*.C.C.*._ V.K.C.C.[.C.C.*.;.=.;.;.=.=.;.Z ;.;.;.;.=.=.-.[. X|..XpXiXcXiXuXxXxX$X@X<X>X+XK.B.~ ( z x x b g n v c b g g x h l I U ^ U U Z U *.U ;.;.;.*.;.U U U Z Z ( Z ( ;.;.;.;.C.-.-.`.C.=.;.;.C.C.V.V.V.C.V.B.N.B.N.K.K.K.K.K.J.G.#X#X'.{.#X2XuXpXyX}.1XyX1XyX1XyXyXpXpXyXyXpX1XyXyX$XyX|.|.|.1X|.$X1X}.}.|.[.",
"'.'.C.=.C.'.'.`.U ( U C U U P C I / l z z x k g g B v o $ 2 1 1   8 5   1 w - * 5 - s s a > ; 0 7.9.a > 9 8.w.o.7 ..b g / ) R f.z.s.R p.p.R R l./ ` N c % ] O | X.3 7 o.w 5 5 w O.o.1 7 | 2 # o [ [ [ [  .} v v v M M M M M m c N S G G G S z z z S S S I I I R T Y P T R T Y P T T Y Y Q d.d.Q d.Q b.B.b.b.D.R.R.OX*X%X<XjXlX>X:XqX;X*XsXjXqXqX+XsX,X>X,X+X@XoX@XoX+X,X+X+X<X<X;X@X+X+XuXxX>XzX,X@X,X>X*X%X!.~.&X0XqXdXvXgXdXvXqXqXqXqXqXqXfXqXR.9XgXZXbX:X!.oXJ.N.M.J.oX_.{.V.V.{.{.C.V.C.`.`.=.C.*.;.U U =.=.;.;.;.Z U ;.;.;.;.=.;.;.-.-.`. X|.1XiX$X$XxXuX#X$X>X2X+XK.B._ _ I z x j g b b c . g j j C C U ( U ~ ~ V U *.;.*.-.*.*.;.;.;.;.U ( ;.( ( ;.;.;.;.=.=.*.=.*.;.=.C.C.C.V.*.V.C.G.M.B.M.G.oXJ.J.J.G.C.V.'.{.{.#X$X$X$X1X|.}.1XpX1XyXyXyX1XyX1X|.yXyX|.|.|.}.1X}.}.|.|.}.}.}.[.[.[.-.",
"-.-.=.*.=.C.=._ U ( ( ( *._ C l l I j z z k N g m B @ o ..| 6 7 1 w q   5 >.r 5 - - 9 > - = > 8.a > = t > s e w 7 | $ b N z A I R Y p.z.S.S.S.L._ _ z g b { n %.| 2 3 q o.5 q O.w o.6 X.+.....]  . .[ [ [ ] v v M M M M m M M m N z z S S S S S S S S S S S S I A A P T T P P P T T T T Q l.M.l.d.Q d.b.E Q B.T.J.oX*X+X;XlXmXzXqXMXlXzXnXlXqXzX>XlXsX>X>X<X@X_.+XoX@X+X@XoX@XoX;X+X@XoX#X@XJ.{.>X;X;X+XT.T.!.&X&X&X&XqXdX0X0XvX9X9X0X9X9X9XeX-XT.(.gXgX0XT.H.!.K.F.Z.@X;X+X@XC.C.#X{.V.*.*._ _ *.=.( ( ( U *.=.;.;.U Z U ;.( Z ( ;.Z Z ;.;.;.-.{.[.#X{.{.xXMXuXzXMXjX;X+X'.J.oX_ ( / z x j N b . . j j j h l l V I ( U ( *.( ( ;.Z Z ;.;.( ( Z ;.( Z V Z U U ;.( ( ;.=.*.;.*.=.C.'.K.V.V.K.C.M.N.B.K.J.K.K.'.'.K.G.#X#X}.#X#X$X{. X}.}.yXpXyXyXpXpX1XyXyX.XyXyX|.|.|.|.yX|.|.|. X X X X[.[.`.-.",
"=.C.`.C.-.=.;.( ( *.=.=.V._ C l h l h z z k N g c b % # ..| 7 o.7 >.>.4 q w.>.9 e - r 9 a 8.s s 0 > , > > 0 - - 5 4 $ n b k G ) R R p.S.U.A.Z.S.T ~ I z N N g @  .| 7 o.>.q q O.7 q 7 7 1 o O ]  .[ 2 # # v v v { B M m m m m N k k z S S S S I ) R I I S S I R I I T T T P T Q T T T P Y Q Q Y d.Q d.Q Y Y B.T.T.@X+X@X@X,XjX,X,XkXzXjXjX,X@X;X*XaX;X;X,X;X+X_.;XJ.'.+XoXN.G.oX<X#X@X@X#X#X{.+XjX;X@XoX@X%X*X=XqX-X0XdXdX:X:XqX9X9X&X&X9X9X(.9XgX(.9X(.^.D.%X=X~.H.G.!.!.J.oXN.M.J.K.*.*.U I U *.;.U ;.;.U ( ;.;.;.U Z U ;.U Z Z ( Z V ( ( Z ;.C.=.{.C.{.zXaX;XzXnX>X,X>X;X,XzXG.M._ I j x z j g g j . . x h h h C U C U *.( =.=.U ;.`.[.=.( Z ;.;.;.;.*.*.;.*.=.*.*.*.*.( ( *.*.V.V.V.V.C.C.V.B.N.J.oXK.G.J.J.K.'.2X2X}.#X#X$X1X|.1X1XyXiXyXyXyXyXyXyXpXyXpXyX|.|.yXyXUXyX.X|.[. X X[.[.[.`.-.",
"-.`.`.`.`.C.=.( *.=.*.*.*.U V l l h l x j z j j . c @ # 2 2 2 o.O 6 7   * >.w * * * s s 9 9 > > > 0 9.a 7.9.8.s e 5 7 ..v c m k D R R p.i.i.a.f.Y E T I S z b c  .+.[ +.>.7 7 7 7 1 1 O 2 2 O $ ] 2 # # # ] { v @.B m m c m m N k z z z S z S I R R I I S I R _ A A A I I P P T P T P P T d.Q P S.d.d.d.Q d.L.@XB.N.K.J.J.+X,X;X,XjXqX>X,X+X+X;X+X,X+X;XaX>X>X+X<XoX+X,XoXN.J.+X#X+X@X<XaXaXuXuX<X+XoX@X;X*X%X%X~.%X*X=X*X&X%XOX9X&X/.-XrX9XeXhXfXY./.R.R./.-XdX%X%X*XsX>X+X@XN.N.{.C.*.V.*.*.C.V.V.;.*.;.Z U ( U U Z Z Z U U Z Z ;.Z h U Z V U U U C.V.C.,XoXK.+X>XoX+X,XoX+XzXJ.N.V.U C h z x j j g . . x j h h C U V Z *.=.`.}.`.[.$X|.[.=.U ;.=.=.=.-.=.;._ V.=.;.( U U _ *.~ ! *.V.N.G.V.B.M.B.'.@XK.N.G.G.C.K.,X$X{.{.}.$X1X|.$X|.|.1X|.}.}..X|.1X1X|..X|.}.}.1X.XyX}. X}.[.}. X[.`.`.`.-.",
"`.=.;.;.-.-.=.( *.*.( U U C l l U l C x x z g b c @ o o $ $ + 1   6 q + 1 >.w.8 * * w e 9 0 0 0 0 0 a < > 9.a 0 s 1 7 | # @ B c k S k.l.f.h.n.n.P.A.S.! I S / N ' ..$  .%.| 1 1 1 1 7 1 2 ] # ] ] ] n v v { { c B m m m k b N N z z S S S z S I l A I A A S I I I I R R ) R I P P P P T l.H.L.d.T.B.M.M.M.N.T.+XL.G.J.J.G.J.+X@X;X;X;X<X+X+X;X>X+X>X+X+X>X,X;XoX@X;XjXuX@X{.<X,X#X#X{.@X;X+X@X@X{.@XJ.J.oXH.T.!.Z.T.*X&X%X*X*XR.&X/.R.-XqX(.Y.-X9X^.9XfX/.-XW.&X~.~.T.oX!.J.+X!.K.oXG.*.V._ _ '.{.'.=.=.;.U ;.=.( ( U Z Z Z Z Z Z ;.Z h Z V X V V h ( V U {.J.K.#X2X@X,XjXoX+XlX!.G.K._ U V I h x g j x . x x h h C U C ( *.*.C.C.=.-.C.-.-.;.Z -.=.U V Z C I U _ _ U U U U ~ _ B.*.*.V.K.N.M.! N.G.J.J.B.*.C.{.V.V.{.{.'.}.}.}.$X[.}.}.}.1X$X|.1XyXyXyX|. X|.|.|.|..X}.|.-.[..X[.|.|.[.[.[.`.[.",
"-.-.-.-.-.C.*.Z U ;.I V U I l V l l h x x j k N b b @ $ ..| 6 2 1 >.O.7 1 w.>.5 * 5 w.w.0 9 r 0 a s 9 0 > 0 < > 0 - 1 o.2 O n n H G S D R i.a.a.a.g.a.D.d.R x.` c b b @ o o O O | +.7 O 2 ..]  .%...n n n v c c m m k j k z z z z z z z z z A A I A l S I I S A S R I I I R I R P l.l.M.L.B.l.P b.Q ^ W N.K.J.J.G.K.@XJ.J.>XzXzXzX>X,X,X,X<X+X+X+X>XjXuX+X;XzX<X>XuXuXuXzXuXuXzX$XuX,X#XoX'.@XJ.oX{.oXJ.H.T.!.D.D.~.&XD.D.~.T.T./.eX(.9X-X(.(.fX9XY.(.vXqX9X9X&X&X=XR.~.*XOXT.N.N.J.K.C.K.V.V.{.'.V.*._ _ ( ;.=.( ( V V Z Z h V Z h h V V h h h V V V V ( _ ~ *.'.#XuXuX+X@X;XkXOX!.J.K.M.~ T l j j g . x j j x h j C C U ( ;.*.=.;.U ;.-.;.Z Z C.C.Z =.=.U U I U I I ~ U ^ U *.*.! *.! B.N.! *.! N.J.N.V.K.{.#XK.{.$XuX'.#X$X$X1X}.[.}.|.yXpXyXyXyXyXyX.X|.|.|.yXyX1X.X.X}. X.X[.[. X X`.[.[.-.",
"-.-.-.-.`.`.-.( *.=.U V U I l l I C l l z x j g g c @ n ..| 2 2 1 o.o.1 1 q 7     1 e 5 * 9 9 0 s 8.s a > 9 > a - * 5 >.| 2 ..{ B m k S R Q a.a.n.n.i.A.S.S.L._ G N b c @ $ ] .... .2 $ +.%...] %...n c b n B M m m k k k z z z z z z z z z A A I I I S S S I I S I I A I I A I I _ T T ~ Q _ W W W Q Q E ^ W ! W ! N.*.M.oX@X@X;X;X;X>XlXjX,XjXKXmXlXuX<X,XlX<X#X;X#X;X$X{.{.@XoX#X'.oX#X@X<XoXoX{.J.K.G.H.H.S.D.^.OXD.D.R.D.H.W.&XR./.Y.Y.Y.(.(.Y.^.9XW.Y././.~.%XT.~.=X<X*X@X;X,X$X#X#X{.K.#XM.*.( U U ( ( U C C V h V C V C V h h h h h X h h h h h C U C U C.{.#X}.'.{.,XMXOX*XOX!.N.! Q _ I z j x j j j h C C C C C U ;.=.=.=.=.-.[.C.=.=.{.[.Z *.*._ *.V.U U ~ ~ ~ ^ ~ *.! ~ *.*.N.K.B.N.B.J.{.K.V.K.'.'.K.{.}.$X'.#X#X#X$X|.1XyXiXiXyX|.1X|.|.|.|.}.|..X1X1X|.|..X|.}..X[.[. X[.`.`.`.-.",
"=.=.-.-.-.`.-.=.=.=.( I ( I l l I l l l z j g g b b n ]  . .2 2 2 7 |   1 5 7   4 5 w - * r 9 - r - * - = 9 - - * * 5 o.3 O 2 ] n B m N I R s.a.n.U.n./.U.D.H.R R S z N B B B ] ....# # %.%.] # { ' b c b b m m m m k k z z z z z z z z z z z S I P S S A z S R S I S S S S S I A R P T T P T T P P W ! P ^ M.B.M._ N.B.V.'.J.G.J.@X@X>XmXlX2XnXzX;X{.@X#X2XmXuX,X,X>XuX,X#X#X;X#X#XJ.@X$X#X<X'.$X+XoXJ.H.H.K.F.T.!.OXT.R.R.F.T.T.R.A.A.b.Y.Y.Y.Y.Y./.(.W.Y.Y.R./.*X~.%X:X%X*XOX@X+X@X{.'.C.V.V.*.*._ P U *.( V h h h h h h V V h h h h h X X h X . X X h j h h -.`.`.C.V.C.@X,X%X=X~.T.H.N.b.N._ I l l x h x h h h h h h V ( =.-.`.`.[.}.[.[.}.|.|.*.{.`.=.*.*.U U ~ ~ ~ ~ M.N.*.*.B.M.G.K.B.N.M.G.J.N.B.V.C.V.C.K.'.#X}.$X$X$XyX1X1XpXpXpXyX1X.X|.|.|.|.|.|.1X.X|. X X}. X[. X`.[.[.[.`.`.`.-.",
"-.-.-.-.-.-.-.=.C.V.*.( *._ V l I l h h j x g g B B n n ..] # O 2 2 7 1 7 X.o.7 7 q w r 5 w w - 9 r - 9 9 s 9 - r 8 7 w 1   3 | } ] b b N I T s.f.A.U.9XY.A.D.R T I S / / N b v n { # @ ] ] @ @ @ b b b b m m g m m k k k z z z z z z z z z z z l l z I I S S S S / S S S S S I A I I T I P T P ! P W b.W ! N.M.G.N.J.K.K.@X'.K.N.'.K.oX2X+XJ.>X;XoXJ.#X;X2XxX,X#X{.$X2X$X#X#X,X#X{.G.{.#XJ.J.N.@X@XK.G.H.H.G.D.D.D.T.D.S.B.d.T.Z.b.s.s.a.T.Z.b.n.^./.^.R.Y.U.Y.%X&XOX*X:XOXR.J.K.T.oX{.J.V.B.V.B.*.U P U _ U l V h l V h h V h h h h h h X . . X . X X . . X . j C Z ( *.C.#X,X+XOXD.D.*X~.S.L.V._ I I C h x h x x h h h h Z ;.( *.=.=.-.=.=.-.}.}.C.}.{.V.U U T ~ ~ ^ ^ ~ M.M._ ! M.M.N.G.*.B.B.K.J.G.V.C.K.K.{.#X{.#X}.$X{.}.yX1X|.1XyXyX1XyXyX|.|.|..X.X.XyX.X.X|.}.|.|. X X[. X X X X X[.`.",
"[.-.-.[.[.-.-.=.C.-.*.*.*._ U I _ I z l j x g g b c @ @ # @ o O # 2 2 2 2 7 7 7 1 5 q w w w w r 0 s s w.9 >.>.e O.w 8 7 5 1 7 X.| ] n c b z I T R.A.n.9X~.~.*XD.f.R R F S N N B c { n # n v o @ @ @ b b b b m c c m m k k k z z k k z z z z z z I S S / / / G S S ) I S S I S I I I A I A P _ ~ W P W M.~ ! N._ *.~ B.V.V.'.J.J.oX+XJ.oX,XJ.N.,X+X@X#XuX,X,XuX#X'.C.{.$X{.{.{.{.{.{.'.#X#X'.oX'.oX@XK.K.@XoXT.~.H.D.T.S.M.d.M.OXH.b.b.Z.Z.&XF.a.Z.^.F.f.n.n.n.Y./.~.D.~.*XR.H.K.H.J.@XoXJ.K.J.K.V.*.! *.V.*.U V U V V V h h l h h X X . X X X X X % . X . X X X X . j C ( V.'.#XoXoXF.T.:X%XD.R.oXN.l.M._ C h z j h h V h h V U ;.-.-.-.C.C.C.`.[.[.*.C.V.*.U _ ~ _ ~ P P W Q W W W ! ! B.G.M.B.M.G.J.V.M.V.K.'.K.{.K.}.}.#X{.}.$X|.}.1XiXyX|.|.yX1X|..X.X|.|..X X|.|.|..X|. X|.-. X X[. X X`.[.",
"-.-.-.-.-.-.-.-.=.*.( ( ( ( U I / I l l l j j j b b @ @ # # # ] ..+.+.+.| X.3 6 1 5 5 w r 5 w w 9 9 r w * q q 5 7 7 1 5 7 7 q 7 7 2 2 # c N S R R Y E R.a.a.F.a.i.i.p.R R G G m m B v v { B @ b b c c c c c c m c m m m k k k z k k k z z z z z ) I S S G G G G S / S S S S S I A S I I P T B.W P P ! N.! ! M.M.~ ^ *.B.B.G.V.G.'.'.K.@X,X@XoXMX{.@X<X>X$X;XuX;X#X}.$X>X#X{.#XC.{.#X@X;X$X@X<X+X<X#X{.J.+XoXK.R.T.T.R.S.M.b.N.*XR.b.S.H.D.0XT.b.Z.T.A.s.f.f.a.n.W.T.b.D.R.S.F.K.K.K.J.J.N.G.J.K.C.V.V.K.K.V.U V U V h h h h h x h . . X X X X . X % o o o % % X b j j j h U =.K.N.K.K.!.%XT.D.~.%XH.F.G.V.~ I C l h x h h h V U Z ;.;.;.-.-.-.C.[.[.=.C.=.*.U _ M.l.~ ^ W l.M.! M.M.B.M.N.G.M.N.*.N.G.M.*.V.C.K.C.C.C.#X}.$X#X$X1X|.}.1XpX1X}.|.|.|.|.|.|. X X X[.}.|. X X[.-.-.-.[.-.-. X[.-.-.",
"=.;.;.-.-.-.=.=.;.( ( ( U I I P P l h l z z k N N b c v n n ] ..$ 2 2 2 + O O 1 7 q q q 5 - w w w 5 - 5 * w w 1 6 7 1 7 o.q q 3 7 7 2 # b m N S A s.S.%Xs.n.~.b.i.h.U.z.l.) G m m B c v $. .v v B b @ c v c v M m m m m m k k k k k k k z z z z I S z z z z z G S / S S S S S I S I R _ I ~ B.P ^ ! N.N.! ^ U ! *.~ V.V.V.V.M.V.M.! M.J.@XG.K.2X$X,X,X,X#X;XuX#X#X{.$X$X{.$X;XC.#X#XJ.'.'.'.{.G.oX{.G.N.J.G.d.M.T.D.D.b.d.M.N.*XS.Y b.Z.d.!.b.b.b.Z.A.b.b.a.a.a.Y.A.f.A.D.b.b.N.H.G.J.oXJ.oXoXG.B.M.*.*.*.~ P l U I V h h h h z C h . X X . % % o % o o % $ % % % % . . x C _ C.! ! B.H.H.S.D.~./.R.H.T.K.B.( ( C h h h h h h Z Z ;.*.*.-.C.`.[.{.{.C.'.C.C.U _ V.M.Q W ! B.B.M.B.B.N.M.B.N.! B.N.K.K.N.C.{.{.{.,X#X{.2X}.}.[.`.1X1X}.|.yX}.[.yX|.}.|.|. X X X}..X1X.X X|. X[.[.-. X-.-. X[.=.-.",
"[.-.-.-.-.-.;.( ( ( *.V._ U I l I l l z z z z z g g @ @ v @ o # # # 2 o O O 6 7 7 o.w q 4 5 >.e r 5 q o.5 >.>.7 7 | 3 7 o.8 1   q X.| 2 $ v b k S ) l.H.d.&XvXF.Y.W.W.A.f.l.x.J G H m m $.@.v B $.B c B { M v B M M B N m m k k k k k k k z z z k k z z z k z G S / S S S S S I _ _ _ R A ~ V.P P ^ W W W W ~ N.! W B.G.V.V.M.V.V.M.V.@X@XV.N.@X{.{.{.{.{.;XuX{.K.'.#X$X#XuXuXJ.2X,X'.J.{.@X@XN.K.'.N.V.@XJ.B.G.OXR.R.S.F.H.T.:XT.E Z.Z.Y B.E Q Q d.d.E Y Y E f.s.f.s.D.H.d.d.B.G.N.J.<X<X;X@XM.C.K.V.~ U ~ _ I _ *.( C C z C ( C j X X X X @ o o o o o + 6 $ & $ $ n % X x C ( U P ~ N.G.G.T.~./.~.!.oXoXK.V.=.;.( ( ( U V h V V ( ;.;.=.-.-.C.{.{.C.K.C.K.*.N.J.B.W T Q ! Q T ! ! ! W ! M.W *.V.G.G.V.J.#X#X{.$X'.'.2X}.#X}.`.|.|.}.|.yX[.`.yX}.}.}.}. X X}..X.X.X|. X|.|. X X X1X|. X.X|.-.-.",
"[.-.-.-.-.-.=.( =.V._ _ ! P P P P I P l I z l k k j c c @ # ]  .[ ] $ $ 2 | 7 | 6 1 6   * 1 q 1 1 1 6 7 o.o.6   3 1 1 3 1 O   O 7 7 2 O $ } { c c N S ) l.D.%XA.&X(.9XY.W.Y.S.p.R l G N c M v @ c c c B B c c c m c m m N G N k N m k k N N z k N z k z S z z z z ) z z S / ) A S S S A I I P P T W P T W M.W M.W B.B.N.V.V.V.'.V.V.C.'.C.V.{.,X,X@X@X$X#X@X#X#X#X$X,X$X#X{.{.{.#X#XV.#XuX#X$X{.;X>X'.N.oXK.B.oXoXZ.N.Z.R.%X~.%XD.b.D.T.b.b.Z.Q b.Q Y E R Y F Y l.l.Q M.d.Q B.G.G.J.@X;X@X{.@XN.N.J.M.l.N.K.L.T R V.l x z h h h h x h j b % $ ] o 6 + o + + & & +   + $ o % ' b x / C #XG.OXMXvXkX,X;X,X,X$X#XC.=.=.Z =.;.V ( Z ( U U U ( =.=.*.C.C.V.V.V.M.N.N.@XN.B.! M.M.P ! M.M.M.M.B.N.J.oX@X*.V.*.*.C.B.J.#X'.'.{.{.'.'.}.|. X}.1XyX|.}.yX[. X|. X-.[.|.[. X|.`.-.|. X-.-.-. X-. X X,. X-.",
"-.=.=.=.;.;.;.U Z _ U ^ W ^ T P l P P P I P l l k j c c v v ] [ [ ] 2 [ | 7 2 7 1 1 7 7 7 7 o.7 1 6 7 7 6 3 3 6 3 2 2 7 7 7 7 | | | [ 2 2 | ..] c N N / R p.S.h.h.n.Y.n.P.n.h.i.z.R ) G m B M c B c c c c c c c c c c m N k k k m k k k N N k k / z z / / z z / / _ I z z S / l S S S I I I I P T ~ W ! ! B.W W W ! M.B.V.*._ V._ *.K.'.C.C.#X$XoX'.+X>X#X{.{.@X{.{.{.{.K.K.'.{.'.#XK.$XuX{.J.*.{.#XG.B.oX'.B.G.K.M.M.M.B.S.d.b.Z.a.b.Z.d.d.S.B.l.f.p.p.p.R R p.B.B.l.B.l.W _ *.B.K.{.@XC.N.'.N.G.J.B.B.N.L.B.P P l.I S I h h h h . X . . @ o % o + + + + &     4   & 4 + + % X . ' C `.V.C.@X!.H.K.oX#X#X@XC.*.*.=.Z ;.;.V Z Z h V Z U ( ;.;.( C.C.V.V.N.:.B.B.G.Q E ^ ! B.! B.K.B.*.*.B.N.G.J.K.B.J.V.C.#X{.{.,X}.'.'.{.}.}.$X1X|.|.yXpXyX|.yX|..X.X|.}.|.yX1X|..X X`.|.|.-.-. X|.[. X,.-.-.;.",
"-.-.-.=.;.;.=.( ;.'.V.~ W ^ T P ^ ~ W U W I P S k k b c c v ] v # # # | X.2 2 | 3 3 7 o.X.7 7 | 7 | | 7 1 1 3 7 7 7 7 7 | | | | | | ] 2 [ |  ...n B N / S F l.h.i.f.Y.P.Y.Y.P.n.h.P I S G $.@.B B c g c c c c c c c m m k g k k k k k k k k k z ` z z / / k k / _ _ S z z z S z A A S S A P P P A T P Q ! B.W T ! ! *.B.V.*.*.V.=.C.'.K.V.V.J.J.G.N.J.oXG.N.J.+X@X{.{.{.{.{.@X#X@X,X@X#X$XK.K.V.V.J.N.M.@X<XK.B.H.N.G.B.M.M.Q Q S.s.b.D.b.s.d.s.d.Q Q s.R R R l.l.l.T Q T A P P ! *.*.V.*.*.C.*.*.M.! M.M.W W P P B._ ~ I l l C C h X X . @ @ o o       + & 4 4 4 4 4 8 4 6 $ X X X j C C U N.N.G.K.+X,X;X;X$X}.{.|.C.`.C.U U ( V U ( ( ( ( U U {.'.V.K.C.B.G.G.oXN.M.M.G.J.G.J.K.! W ! B.M.*.B.B.V._.V.C.>X{.C.$X{.`.C.'.#X$X|.1X|.|.yXyX|.}.1X1X.X|.|.1XyX1XyX.XyX|. X.X.X X X X|.[. X X-.-.-.",
"`.-.=.;.;.;.;.U _ C.*.U ^ P ^ ^ P ^ P P P A l I l z b g c n { v # # # [  .2 O 2 2 3 2 7 O 1 1 7 3 1 1 6 | X.X.X.2 3 3 2 2 2 2 2 [ ] 2 2 2 ] [ ] { B B / S S l.z.s.h.W.U.Y.E.P.h.W.f.f.) G ` H m m g g c M c c c c m m c c g j k N k k k k k k k ` z x z z l l z I z z z z z S S S A A A A P A A A ~ P ^ ^ ! Q ~ M.~ ~ _ C.*.V.'.'.`.'.C.*.*.V.V.K.G.J.'.N.G.+XuX@X{.@X#X$X#X#X@X'.#XK.C.G.V.G.V.V.J.N.N.<X;XK.B.+X@X%XoXT.R.L.T.T.b.b.Z.d.Y Y Q Q T Y R R R R R l.l.T T I P ~ ~ G.V.~ _ *.*.*.P ^ ^ ^ ! ~ P E Q ! G.N.~ ^ V I *./ z x . . % @ o + + 1 + + 4 4 8 4 4 8 8 + + 6 ..$ X b x h C _ M.@X+X,X,X#X@X#X{.$XiX$X$X$X-.;.=.Z Z U ( ( ;.=.=.}.{.V.C.K.N.J._.!.N.N.G.G.K.N.B.B.! ~ B.V.M._ M.V.K.K.*.C.#X{.C.{.#X}.{.$XuXuX1X|.|.|.1X.X[.`. X[.}.[.}.1X}.[.}. X|. X[.|.|.[.[. X X[. X X X X-.",
"-.-.=.=.=.=.*.U *.V.~ ~ U P W M.P P P ^ U I I ( l z k k m @.@.{ { { } [ ] # o O 2 7 7 | 1 7 | X.7 2 1 7 X.| | 7 2 2 6 2 2 2 2 2 ] 2 # # # # 2 v n c N N k S S R l.S.W.Y.I.E.P.m.Y.a.s.Y A I z g N z k N B B v v c c c c b b j g k j k j j k k z ` z j j z C z z z x l z z z z S S S S I I I I I T V.U U P W ! ! W P U ~ C.~ *.C.[.V.V.C.V.*.G.J.G.V.K.{.K.K.@X;X'.J.'.#X<X#X'.J.N.'.K.K.'.K.V.V.{.{.K.J.+X'.B.B.G.B.S.d.d.b.d.Z.D.d.E d.Q Y d.S.Q Q R R R R R R l._ I T I I _ _ U U V I _ _ U V U ^ ^ *.*.^ :.G.M.N.N.W P P U *.U j x x . X X o % 6 7 4 4 w w 8   4 8 4     4 6 6 o ..b j z I I _ V.@X$X#X@X#X#X$XuX$X$X$XC.=.C.( U U U U ( ( ;.{.V._ V.K.M.B.N.N.M.b.B.M.M.B.! B.M.B.G.V.*.M.V.K.K.C.B.K.@X{.{.K.{.}.{.$XuXuX|.|.|.|.1X1X}.[.}.|.|.|.1XyX|.[.|. X|.}. X}.|. X[. X X[. X X-.,.-.",
"-.=.=.-.=.-.C.*.V.V._ *.*.^ _ G.! *.B.V.V.*._ _ z z z k m B B B v { { ] ] # # 2 | +.+.+.7 | | | o.7 2 | | 2 2 2 2 | | | [ | | [ ] ] # # # ] # # @ . c c k G G G x.S.Q.U.P.).I.P.E.m.Y.U.B.L.V.` / S z k m m c v v c c c b b g g g j j g g j k z N z z z / / C h z k z z z z k z S S S S I I I P I V.U I V P ! ~ P P *.*.'.*.*.=.V.;.*.C.C.V.V.K.V.B.B.N.B.N.J.{.oXJ.K.{.@X{.J.K.J.{.'.oX+XoXK.G.'.J.G.K.J.N.B.N.J.N.S.d.d.M.d.b.d.E E b.M.s.Q B.d.~ R R R I I R A I l A A l I l h P l P I I I I _ U U B.*.^ *.C.~ ~ *.W P P P ~ I l x x . X . % o % +     4 8 4     4 *     4 4 4   6 X X g z j V U V.'.{.$XzXcXiXxX>X$X$X{.C.{.C.-.=.*.( U C C =.;.U V.C.W W ! T.Z.M.B.! M.H.B.B.B.B.*.~ U _ N.N.C.V.V.{.{.C.{.C.{.{.`.'.1X1X}.}.|.|.1XyX|.|.yX1X1X|.|.|.}.}.1X|..X.X|.|.|.}. X X|.[. X X-.,.-.",
";.;.=.;.U ( ( ( V U P U ~ ^ *.N.! :.:.*.*.U I _ I I z z k k m c @ c v n { n v .. .[ | [ 2 O 2 1 6 1 1 2 [ 2 ]  .# 2 $ O # 2 2 O ] ] $ # ] } ] # @ @ B b c H H G J p.p.s.j.U.m.m.I.m.E.Y.s.s.T A R I z k g g c c v v v v b c g g g g g g g g k N z j j z / C z x z k N z z N k z z z z z S S S A V V.V V l ^ M.! ^ U V.*.{.=.V.C.C.*.=.V.V.*.V.B.K.N.B.B.B.G.{.oX@XJ.K.'.oXJ.K.K.J.J.G.G.K.G.B.K.N.G.N.V.N.N.N.G.K.B.M.Q d.B.d.Q E s.b.B.Z.s.Y T ~ R R R I I I I S I A I I l I l I _ / / / z z z U U V _ U V U *.P P ~ P l ^ ^ ~ ~ I l l j x . % $ % O       +     & 4 4 5 8 5 4 4   & o X . N j C I _ V.V.'.$XuXxXuXuXuXuX$X#X}.C.-.-.-.=.*.;.;.=.;.~ C.V.U :.N.OXF.b.B.b.B.oXB.B.B.M.! ~ M.N.J.N.{.G.V.{.J.C.'.{.}.{.{.|.yX1X|.}.|.|.1X1X}.}.1X[.[.[.[.`.`.[.}. X X X X`.[. X[. X X,. X X-.,.-.",
"-.-.`.=.Z C U ( V U P P P V P P ^ ^ P P ^ P I *.I P S I G S z N M M M { { @ o v  .# # O # O | +.X.2 2 ] | ] 2 ] # # o o # [ [ # } ] ] # ]  .} # ] { $.B v B m N G D D Y Y U.g.m.P.m.).).n.d.s.T P I I S z m c c v v n n b @ . c c c b c g b m N N j j N N j x z j g N g k G k z z z z S S I I A _ '.I P V ~ G.*.^ U V.U C.;.C.C.`.C.V.*.*.V.C.B._ ! B.N.G.K.J.K.K.N.L.K.J.G.N.N.J.K.K.J.J.N.M.G.N.K.K.B.M.N.L.B.N.d.d.! M.F.d.Q Z.Z.d.Q Q W Y R l.R R R R R R I S I l z z l I z x S x x z z j x z h h C C h V U V l U P l I W M.~ I l l l x x g . X o $ + 6 7 4 & 8 8 8 8 - ; - 8 4 4 6 6 ..' . . h ( V.`.#X2X2X#X@X;X2XuXuX$X#X`.`.`.C.-.*.=.C.=.*.*.C.N.W N.*XOXF.b.G.G.T.,XG.K.J.K.G.J.;X>X>X+XjX#X{.#X{.{.{.{.{.{.{.1XiXyX|.|.1X1X|.|.[.[.|.}.[.|.|.}.|.1X|.}. X X X`. X|. X X X-.,.-.-.-.=.",
";. X[.-.*.( *.U _ I l ~ l U *.*.*.U W W U U ~ ~ P I R I z S G z N m m m m c v n  .# # ] 2 ]  .| [ O 2 ] ] ] ] } ] # n ] ]  .] ]  .{ # # # # ] @ # # v $.@ { B m L G J R Q.(.Y.E.).).7X6XY.Y.Y.T.Z.Q I A z k c c c n B c @ @ @ . . c c . c m N g b b g b b b j g b j k N N k k N k z z z z S S l _ V._ V U C.V.~ P ~ ~ ~ *.;.( *.V.C.=.=.`.C.C.V._ B.J.K.B.L.N.B.N.! M.J.K.oXB.M.B.K.M.N.B.B.B.G.G.B.K.! J.B.B.W E b.M.M.G.H.D.Z.!.D.d.d.M.Q P T R I I I I S S S I z z z z z z z j j x k z z j j x x x z z z C / h C I I I R T _ T P A l l l j j g . @ % % $ $ 2 4 4 8 5 ; ; * ; ; - * & + 6 $ . h h l ( =.V.{.,X$XuXuXuXcXxX$X#X}.1X$X{.-.( ( =.;.U ^ U *.B.N.G.b.M.Q Z.;XH.<X!.J.G.oXH.J.+XJ.{.K.K.K.C.C.'.'.C.`.C.[.}.$X1X|.`.`.}.|.$X|.`.[.|.}.[.[.[.}.}.}.}.}.|. X X X X|.[. X X[.-.-.-.-.-.",
"-.[.;.U ( ( *._ U I P *.P U _ ~ B.*.N.C.B.! ~ ^ A ~ V.l.I I R S G N m m m c m M n @ # ] # #  . .# # # .. .] n ] n # n ] } ] 2 ] %. .# # # # } #  .] @ ] #  .] c M H K G ) p.Y n.P.I.).).Y.W.Y.A.b.b.R I I G N m b c c n c @ @ c c n v M v c B m c g c c m m b g g g k b m k k N N G S z z z l l l U I V U *._ P U *.*.*.V.V.=.C.C.[.C.C.{.'.J.G._ M.N.B.! _ M.M.G.M.N.@XoX+XN.B.L.J.B.G.B.B.B.N.B._ V.*.N.G.N.M.d.G.G.B.B.M.Q Y E Q Q Q Q P T l._ R I A S S S S S z z z z z j k j j k j j j g g j j g g . g g j j j j j z I I ) l A l l l l h x x g . . % % $ 6 6 4 8 4 * - ; 9 *       & + + X X X h C ( =.`.#X#X,X$X$XzXuX$X$XuXuX$X{.`.=.=.`.=.U ^ W ! W E E b.b.! H.=Xb.G.Z.M.M.G.K.J.+XoXoXG.K.J.{.{.{.{.{.{.[. X}.1X1X1X|.|.|.}.|.1X}.}.$X}.}.}.}.}.}.}.}.}.|. X X X}.|.[. X X[.[.[.[.-.-.",
"=.[.;.U ( U P I P V I _ V P P V V V P P V P ^ ^ W V.oXK.~ A A S S S G G N m m m H v v v # ]  . .O ] # }  .n n c v @ n v v ] # # v # @ n ] .. ...} ..# [ v  .# # { B B N ) _ Y z.h.P.P.E.P.).E.U.n.D.M.T ) I x k g B ' c @ n b c v v v n v @ v v c c c c c c c g c c c c m m m N k k k z z z z l I ( C l V I P V P U U ~ *.*.*.=.;.C.*.*.*.*.*.*.B.B.B.B.M.M.N.K.N.B.G.+XJ.oXB.B.J.+XG.J.N.B.B.B.~ _ N.N.N.{.N.B.B.J.T.F.B.d.Q Q Y d.d.Q T T T l._ I S S S / / / z z z z G z j g g j b b g g g g g c c . @ b b . . . . x x z z S S I I P S A l l I z j g . . % % % + 6 4 4 8 5 9 9 - * 1 4 6 $ % X . j j C / _ *.{.#X{.#X>X$X#X$XuX2X#X#X$X}.#X2X{.B._ N.G.M.Q Q M.B.b.!.*Xb.Z.H.G.K.G.H.J.H.H.N.B.B.N.K.K.C.C.{.{.}.{.}.1X1X|.1X1X$X|.1XyX$X}.$X|.|.$X1X1X1X1X|. X}.[.[.[.[.}.[.}. X X X X X X[.",
";. X[.=.=.U V _ I P W I l V P U ~ W W W W _ K.{.K.oX<X@XB.Q R R I S S G S z k N H m c c v } } # #  .v ]  .v v c c @ v v v v # ] v @ @ n n n n v @ ] # 2 # ] # # ] { n c G ` R l.f.A.h.Y.m.).).Y.n./.S.Q l.R l z g ' ' b c B n @ @ v c v v @ v v b c c c c g c c m m m m m c m m k k k z z z S z ( ( I l l V V P P U U U *.*.*.*.*.-.;.;.*.*.*._ ~ _ Q _ ! W M.G.M.! N.oXK.J.B.B.J.+XN.K.B.B.B.B.W *.{.G.K.'.B.! d.N.B.d.d.Q Q d.b.B.d.Q W T P I I S S I ) ` ) / z z z z N N j g g g c c . . c c @ @ % n ] ] $ o $ % @ b g g g x / / C z z z S I ) / z x g g . X o o 2 1 6 7 5 8 8 4 * 4 4 4 + o % b b j j C C C _ V.C.{.2XuXuXcXcXxXiXxXxX$X#X2X{.V.*.G.K.b.Q b.D.F.B.H.oXZ.T.*XoXoXG.J.J.G.J.N.N.B.B.V.V.*.V.{.`.[.C.`.1X1X}.|.}.|.$X1X1X}.[.|. X X}.}.|.}.}.[.[.}.[.[.[.[.}.[.[.`.-.-.-.-.-.-.",
";.[.-.( ( U U '.~ U M.I V I U *.T T W T P P ~ ~ ~ W ~ W Y P Y P T R I R S S S G m c c v {  . .] v %.v n { c c c c c B n n n v } } v v n n n n ] n ] @ o # &.| [ [ %.%.v c H G J R z.f.U.n.Y.).Y.n./.D.d.L.B.R / z g g B B . . c v v v v v v B v b b c c c c c c m m m m c c c m G G G z z z z l l C P I U I P I ^ ~ U U *.*.*.=.C.C.;.;.V.V.V.B.W M.W ! l.T ! B.b.W B.J.N.K.B.N.N.J.M.B.! B.B.B.W ~ <XB.G.N.M.! M.B.M.d.d.d.Q Q Q d.! Y Y Y I T R I S S G G S z z k k k N k g g g g c . . . @ @ @ o % ....2 + + ..$ $ $ % . . . b b j j x j z I S z z j z j j g @ @ n $ ] | 6 4 7 1 + 4 6 6 6 $ % % % X X j C C ( V.C.{.2X2X2XiXcXcXxXcXxX2X$X2X#XK.N.G.Z.d.Q b.Z.F.b.B.F.F.T.OXB.G.B.T.@XJ.+X!.oXJ.J.{.'.C.{.$XC.`.-.`.yXyX X|.|.|.}.$X$X X`.}.1X$X$X$X$X|.}.[.}.|.}.}.}.}.|.}. X X[.[.[.-.-.-.",
"[.}.[.;.=.V.M.'.W ~ V.I I U U ( P P T T P P W ^ ! P P W Q Q s.Q T Y T R I S S S N L H @.{ {  . .# ] @ v B c c c M m M v v v # n v # { { { { n n # n # # #  .+.X.3 +.+.] ] $.H G S k.f.U.Y.U.6XY.U.&XR.Z.T.J._ ( l x g N b @ . c v v @ @ @ v n c c c b b b b c g c c m c c c m m N N N k k z z l l l z C I I I ~ ^ ~ U U ~ ~ *.=.C.-.U ( =.V.V.! ~ G.! M.L.! N.K.B.! B.G.M.N.W ! ! G.! b.! B.B.N.^ U <XW M.B.B.M.B.N.N.N.G.Z.d.Q Y d.d.Q T P T l.) I S z z z z k z k k k k g g g g @ @ @ o o @ $ $ o + 6 7 1 1 7 o.+ + $ & X % X X @ % g j j x z x h l l k z z k c c v c n ..] 2 O O o o + $ + o % % % X . j C C _ `.'.'.#X$X}.#X#X,X,X2X2X2X2XxX,X@XJ.J.F.b.b.Z.E d.E Q b.F.F.D.d.B.G.OX;X@XoXJ.G.K.{.#X$X#X$XuX$X$X}.|.pXpX|.|.yX|.`. X$X}. X}.}. X X X}.}. X[.[.|.}.}.}.}.|. X X X X X X[.[.-.",
"-.=.=.U U _ P P I T L.P P I l P P P P P P W _ ! ~ P Y d.d.Q E Y E E Q Q R D S S S G H B v c v  .# # @ n B c c c B c c c c c @ v # @ { ] # # o o o # ] # O [ &.3 3 7 2 2 } $.M L G J p.U.&XY.eXE.W.9X-X^.%X<XG.U l C z g g b c @ @ c @ @ @ @ c c c c b b b g g g g c c c c m m m g j k k k z z z I I z l P I I ~ ^ ~ ~ U ~ ;.*.C.-.-.;.;.C.C.V.~ W K.~ Q M.Q N.K.N.! *.N.:.M.W W B.J.B.B.*.B.B.B.^ ! ,X_ _ N.M.B.! d.Q ! M.d.E Y Y Q d.Q T P I l.I I S z z z G N k k k N k g g g c @ @ @ @ # $ $ + + + 6 4 4 8 d 5     4 & & % o % % % % b g x x j z z z k k k k m m m c v { n $ $ $ $ + $ $ $ $ $ % % X . h h h h _ *._ `.#X$X$X$XuXuX,X2X,X$X,X<X@XJ.K.G.Z.b.d.Y Q Q B.B.H.B.K.D.G.@X*X+XJ.N.N.B.G._.@X#X#X$X$XuX$X$XyXpXyX.X|.yX}.`. X1X|. X{.}. X}.}.|.$X|.}.`.}.[.[.[.[. X[.`.[.[.[.-.-.-.-.",
"-.-.C.( U *.U I T W L.l I I l I P A P P A I T P ~ T M.H.F.d.Q E s.s.f.f.f.R I R G G N B M c n $.$.n n B B c c m B c m c c v v ] v v } # @ ] ] ..%. . .] 2 +.w.[ q X.+.X. .] @ B L k D l.&XU.wX)./.9XqX0XdXkX<XB.U C z j g g c b @ @ @ n n @ c B b b b g . . g b c c c c c m m m m N k k z z z l l z z l I I P P P W U ^ U U *.C.=.-.;.*.C.C.V.~ *.@X! W ! T M.N.! ^ ~ N.B.N._ M.J.<XJ.K.N.N.B.! W N.jXJ.M.J.! M.M.M.Q Y Q E Y Q Y P A P T P A R A A z z z z k z k z N N N g g c @ @ % # $ $ $ $ + 6 6 8 4 * 4 8 *     8 8 4 4 & 6 6 $ % o X X g j z z z k k S G k k m g m B c @ @ % @ X o % $ % % X X X . . x h h ( _ I ( `.'.{.$XzXxXxXxXxXuX>X,X;X@X!.T.D.b.E B.Z.Z.!.H.T.B.T.!.H.*X*XoXT.B.G.oXoXoX_.K.K.'.'.{.`.{.1X1X.X1X1X|.}.}.$X1X}.[. X}.}.}.}.}.}.[.`.`.}. X}.[.[. X[. X X|. X[.`.-.`.",
"[.{.C.=.`.C._ '.C.C.C.P V _ I P W ^ T P A I R I R R I P Y R T Y h.h.s.s.s.Y F R ) l / / N N H $.H B b m c g c N N g c m c c c v v v v } } %. . . .2 2 O 2 +.+.O.q 7 O.>.+.6 2  .$.B H ` x.p.i.U.b.=X^.~.=X%X*XG.*.I I x j g N b @ # @ o o @ v v X . . c b c g b @ v M c c c m b g g k j k z z l h l I I I P P P T l P U V ( C.V.U ;.U ;.V.*.*.~ *.#XN.B.K.d.B.N.l._ G.K.L.B.! B.M.N.G.N.N.N.B.M.^ ! N.B.W M.G.*.N.! Q d.l.M.M.d.! Q l.M.T P I ) S I S z k k N G x z N N g g . . v o # $ $ $ $ 6 6 & + + 4 8 8 8 ; - - 8 8 4 4 * 8 8 & + $ o o @ @ . g g x k S S G G k k N x j ` ' . . X b % ..b b b . X X . X X h ( ( Z *.C.=.V.C.2XuXuXuX>XuXMX<XlX*X;XdX%X^.^.*X;XOXD.K.!.R.T.H.Z.T.H.Z.D.H.oX;XG.J.+XJ.N.{.#X{.{.C.[.$X[.}.1X[.`.|.}.|.[.`.[.`.}.1X$X}.}.{.[.}.|.|.}.[.[.[.[.-. X X`.`.[.`.`.",
"[.[.C.*.C.V.U C.*.V.'.*.V.#XV.*.*.~ ~ ~ T W R I R I I P I T T Y f.s.i.s.h.B.S.R.L.T ) ) G G N N H H N N m m N N m b b b c m B v v } } } }  .] ] O o 2 2 2 X.3 3 O.q O.>.o.3 2 %.%.n b G ` ) p.D.R.:X%XfXdX*X*XH.J.B.*.I z j N b v v v @ # n n v v n b b b c . c c v v c c b m g j k k k k z z z l l C C l l l V _ V P U C _ `.C.=.C.=.V.V.*.*.~ V.@X:.! N.! B.G.M.M.K.K.K.K.B.L.B.L.L.M.! _ l.! ! ! _ ! W B.G.*.W W ! d.! ! Q Q Q Y ~ ! ^ I U ) S I / S z z G / x k N N b @ @ @ @ o # # # + + + + & 4 4 4 4 8 8 ; 8 ; > > ; ; * ; -   * 4 + + $ 6 $ @ g j k k k k z k z z h j _ Z h j . ' . b j X . h h . h h h V ( U V U *.*.C.K.$X#X$X$X#X,XjX,XlX:X=XqX%XT.H.Q b.b.d.Z.Z.Z.Z.Z.S.OX~.H.T.H.!.oXN.G.@XK.B.G.J.{.{.C.{.1X}.}.1X}.}.$X|.1X[.}.|.|.1X1X|.}.}.}.}.{.}.}. X[. X X[.`.|.|.[. X X[.`.",
"C.`.-.;.=.*.U C.P I _ P U V.P V U P P T I A A A I A A R R R R f.l.f.i.Y s.E E d.R A R ) / / S k k G G N k N N b b b B m c m B c @ v v v @ v # o # 2 [ 2 | X.3 1 3 * 1 o.7   1 >. .# c m G ) l.R.T.R.T.dXvX&X*X!.J.B.M.I z x j g c @ @ @ # $ $ @ $ n v b b c . c v v v c c b b g m N k k k z z z l l z l l l l P _ I C I U *.`.=.( =.=.=.=.=.C.C.K.{.W W M.E Q ! W W l.! M.N.! ! N.K.K.B.! ! M.M.! W ! *.~ *.V.:.^ ! B.d.! d.! Q E P P T P P I R z S z z k k N N k z N b . . @ @ @ @ $ $ $ $ 6 + 6 + 4 4 4 8 8 8 ; - ; > - ; - ; ; - * ; 4 1 4 6 6 + o @ b b g g m G G z z x z / C h z C =.j j ' ( ' ( ( h X X X C Z V h V C U V.C.{.'.#X$X#XuXnXqXzXsX:XdXqX~.^.!.~.T.H.H.S.b.b.b.D.OXR.D.H.D.H.oXH.oX+X@XJ.{.oX@X{.'.$XuX$X1XyX|..X|.1X1X`.1X1X1X1X1X$X}.}.}.}.[.}.}.[.[. X X[. X.X.X X}.}.[.`.",
"-.-.=.( *.*.U V.~ ~ *.I U *.P P _ P P ~ T P I I I A A R l.R p.S.p.s.i.s.f.s.Y E Q T L.L.R S S / z G G k k k z k b m N c g c c c v { v v v  .} ]  . .| 7 | | 3 3 q 5 7 w.>.1 7 w.+.] ..B g z z l.L.Z.T.kXgX*X0X*XT.G.G.V._ I z j g . @ @ n n $ o $ $ @ @ @ @ . c c v c @ @ c c g N b g g k k z k z z z l l l l P _ I V I U *.=.;._ *.*.*.;.;.C.=.*.N.^ W B.! Q d.W W ! W ! B.Q T W M.B.! W W W W ^ W N.K.*.~ *.*.W M.B.! Q d.d.! Y P P ^ P l I I z z z z k x j k k k N c . @ o X o v n ] $ $ 6 + 7 &   4 8 8 8 - = ; ; ; > ; > ; > d - - - - 4 4 4 &   & $ % @ . g m m k z G / _ _ ( _ _ ]./ j / ( C ( ( h h C C h V V V C V P *.V.C.C.#X,X;XlXmXsXsXkX:XkXbX&X&X9X=X&X/.%X!.D.T.H.~.%XH.D.^.T.R.>X,X,X,X+XoXJ.J.@X{.{.$X1X}.|.1X1X1X}.|.1XC.1X1X}.|.$X|.}.}.}.}.'.}.}.[.[. X X[. X.X|. X X X`.-.",
"=.-.-.*.=.*._ C.U _ K.B.V.C.U U K.! ~ _ ~ P P I T P P R R Y Y s.Y Y i.f.S.f.E d.d.l.T.L.I I R ) S S S S z z z z N k N N c c c c n { v v ] %. .[ [ +.X.X.+.| 3 3 >.o.w e.>.  7 w.7 O ..{ n B k / ) l.R.0X&X%X-XOXOXoX@X<X'._ I z j g g b n ] $ O 2 $ O o o . X @ @ @ @ @ @ . c b m g g g j k k x z z z z z z l A ( I V I _ =.=.( ;.*._ _ U _ V.;.*.N.! :.B.Q W Q ! Q l.Q d.N.! Y W d.b.Q Y ^ ^ P ^ W N.J.*.U *.*.^ M._ ^ W ! Q W ^ P W ~ P P U _ I z z z z z k k k j g g b n % % o $ $ $ $ + 6 & 4       5 8 > ; = > ; > f > f ; f d > > > - 8 8 4 *   4 4 + % % v c c g k G J G S S I A _ I l ( C h C / h V Z C C Z Z U ( U U =.U *.V.{.{.K.;XsXjXqXkX0XdXvX=X&X9X-X&X(.&X~.T.~.D.T.T.b.S.!.D.T.+X<X+X+X@XoX'.oX,X$X$XuX1X}.|.yXyX1X[.|.yX`.yX1X}.}.}.}.}.}.}.#X'.}.}.}.[.}. X[.}..X}. X X X`.-.",
"-.-.C.C.C.C.*.C.~ _ V.~ ~ ~ V ^ N.W P ^ P l A P T P R R T F F R Y Y Y s.s.E E f.S.B.L.z.T R R I R D S S S z z z G k N N N m m B c n v v v  .] o 2 | 3 | +.7 3 X.O.q 5 >.8   1 O.7 O | |  .%.' / S R S.R.R.R.OX~.=X*X;X2X'.V.I z z x x b b n # O $ + o o o o @ b o @ @ v b c b B b c g j k k j k k k k z z z z l U I P U *.*.*.U _ _ _ *.U *.K.*.*.V.M.Q W Y Y Y Q E ! Q d.B.Q W B.N.M.Q Y E W W ^ P U ~ P P U U V *.~ P W W P P P P W ~ P P I _ z z z z z z k N k g g @ @ # % @ @ $ % $ + o +   &   4 8 8 - - ; > i > i i i i : p a y ; > > f 9 9 9 8 8 5 4 + + ] # @ c g k k k l l S l I ) V U U Z ( ( U U U V U C Z U U U U *.P U B.K.N.B.oX+X>X=X0X0XdXvXqX9X9XfX9X9X9X&XR.R.A.D.S.b.H.~.Z.L.J.T.J.T.oXoXoX$XuXuXyXiX1X}.yXpX1X}.`.}.yX X1X1X$X}.}.{.}.}.}.$X[.}.}.}.}.}. X[.|..X}. X}.}.`.-.",
"-.-.[.`.C.V.*.V.G.V.G.! ~ _ I _ B.W P T P P T T T R T R T T T R Y T Y E s.s.d.D.R.R.OXT.f.l.p.Y Y R R R I R I S S z z N N B B v v { v v v  .[ o 2 | O 1 | O 1 O.w.>.7 >.w   7 w.>.3 >.+... .% . z I l.L.XXOXOX0XqX0X>XMX<X'.M._ / z x x . @ o O O O O O $ % % n % @ % n n b b B c g c b b j g k g j k k z z z z I I I I _ ;.U U V.V.*.*.U *.C.U P U ~ ^ E b.b.d.d.E ! b.B.Z.! Q ! ! Q ^ P W Q W ^ P U ^ V P *.*.^ *._ ^ ~ W P P P V P W P l I I z z z z z k k j g c c @ @ @ o o $ $ o $ +   4   4 4 8 8 - - > > i i y y y y p = p a : = = > i > i d d > 8 8 5 1 1 o # n b m G G x.) l.R ~ B.I U P _ =.*.*.=.=.;.( U U U U Z U U P U _ V.M.B.+X+X*X%X%X0XqXqXgXqX9X9X9X(.-X-X(./.R.^.^.T.=X=XK.oX*X*XOXoX@XK.G.@X$X{.{.$X[.[.1XyX1X X}.|.yX}.1XyX1X|.}.}.}.}.}.#X'.}.}.}.}. X}.[.|..X}. X|.|.[.`.",
"C.-.[.[.C.*.U _ W P _ ~ B.N.~ B.N.Q T T P P Y P T Q R T P P F A T T Y Y Y Y Y b.Y s.T.S.Y f.f.f.Y f.f.R R l._ S S z z k m B B c c { ] v #  . .2 +.>.7 o.>.1 3 w.>.>.q >.e   5 e q * >.q O 2 O % k S S ) ].XXT.&X0X=X*XzX+X@XK.J.L._ C j g @ % $ 2 2 2 2 2 $ % $ @ o @ % % @ . @ c g c b c g g m m m k k k z z z z P V V U U I U U _ *.*._ V.{.*.~ *.B.W W M.d.E Q P E Q b.b.Y E Y W W W ! B.B.M.! *.G.V.U _ '.{.U V._ P U P P W P P I U P l z z z z z z k j j g g c c @ @ o % o $ $ o + +   4 & 4 * - ; - > d i : p : : : : y = y p =   * ; i , i i i ; > 9 9 5 w 2 |  .n c g k G x R R Q N.W ! U V.C._ ~ *.=.=.=.;.;.*.;.U U C ^ U ~ _ ~ B.@X!.*X%XR.0X9X%XqX9X9XgX9X).(.-X(./.~./.OX^.=X%XN.!.OXOXT.oX+XJ.J.,X$XK.C.{.[.[.yXpXpX|.1XyXiX$X$XyX$X}.}.$X$X$X}.}.`.{.}.}.}. X X[.|..X}. X.X|. X`.",
" X|.yX[.C.C.*._ *.W _ _ ! ! W ! W P P W W P P Y A T P A R R I P P P P Y Y T d.B.s.z.S.Z.s.f.z.p.f.p.p.Y Y P R R A A z z N m m c v v v @ ] %.[ O +.+.3 O.>.1 >.>.>.7 4 5 5   9 s r * 5 q 1 7 o...N z j ) x.B.@X>X=XkXqXnXzX;XoX+XoXM.I z . . $ $ ] | 2 2 ..$ o $ $ % % $ n % @ @ @ c b N N c g g c m N N k z z z l l V P P I U ;.*.*.U _ _ U *.*.*.G.M.M.B.Q E E b.b.B.B.d.Q E Y E d.b.Q Y Q Q T ~ *.*.'.V.V.uX#X*.V._ U C.^ P K.^ I ~ U P l z z z z z k j g g g . c v % $ $ $ 6 $ o + 6 + 4 8 4 * 4 - d f ; > : i 7.y : p i i 2.9.9.< = > > i > y i 7.: d d ; e w 5 O.o.o v . m k k _ I A W P ~ ~ ! ~ ! *.C.C.=.;.U ;.C.*.U U U _ ! ! M.N.B.M.! F.D.~.0X=X&XqX-XfX(.9X9X/.gXBX&X/.=X&XZ.H.*XK.B.J.J.K.oXoXJ.+XJ.{.#X1XyXyXyXyX1X1X}. X1XiXyX2XuX$X$X`.}.1X$X$X}.[.}.|.[.}.`.}.|. X}.|.}.}.|.}. X",
"-.`.}.[.C.C.V.V.K.B.L.N.B.! E ! Q T T Q W Y Y T L.L.l.T T T F I R R R R T R l.l.E f.S.f.p.p.p.i.p.R p.Q Y Q R A I I S z k m m m B B { n ] ..2 O | | O X.o.1 O.>.7 * 1 8 9 - 5 9 8.r r r 5 8 o.1 @ g x j z / V.L.XXkXqXkX>X,X<X+X%XN.~ I j j b n $ $ $ $ 6 $ o $ $ $ % % @ @ % b b @ @ b b c c c c m m k k z z z I I I I P V ^ U ~ _ U *.*.*.*.~ P *.W Q b.Q Y Y Q Q b.b.Q Q Q E Q Q Q P P T Q T T W I _ I P C._ U _ _ U V.P P *.V P U ( I l z z z z k j g g g c c c # o o o o + + O $ 6 + 4 8 4 * - 8 d > = a a 9.9.i p 9.9.i i 9.a = = > > i i > i i < > d - 0 5 * 8 X.+ ..n B N z _ I P ~ P W ! W ! N.C.B.*.*.*.U =.K.=.;.;._ U U _ N.N.B.M.B.T.R.R.&X/./.9X9XfX9XgXgX9XBXAXqXfXbXkX%X:XkXoXK.oX@XT.+X;X+X,X<X,XuXuX2X1X1XyXyX$X}.|.1X1X|.}.1X#X}.`.`.}.{.}.}.{.}.}.[.}.[.}..X[.|..X.X|.|. X`.",
"[.[.}.[.C.V.*.V.G.M.B.B.M.Q P Q Y Q Q Y P Y Y Y d.d.T A A I I R I I I I I R R p.R R f.f.R Y p.p.p.Y p.E Y l.B.P T I S S k k k m m v { n n ] # O | 3 O 1 3   O 1     4 q 8 d r 0 w.e r r r s w 1 $ ] b b g N _ _ L.>X*X*XoX=X*XoXOXB.Q W z j j b n $ % $ 6 + o + + + O o o % n ..b @ @ c b c c c m m m k k z z z I I I P P P U U P U ^ U ~ U ~ V P B.! W Q E Y Y E Y Q Q Y Y Q Q ! W Y P Y T Y Y P I A T P I V.U I I I P U V I _ P l P I l z z z z z k j g g g c @ @ # $ $ $ $ 6 + $ 6 6 + 4 5 4 * - - 9 = * i a 9.2.y : y : = * = *     * = > i i > i = = > - 5 - * 8 7   $ o . . . z h l ~ ^ ~ *.W ! K.K.*.:.V.C.=.K.{.C.*.*.*.*._ *.N.M.W E ! !.R.D.T.T.Y.&X9X-X9XgXfX-XvXVX9X9XdXsXOX0XvX*XR.+X;XJ.oX;XoX'.{.#X$X$X}.[. X|.1XiXyXyXuX1X}.{.}.'.{.`.{.}.'.{.{.C.C.`.`.}.[. X1X|..X1X.X|.|.}. X",
"|.}.$X}.C.V.*.V.oXG.G.G.G.M.Q B.Q M.M.Q Y Q Q T Q Q T P R R A A S S S S D D R R R D R l.p.R p.p.R F s.l.E d.B.P ! T I S S k k m c c v v # # 2 [ | 3 1 1 3 O   1     5 q - 9 - 9 w.8.0 r e >.w 4 6 ..] $ % b / / V.;XOX<XOXqX:XOX=XH.F.L._ z z b B ' $ $ ..+ O + $ + O O o # $ ] @ @ @ b n b c g m c k g k z z z S P V V I ^ U ~ _ *.~ U _ *.*.P :.J.B.W Q E Q Q E E ! Q P P Q Q W T T W W Y P P P I P W I U V.M.U P I P l l I ~ I l C I C z z z j j j g g g g c @ @ n ..] 6 6 6 + 7 | 4 + 4 8 5 f 8 - 9 > > a a i : = = = : y i a i = = > > i a 7.: i = * 9 - 5 - 5 w w   + o v n c N j l I P U B.~ ! C.N.:.*.{.{.{.{.#X{.C.C.K.#XK.C.J.N.~ W B.J.G.d.Z.D.T.&X-X0X0XfX9X&XgXVXdXdXvXdX%XqXvX*XOX;X,XJ.oX,X@X'.oX{.#X#X}.}.}.1X1XyX1X|.$X2X1X$X}.}.$X#X$X1X}.$X$X{.{.|.}.1X X|.pX|..X.X|.|..X.X|.",
"[.[.|.}.{.`.C.{.;XJ.H.K.G.M.Q B.Q M.M.Q Y E E Y Q Q T T R R A S D S S S S D D D R D R k.p.R p.l.p.R K.qXXXN.B.T Q T R I S z z k N c M v v n 2 | | 3 7 7 X.X.7 >.q o.q >.w s s 0 r 9 = * - 5 *   4 6 + + o X g j / ].V.oX+X:X*XOX0XOXOXOXB.I l z N ' b $ ..6 + + 6 2 $ + $ % % @ % @ @ b b c c c b m j k k z z z S P I V P ^ U U *.V._ _ *.V.V.U :.J.B.W W E Q Q E E b.b.Q Q d.d.Y Y T Q T P P Y P R R T I I _ _ P V I _ I P P l z l I _ ( / z x j j g g g g c c @ @ n ] + & + 6 + 6 6 + * 5 9 9 8 * * ; ; > > > : = * * = : i a a d > > > > , a i : i > > s 9 w 8 w w 7   O O $ n b N z j z l I ! ~ ! M.*.*.C.#X{.{.{.#X@XJ.K.{.#XK.C.{.J.B.M.G.T.S.Q Z.D.T.~.R.-X=X9X%X%XvXbXqXmXVXvX=XdXkX~.T.+X+XK.{.uX,X+X;X>X2X2X2XuXiXxXiXiX1X|.}.}.}.}.{.1X2X}.}.}.{.$X2X$X1XyX$X1X[. XyX`. X.X.X.X.X|. X",
"[.[.|.}.`.K.C.J.J.b.d.b.d.E P d.E d.d.E Y Y Y P s.Q T R R R R ) / G S S S S D S ) D R ) R R R R k.R XX>XXXl.d.d.Q T T R I S z z N m B B ] ..[ | X.7 7 7 7 7 7 >.O.O.q w.w.w.w.9 9 0 0 9 d s 5 * - - * 1 + o @ j j / I L.T.*X%X*XsX:XqX=XL.~ R I x j X X $ 2 + 1 6 2 + $ 2 $ $ % # @ @ @ c @ c b b m m k k z z z l l P P P U U U U ~ I U _ _ *.^ ! K.M.W Q E E Y Y E d.d.Q Q d.d.Y T T Y P P P R P R R R A A I _ I V I _ I P l l I l z I z z z g N N m m c c m c n $ ] $ o o 6 6   4 +     4 5 9 ;   ; > > i i a 7.> : > i a a i < ; > < > a i 9.i : a a s s 5 9 w w 5 1   1 O o # @ g g x l z I P ^ ~ ! ! *.C.{.{.K.C.K.K.V.M.C.K.=.*.C.K.V.*.M.@XN.d.D.F.Z.T.Z.b.T.~.T.!.qXdXOXqXdXdX:XdXkXOX~.aX,X_.@XuX;X@X@XuX2X2X,X2XuXiXyXyXyX1X$X}.}.$X$X1X1X{.{.}.'.}.#X'.{.|.}.|.[.|.yX X|..X|.|.|.|.}.",
"}.|.yX}.`.K.V.N.K.! d.M.Z.d.E b.d.d.b.d.f.d.d.Q H.L.l.Q ) R D ) G G S S G G G S ) D J ) D D R D D F l.L.Q P Y ! T T I R R S S G m m B M {  ...| | 7 3 7 7 1 1 7 3 1 5 w >.d 9 * 9 9 9 0 s s w - r 9 5 5 6 6 ' b j / I l.F.~.*X:XkXqXqX0XOXR.L.L.z z . X $ $ + 1 1 1 + 2 2 $ $ ] $ % b b c @ c B c b k k k z z z l l P P P U U U U U ^ U _ ~ *.~ ~ N.! W ! E E Q E E Q d.Q Q Q T Y T T P P T T R F R R R I I I _ I I A _ T I l I I l l z x x k z N N m m m m c v n $ ] $ o + | 6   4 1   * - - - *   ; - - > : i : = = > d a a > < > i ; = : < p i : y i d 5   8 8 w 1 4 3 X.| ] ..B b N k k z l A P T ~ ~ ! V.{.{.K.V.V.K.N.B.K.#X{.K.{.{.G.N.N.;XN.Z.~.Z.B.^.Z.B.oX:X*X:XbXbX0XvXbXvXdXbXmXdXzXKXcX;XuXzX;X#X'.#X#X#X{.}.#X#X}.}.$X1X$X1XuXiXxX$X1X}.#X1X$X$X#X`.}.|.}.1X.XyXpX|..X.X}.}..X1X.X",
"[.|.yX}.{.{.K.K.oXB.N.K.K.M.Q b.Y E Q Q s.s.Q Y Q R T T R R D ) J G S S G G G G ) S J G S J ) D R ) l.B.l.Q Q M.T P P R R S S G N m B c v ] ] [ 1 3 3 X.O.7 7 q 3 * e r 8 *     > - - > 9 9 - * > 9 r 5 5 6 ..% X ' j I T B.J.oX=X%XOXR.T.XXXXL.l._ ' b ' ..6 6 6 6 1 1 + + $ ] $ # n n b b b B c c b k k k k z z P I P P P P V ~ U P ^ I ^ _ _ ^ ! P P Q Q d.B.B.b.b.d.E Y Y P P T R T R ) R A F F I A I I A U l P I V.l.R l I z l z / / z j g b b c c @ @ c c # # $ $ o 6 ..+   6 6 6 8 8 r d 9 ; 9 9 f d > > > < > d ; = > > > a a > ; i > a i = = = 9 -   w 5 o.7 7 1 2 $ # ] n . k N k S l I P I ~ ~ U V.{.K.C.V.C.+X+X+XuX>X#X{.K.C.C.C.G.,XG.J.;XF.S.=XT.~.kXVXbXbXKXLXVXLXLXKXvXbXbXdXbXmXaX@X>XuX;X<X{.J.{.#X#X$X$X$X}.uXuX1X|.$X$X}.'.}.{.=.`.}.}.$X$X1X1X1X X|.|.}.[. X|..X.X.X1X.X}.",
"[.|.iX}.}.$XC.C.C.V.N.N.G.G.M.oX!.*X*XR.S.B.M.d.S.l.A D ) F S ) ) J G S R R / S J G G G J J J G R A _ L.T P T T T Y Q l.l.R ) x.G L c M c n # 2 1 7 X.q q 5 5 O.>.w s - - * * = s 0 > a s > * * = > > ; - 5 5 4 + o X j z I l.XXOX/.OXOX!.!.H.B.R R ) z ' b $ + 7 5 7 1 6 + 2 2 # n # o @ @ @ @ c c c m N j k z l I I l P P P ~ ~ U U ^ P W *.! W W b.M.! M.K.T.M.Q Y Q d.Y P Q T T T I I ) / S A S I I I I I I I l I _ _ P l z z z z k k k m m g b c v v @ @ % $ ....% o $ 6 + o 6 6 + 5 8 5 9 9 ; ; 9 d d a a , , a a , a a 9.a 9.> = = > a 0 - * = 9 8   * q o.6 6 O 2 X.# # ] v c c k k z S I P ~ _ _ _ '.$X'.{.K.C.@X@XJ.#X{.{.J.K.{.#X@X_.>X@X@XoXD.!.&XD.H.!.*XOX~.OX:XsXbXVXZXbXdXkXkX:XMXkX,XjXlX;X+X+X;X2X$X$X2X2XiXiXiXiXuX}.1XuX}.}.}.1X{.#X2X{.'.}.$X#X$X$X}.|.|.[.1X1X.X|.|.yX1X X",
"}.1XiX}.}.$XC.{.C.C.K.G.G.B.! !.S.D.H.S.d.Q Q T Y ~ F ) x.) S J J G S S I R R R G J G G G G G G ) R x.B.R T Q Q P R L.oX'._ A z m L m H M { ] [ 2 | X.q 5 1 1 5 w 5 r - 0 a 0 a 9.a a 7.7.a > > - 9 - = ; > 9 8 4 & & b b N ` #XXX-X0X:X:X:X*XR.D.z.k.z N . % $ 4 4 7 1 3 2 2 2 $ $ @ @ % @ X c c c c c c g k z z / I P V P P U ^ P ~ M.N.G.N.! M.M.B.b.^ ^ Q ! Q Q E E Q Y Y d.Y Y I P I R S S S S S I I I I I ) I ( _ _ I l z z z z k k k m c c b c b v o @ # @ $ % o o o $ $   6 +   1 - - 5 -     * ; - > 9 = ; a > < , , a > d = * = > 9 > * - 9 w 5   1 o.1 1 7 O O ] O ] } v c c k k k z l l P I P I _ V.*.V.V.V.K.K.C.{.{.#X+X@X#X>XuX,X>X@X@XoXH.R.R.Z.F.F.F.F.H.%X0XsXvXbXVXbXvXbXmXvXbXbXdXsXkX;X+X<X>X2X$X$X$X$X1X$X$XyXyX$XuXiX$X$X2XiX$X2XxX2X$XuX$X1XuX2X#X$X1X1X1X1XyX1X.XyXpXyX",
"1XyXxX$X}.{.=.{.{.J.{.K.G.B.! F.d.d.d.b.d.Q Q Q Q B.R ) L.) R x.) ) S I I I I S S J K K G G G G G I ) R R T Q d.R Q l._ R I I / N L B H M { ]  .[ | 7 3 5 5 w s 5 - - * 9 > < < 7.> , a i > > ; - > ; = ; > > -   & 6 ..' j N _ L.R.*XOX~.%X%XW.&XR.l.S z g % $ 6 7 7 1   + O O 2 # @ n ..n @ B c v v c c k z z l l z P l P _ *.P ^ ! *.~ ~ M.M.W Q b.! E W b.B.P Q E Y E Y E d.Q T T I I I S S S S S S S S I I S S P I z l l z z z k k k k c c c b @ @ b @ n n @ o o % % o + 6 & 4 +   4 5 - - 9 * * ; ; - 9 9 - a 8.> = > < > > d = = > 9 d 9 9 0 e e w q q q X.3 1 O 2  .# # { v m c k k k z l l l I I I _ *.C.`.C.C.{.{.@X>X{.#X@X'.{.#X#X{.;X!.!.T.L.H.D.Q G.F.Z.Z.!.sXkXsXkXdXvXvXbXVXZXmXVXZXbXsXsXsX,X,X,X2X#X#X$X$X2X1X1XuXuX$XyXuX}.{.$X2X}.#X2X$X#X$X$X1XuX1X|.$XyXyX|.1XyX|.}.1XyX1X",
"yXyXcXuX}.{.C.#X#XN.N.B.G.G.b.Z.Z.d.d.d.d.d.s.d.S.K.R R B.) R x.) ) R I R R R R S G J K K G G G G ) / S S R R R A I T A A A S G G B m m c v ]  .2 7 7 1 5 5 w >.w 0 w.9 s > < > 7.< , 7.a i i = > d > > d a > ; - 4 6 6 % X . ' _ H.J.L.T.%X&X/./.OXL._ / N b b $ | | 7 + | 7 | +..... .$.n . @ b B B m b N N z z l I I I _ V.C.~ ~ _ ! ^ ^ ! B.:.! ! ! W ! B.B.Y d.Q Y E E E Q d.T T R R S S S S S S S S S I I S S S z z z z z z z k k k k m c c v @ c b @ n n @ o o % % + $ ..+ 4 4 4 8 w r - 9 - - f d d d d * = 9 = = > > 0 a d ; > d 9 0 0 9 9 w q q 7 7 1 7 | | 2 2 ] # n v v m m k k z z I T ~ M.M.V.'.'.C.'.V.V.{.{.@X,X#X@X{.{.#X$X@XK.+X{.oXoXJ.R.T.Z.F.H.!.H.OXsX0XOX=X*X:XdXdXvXbXvXVXZXVXsXzXnXlXuX2XuX$X$X2X2XuX2X$XuXuX$XuXiX$X1XuX2X{.}.$X}.}.#X$X}.}.}.}.$X1X|.1X1XyXyX.XyXpXyX",
"}.}.2X1X{.'.'.#XC.! M.B.G.H.Z.B.L.Z.f.f.s.Q Q d.Q B.R R l.R F ) R R I R R ) _ _ G G G K K K G G / ` ` S R R I D A I R I S S S S N m m c c c ] ..2 o.+.o.q 5 5 8 - r s > 0 , , i i : i 9.a i i : > d > < i i > = > 8 8 6 & o X . / _ l.B.~.9X(.(.R.~.K.B._ / z j % ..] ] O | | | | [ ] ] ] n b b c b B c g b z z z l I U I I _ ~ W P P ! *.*.! W M.W W Q Q b.M.b.Q M.d.E s.d.s.Q Q Y A I I S S S G G S S S S S S I / / z z z z z z z k k m m m m b B c c b @ @ @ o o % % % + $ 6 & 4 4 5 9 9 - * - - - 9 9 d d d ; ; > ; ; > > a a 0 ; - 9 - r 9 5 5 q q 5 1 1 3 3 | [ 2 [ [ ] n v M m m k z S S l l P P P U _ _ *.V.U *.K.C.K.{.J.K.K.@X,X;X;X;X;X<X,X;XOXOXOX%XT.;XsX;X;XsX:X~.:X:XkXvXkXvXbXbXbXVXVXdXnXKXmXlXnXcX2X2X2X2X2X$X|.yXyX}.1XuX$X$XxXuX}.$X$X#X#X#X1X}.}.}.}.}.$X}.|.|.yXyXyXpXpXyX",
"|.|.1X1X{.'.{.{.V.B._.!.G.Z.b.M.Z.d.Q E E E Q d.Y s.Y R l.R R l.l.) R T R R ) ) ) G G G H H G G G G / G S S S S R R S S S S / / N N B M B c v n # | X.7 1 1 5 w - * = * < < : : i i 2.2.: = : : = > = = = = = = = ; f d 8 4   o . C I l.&XeXW.W.(.-XT.G.B.l.S z g b % o o $ + +   O o o % ' $.$.c c m c j k z z z l V I V l V P P V P ~ ~ W W ^ M.W W W Q b.M.! Q d.Q Y Q d.Q Q Y P F I I I S S G G S S S S S z z S z z z z z k z k k k m m m m c b c c b @ @ @ o % $ % % 6 6 + 1 4 8 8 r r - = d 8 9 9 9 9 9 9 9 > d 0 > > = > 0 9 = - r - 5 9 r 5 7 q q 7 3 | X.| 2 # [  .] c B M N N k z z S I I T I I ~ *._ U *.~ V.{.C.K.G.G.K.{.#X@XoX+X,X+X<X;X*XOXR.OX*X*XsXzX:X*X;X;X*X;XsXbXbXvXvXVXZXkXbXZXkXmXLXmXMXmXmXuX2X2X1X2X#X$XuXiX$XuXuX}.#XiXuX}.#X#X{.#X#X2X1X2X2X|.}.1X1X$X|.1XyXyXyXyX|.",
"iXuXuXuX$X#X$X#X{.J.;X+XG.B.b.b.d.f.f.s.s.d.b.d.s.s.Y s.p.R l.l.l.l.R T T T R S J J G H H H G G L N G G z S G S S S S G G G G G N B $.B B c n n o 2 2 O     4 w d 9 0 = , a i i 2.2.2.p : = : : : i y = = : : : i d f d f 8 8 6 % j j ) OX&XY.).9X-X!.J.G.L.p.D / g . X n ..| 2 O 2 O o @ b B ' b c b c b k z / I I I I T I ^ ~ ! ~ *.M.W P ~ B.G.B.M.! E E W Y Y Q E Y E E Y E Y Y T I R ) / S G S S S S S S S z z S S G S N G k k k k m m c m . c @ @ b @ b % % $ $ % $ 6 6 1 6 5 9 9 5 - 9 > s d d 9 5 5 9 9 * ; 9 - - > - 9 e e - - 9 r w w 5 1 1 1 7 7 2 2 [ &. .] # v v v M N N z z S S I I P I P ^ _ *.U ^ V.! V.'.B.C.C.{.+X#XoX{.@X<X<XoX@X+X+XOXR.oX;X@X*X+X!.H.!.!.!.T.OX0X:X*XqXbXbXkXbXLXMXmXLXmXmXnXmXuX2XuX2XuX$X$XiXcXuXcXGXiXxXiX2X#X$X$X#X2X2XuX1XuX2X$X$XuXiXyXyXuXiXyXyXyX$X",
"$X}.}.}.'.{.$XJ.#XK.@X!.Z.F.Z.B.b.S.A.n.b.b.n.d.a.E E d.R Y f.Y l.R R Y R R R ) J J K H L L H K $.H ` ` N k G k G G G G G k N N m B $.B B c {  .]  .+.| 1 1 6 8 5 9 8.> a i i p 2.<.u u u u : : : p p : : : : : y y p f f ; ; 4 & % X z L.S.n.Y.(.-XH.H.H.R.h.R L.C g . { ....+ 2 2 2 $ % @ . b b c c b k k z / I I P P I P V ~ ~ ^ W ! W ^ W ~ W W Q Q ^ W b.b.E Q Q Q Q Y Y Q Y T R I S R S z S S S S G G S S S z z G S k k k N N m k k c c c c b @ @ @ @ @ X o o % o o + + + 4 4 5 - * - 9 9 9 8 8 8 5 5 9 9 * 9 s - * 9 0 s s e - 5 w w q 5 1 3 7 2 1 2 2 ] [ [ # @ v v v c m N N z S S I I W ^ I P ^ _ ! V *.{.*.C.C.*.K.{.G.J.K.B.K.,XuX@X@X+X+X;X;X<X&XqX;X<XoX!.!.OXOX!.T.OX:X*XOXqXmXmXvXmXLXmXmXLXnXmXmXmXzXzXzXuXxX2X2XiXiX$X2XuX$X2X2X$X{.$X#X}.2X2XuX$X#X$X#X$XuXuX|.$XyXyX$X$X1X$X",
"$X$X}.#X#X}.{.K.G.B.J.B.B.R.b.F.A.A.A.f.s.s.f.a.s.s.s.s.s.E Y Y F R R R R R R / G G H K H H H ` H m N H G m G G m G ` ` G m m N m m B c $.c $.n @ ] ] O O + 6 7 r a 0 = 7.i u : u <.2.2.u p p u y y y y y y p p y p p y : = = - 4 6 % . S l.f.T./.%X*X!.&XqXQ.j.XX) l g b n @ o O $ $ $ $ @ X c c H g b N N ` z S l I P P I P ^ *.W W W ~ ^ P M.M.W E ! b.N.@XH.B.F.B.Q d.d.E S.Y T P I I S z S z / G G G x./ k G G N k k k k m N m m m c c m b B c c . . @ . X o $ % o 6 6 + 1 1 1 5 r - - r - 5 4   8 *   * *   * 5 - 5 w w e * q 5 1 q 7 1 7 3 o.| 2  . .] # ] v v v v M m m N N G S A R l._ ! W ^ *.J.'.C.K.}.2X#X{.{.{.{.J.N.N.J.@X;XjXaXoX+X;XzXlX;X<X,X<X*XJ.@X;X+X+X;X+X;X>X:XoX!.kXVXVXbXmXLXnXmXKXLXKXmXFXcXFXcXuXxXuXxXiXiX1XuXiX$X$XiX}.#X$X$X$X2XiX$X$X$X$X#X$X2XuX2X$XuXiXyX2XyX$X",
"}.$X}.$X$X}.#X'.K.G.OXK.D.!.Z.D.Z.A.A.f.a.n.A.n.s.s.s.f.f.f.p.p.k.l.l.p.R R ) ) J L H H H H H ` N N N N m H L k m m m m m c m M M B B c B c B c @ n $ o O 1 3 5 - a a < , : : <.4.4.3.u u u p p y y y y y p p 2.y y y y p y : d - 4 $ X j I T Z.sXsXdXfXvXBXeXQ.&XL.I z N b @ o $ $ # $ n n c g b H m B N N ` z l l I P P I P ^ ! ! M.! ~ U W K.B.! W ! E W M.W d.M.M.E Q d.Y d.Y Y I I R I S G z G G G G ` G z ` ` ` G G N N m m m m m c c c c c @ c . @ b @ @ o % % o ] 6 1 7 5 4 4 r 5 5 e 5 4 *   4 4   8 5 5 w e w r q q 5 1 o.o.q o.7 1 | 6 | ..2 ] } ] v n v v c c m N N G G / S S I _ N.^ W ~ N.K.V.*.*.C.{.C.V.K.K.K.V.G.K.oX+X;XaX>XoX,X#X+X;X+X,X>X;X*X+X>XlXjX,X;XOX,X*X*X*X*XqXbXbX>XzXKXnXnXmXKXKXKXmXxXcXzXuXxXxX2X2XuX2XiXiXuXiXcX1X1XuX2X2XuXuX$X$X#X}.}.}.$X2XuX1XuXiX2X2X2X}.",
"$X1X$X2X2X#X#X@X@XoX*XT.F.D.b.Z.f.n.n.f.a.n.A.f.i.s.s.s.p.f.p.Y l.l.k.R R R ) J J L H H H H H ` N N B N m H B c m m c c c b b n @ v v v n { { n # $ # O + 3 7 q 9 s s > i i 3.q.q.4.1.u u 2.2.2.p p p y y y y y : : : : p p y i ; * & o X j z *.'.J.OX%X9X9XW.U./.OXR S S g c @ { ] v n ..' c . g c g N k z ` S S l I P A P P ~ G.N.M.W ! M.! B.B.b.! B.! :.G.M.W Q d.Y Y E Y Q Y Y I I R I S G S G S G S J S S G G N k k k k m N m m m m m c c c . c @ c b @ @ @ n % % ] 6 + 1 1 1 5 w 5 - w 1 5 4 1 4 q 1 o.w 8 w o.w q q q 7 7 o.7 1 7 7 7 | $ $ # # # v v M M B B M m m N G G S S I _ T T L.^ W M.C.N.*.~ *.*.K.*.*.'.'.K.G.G.G.H.K.K.{.@X_.;X@XoXoX@X,X>X,X,X,XaXjX,X*X;X+X;XoXoX;X*X*XkXnX>XlXLXmXlXnXKXKXKXcXmXmXxXmXFXFX2XyXiXiXiXiXuXxXiX$X$X2XuXuXxXiXuX2X$X$X2X2XuXiXiX2XuXiXuXuXuX#X",
"iXiXuXcXxX$X,X>X>X*X;X!.D.H.D.R.A.Y.R.Y.A.Y.Y.f.n.S.Z.f.f.z.l.p.p.p.R R D D J J K H H H H H H H N m N H m c m B c c c v n { { n # { v ] # ] n @ @ # # O 1 1 4 q s > < = i p 3.0.u u : u 2.2.2.u u y y y y u u u u u y y p p y p i > 8 4 & % . Z ( ~ G.%X&X/.Y.U.&XqXf.T ) x z c B ' B { { n c c N c j N k / ]._ _ U W P P ~ ~ M.N.B.! P W M.W W W W W M.Q ! G.N.Q Q b.Q Y Q E E Q R R R ) I S S S G S G S S z S z z k k m N L L N m m m m m c c B c c c c n c @ % n $ $ 2 2 O   1 7 O.>.5 5 >.w 7 4 4 7 7 1 7 4 1 7 7 q 7 7 q q +.X.1 O 2 | [ ....} .. .{ @.$.$.m N N N N N G G / I A R N.~ P M.:.:.B.N.B.*.V.V.{.>X{.C.{.K.V.V.K.H.T.H.N.K.{._.{.#X<X<X+X;X>X,X;X;X,X*X@X@X+X+X;XoXOX,X*X*XkXmX,XjXKXMXzXlXKXLXKXMXPXKXFXLXKXHXiXiXcXiXxXxX2XuXuXuX$X1X1X$X2X$XuX$X#X$X$X2XuXuX$X}.$X2X#X$X$X}.",
"uXuX2XuX,X{.+X;X+X!.!.T.T.T.T.~.Y.E.R.U.n.Y.U.a.A.A.z.s.p.z.p.R R p.p.R R ) J J L H H K H L L H N m m H c B c M c v v v ] } ..] ]  .2 ..]  .] O $ [ | 7 6 1 5 w s > < < 7.u <.<.u <.u 5.q.4.2.y y y y y y y y : y y y : y u : : i > f f 8 4 X . z R J.qXqX-X(.(.qXvXA.l.l.A z k g m B B B n v B B b b N j z _ ) R P I A P T P W P ! M.P P W W M.! ! ! M.W E B.b.M.d.B.d.E d.d.Q d.d.R R ) I S S G S G G G k z G G G N N m m N N m m m c m m m c B c c c c b . @ @ # # % $ 2 + 1 7 7 X.7 1 5 >.o.4 1 1 o.X.| 7 1 1 7 7 7 7 1 7 7 X.| 2 $ 2 ] ] # ] v v v c c M m N N N N G G S S ) R I l.L.Q P B.N.b.M.N.N.C.{.K.{.$X{.K.{.K.J.{.J.oX*X*X@XOX+X{.{.<X,X,X,X>X>X,X+X;X,X;X;X;X+X@X;X;X>XqX*X<XjXMXjXlXLXKXSXKXIXIXKXmXLXLXHXKXmXmXcXcXGXiXcXGXuX1X$XuX$X2X2X$XuXuXiX1X$X$X2X$X$XuX$X$XuXuX$X$XuX$X",
"$X1X#X$X#X'.+X<XJ.H.H.T.R.T.D.D.A.n.n.a.a.h.n.a.n.f.s.p.p.p.p.R R p.p.R R ) J G L L K K K H L L H H m B m $.@.c { { ] v ] ] ] 2 2 [ 2 | |  .| 2 7 +.>.o.7 5 8 w e > 0 i 9.<.3.<.4.q.5.q.t.2.u y p p u u u y : = : y : = : y : : : = : f 8 8 + % j S l.XXW.R.-X-XqXrXY.D.L.R I S z N c b B M c v c g j z x j S l A l P P P ^ l l ~ B.N.W W *.! M.B.B.N.G.M.M.J.G.d.b.Z.E E d.Q Q d.! R R ) R S S G S G S G z S G S z k m m m m m m m c c m m m c B c c c c b g b b n # % o $ 2 6 2 6 1 1 O + 1         X.| X.2 3 7 | 3 7 3 O 3 2 X.2 O # ]  .} # v n M v m m m m G N G G G J S S R R R Q d.Y Y N.N.b.N.K.G.{.@XK.V.{.{.{.{.{.,X2XoXoX@XoXJ.@X;X+X@X;X<X+X>XjX>X;X;X>X,X+X;X>X,X,X;X,XzXsX+X@X*X,X+X,XmXlXlXlXmXnXHXKXLXKXHXHXmXmXHXGXcXiXcXGXuX$X1XiX$XuXuX2XxXcXiX2X1XuXuXuXuXxXiXuXxXxXuXuXiXuX",
"uXzX2X2X,X<X>X,X@XOXOX&XOXT.D.A.A.n.m.f.a.n.A.n.S.f.p.f.z.k.k.k.u.k.k.D ) J J L L L K K H L L L N ` m H m $.$.n $. .] ] [ | [ 1 3 3 3 7 2 + O   2 | 7 5 5 5 - - 9 > , > i u 3.<.4.q.1.3.5.: : : 1.p u 2.2.4.4.2.2.2.y : y 2.2.p p : p i > 8 4 $ B z F l.l.D.:X=X9X(.W.W.R.l.) _ / G k c m c @ @ g g N N z z z I I I _ ~ ~ ! T ~ K.G.N.~ *.G.M._ ! ! M.G.M.M.J.G.W d.b.Y Q b.E Q M.d.T I ) I S S S S G k G S G z G G G N N L N L m m m m m c c c c c c c c c . b b v n # o O 2 2 1 | 3 + 1 1 +         2 2 + O 1 7 | 1 | X.3 7 2 +.# o o [ %.$.v v { { M M L N L G G G G G / R R R T R T T Q d.B.B.M.K.{.G.K.@XK.{.#X$X$X'.'.$X+XoXT.H.F.G.@X,X<X+X>X;XoX;X>X;X;X,XjX;XoX;XjXsXjX>X,XqX>XOXoX*X,X2XuXFXlXzXzXlXlXKXLXHXmXLXKXKXHXPXHXcXcXGXGX2XyXGXHX1XuXxX$XuXuXuX$X$X2X2X$X2XiXuX$X2XuX$X2XuX$X",
"$X2X$X$X#XoX+XT.!.~.!.^.T.b.n.n.n.a.f.n.n.n.n.h.h.i.Y p.l.p.D p.k.k.k.J ) ) J J L H H H H L L L m N m $.m @.B { v v # 2 | +.| 3 1 3 3 o.q 1 1 5 5 8 5 * 5 9 r - w.0 > = < u 3.<.1.4.u u 1.= : u p u y u u 2.2.p 0.0.p = y 2.2.p p : p : = > w | n b z x.S.T.fX/.fX(.eX9X/.S.l.L.I S k k m c c c b b b j k z l I S I ~ W T W W _ N.N.N.~ ! B.M.N.! b.M.Z.d.Q M.Q Y M.Z.E M.S.Q d.L.N.! T ) I S S S z G k G G G z G G G N m m m m c m m m m c c c c . c c c c . b X @ n n @ # 2 2 O +.2 O + 2 | +.| $ ....| O $ 2 | | # +.%.| +.2 [ ] ] }  .%. .v v $.$.m L G m G G G G D D R R R R T T Q d.F.F.d.N.N.oX@XN.C.{._.J.{.#X,X{.'.,X+XJ.J.@X<X;XaX>X+XoXuX>X+X@X@X@X<X+X>X,X+XaXlX>X;XMX>X;X,X+X*XjXnXlXzXKXlXlXlXFXHXPXIXKXKXIXLXKXHXPXGXcXGXJXGXuXcXcXcX}.uXFXuXcXGXcXiXiXiXuX$X$XuXiX$X$XuXuXxXxX$X",
"$X,X$X;X+X+X,X@X:XR.T.R.A.n.A.b.f.P.a.a.U.n.a.f.s.s.z.p.D p.R k.D J ) D J J J G K H @.H m #.M m B M m @.c B B { } ] # 2 2 7 1 1 w q 5 w e 5 5 5 5 * 5 - * - * * a > a 9.i 9.2.u u q.2.3.q.2.u 2.u y u u y y y = y *   * : a p = = = : : : d 9 4 6 % g C _ S.R.9X(.(.).6X(.U.Y.OXS.R A S S k k m m m N N k z z z I S W W ^ ! W P M.N.! ^ ! B.M.B.! M.G.B.Q d.M.b.B.Z.M.d.B.S.d.Q Q T R T A S R / z N N N G S G G G G G N m m m m c m B B m c c c c c c b m c c b b . n . n o n # ] ] # o O ] ] n o o $ ....# $ ] ] o # ..%. .[ } %. .{ $.$.$.B N N m G ` G S J S S ) l.) x.XXXXL.p.Y f.f.s.S.S.Z.B.!.N.G.J.G.oX_.K.+X@X@X@X$X>X#X;X2XxXcXzXzXjX<X,X,X>X+X+X;X@X,X,XJ.jX,X>XzXMXjXcXzXaX>XzXlXlXsXlXsXlXMXjXlXmXmXLXKXMXKXLXHXmXLXJXGXJXPXFXxXxXcX2X2XuXxXxX$XcXuXcXxXxXuX>XuXuX2XxX$XxXxX>XuX#X{.",
"jXzX2X2X,X>XzX*X*XT.D.Y.Y.R././.n.U.m.a.U.Y.f.f.Z.f.S.z.p.k.p.k.k.x.x.k.) ) ) J L G tXL H m H M c M M @.M { v v %. .] 2 7 7 3 3 e.>.w >.s 5 - 5 9 - 9 - * 9 9 > > < , i : i p u u 4.u u 2.u : 2.u y u 1.u u p p :       * y : = : : : : : > > *   o X j z R S.W.(.(.).6XwX6X(./.Y.f.Y I S S z k k N N k k k z z I l P l l ^ W W ! M.W P ! B.M.B.d.M.Z.M.Q d.b.d.b.b.b.b.B.d.T Q Q T Q ! R D S S z N N N G S S S S G G G m m m m c m B B m c c c c c c c c c c b g . b . n @ ] n ] ] # # v { { n @ @ n { n @ # ] v # # }  .v @ @ } v v c m N N N H G G / S S R R I R R R Y Y R p.f.Y Z.S.n.F.S.Z.D.!.F.F.J.oX@XoXG._.@XoXoX+X@X{.@X#X,X$X+X#X<XoX,X,X,X+X;XsX>XzXzX+XzX,X>X>XuX,X>X;X;X,XjXzXjX,X>X,XjXzX;X,XlXxXlXlXxXPXPXPXHXPXPXPXIXIXPXFXHXHXuXuX,X2XuX#XuXuXuXuXuXuX>XuXcXcXcX>XxXxXuXxX>X$X",
",X,X<X<X+X+X;X!.%XOXR.~./.Y.A.Y.n.U.P.g.Y.(.f.f.Z.s.z.z.p.l.k.x.k.k.k.) J J J J G K tXH H m $.B c @.M M M M @ # ] ] 2 7 o.X.7 q >.9 - 0 0 - - 9 9 9 d > > s d > > < i 7.: i u u 2.3.: u 3.: y 4.2.u 1.4.5.1.5.0.0.i i f y a p p y y p y y a d - 4 6 $ b z I l.S.Y.Y.Y.Y.6XeX(.(.Y.S.s.T I S S S z N N N z z S I I l W T P T W ! M.M.W Q B.N.N.N.b.M.B.b.s.b.B.b.E Q d.M.l.T Y Q Q Y Y R I D S S z z z z S S S S S S G G N m m m m m B m m c m c c c c c c g g b g . b X n @ n n v v # # v n n n c c n n v # v ]  .]  .%.$.{ v v M M M m m N G ` G G G G S R R R ~ R Q R R Y p.f.p.Y z.Z.n.S.S.Z.K.F.F.B.J.+X!.!.J.K.+X_.{.+XJ.{.#X,X,X#X@X#X<X+X>X>X>X<X:XsX*X,XjX,XjX,XuX,X,X>XzXuX>XjXlXzXjX2X+X;XlXzX+X#X>X;XzXuXmXPXHXFXcXcXFXJXPXPXHXHXKXHXxXxX>X>XxX$XuXcXiXxXxXxXuXuXxXxXuX$XuXxXuXuXuX$X",
"<X,X,X,X+X@X+XH.G.T.T.^.&XR.A.Y.n.P.).P.Y.9Xn.h.Z.i.f.f.p.p.p.z.D p.k.) J J J J J ` H H L H $.M M $.B c v n # v ] 2 2 3 7 1 * 1 5 *   - 9 * - 0 > d a d d a d = i , i i = u u : u u : 1.1.: u 1.4.p 1.4.1.u u 2.2.p a p p p p y y y y y : i a > - 8 ..' g j S R S.Y.W.R.eXfX9X9X/.R.D.l.R R D S z z z S S S I ) I I V.B.M.! ! B.M.! W ! B.N.M.b.M.M.Z.M.b.S.H.F.d.B.Z.Z.S.d.T s.L.s.Y T A S S S S S S S S S S S S S S S S z N N m m m m m m m m c c c g g g j b g x g . b @ v v # v v @ c v c c c c v v v n { { v c v B B c c c v M B N N N N G S S J D R l.l.R Y f.f.Y Y f.z.f.f.s.f.b.Z.H.D.H.!.G.H.F.+XjX+X@X_.G.<XoX@XaX@X;X>XzXuX,X$X$X;X;X,X,X>X<X;X,X!.oX<X+X+X+X,X;X;XuXcXuX,X>X>X;X+X<X;X>XlXjX#X>XlXuXuXuXHXIXcXFXHXFXHXJXPXJXFXHXKXmXxXxXuXuXHXuXiXHXxXuXuXuXuXuXuX$X$X$XuXxX,X,XuX$X",
",XxXlXlX,X+X,XoX!.~.T.R./.Y.Y.(.h.m.W.n.n.W.a.f.U.f.f.f.Y Y p.z.D p.k.k.) J J J K ` L L L H $.M M $.{ c { { n ] ] 2 2 1       1 w - * 0 a - , a a i > , > i a i 7.i 2.i : u u u u u u 1.1.u 1.1.u u u u u : : y y = y p p p p y : : : : : p i - * 5 8 6 % g j z ! S.W./.fXBXfX9XqX0X&XD.B.l.R A S S S S S S I I R I B.~ ~ W N.J.J.G.N.G.J.!.J.G.M.M.B.B.B.D.R.K.D.oXoXJ.K.L.l.Q %XN.Q T R R / S S S S S S S S S S S S S S S z N m m m m m m m c c b c g g g j j j g j . c g b c c c c c c c c c c c c c M { B B v c c M B B N N m N N N N S S S S / R R ) z.l.f.Y s.f.i.s.Z.h.s.s.E s.f.Z.H.B.B.G.G._.J.,XlX+X@XG.N.+X@X;XzX#X;XuXxXuX#X<X<X<X,X+X;X:X<X;X:XOX*X>X>X;XuXzXuXuXmXxX>X$X,X2X,X+X+XxXuXzX,X#XxXKXHXHXHXIXIXHXPXIXPXIXIXIXPXPXIXPXHXxXxXxXuXHXxXuXcX$X>XzXxXuXxXxX,XuXuXcXcX,X;XuX2X",
"uXcXmXnXjX,XqX+X:X:X-X/.R.n.n.Y.A.n.Y.n.h.U.h.h.Y.f.h.f.p.f.z.Q.p.k.k.x.k.J J J ` ` tXL H m $.B v { { v { { ] ]  .+.+.>.O.w w w.s 0 9 s 7., a 7.i : : i i i 9.2.i p 2.2.: 2.1.u u 3.1.1.1.1.5.1.u u u 1.1.u u 4.y = : y : p y y y y y y y p i > = 5 w | 6 $ % j I Y Q d.*XVX9X(.9X9X-XR.H.L.B.R _ R A S I S A I I P M.P W W N.K.M.! ! ! ! B.N.! M.B.Z.Z.B.D.T.F.Z.H.J.N.L.L.l.Y T.d.Y T R R / S S I I S S I I S S S S S S S S G N m m m m m m k m m k g j j k z z j j g b c b b c c c c c c c c m m c m M B B m m m c m N N N m H G G S S ) ) R R R F F p.f.s.s.f.a.a.Z.U.Z.Z.Z.s.f.Z.Z.R.!.Z.M.G.J._._.;XjX+XoX<X,XMXMXxXmXaX#XcXmXuX+X;X>X,XjX>X>XqX*X;XsX:XkXmXlX>XnXlXuXzXmXuX>X>XxXnXlXjX>XnXzXxXuX,XxXmXxXzXxXKXPXiXcXHXcXIXIXPXPXPXIXIXHXcXcXHXxXmXxXuXxX2XcXHXmXuXuXxXuXuXxXcXcX,X#XuX>X",
"zXxXxXxXjX>XkX=XOX~.&X&XY.n.n.n.).W.W.Y.U.Y.Y.U.U.a.f.p.p.z.z.z.p.u.k.k.J G J K K ` 4XH H M @.B v v { n  .} ] 2 [ | X.O.O.r 5 e e 0 > a a , i 2.: u u 3.2.2.0.2.: : 3.2.: 1.u u u 3.u u 1.1.1.u 1.4.4.4.0.5.2.q.2.p p p y p p y y y y : : y y = = - 8 w 6 + o X / A T d.=XVX0X-X(.9X9X(.%X&XR.L.L.) I R R I P P P P G.U ~ U B.*.W W Q W W N.G.d.M.Z.G.G.Z.G.K.B.Q M.B.l.B.B.~ Y L.Q P Y R R / S S S I S S R R S S S S S S S S S N m m m N N N k k b k k z z z j z z k z k N N N b b N b j j j N m m m m N m m m N G G G G G G G G G S S S R T R R R R R S.z.s.s.a.i.a.A.U.n.n.A.Z.Y.%X*XqX0X!.oXOX;X@XOX>XaXaX;XzXmXHXmXmXHXcX>XlXmXuX<XjXzX>XjXsXqXqX*X:XsX;XqXzX,X+XnX>X+X,X>X;X>XuXzXlXzXjX>XxXuXxXxXuXuXuX$X2XxXHXPXcXJXPXPXPXJXJXHXKXPXIXHXFXHXPXcXcXxXxXxXcXHXKXmXuXuXuXuXuXzXzXxX>X>XcXuX",
",X,X$X;X+X+X:X!.&X^./.(.n.b.n.A.n.n.n.U.n.g.n.a.U.f.s.Y p.l.p.F D D J J J G J ` L H tX@.M H M v n v } v ] # 2 O 7 3 1 4 5 - r s a a > a a i 2.3.u 3.1.3.3.3.4.u 3.1.2.1.: 1.3.4.1.4.1.1.4.4.4.5.1.4.4.4.4.2.p 4.2.u p p y p p y y y y : : y y = = = 5 w w 4 + $ x l V.K.zXVX&X^.9XfXfX9X0XqX&XD.L.s.P T T T P P T W '.^ W ^ *.~ ^ W ! W E G.oXB.M.Z.K.K.Z.G.D.B.b.N.N.N.L.l.T T +XL.d.Q R R R S S S S S S / / D S S S S S S S S N m m N G G N k k k z z z z z j z z z z z z k k N N / / N z k k N N m N N k m G k G / G S D R ) S ) ) R R R Y Y Y p.f.S.XXT.f.f.a.n.n.n.n.n.n.n.f.Y.%X&X0X:X!.*X<XaX_._.+X+X>X<XK.+X@X_.{.>XuX@X<XuX;X+XzXzX<X+X<X+X<XOX:XsX%X+X>X<X+XmXuX;XuXuXuXxXMXzX>X,X>X>XxX,X2XuX,X2XxXxXxXFXHXKXxXJXPXPXIXIXIXIXIXIXIXPXKXHXPXcXxXnXmXmXxXlXzXuX,XzXxX>XzXzXuXcXxXcXLXmX",
"uXzXMX,XOX<XOX:X%X%X^.A.^.A.(.9X(.W.g.P.g.n.a.a.U.h.s.s.f.p.p.k.k.k.k.J J J K G H L H M B $.B M # { v  .] %.2 2 7 7 O.w s w.e 8.e.0 < 7.i 2.0.4.1.<.1.5.5.5.<.= : 3.1.u u 4.1.1.4.1.u 5.4.5.1.1.u u u u u u u 2.u : = y y u p y p y p y y i p > ; > - 9 8 + 7 ... z C _ V.sX!.&X9XBXBXBXqX-X9XR.D.L.d.s.d.T Y P W K.G.~ W M.B.*.! ! J.oXJ.,X*XG.K.*XG.Z.H.Z.Z.b.E G.G.Q B.L.p.d.OXF.Q T T R ) S ) x._ ) S S ) S S S S G S S G S S G G N N G G z z z z z z l S l x z z l z z z z z z I z z z z z S G G k G N k G S ) ) D R R R R R R R F E d.Y s.E f.s.s.Z.h.h.n.g.m.m.a.P.n.a.Y.h.n.a.E T.T.B.OXoXOX,XkXnXmXMX,X@XjXzX,X>XnXxX#X<XnXzXuXlX,X;X>XqX,X;XqXsXqX=X*XzX,XoX;X,X;XlXxXxXjXzX;X>XlX+X;XzXuXuX2X2X2XxXFXGXxXiXiXcXGXFXHXPXPXHXGXHXPXPXPXmXKXKXxXzXKXmXzXzXMXzXuXlXMXMX;XlX>XzXxXuX,X>X;X",
"aXlXzX*X,XsXOX~.-X&X9X/.(.A.Y.W.n.g.g.E.Y.h.a.A.U.h.s.f.p.p.k.l.x.x.x.k.u.K K K H H @.M @.$.$.$.v  .] %.+.%.[ 6 7 q >.e e 0 = - a = t i 3.3.3.<.<.: <.1.<.<.<.<.1.1.1.4.5.4.5.4.4.5.1.4.4.1.5.4.u 1.2.2.2.2.2.2.2.y y p p u y y y : = = = : : =   - - -     4 6 X j j / I @XG.~.9XBXgXgXeX/.fX=X%XR.Z.Z.d.Y Q Y P B.! P ~ B.B.B.N.N.;X,X+X,X;XJ.Z.T.M.M.K.K.R.!.!.:X;XG.R.XXl.B.oXL.d.d.Q T ) l l ) / R S S / S G G S S S S S z G G G S S S S z z z l S l l I l S I z l l l l z z z z z z z S S S S S S J G S ) x.x.R F F F R p.p.R f.E s.n.a.f.s.Z.S.Z.h.a.f.n.n.A.A.n.W.Y.m.Y.n.n.A.b.T.~.Z.!.>X;X;X,X>XzXzX>X,XcXSXMXMXmXMX;X;XmXzX,X>X,X,X>XsXsXsXkXvXkXdXkXnXzX,XMXMXuXMXjX>X>XlX,XjXnX,X>XFXcXxXxXxXzXxXcXxXiXiXxXxXcXGXHXHXHXHXHXPXIXIXIXKXHXHXxXnXKXnXlXzXMXmXlXzXMXlXjX>X>XjXjX,X,X2XuX",
"jXlXjXOX:XsX~.~.-XY.(.Y.Y.n.m.Y.g.g.Y.E.U.i.a.n.Q.S.z.z.z.z.k.k.x.u.k.k.K K H H @.H H M M { { { v } ]  .&.[ 1 3 7 q >.r r 9 - a 0.i < 9.3.3.<.<.<.1.6.4.5.4.1.1.4.5.5.q.4.q.6.4.1.5.1.1.1.1.4.6.5.5.0.q.2.2.4.2.2.y y p p u y y y : = : : ; > =   9 9 8 4 1 7 + % b g z C G.N.^.fXBXgXgXrXgXAXBX9X%XT.T.b.Y d.Q Y B.! ^ B.G.M.*.! Q G.N.! N.G.N.H.R.B.Z.D.F.T.~.H.=X*XG.J.R.d.l.~.T.Z.S.l.~ _ I l D S R G S / G S / S S S ) ) S G G G S S S S A A A l I I l I l I I A P I I I ( _ I I I T T T _ ) D S ) R S S I x.) R R p.Q p.f.f.Y s.f.a.a.a.a.f.a.f.Z.A.A.Y.Y.n.n.Y.Y.(.W.P.)./.E.9X/.-XgX&X0XkX*XOX@X@X*X,X;X,XjX>X;X;X>X,X<X@XMXjX<X,X,XaX>X;X:X;X:X0X=X%X=XzX,X,XmXHXnXmXMXzXxXHXzXlXmXzXlXFXMXzXxXxXxXxXxXuXxXcXcXxXxXcXFXKXHXHXKXIXIXPXKXHXHXKXKXLXLXnXMXKXmXKXzX>XlX,X,XlXmXmXnXlXzXlXmX",
"lX>XsX*X~.%X%X-X9Xn.T.Y.E.).Y.(.(.eXNX).Y.U.Y.Q.Q.z.h.Q.z.x.k.k.J J J J K L H H @.H M M { { v # ] [  .2 [ 2 3 X.5 5 e r r 0 > 9.i : : 2.<.<.1.6.1.5.q.6.6.q.5.<.5.5.5.6.1.q.q.1.1.4.5.1.1.1.6.4.u u 2.2.: : u u p y y y u p p y p p = i d > d ; - >.d w w 7 w + ] { b j z _ M.T./.9X(.hXNXBXKXvX&X&X=X&Xb.E Z.E Y M.Q W N.B.^ P N.M.N.B.b.G.T.oXR.R.K.H.T.D.D.T.b.!.oXB.L.H.d.d.D.Z.b.b.Q I T A D R S R / S / S S ` / S ) ) x.) S S S S I I I A I I P U I P U A I I I ~ _ U I _ M.~ T T T T Q l._ I A l.I S I I l.I F R s.E Y i.z.Y f.n.a.g.n.a.n.i.n.U.U.Y.Y.W.n.Y.^.W.(.^.U.(.9XY.-X/.(.fX&X=XkX:X*X:X,X>XsXsXzX>X;X+X,XuXjXuX,XmXmXMXlXzXvXlXqXsX0X0XdX0X&X=XMX,X,XMXnXzXjXuXzXxXnX;X,XlX,XjXzX>X,XuXzXuXzXxXxXxXmXmXcXxXcXHXPXFXcXHXKXJXHXmXcXHXKXSXKXKXMXnXKXzXMX,XzXKXzXzXjXmXmXlXzX>X,XjX",
"ZXOX:XqXT.%X9X-XY.a.E.).U.Y.a.n.Y.Y.(.a.g.h.n.h.z.i.p.Q.k.x.k.J J K J K K H H H @.B M @.%.%. .}  .%.%.] +.+.+.w.q w w.s 8.9., i : = u 0.<.1.1.6.1.<.6.5.1.1.u u 4.5.6.q.5.t.q.<.4.q.4.4.4.4.6.4.: u q.q.: : 2.2.u u y : u 2.p : p f = d d f d * 4 8 4 4 +   + O ..{ @ g x I W l.A./.(.gXNXvXCXqX9XvXVXgXH.D.%XG.d.N.M.M.G.B.W ! B.M.N.B.B.H.G.G.K.B.Z.K.H.H.H.!.F.%X*XK.T.R.b.Z.H.Z.d.d.W T T A I R A I I I / I S ]./ A A A ) A A S S A I R I P T T P T I P R P _ ~ T ~ ~ P V ~ _ W P ^ ^ P Y Y l.I P L.W R l.~ <XB.Q f.f.f.h.f.Y.a.n.).m.m.E.n.n.n.&X/.n.n.A.(.Y.Y.(.E.Y.A.n.Y.gXn.Y.R.R.(.^.%XkX:X:XqXqXjXkXkXnXzXsXlXmXmXnXMXlXmXnXmXnXsXkXkX*X:X=X:XvXdX&X:XzX;X,XzXzXjXuXuXuX>XzX<X,XlX>XzXuX;X;XuXjXuXzXmXxXxXcXmXcXcXmXHXPXcXmXJXPXIXIXLXmXPXIXmXmXKXVXKXmX>XlXzXnXKXzXzX>XlXzX,X>X,X*X>X",
"LX%X0XvX*XqXgX&XY.Y.9XhXY.E.P.E.P.g.P.n.P.P.h.U.z.p.p.XXk.k.u.D J K K K K H H H #.@.{ $.%. .} ] %.%.&.2 %.+.o.q 5 r 8.8.9.e.7.9.q.2.0.q.3.6.5.6.6.<.t.t.1.u : 1.t.5.5.t.4.q.4.u 5.4.1.5.4.6.6.4.= 3.t.0.: : p p u u y y p p : = y = * f d - 4     & & 6 +   O + ] ..@ @ g j I T Y.9XeXNXgXrXCXvXvXZXZXbX%X%XdX*X%X!.H.K.G.B.B.K.@XoXJ.N.G.oXT.H.H.M.B.M.b.F.G.K.F.*X*XZ.K.T.Z.F.&X^.b.B.M.l.l.P I I I ) _ _ _ / _ 3XV._ _ I _ R I I R R R ! Q T T T T ~ T T _ W V._ W ~ ~ P P ! ! ! W W E E E Y K.~ T #Xl.l.K.l.>XXXH.T.Y.Y.Y.n.Y.n.Y.(.P.P.).A.U.A.&XW.A.Y.Y.(.Y.Y.(.T.A.U.Y.(.BXE.Y.9X9X9X0XgXdX0X:X:X:XkXvXkXbXsX,XjXnXnXlXzXlXjX>XlXzX,XkXMX*XqX=X=XvXqX%X:X+X+XjXlXzXlXzXxXxXuXMXzXnXmXzXnXlXuXuXlXlXjXxXmXmXcXcXcXcXxXcXcXLXcXFXJXPXPXPXHXcXIXIXmXmXLXVXZXlXzXKXSXmXnX,X,XnXnXzXjXlXlXnXZX",
"bX=X0X0X=XfXqX/.^.).(.eXP.I.E.I.P.g.Y.Y.U.Q.i.S.z.p.z.&Xu.u.u.J K J K H H H H H #.#.{  . .] ] 2  .+.2 O +.X.1 1 * * 9 > 0 9.i 7.0.u 0.q.<.q.q.q.6.1.y.y.1.3.p 4.6.1.1.4.1.4.1.: 5.5.1.4.4.4.6.4.u q.y.2.: p 2.2.1.1.u y p y = * ; * * > - *       & & ..$ o $ $ ] [ @ @ N j I T f.Q.W.eXeXeXVXbXvXVXbXvX:X&X:X%X*XH.H.H.B.d.B.N.+X@XJ.! B.@X@XoX@XN.K.N.Z.~.T.H.H.*XOXb.Z.H.Z.T.-XH.b.Z.K.L.B.A P ~ _ V.'.'.].( '.xX#X'.'.B.K.L.R R R R d.d.Q T T W T ! ~ ~ B._ B.B._ *.M.:.~ B.:.M.M.b.! b.Z.b.+XB.! jXB.M.J.l.XXN.H.R.A.A.A.a.U.U.Y.).P.P.).n.A.A./.Y./.qX(.9X(./.9X-X(.-XeX9XgX(.Y.9X9X(.fXgXvXkXdX0X0XvXVXMXMXjX>XqXzXzXzXjXzXsX,XkXlXjXmXmXkXVXbXvXVXvXqXmXjXlXKXmXzXzXuXuXxX>XzXjXlXMX;XzXnXjXjXnXnXzXzXMXcXMXMXxXxXxXxXxXHXiXxXcXcXHXHXuXxXIXIXnXmXLXnXnX,XlXKXKXmXzXsXlXKXlXlXlXlXzXnXmX",
"%X:X=XT.R.&XR.^.9X(.E.6XI.).).g.g.m.E.Y.n.E.i.h.p.p.z.eXu.u.k.x.J K K K H H @.$.{ @.{ $. .] &.%.[ &.2 O | 3 1 7 w e w.a a , * t : = 0.q.: 6.q.6.<.= 5.u * u 2.2.5.5.1.5.5.y.t.5.t.t.q.q.q.4.6.6.1.q.q.: = 2.0.2.4.1.u u 2.: = ; ;   * ; ;       4 6 & & o o $ $ 2 2 o . b x S A Y f.h.W.rXvXLXVXKXKXVXZXZXkXqX0X~.M.F.oXN.M.G.G.K.oXoXB.G.,X*X+XoXG.OXOX*XbXvX0X=XkX:XZ.G.!.T.&X&XT.b.T.*X*XK.P P l.V.'.#X#X`.I _ $XV.V.V.^ ! Y R R T T Q d.Q P P Y ^ ! ! _ V._ M.B.V.N.G.N.:.M.W b.b.! ! B.Z.B.+XB.! zXB.B.oXM.T.G.T.Y.f.n.A.f.A.U.Y.Y.P.P.).n.Y.W.9XR./.0X(.9X9X&X0X-X(.&X(.(.wXwX^.9X-XY.-X&X=X:X:X*X%XkXvXqXqXjXkXbXnXlXqX,X>X>X,XsXsXsXkX,X*XvXkXqXvX0X=XVXMXmXLXKXlXcXxXmXuX#X>X>XjXjX+XlXlX,X,XlXnXlXjXzXuXuXzXMXxXxXcXmXHXxXcXcXcXPXIXJXPXIXIXlXKXLXLXLXmXKXLXLXmXsXjXlXKXzXlXnXjX*X,X,X"
};
