/* XPM */
static const char *ceiling_small[] = {
/* columns rows colors chars-per-pixel */
"16 16 222 2 ",
"   c #4F4C4A",
".  c #53504E",
"X  c #4A4E50",
"o  c #505356",
"O  c #505457",
"+  c #585552",
"@  c #595654",
"#  c #5B5957",
"$  c #535658",
"%  c #535759",
"&  c #575A5D",
"*  c #575B5E",
"=  c #5E5C5A",
"-  c #615F5E",
";  c #63615F",
":  c #5C5F61",
">  c #676462",
",  c #606264",
"<  c #626567",
"1  c #686665",
"2  c #696766",
"3  c #6B6866",
"4  c #6A6867",
"5  c #6A6967",
"6  c #6C6967",
"7  c #64686A",
"8  c #666A6C",
"9  c #676A6C",
"0  c #676B6E",
"q  c #6C6968",
"w  c #6E6B68",
"e  c #6F6B69",
"r  c #6C6B6A",
"t  c #6D6B6A",
"y  c #6D6C6B",
"u  c #686B6E",
"i  c #686D6F",
"p  c #6A6D6E",
"a  c #6B6D6E",
"s  c #6D6C6C",
"d  c #6C6E6E",
"f  c #706D6A",
"g  c #726F6D",
"h  c #736F6D",
"j  c #73706D",
"k  c #71706F",
"l  c #72706E",
"z  c #74706D",
"x  c #75726F",
"c  c #76726F",
"v  c #696D70",
"b  c #6B6E70",
"n  c #6C6F70",
"m  c #6B7072",
"M  c #6E7071",
"N  c #6C7072",
"B  c #6D7172",
"V  c #767370",
"C  c #757473",
"Z  c #727475",
"A  c #747474",
"S  c #757574",
"D  c #767575",
"F  c #767676",
"G  c #767777",
"H  c #777777",
"J  c #797572",
"K  c #7A7673",
"L  c #787674",
"P  c #7E7976",
"I  c #787878",
"U  c #787879",
"Y  c #78797A",
"T  c #79797A",
"R  c #797A7A",
"E  c #7B7B7A",
"W  c #7C7A78",
"Q  c #7F7B79",
"!  c #7F7D7B",
"~  c #787B7D",
"^  c #7B7D7D",
"/  c #7A7D7F",
"(  c #7B7D7F",
")  c #7C7C7C",
"_  c #7D7D7D",
"`  c #7F7E7D",
"'  c #7C7D7E",
"]  c #7D7D7E",
"[  c #7F7F7F",
"{  c #827D7B",
"}  c #817F7C",
"|  c #837F7C",
" . c #827F7D",
".. c #807F7F",
"X. c #84807D",
"o. c #797D80",
"O. c #7C7E81",
"+. c #7C7F82",
"@. c #7E8081",
"#. c #7C8083",
"$. c #7E8082",
"%. c #7E8184",
"&. c #808182",
"*. c #808283",
"=. c #838282",
"-. c #828383",
";. c #868380",
":. c #878380",
">. c #868483",
",. c #838485",
"<. c #808487",
"1. c #868585",
"2. c #848687",
"3. c #898582",
"4. c #8A8784",
"5. c #8B8784",
"6. c #8B8785",
"7. c #888786",
"8. c #818588",
"9. c #838688",
"0. c #838689",
"q. c #878888",
"w. c #878889",
"e. c #85898B",
"r. c #87898A",
"t. c #86898B",
"y. c #87898B",
"u. c #8C8A89",
"i. c #8E8B89",
"p. c #8D8C8B",
"a. c #888A8C",
"s. c #888B8C",
"d. c #888B8E",
"f. c #8A8C8E",
"g. c #8A8D8E",
"h. c #8B8D8E",
"j. c #8B8E8F",
"k. c #8E8D8C",
"l. c #908C8A",
"z. c #918F8D",
"x. c #928E8C",
"c. c #938F8C",
"v. c #928F8D",
"b. c #93908E",
"n. c #96928F",
"m. c #8A8E91",
"M. c #8C8E90",
"N. c #8D8F91",
"B. c #8E8F90",
"V. c #8C8F92",
"C. c #8F9193",
"Z. c #8E9294",
"A. c #8F9395",
"S. c #979390",
"D. c #979391",
"F. c #949393",
"G. c #909294",
"H. c #909395",
"J. c #919496",
"K. c #909497",
"L. c #919497",
"P. c #939596",
"I. c #989492",
"U. c #999592",
"Y. c #989695",
"T. c #999695",
"R. c #999795",
"E. c #9B9997",
"W. c #9D9996",
"Q. c #929698",
"!. c #939698",
"~. c #939799",
"^. c #94979A",
"/. c #95979A",
"(. c #95989B",
"). c #95999B",
"_. c #979A9C",
"`. c #969A9D",
"'. c #979B9D",
"]. c #979B9E",
"[. c #9E9A98",
"{. c #989B9E",
"}. c #989C9F",
"|. c #999D9F",
" X c #A5A19E",
".X c #A6A19E",
"XX c #999DA0",
"oX c #9A9EA0",
"OX c #9DA0A2",
"+X c #9DA0A3",
"@X c #9DA1A3",
"#X c #9FA2A5",
"$X c #A7A4A1",
"%X c #A7A4A2",
"&X c #A9A5A3",
"*X c #A8A6A5",
"=X c #AAA7A4",
"-X c #ABA7A4",
";X c #ADA9A6",
":X c #ACA9A7",
">X c #AEAAA7",
",X c #A2A5A8",
"<X c #AFABA8",
"1X c #AAADAF",
"2X c #B0ACA9",
"3X c #B3B0AD",
"4X c #B4B0AD",
"5X c #B4B1AE",
"6X c #B5B1AE",
"7X c #B6B2B0",
"8X c #B7B3B1",
"9X c #B7B5B3",
"0X c #B8B5B2",
"qX c #B9B6B3",
"wX c #BAB6B4",
"eX c #BAB7B4",
"rX c #BAB8B5",
"tX c #BBB9B6",
"yX c #BEBBB8",
"uX c #C0BEBB",
"iX c #C1BFBD",
"pX c #C2C1BE",
/* pixels */
"i.,.+.+.*.z.z.6.:.*.o.n * O $ < ",
"-X[.i.b.l.I.l. .! [ B 7 : X X , ",
"6XqX6X-XW.z.Z B ^ %.u s U $ o B ",
"eXuXpXrX.Xz.8 8 ^ @.B a a 7 n k.",
"-X6XuX9X<X&XY a ! Y A n a n [ R.",
"n.:XqX-XrXeX$Xi.P x x A 8.8.t.@.",
"D.:X:X3XiXyX8XW.{ x 5 1 ,.}.Q.1.",
"D..XR.2X6X6X8XW.J g V.[ 5 `.t.L ",
":.3.6.R.E.$X:Xz.V j L.[ V ^.t.L ",
"w g ,.t.~ p.I.6.x [ h.> @ w L.[ ",
"+ ; ,.d.,.Y f V t.@XV.#   A }.A ",
". @ 6 @.m.h.5 Y A.@XXXy 1 G.G.V ",
"F.h.*.C.Q.Q.t.d.m.`.G.6 w  .W A ",
"1X,X`.}.).).L.V.L.V.w C ^ Y  .h.",
"}.#X}.XX`.d.*. .t.s - A.8.u >.6.",
"^.@XXXQ.Q.[ X. .g = A 8.n * [ 6."
};
