/* XPM */
static const char *e[] = {
/* columns rows colors chars-per-pixel */
"24 24 130 2 ",
"   c #3A3732",
".  c #3E3A34",
"X  c #3F3D3A",
"o  c #423C36",
"O  c #443F38",
"+  c #483F39",
"@  c #46403A",
"#  c #4B443D",
"$  c #53463E",
"%  c #50483F",
"&  c #444342",
"*  c #4D4740",
"=  c #4F4943",
"-  c #4D4D4C",
";  c #514740",
":  c #564E45",
">  c #534A42",
",  c #584841",
"<  c #5A4941",
"1  c #584B43",
"2  c #584C43",
"3  c #594C44",
"4  c #584D44",
"5  c #594D45",
"6  c #5A4C45",
"7  c #5B4D45",
"8  c #584F46",
"9  c #584F47",
"0  c #5E4D45",
"q  c #5E4E46",
"w  c #5F4F46",
"e  c #5E4F47",
"r  c #5A4D45",
"t  c #554E48",
"y  c #544F48",
"u  c #564F48",
"i  c #585047",
"p  c #575048",
"a  c #57514B",
"s  c #585048",
"d  c #595149",
"f  c #5A5148",
"g  c #5A5249",
"h  c #5B5249",
"j  c #59524A",
"k  c #58524B",
"l  c #5A524A",
"z  c #5B524A",
"x  c #5B534A",
"c  c #5B534B",
"v  c #5D5148",
"b  c #5F5048",
"n  c #5E5148",
"m  c #5F5148",
"M  c #5D524A",
"N  c #5D534A",
"B  c #5C534B",
"V  c #5C544B",
"C  c #5D544B",
"Z  c #5C534C",
"A  c #5A544C",
"S  c #5C544C",
"D  c #5D554C",
"F  c #5C554D",
"G  c #5D554D",
"H  c #5D564D",
"J  c #5E564D",
"K  c #5C554E",
"L  c #5D554E",
"P  c #5D564E",
"I  c #5C564F",
"U  c #5E564E",
"Y  c #5F564E",
"T  c #5F574E",
"R  c #5E564F",
"E  c #5E574F",
"W  c #5F574F",
"Q  c #5C524A",
"!  c #575655",
"~  c #5E5750",
"^  c #5C5650",
"/  c #5F5850",
"(  c #5F5851",
")  c #5F5951",
"_  c #585857",
"`  c #5B5C5D",
"'  c #604E45",
"]  c #604F46",
"[  c #614F46",
"{  c #604F47",
"}  c #645147",
"|  c #605148",
" . c #615148",
".. c #60534A",
"X. c #64534A",
"o. c #65554B",
"O. c #60574E",
"+. c #60574F",
"@. c #65554C",
"#. c #66564D",
"$. c #60564D",
"%. c #60584F",
"&. c #605850",
"*. c #615850",
"=. c #615950",
"-. c #605951",
";. c #615951",
":. c #625950",
">. c #625A51",
",. c #605952",
"<. c #605A52",
"1. c #615A52",
"2. c #615A53",
"3. c #625A52",
"4. c #635B53",
"5. c #645B52",
"6. c #645C53",
"7. c #655C53",
"8. c #615A54",
"9. c #635C54",
"0. c #625C55",
"q. c #635C55",
"w. c #645C54",
"e. c #655D54",
"r. c #645D55",
"t. c #655D55",
"y. c #675E55",
"u. c #675F56",
"i. c #675F57",
"p. c #685F56",
/* pixels */
". O @ @ : u @ ; ; : z ; o .         . . * R > . ",
"# # # > 9.: # : R ,.,.: O o . . . o O o = R R z ",
"/ ,.~ / ~ # ; W ,.,.V : ; # @ @ O @ @ o > R R ,.",
"/ ,.R 9.: @ z ,.e.,.i : : # @ @ o @ # @ # R 9.,.",
"R ,./ e.; ; R 7.5.z R R : ; @ o o @ # ; # y / 8.",
"R R ,.,.; V ,.7.z V O.M  .M : # o o O % i : : z ",
"R R ,.R : R z z : z ; $ M  .3 1 # o o @ : z z V ",
": R e.z p z : ; % # @ O @ 3 # @ 1 $ O @ # : 3 : ",
"= R ,.: : V M ; % # @ o O $ 3 # 1 q 1 @ @ # # # ",
"= R z ; > z z : ; @ @ o # 1 M 3 < [  .# # # @ @ ",
"# z : # ; : = - _ y = o # 1 q q 1 [ o.2 # # # $ ",
"o # : @ # # X - ` ! u . O # $ < $ q @.M # ; 1 ; ",
". o # @ O O . & - - A # . O # $ $ | @. .; ; > > ",
"o o o @ O o . . O * p ,.z : ; @ , X.X.q ; ; V : ",
"; @ . o o o o o o # ; %.e.e.e.# $ [ q 1 ; 3 W z ",
"i > # O . . @ z : # : V ,.e.e.> # $ 1 $ > R ,.V ",
"; : ; # # O O z R # ; i V ,.7.R z ,.: # z ,.R : ",
"R : ; # @ o . @ # @ @ = : A ,.,.u.e.# : R R R R ",
"1 3 3 ; @ . . . O = # @ # : M %.p.V # R R p : ; ",
"$ q z z ; @ o o O : * @ ; M ; # 3 ; ; V ; # O O ",
"1  .R ~ : # O @ @ @ # @ z z @ @ # @ # ; @ o o + ",
"$ M O.R 3 # O @ # # ; @ @ @ o o o O @ # O o . O ",
"# < q 3 3 # # # ; 1 ; @ o o O o o o O @ o O . o ",
"+ $ $ $ $ 1 # # : 1 ; # . . o .       o O y o . "
};
