/* XPM */
static const char *floor[] = {
/* columns rows colors chars-per-pixel */
"24 24 191 2 ",
"   c #363432",
".  c #373533",
"X  c #383533",
"o  c #393633",
"O  c #383634",
"+  c #393634",
"@  c #393635",
"#  c #393735",
"$  c #3B3835",
"%  c #3A3836",
"&  c #3B3836",
"*  c #3B3937",
"=  c #3C3937",
"-  c #3D3937",
";  c #3D3A37",
":  c #3C3A38",
">  c #3D3A38",
",  c #3C3A39",
"<  c #3D3B39",
"1  c #3E3A38",
"2  c #3E3B38",
"3  c #3D3B3A",
"4  c #3E3B3A",
"5  c #3F3C39",
"6  c #3E3C3A",
"7  c #403C39",
"8  c #403D3A",
"9  c #403D3B",
"0  c #413E3B",
"q  c #423E3B",
"w  c #403E3C",
"e  c #413E3C",
"r  c #413F3D",
"t  c #433F3C",
"y  c #43403C",
"u  c #43403D",
"i  c #42403E",
"p  c #43403E",
"a  c #43413E",
"s  c #43413F",
"d  c #45413E",
"f  c #44423F",
"g  c #45423F",
"h  c #46423F",
"j  c #444240",
"k  c #454240",
"l  c #454341",
"z  c #464340",
"x  c #464341",
"c  c #474440",
"v  c #464441",
"b  c #474441",
"n  c #474541",
"m  c #454442",
"M  c #464442",
"N  c #474542",
"B  c #474543",
"V  c #474544",
"C  c #474644",
"Z  c #484441",
"A  c #484542",
"S  c #484643",
"D  c #494643",
"F  c #494743",
"G  c #484644",
"H  c #484744",
"J  c #494744",
"K  c #484645",
"L  c #494745",
"P  c #4A4744",
"I  c #4A4745",
"U  c #494746",
"Y  c #494845",
"T  c #4A4844",
"R  c #4A4845",
"E  c #4B4845",
"W  c #4B4945",
"Q  c #494846",
"!  c #4A4846",
"~  c #4B4946",
"^  c #4A4847",
"/  c #4A4947",
"(  c #4B4947",
")  c #4C4946",
"_  c #4C4A46",
"`  c #4C4A47",
"'  c #4D4A47",
"]  c #4D4B47",
"[  c #4E4B47",
"{  c #4B4948",
"}  c #4B4A48",
"|  c #4C4A48",
" . c #4C4B48",
".. c #4D4B48",
"X. c #4C4B49",
"o. c #4D4B49",
"O. c #4E4B48",
"+. c #4E4C48",
"@. c #4E4C49",
"#. c #4F4C49",
"$. c #4F4D49",
"%. c #4D4C4A",
"&. c #4E4C4A",
"*. c #4F4C4A",
"=. c #4E4D4A",
"-. c #4F4D4A",
";. c #4E4D4B",
":. c #4F4D4B",
">. c #4F4D4C",
",. c #4F4E4C",
"<. c #504D4A",
"1. c #504E4A",
"2. c #504E4B",
"3. c #514E4B",
"4. c #514F4B",
"5. c #524F4B",
"6. c #504E4C",
"7. c #504F4C",
"8. c #514F4C",
"9. c #504E4D",
"0. c #504F4D",
"q. c #514F4D",
"w. c #524F4C",
"e. c #52504C",
"r. c #52504D",
"t. c #53504D",
"y. c #53514D",
"u. c #51504E",
"i. c #52504E",
"p. c #53504E",
"a. c #53514E",
"s. c #52514F",
"d. c #53514F",
"f. c #54514E",
"g. c #54524E",
"h. c #55524E",
"j. c #54524F",
"k. c #55524F",
"l. c #55534F",
"z. c #535250",
"x. c #545250",
"c. c #555250",
"v. c #555350",
"b. c #545351",
"n. c #555351",
"m. c #565350",
"M. c #565450",
"N. c #575450",
"B. c #565451",
"V. c #575451",
"C. c #575551",
"Z. c #565452",
"A. c #575452",
"S. c #575552",
"D. c #575553",
"F. c #585451",
"G. c #585551",
"H. c #585552",
"J. c #595552",
"K. c #585553",
"L. c #585653",
"P. c #595653",
"I. c #5A5653",
"U. c #5A5753",
"Y. c #595654",
"T. c #585755",
"R. c #595755",
"E. c #5A5754",
"W. c #5B5754",
"Q. c #5B5755",
"!. c #5B5854",
"~. c #5B5855",
"^. c #5A5856",
"/. c #5B5856",
"(. c #5C5855",
"). c #5C5956",
"_. c #5C5957",
"`. c #5D5A57",
"'. c #5C5A58",
"]. c #5D5A58",
"[. c #5E5A58",
"{. c #5F5C58",
"}. c #5F5C5A",
"|. c #605C59",
" X c #605D5A",
".X c #615D5A",
"XX c #615E5A",
"oX c #625F5B",
"OX c #625F5C",
"+X c #635F5C",
"@X c #64605C",
/* pixels */
"B D B B t $ o q d d z z C 1.G.XXOXG.1.&.' &.8.O.",
"&.8.1.1.' d q z B B W O.&.e.m.XX@X/.g.g./.E.G.e.",
"e.g.e.' ' D ' 1.' ' W ' W O.e.E.'.).XXXXOXXX).m.",
"E.V.&.d D ' G.G.g.8.8.' W &.e.V.G.G.{.OXOXXX/.E.",
"g.&.' D 1.g.E.).g.e.8.W O.m.V.g.8.8.G././.E.m.e.",
"&.1.8.&.e.G.E.G.m.g.&.W &.m.V.8.&.O.O.,.8.G.e.&.",
"1.e.e.&.&.g.G.e.e.&.P W O.e.G.m.O.P W &.g.E.V.e.",
"P W O.e.m.m.g.W W &.g.e.m.V.V.e.&.O.O.W e.m.8.O.",
"B W &.e.m.V.e.O.&.g.V.m.m.m.&.W P B z B O.e.&.W ",
"z O.e.g.V.'./.e.e.G.1.B W e.e.&.z z j B P P z s ",
"W &.&.8.m.E.E.e.e.V.e.P P P &.&.C z B B z q t B ",
"W W P &.V.V.e.&.8.1.&.z P &.e.W z t s P W s s B ",
"W W W 8.V.V.&.W { O.W 4 z O.,.W z q t P &.B B W ",
"' W O.e.e.g.W P B W C 4 z P P O.s 6 P &.8.W O.&.",
"D D W O.W P P ' &.8.W t z C P P B z { V.g.e.g.O.",
"d D 1.g.e.&.O.W O.W B z { &.,.,.{ P &.G.g.g.g.&.",
"B g.'.E.m.' z P &.W C B &.8.8.z.e.O.&.G.V.e.1.P ",
"' e.e.O.P s z B B P C W ,.,.,.e.V.g.P ' &.D d q ",
"z P C B B t 4   4 C C { { W P W 1.1.' W ' D d s ",
"P W t 4 $ $ @   4 s t z W O.&.&.&.1.e.8.1.W D P ",
"W B 4 @ @ = 4 4 4 4 s { 8.&.W 1.G.E.8.' ' D P ' ",
"z s 6 4 $ $ 4 q z z z W 8.g.e.m./.G.&.' g.G.g.' ",
"4 = 4 = q = = q D P W B P ' &.1.e.1.1.e.G.).V.D ",
"@ = 4 4 = @   = t d P B B &.g./.G.e.1.e.&.e.g.B "
};
