/* XPM */
static const char *n[] = {
/* columns rows colors chars-per-pixel */
"24 24 211 2 ",
"   c #1D0D39",
".  c #291539",
"X  c #341633",
"o  c #321429",
"O  c #582E1B",
"+  c #5F3319",
"@  c #6B3C16",
"#  c #733F1B",
"$  c #411E2E",
"%  c #461D3C",
"&  c #451B31",
"*  c #48202E",
"=  c #5B2A2B",
"-  c #552C25",
";  c #55332F",
":  c #48233D",
">  c #52253A",
",  c #532D3B",
"<  c #632F29",
"1  c #6D3826",
"2  c #653A28",
"3  c #622C3F",
"4  c #6A323B",
"5  c #693A37",
"6  c #743C2E",
"7  c #6F430F",
"8  c #7A4C0D",
"9  c #76441B",
"0  c #79431B",
"q  c #7A4B12",
"w  c #784528",
"e  c #1B1B5C",
"r  c #151C52",
"t  c #260F49",
"y  c #26194B",
"u  c #361648",
"i  c #211B5D",
"p  c #241A57",
"a  c #361954",
"s  c #3A1B53",
"d  c #391858",
"f  c #2F2046",
"g  c #372249",
"h  c #292359",
"j  c #352859",
"k  c #1C1B63",
"l  c #261A65",
"z  c #2B1A62",
"x  c #2E1C68",
"c  c #321E6C",
"v  c #341769",
"b  c #2E1F79",
"n  c #1B2564",
"m  c #1B2A65",
"M  c #162D6A",
"N  c #172569",
"B  c #1A326E",
"V  c #19316A",
"C  c #1C2675",
"Z  c #152D73",
"A  c #1B2B76",
"S  c #152E79",
"D  c #1C2B7C",
"F  c #1E2779",
"G  c #173276",
"H  c #1D3372",
"J  c #19337B",
"K  c #1D3B7B",
"L  c #17357C",
"P  c #242262",
"I  c #2D2967",
"U  c #272768",
"Y  c #3D2966",
"T  c #20356C",
"R  c #253E6B",
"E  c #383F6B",
"W  c #2E237B",
"Q  c #2D2D7B",
"!  c #232778",
"~  c #322A7A",
"^  c #243D72",
"/  c #2A3B75",
"(  c #22317C",
")  c #213E7D",
"_  c #283378",
"`  c #313E76",
"'  c #451842",
"]  c #491A45",
"[  c #451B5A",
"{  c #451C58",
"}  c #542C45",
"|  c #5C2C43",
" . c #552849",
".. c #422353",
"X. c #422957",
"o. c #522A54",
"O. c #5A364D",
"+. c #642D44",
"@. c #401A63",
"#. c #433965",
"$. c #2B467B",
"%. c #274277",
"&. c #384478",
"*. c #544562",
"=. c #875212",
"-. c #885317",
";. c #936012",
":. c #986412",
">. c #804825",
",. c #845723",
"<. c #1E2E88",
"1. c #1B3787",
"2. c #1E3998",
"3. c #232E8C",
"4. c #2A2D87",
"5. c #243383",
"6. c #213C8E",
"7. c #253687",
"8. c #3B3C87",
"9. c #213692",
"0. c #213C9B",
"q. c #253D94",
"w. c #1E408D",
"e. c #1E4293",
"r. c #234183",
"t. c #294480",
"y. c #25448B",
"u. c #2B498C",
"i. c #2E4A83",
"p. c #344A88",
"a. c #3B568B",
"s. c #385488",
"d. c #2A4B92",
"f. c #2B4D9C",
"g. c #274697",
"h. c #394895",
"j. c #324795",
"k. c #2D539F",
"l. c #355594",
"z. c #3D5A95",
"x. c #32529B",
"c. c #3E5D9B",
"v. c #34599D",
"b. c #2B4FAB",
"n. c #224DAC",
"m. c #344DA1",
"M. c #2750A1",
"N. c #2D55A2",
"B. c #2C54A9",
"V. c #2E5AAB",
"C. c #3157A1",
"Z. c #345BA4",
"A. c #345DA9",
"S. c #3A5EA9",
"D. c #3D5BA1",
"F. c #2B5AB8",
"G. c #3E61A4",
"H. c #3760AC",
"J. c #3C62A9",
"K. c #3865B7",
"L. c #405B8F",
"P. c #415E97",
"I. c #4D658E",
"U. c #44619B",
"Y. c #4A6595",
"T. c #556D98",
"R. c #5A729C",
"E. c #4C69A2",
"W. c #4166AB",
"Q. c #4C6CAA",
"!. c #4668AA",
"~. c #5371AC",
"^. c #5773A7",
"/. c #446BB3",
"(. c #496EB4",
"). c #436EBB",
"_. c #4E71B2",
"`. c #4C73BC",
"'. c #5071B3",
"]. c #5C7AB4",
"[. c #5076BD",
"{. c #5579BC",
"}. c #5A7CBC",
"|. c #627CAB",
" X c #6079A2",
".X c #617FB9",
"XX c #3C6CC4",
"oX c #3C6FCB",
"OX c #4B75C1",
"+X c #4372C8",
"@X c #557BC3",
"#X c #5B7FC1",
"$X c #537ECB",
"%X c #6B85B4",
"&X c #6481BA",
"*X c #6A82AB",
"=X c #5E81C5",
"-X c #5B83CC",
";X c #6989C5",
":X c #6185C8",
">X c #6E8ECC",
",X c #6384C3",
"<X c #728EC2",
"1X c #7592CA",
"2X c #698ED2",
"3X c #648BD4",
"4X c #6E91D3",
"5X c #6D94DB",
"6X c #7C9AD3",
"7X c #7597D6",
"8X c #819ED6",
/* pixels */
"F.4.o.w :.;.@ X U (.d.d.C.D.~._.`.OX#X{.}.;X7X3X",
"F.~ 4 -.;.9 * y N d.A.K Z.=X6X>X`.H.A.N.S.{.,X$X",
"0.4.O.w 1 % p N J J S.#X[.3X4X2X).6.! ! 6.J.`.+X",
"3.v ~ Y d l Z 5.r.w.J.4X5X-XW.x.S.B.~ [ W k.`.K.",
"9.W W <.D S L r.y.k.[.7X2X).7.s : *.h.8.W g./.K.",
"0.3.2.g.1.S Z G y.Z.`.=XW.y._ , @ 0 5 8.b.B./.K.",
"n.2.3.j.d.M N M t.v.A.N.( a g j ; 1 6  .j.).).XX",
"0.3.b d #.` m B ) d.g.5.v ] & u I o.4 | c d.A.M.",
"b [ | | % f / u.d.g.w.F v z a u a Q o.4 { N 1.1.",
"@.+.w -.2 y H D./.Z.e.1.! C C l ] | #.O.> i J D ",
"[ 3 6 1 > h y.G.).OXV.M.g.w.C l % 0 ,.#.X.i %.( ",
"x { ..I 5.k.(.[.`.@X-XOX/.v.A u + q :.w p.u.z.p.",
"f.9.g.B.).OX@X[.{.,X4X5X,Xc.m X 7 8 q = Y '.P.l.",
"B.F.XX+X).A.N.C.W..X>X7X>XP.r o + O $ y k P.].t.",
"`.+X+XoXK.6.C J d.~.,X=X(.!.T   . y e B K a.%X;X",
"7X$XB.q.m.b.Q l 5.~.}.[.A.r.u.T m T ) t.z.R.%X6X",
"7X`.4. .5 *.D.j.y.E.}.`.H.x.u.z.a.p.i.i.I.*X<X6X",
"~.j.~ 5 =.# } h.)./.}.}.H.A.~.^.z.$.%.$.I.|.<X<X",
"p.h } j 2 < ] l x.@X}.:X@XJ.U.|.T.B V R s.E.%X|.",
"^ y = , I ..u k Z l.~.Q./.S.l.^ E ` T %.t.U. XT.",
"^ n s ' s Q P t e H p.l.u.J P h . g &.a.d.Y.R.I.",
"i.G C l ] } &.j t n K L G e X O - y / G.(.~.R.T.",
"c.1.! z : # 2 E j e K S k t & = > h p.!.}.>X%X|.",
"J.q.c  .9 =.8 ; p.r.u.7.P e p I ( f._.}.&X1X8X;X"
};
