/* XPM */
static const char *s[] = {
/* columns rows colors chars-per-pixel */
"32 32 130 2 ",
"   c #0B0A04",
".  c #0F0E08",
"X  c #110F0A",
"o  c #15130D",
"O  c #18170F",
"+  c #1B1A0F",
"@  c #181710",
"#  c #1D1B13",
"$  c #1F1E18",
"%  c #211F15",
"&  c #201F19",
"*  c #242216",
"=  c #25231A",
"-  c #29261C",
";  c #2C291E",
":  c #312E1F",
">  c #34301F",
",  c #272620",
"<  c #292720",
"1  c #2D2B22",
"2  c #312E23",
"3  c #312F28",
"4  c #343125",
"5  c #393525",
"6  c #3C3927",
"7  c #35332A",
"8  c #39362B",
"9  c #3D3A2C",
"0  c #393730",
"q  c #3D3B32",
"w  c #413D2D",
"e  c #413E32",
"r  c #45412F",
"t  c #454233",
"y  c #4A4635",
"u  c #4C4836",
"i  c #45433A",
"p  c #49463B",
"a  c #4D4A3B",
"s  c #504B36",
"d  c #514D3C",
"f  c #55513D",
"g  c #5C573F",
"h  c #494740",
"j  c #4E4C42",
"k  c #4F4C40",
"l  c #4D4B41",
"z  c #504D41",
"x  c #504D42",
"c  c #524F42",
"v  c #514F45",
"b  c #514E46",
"n  c #504D43",
"m  c #575241",
"M  c #555142",
"N  c #565242",
"B  c #565243",
"V  c #565345",
"C  c #545146",
"Z  c #545247",
"A  c #555245",
"S  c #585444",
"D  c #5A5647",
"F  c #595645",
"G  c #5B5846",
"H  c #5F5A44",
"J  c #5E5A47",
"K  c #5D5946",
"L  c #555248",
"P  c #555249",
"I  c #575549",
"U  c #56544B",
"Y  c #555349",
"T  c #585548",
"R  c #595649",
"E  c #58554A",
"W  c #58564B",
"Q  c #59574E",
"!  c #59564A",
"~  c #5D5948",
"^  c #5F5B4A",
"/  c #5E5A4B",
"(  c #5B584C",
")  c #5E5B4C",
"_  c #5C594E",
"`  c #5F5C4F",
"'  c #5D5A4C",
"]  c #5F5C52",
"[  c #5E5B51",
"{  c #645F4A",
"}  c #645F4B",
"|  c #615D4E",
" . c #615D4F",
".. c #625E4F",
"X. c #615D4B",
"o. c #615E50",
"O. c #615F55",
"+. c #625F54",
"@. c #615F56",
"#. c #625F52",
"$. c #65604D",
"%. c #65614E",
"&. c #69644F",
"*. c #68634E",
"=. c #666250",
"-. c #666254",
";. c #676354",
":. c #646154",
">. c #6B6756",
",. c #696555",
"<. c #6E6954",
"1. c #666458",
"2. c #646158",
"3. c #696659",
"4. c #6A6659",
"5. c #6A675E",
"6. c #696659",
"7. c #6B6858",
"8. c #6C695D",
"9. c #6F6C5D",
"0. c #6E6C5F",
"q. c #706C5B",
"w. c #746F5D",
"e. c #777259",
"r. c #706D61",
"t. c #737064",
"y. c #767365",
"u. c #777468",
"i. c #787568",
"p. c #868375",
/* pixels */
"= 2 d 1 t q % 5 1 7 8 * 8 q 8 - - q e a p 1.8 = O = = < , = 1 1 ",
"8 * 9 1 8 j 3 8 a 7 q ; 1 1 ; = 2 q d / 4 7 * 2 t 8 1 * - 1 p a ",
"Z 2 * 7 1 0 q p p b i 1 < 4 u 1 8 l p a * 8 i a ' p < = 5 [ u.t.",
"U p 7 # X = 4 b P E j 9 q d e.B E n t 9 = i O.p n l % - q ` K G ",
"y j i & # * % 1 t r.Z q ( Z d d 5.O.q ; 2 i Q O.E q # = j a { g ",
"; - 7 < o # % # ; e ; 8 | e 1 U 8.' q 1 = 1 Z 3.3.8 # e o.a X.K ",
"1 # - 4 * 4 8 = - * 6 B q.-.o.-.E 1 = 4 ; 2 e B a * e ,.q.S 6 w ",
"t % 4 5 6 a y 5 : 6 y y S 7.9./ 8 # 6 4 5 9 : # * 9 B =.| / w * ",
"6 6 f u $.&.f 4 2 5 t y 4 4 4 w a 9 r w r f y : 4 9 6 w a d a 4 ",
": 5 ;.f f f y : 2 4 a / ; = % 6 / d S f t d r 4 S S 2 ; 5 4 4 4 ",
"S S S 5 r s *.y w 4 4 d t O o ; y y | / t a y w r f $.4 * # 5 y ",
"S B y 5 d d <.<.X.y t 4 % * * - r w 5 4 d 8 2 t a y 4 o o 2 w d ",
"6 $.a 2 y t d X.m m y 6 % % # ; t 5 5 w S 6 6 4 9 a t ; ; ; - - ",
"# 2 * * t 9 B 9 4 y w 2 % 2 w w t 5 w 4 S 6 r * # 8 S 9 # ; 4 + ",
"* * 6 w a e ; 5 : 2 6 ; 6 r 6 w w w 4 * ; - - .   - m y > f a ; ",
": t a 5 8 p - 4 % 8 t y / a 8 ; ; 8 9 4 4 4 * - # 2 t y d =.d 8 ",
"1 9 8 4 2 p ; - # e S o.a 8 1 % ; 9 a # * 1 # 5 = 8 T B 1.,.a 1 ",
"1 7 8 t - 7 4 2 t ( 3.K u 2 = * 4 8 d = $ q 1 < ; = j e t y 8 = ",
"; 7 1 6 ; q y a [ E a $.X.l 8 q i q 7 8 = 8 0 8 - 7 8 - 1 8 w # ",
"1 1 < ; q e p f U C 8 m p 7 = 8 j l 2 # o < 8 p 8 4 2 1 1 2 w * ",
"7 7 1 1 2 < p n Z E a t 8 * t y 9 q 7 # ; 4 q 8 1 q < = 7 = = = ",
"7 8 8 8 < o ; i [ :.p Z l < d m ; @ = & # 8 a 8 = = o * 8 # @ 1 ",
"7 < 2 q 0 # # < q e 2 a E q 1 6 7 = 1 1 - l Z q ; # - 8 t 4 1 q ",
"2 ; d t 8 ; # = 1 4 4 4 ; 1 < * w 4 n 9 9 p q 8 1 2 7 1 8 8 9 t ",
"t e Z [ p Z l 8 - 1 7 8 2 < 0 < 8 t ( a U l 8 < = 2 8 2 - < = 7 ",
"j l 1.-.t a p y 8 # < 2 t < 8 7 1 9 [ t e 9 8 < < 4 y 9 = 3 - 1 ",
"C | t.Z Z p d <.~ p 7 1 * o 8 i p P Q 7 8 w d 1 1 1 2 t 7 < = < ",
"E / S a ,.Z X.| O.2.i 7 % ; 2 q p Z M t p d K i 8 < * * # 2 5 4 ",
"E K $.| u.,.=.| d ( b 7 % * # = 7 o.l q ' a Z l 7 < < = # - 1 7 ",
":.$.;.o.p.,.e.w : q p 1 o # * O # 1 = 8 :.' :.9 * = < # . $ 0 e ",
"Q ,.o.Z 1.S u * o # 7 1 # 7 7 * # # 8 Z 9.3.i t - # - % # * < 7 ",
"8 Z | X.:.' 5 1 # = 1 - - 0 8 3 1 8 p l ' i.p w # # = - 3 1 * & "
};
