/* XPM */
static const char *w[] = {
/* columns rows colors chars-per-pixel */
"24 24 114 2 ",
"   c #1F3049",
".  c #20324A",
"X  c #21334B",
"o  c #22334C",
"O  c #22344C",
"+  c #23344D",
"@  c #23354D",
"#  c #23354E",
"$  c #24354E",
"%  c #24364E",
"&  c #25364F",
"*  c #25374F",
"=  c #26374F",
"-  c #253750",
";  c #263750",
":  c #263850",
">  c #273850",
",  c #273851",
"<  c #273951",
"1  c #283951",
"2  c #283952",
"3  c #283A52",
"4  c #293A52",
"5  c #283A53",
"6  c #293A53",
"7  c #293B53",
"8  c #2A3B53",
"9  c #2A3B54",
"0  c #2A3C54",
"q  c #2B3C54",
"w  c #2A3C55",
"e  c #2B3C55",
"r  c #2B3D55",
"t  c #2B3D56",
"y  c #2C3D56",
"u  c #2D3D56",
"i  c #2C3E56",
"p  c #2C3E57",
"a  c #2D3E57",
"s  c #2D3F57",
"d  c #2D3F58",
"f  c #2E3F58",
"g  c #2E4059",
"h  c #2F4059",
"j  c #2F415A",
"k  c #30415A",
"l  c #30415B",
"z  c #30425B",
"x  c #31425B",
"c  c #31425C",
"v  c #31435C",
"b  c #32435C",
"n  c #32435D",
"m  c #32445D",
"M  c #33445D",
"N  c #33445E",
"B  c #33455E",
"V  c #34455E",
"C  c #34455F",
"Z  c #34465F",
"A  c #35465F",
"S  c #354660",
"D  c #354760",
"F  c #364760",
"G  c #364761",
"H  c #374861",
"J  c #374862",
"K  c #374962",
"L  c #384962",
"P  c #384963",
"I  c #384A63",
"U  c #394A63",
"Y  c #394A64",
"T  c #394B64",
"R  c #3A4B64",
"E  c #3A4B65",
"W  c #3B4B65",
"Q  c #3A4C65",
"!  c #3B4C65",
"~  c #3B4C66",
"^  c #3C4C66",
"/  c #3C4D66",
"(  c #3C4D67",
")  c #3C4E67",
"_  c #3D4E67",
"`  c #3D4E68",
"'  c #3E4E68",
"]  c #3E4F68",
"[  c #3E4F69",
"{  c #3F4F69",
"}  c #3F506A",
"|  c #40506A",
" . c #40516A",
".. c #40516B",
"X. c #41516B",
"o. c #41526B",
"O. c #41526C",
"+. c #42526C",
"@. c #42536D",
"#. c #43536D",
"$. c #43546D",
"%. c #43546E",
"&. c #44546E",
"*. c #44556E",
"=. c #44556F",
"-. c #45556F",
";. c #45566F",
":. c #455670",
">. c #465670",
",. c #475771",
"<. c #475872",
"1. c #485872",
"2. c #485972",
"3. c #485973",
/* pixels */
"@ 2 e e P P 8 n V P E V & o   . . . @ & g [ V & ",
"s s g V -.F s F [ #.#.F 2 & @ @ @ & : & m [ [ ~ ",
"#.$.......s m ..#...) K m k s s 2 2 s & m [ ..#.",
"..#.} -.K s ~ #.<.#.P K K k e e : e g e s [ >.#.",
"} #...>.n n [ -.-.~ } [ K m 2 & & 2 s k g V ..$.",
"[ } #.#.m ) #.-.~ ) } ) [ [ K e & & 2 n P F K E ",
"[ [ -.[ K ..E E F E n n [ [ K F f & & e F E ~ ) ",
"P [ >.~ P ~ K n k k 8 2 s P k s F n 2 2 s F P F ",
"k [ -.P P [ ) m k s 2 & : n E k V ~ m 8 s s g f ",
"k [ ~ n V ~ ~ F V e 8 : s F ) P F ) [ g f f e 8 ",
"s E F s n K n P ..V n : s F ~ ~ V ) #.K s g g n ",
"& g K 2 f g : F >.} K & 2 f V K V ~ #.) k m V m ",
"@ & g s 2 2 & s F V ) f & 2 s k m ) #.[ m m V V ",
": & : 8 2 & @ @ 2 g P #.E F V s V } ..~ m m ) P ",
"n 8 & & & & & & : g V #.>.1.>.k m ) E F V P ..~ ",
"P V s : & & e E K s F [ $.>.1.V g m F k V ....) ",
"m F n k f 2 2 ) [ f n P [ #.-...~ #.P f E #.[ F ",
"} F m f 2 : @ s g 2 s k F ) ..#.1.-.k F ..} ) } ",
"F P K m 2 @ @ @ 2 k s s g F ) ..1.) g [ [ P F n ",
"V ~ ~ E n 2 & ; : P k e n ) m k P V m ) V k : 2 ",
"V [ } } P s : 2 2 e f 2 E E e 8 s s k V e ; & 8 ",
"m ) ..[ E s : e g k m 2 e s : ; ; 2 s f : & @ 2 ",
"g K E E P k f s n V m e & : : : & & 2 2 & : @ ; ",
"e k m m m F k k F V m k @ @ & o . . . & : F : @ "
};
